/* XPM */
static char *Asset1[] = {
/* columns rows colors chars-per-pixel */
"512 512 217 2 ",
"   c #1C1B1D",
".  c #201E1F",
"X  c #1D1D22",
"o  c #201F23",
"O  c #1F2126",
"+  c #1F2028",
"@  c #222126",
"#  c #292726",
"$  c #2B2827",
"%  c #25252A",
"&  c #28272B",
"*  c #26282E",
"=  c #2B2A2C",
"-  c #322F2E",
";  c #34302F",
":  c #252730",
">  c #262931",
",  c #2C2D33",
"<  c #2B2E3A",
"1  c #312F30",
"2  c #2E3036",
"3  c #2E3239",
"4  c #343232",
"5  c #393634",
"6  c #3C3836",
"7  c #33353B",
"8  c #383738",
"9  c #35383E",
"0  c #3B3B3C",
"q  c #403C36",
"w  c #413E3B",
"e  c #44413E",
"r  c #4A443E",
"t  c #2F3844",
"y  c #333741",
"u  c #363A42",
"i  c #3A3D43",
"p  c #363D49",
"a  c #393F49",
"s  c #413F41",
"d  c #3D4145",
"f  c #37404E",
"g  c #3D424A",
"h  c #3E4652",
"j  c #3F4854",
"k  c #444343",
"l  c #494644",
"z  c #4C4945",
"x  c #41454B",
"c  c #484749",
"v  c #45494D",
"b  c #4C4B4C",
"n  c #524C45",
"m  c #514E4A",
"M  c #4F504F",
"N  c #565047",
"B  c #54514E",
"V  c #58514D",
"C  c #414752",
"Z  c #454A53",
"A  c #494D53",
"S  c #464E59",
"D  c #484F5A",
"F  c #504F51",
"G  c #4D5156",
"H  c #47505D",
"J  c #4C525B",
"K  c #535353",
"L  c #595653",
"P  c #575857",
"I  c #5B5955",
"U  c #52565C",
"Y  c #55595D",
"T  c #5B5C5C",
"R  c #625C54",
"E  c #615E5C",
"W  c #64625D",
"Q  c #68645C",
"!  c #4D5561",
"~  c #4F5965",
"^  c #4D5968",
"/  c #505760",
"(  c #535A64",
")  c #5F5F60",
"_  c #595E64",
"`  c #545E6A",
"'  c #585F69",
"]  c #505D74",
"[  c #5C6165",
"{  c #56606C",
"}  c #5A626C",
"|  c #5F686F",
" . c #566271",
".. c #5B6572",
"X. c #5F6975",
"o. c #56647D",
"O. c #5E6A7A",
"+. c #626364",
"@. c #696663",
"#. c #686767",
"$. c #6B6A65",
"%. c #61666D",
"&. c #656A6D",
"*. c #6A6B6C",
"=. c #716F6E",
"-. c #6D706E",
";. c #73716E",
":. c #606771",
">. c #626B75",
",. c #696E74",
"<. c #636E7B",
"1. c #696F79",
"2. c #6B7175",
"3. c #66717D",
"4. c #6B747C",
"5. c #6C757C",
"6. c #727474",
"7. c #787776",
"8. c #797876",
"9. c #71767B",
"0. c #747A7D",
"q. c #7B7C7C",
"w. c #80807F",
"e. c #576683",
"r. c #5A6882",
"t. c #626F80",
"y. c #657282",
"u. c #6A7683",
"i. c #6C7985",
"p. c #697789",
"a. c #6D7A89",
"s. c #737984",
"d. c #727B84",
"f. c #797E83",
"g. c #707C8A",
"h. c #727E8B",
"j. c #6B7E92",
"k. c #717E92",
"l. c #768086",
"z. c #7C8287",
"x. c #75818D",
"c. c #7A838B",
"v. c #7E888D",
"b. c #6E8195",
"n. c #748292",
"m. c #7A8693",
"M. c #7D8994",
"N. c #76849B",
"B. c #7C8698",
"V. c #75889C",
"C. c #7C8B9A",
"Z. c #7E909F",
"A. c #778BA1",
"S. c #7F8EA1",
"D. c #7E91A3",
"F. c #828281",
"G. c #888986",
"H. c #80868B",
"J. c #848A8D",
"K. c #8B8D8B",
"L. c #90918F",
"P. c #838692",
"I. c #828C94",
"U. c #888F95",
"Y. c #818E9A",
"T. c #8A9194",
"R. c #85929D",
"E. c #8A949A",
"W. c #8B949C",
"Q. c #929594",
"!. c #94999B",
"~. c #949A9D",
"^. c #9EA09D",
"/. c #8694A3",
"(. c #8996A4",
"). c #8498A7",
"_. c #8D9AA4",
"`. c #8599AB",
"'. c #899CAD",
"]. c #9396A7",
"[. c #929CA2",
"{. c #989DA0",
"}. c #939DAB",
"|. c #9B9EB1",
" X c #95A0A5",
".X c #9AA1A3",
"XX c #95A2AC",
"oX c #9AA5AC",
"OX c #9FA9AE",
"+X c #8FA7B5",
"@X c #95A5B1",
"#X c #99A5B2",
"$X c #97A9B5",
"%X c #9CAAB4",
"&X c #9FA7BB",
"*X c #9EADB8",
"=X c #A3A6A5",
"-X c #A0A6A8",
";X c #A3A9AA",
":X c #ABAEAE",
">X c #A3ABB4",
",X c #A5A7B9",
"<X c #A1ADB9",
"1X c #A7B1B4",
"2X c #ABB4B6",
"3X c #A4B3BD",
"4X c #ADB6BC",
"5X c #B5BAB9",
"6X c #BFC2BD",
"7X c #A8B6C0",
"8X c #AAB9C2",
"9X c #B0BAC1",
"0X c #BEC3C2",
"qX c #BDC4CC",
"wX c #C1C9CB",
"eX c #D2D2CB",
"rX c #C6CED0",
/* pixels */
"<.<.<.<.<.<.<.<.<.3.<.<.<.>.{ { { { { ` J J J J J J J J C C C g a a p p p a a a a a a a a a a a a a %.%._ % % % % % % J J J J J J J J J J J J J J J J J J J J J U [ { { { { J D H H H H H U U U U U U U U Y _ ( _ [ [ [ [ [ | | %.%.%.%.%.%.%.%.%.%.%.%.%.%.%.%.%.%.%.[ [ [ >.T.[.[.[.[.[.[.[.[.[.z.U U U A A A A v v v v d d d d i i i i i i i i i i i i i i i i i i i i i i i i x x J J J ! ! ! ! ! ( &.&.&.&.x % % % % % , , , , , , , , > > , , , ( ' <.<.<.<.<.<.<.{ ( ( ( ! ! ! ! ! ! ! ! ! ! ! ! ! ! ! ! ! ! ! ! ! ! ! ! ! ! ! ! ! ! J D D D S Z Z Z Z Z Z Z Z D H H ! ! ( ' ' ' ' [ >.>.>.>.>.5.f.f.f.0.+.+.+.+.* * * 2 2 2 2 2 2 2 2 2 2 2 2 2 2 2 2 7 u u u u u g J ( [ [ [ [ [ [ ..<.d.x.I.U.R.R.R.R.R.R.>.>.>.>.>.>.>.>.>.>.>.>.>.>.>.>.3.R._.OX4X4X4X4X4X4X1X*.*.*.*.n n n n n n n r % @ @ @ @ @ @ @ % @ @ @ , 2 2 2 2 2 2 2 2 2 2 2 2 2 2 2 2 2 2 2 i i i u S S S S J [ 3.3.3.4.4.4.4.3.4.{ ( x X X X X X X X X X X X X X X X X X X X @ * * * * * * * * * * * * * & & > 2 2 2 3 3 3 2 2 2 g 3.3.3.3.3.3.3.u.h.h.h.a.a.a.a.g.h.h.h.a.a.a.g.h.i.3.3.",
"<.<.<.<.<.<.<.<.3.3.<.<.<.>.{ { { { { ! J J J J J J J H C C g a a a a a a a a a a p a a a a p p a x %.%.x % % % % % % J J J J J J J J J J J J J J J J J J J U [ } } { { ( H D D S Z Z Z Z A A A G J U Y U U _ _ _ [ [ [ [ [ | | %.%.%.%.%.%.%.%.%.%.%.%.%.%.%.%.%.%.%.[ [ [ [ [ ,.E.[.[.[.[.[.[.z.U U U G A A A A v v v x d d d i i i i i i i i i i i i i i i i i i i i i i i i i x x J J J ! ! ! ! J ! ( &.&.&.d % % % % % , , , , > , , , , , , , , J ( >.<.<.<.<.<.<.' ( ( ( ! ! ! ! ! ! ! ! ! ! ! ! ! ! ! ! ! ! ! ! ! ! ! ! ! ! ! ! ! ! D D D D Z Z Z Z Z Z Z Z Z A H H ! ! ! ( ' ' ' ' ..>.>.>.>.,.f.z.f.f.#.+.+.P * % * * 2 2 2 , 2 2 2 2 2 2 2 2 2 2 2 2 7 u u p ( [ [ ( ( >.>.[ [ [ [ [ { { [ [ [ ,.i.v.c.i.{ [ :.>.>.>.>.>.>.>.>.>.>.>.>.>.>.<.U.W.W.>X4X4X4X4X4XQ.*.*.*.V n n n n n n n r % @ @ @ @ @ % % @ @ @ , 2 2 2 2 2 2 2 2 2 2 2 2 2 2 2 2 2 2 7 i i i g S S S S U ( [ 3.3.4.4.4.4.4.4.{ ( / g X X X X X X X X X X X X X X X X X X X % * * * * * * * * * * * * & & > 2 2 4 2 4 3 3 2 2 g 3.3.3.3.3.3.3.3.h.h.h.a.a.a.a.h.h.h.h.a.a.h.g.h.h.u.3.",
"<.<.<.<.<.<.<.<.3.<.<.<.<.<.{ { { { { J J J J J J J J Z C C g a a a a a a a a a p p a a a a a p p H %.[ * % % % % % 2 J J J J J J A Z C Z A J J [ [ ( ( ( { { { { { ' J H H S Z C C C C Z C Z A A A G J U U _ _ _ [ [ [ [ [ | | %.%.%.%.%.%.%.%.%.%.%.%.%.%.%.%.%.%.| [ [ [ [ [ [ [ 9.W.[.[.E.0.U U U U G A A A A v v v d d d i i i i i i i i i i i i i i i i i i i i i i i i i i x x A J J J ! J J J J ! %.*.*.4 % % % % % , , , , , , , , , , , , , J ( { <.<.<.<.<.<.( ( ( ( ( ! ! ! ! ! ! ! ! ! ! ! ! ! ! ! ! ! ! ! ! J H H J ! ! ! ! J D D D Z Z Z Z C C C C C Z S H J ! J ! ( ' ' ' ' ..>.>.>.>.>.1.f.z.z.2.+.+.P * X o % * , > * * , , , , , 2 2 2 2 2 2 2 u u u u u a U U } 4.3.[ [ [ [ [ [ [ [ [ [ { ' ( ( ( ( ( [ >.X.( ( ( ' ' ' ' [ { } ..>.<.i.m.E.oX4X4X4X4X4Xq.*.*.W n n n n n n n n r % @ @ @ @ % @ @ @ @ , 2 2 2 2 2 2 2 2 2 2 2 2 2 2 2 2 2 2 9 i i i Z A S S A ( ( ( ' >.3.3.3.3.4.3.' ( ( A u X X X X X X X X X X X X X X X X X X X @ * * * * * * * * * * * * * > 4 2 2 3 2 2 2 2 2 g 3.3.3.3.3.3.3.3.u.h.h.h.h.h.h.h.h.h.h.h.h.h.h.h.h.a.3.",
"<.<.<.<.<.<.<.3.<.<.<.<.<.<...{ { { { J J J J J J J J C C C a a a a a a a a a a p a a a a a p p a ( %.x % % % % % % 7 J J J J A Z C C C C C A ( { { { { { { { { ( J D D H H Z Z C C C C Z C C C A A G G U U ( _ _ [ [ [ [ [ | | %.%.%.%.%.%.%.%.%.%.%.%.%.%.%.%.%.%.[ [ [ [ [ [ [ _ _ _ } _ _ _ U U U U G A A A A v v v d d d i i i i i i i i i i i i i i i i i i i i i i i i i i x x x J J J J J J J J ! ( *.*., % % % % % * , , , , , , , , , , , , J ( ' <.<.<.<.<...( ( ! ! ( ( ! ! ! ! ! ! ! ! ! ! ! ! ! ! ! ! ! J H D D D D D J J D D D S Z Z Z C g g g g x x C S H H ! ! ! ` ' ' ' ' >.>.>.>.>.>.>.,.9.f.1.+.+.P % X X X @ * * * * * * * * * > 2 2 2 2 2 2 7 u u u u h U U ( 4.4.[ ( ( ' [ [ [ [ [ { [ ( ( ( ( ( ( ( [ >.' ( ( ( ( ( ( ( ( ( ( ( ' X.i.i.c.[.3X4X4X4X1X*.*.*.n n n n n n n n n r @ @ @ @ @ @ @ @ @ , 2 2 2 2 2 2 2 2 2 2 2 2 2 2 2 2 2 2 i i i d A A S S A ( ( ( ( ( ( { :.>.:.' ( ( ( / S 7 @ X X X X X X X X X X X X X X X X X X X @ % * * * * * * * * * * > 2 2 2 3 3 2 2 2 2 g 3.3.3.3.3.3.3.3.3.a.h.h.h.h.h.h.h.h.h.h.h.h.h.h.h.h.y.",
"<.<.<.<.<.<.3.3.<.<.<.<.<.<.>.{ { { { J J J J J J J C C C C a a p p a a a p p p a a a a a a a a a [ [ * % % % % % % i J J G Z Z C C C Z S S D ' { { { { { ' ( H D D H H D S C C Z C C C C C C C Z A A G G U Y _ _ [ [ [ [ [ } %.%.%.%.%.%.%.%.%.%.%.%.%.%.%.%.%.| | [ [ [ [ [ _ _ _ _ _ _ ( _ _ U U U U U A A A A v v x d x d i i i i i i i i i i i i i i i i i i i i i i i i i i x x x J J J J J J ! ! ! J &.*.4 % % % % % * , , > > , > > , , , , , J ( ( X.<.<.<.<.' ` ( ! ! ! ( ( ! ! ! ! ! ! ! ! ! ! ! ! ! J H D D D D D D D D D D D S Z Z Z Z C x x x x g x x x Z H J ! ! ! ' ' ' ' [ >.>.>.>.>.>.>.>.>.>.>.@.+.c % X X X X * * * * * * * * * * , 2 2 2 2 2 7 u u a h h U U ( 4...( ( ( ( ( [ [ [ [ [ ( ( ( ( ( ( ( ( ( { ..' ' ( ( ( ( ( ( ( ( ( ( ( X.i.i.i.I.OX4X4X4X!.*.*.I n n n n n n n n n 8 @ @ @ @ @ @ @ @ , 2 2 2 2 2 2 2 2 2 2 2 2 2 2 2 2 2 7 u u i Z A Z Z Z S ( ( ( ( ( ( ( ( ( ( ( ( ( ( ( A S k k 4 @ X X X X X X X X X X X X X X X X X X X X % * * * * * * * > 2 2 2 2 3 2 2 2 2 g 3.3.3.3.<...<.3.3.3.i.h.h.h.h.h.h.h.h.h.h.g.h.h.h.a.u.",
"<.<.3.3.<.<.<.<.<.<.<.<.<.<.<.{ { { { ! J J J J J S C C C C a a a p p a p p a p a a a a a a a a a [ x % % % % % % % A D Z Z Z Z C S D D D D D H J J J J D D D D D D H H D Z C C Z Z C C C C C C C A A G G U Y _ _ [ [ [ [ [ } %.%.%.%.%.%.%.%.%.%.%.%.%.%.%.%.%.| [ [ [ [ [ _ _ _ _ _ _ _ ( _ _ Y U U U U G A A v v v d x x i i i i i i i i i i i i i i i i i i i i i i i i i d x x x x H J J J J J ! ! J J %.*.k % % % % % * , , , , , , , , , , , , J ( ( ' >.<...' ( ` ! ! ! ! ! ( ` ( ( ( ( ! ! ! ! ! J H D D D D D D D D D D S S Z Z Z Z Z C x x x x x x x x x x C H J ! J ' ' ' ' ' | >.>.>.>.>.>.>.>.>.>.>.+.+.b = X X X X @ * * * * * * * * * * 2 2 2 2 2 9 u p h h j U U | 3.( ( ( ( ( ( ' [ [ [ [ ' ( ( ( ( ( ( ( ( ( >...( ( ( ( H J ( ( ( ' ( ( ' X.i.i.i.c.W.oXOXOX7.*.@.n n n n n n n n n l @ @ @ @ @ @ @ @ , 2 2 2 2 2 2 2 2 2 2 2 2 2 2 2 2 2 i u i g S Z Z Z Z S H ( ( ( ( ( ( ( / H H U ( ( ( / S Z l l l 6 * X X X X X X X X X X X X X X X X X X X * * * * * * * > 2 2 3 3 3 3 2 2 2 g 3.3.3.>.{ { { <.3.3.3.y.i.a.h.h.h.h.h.h.h.a.a.h.h.h.u.",
"<.<.<.3.<.<.<.<.<.<.<.<.<.3.<...{ { { ` J J J J S C C C C C a a a a a a a a a a a a p p a a a a a ( * % % % % % * g C C C C Z C S D D D D D H H D D D D D D D D D Z S S Z Z C C Z Z Z Z C C C C Z A A G G U U _ _ [ [ [ [ [ } %.%.%.%.%.%.%.%.%.%.%.%.%.%.%.%.%.| [ [ [ [ _ _ _ _ _ ( ( ( ( _ _ ( U U U U U A A v v x d d d i i i i i i i i i i i i i i i i i i i i i i d x x x x x x x v ! J J J ! ! ! J J _ *.l % % % % % % , , , , , , , , , , , 9 J ( ( ` ` ( ( ( ( ( ! ! ! ! ! ! ( ( ( ( ( ! ! ! J D D D D D D D D D D S Z Z Z Z Z Z Z C x x x x x x x x x x x x x H H ! ! ' ' ' ' ' >.>.>.>.>.>.>.>.>.>.>.>.+.T z w X X X X X * * * * * * * * * * , 2 2 2 2 u u h h h C U U 3.| ( ( Y J ( ( ( { [ [ [ [ ' ( ( ( ( ( ( ( ( [ >.| ( ( ( H H H J ( ' ( ( ( ' >.i.i.i.h.R.W.W.R.*.*.N n n n n n n n n n @ @ @ @ @ @ @ @ 2 2 2 2 2 2 2 2 2 2 2 2 2 2 2 2 2 7 i i a S S S S Z A S S S H ( ( ( ( H S S S A A J ( ( S S Z v l l l i * X X X X X X X X X X X X X X X X X % * * * * * * > 2 2 2 3 3 3 2 2 2 g ..>...{ { { { { ..3.3.3.3.3.3.u.u.u.u.u.u.u.u.u.3.3.3.",
"<.<.<.3.<.<.<.<.3.3.<.<.<.3.<.>.{ { { { ` ! J S C C C C C g a a a a a a a a a a a p p p p a a a a 7 % % % % % 3 C Z C C C C Z C D D D D D D H D D D D H D D D D D C C C C Z C C Z Z Z Z C C C Z A A G G G U U Y _ _ [ [ [ [ | | | %.%.%.%.%.%.%.%.%.%.%.%.%.%.| [ [ [ [ _ _ _ _ _ ( ( ( ( ( _ _ _ U U U U U A A v v x d d i i i i i i i i i i i i i i i i i i i i i i d x x x x x x x x x J J J ! ! ! ! J J ( *.Y % % % % % & , , , , , , , , , , , x J ( ( ` ` ( ( ( ( ! ! ! ! ! ! ! ( ( ( ( ( ! ! H D D D D D D D D S Z Z Z Z Z Z Z C C x x x x x x x x x x x x x x Z H H J J ' ' ' ' ' >.>.>.>.>.>.>.>.>.>.>.,.+.m z z @ X X X X @ * * * * * * * * * , 2 2 2 7 u p h h h S U | <.( U U U J ( ( ( { { [ [ [ { [ ( ( ( ( ( ( ( ( | >...( ( H H H H H J ( ( ( ' ( <.i.i.i.d.R.W.W.H.*.E n n n n n n n n w @ @ @ % % @ @ @ 2 2 2 2 2 2 2 2 2 2 2 2 2 2 2 2 3 i i a A S S S S S A S S S S S S Z Z S S S C d x Z S S S S S S v b l l l 0 @ X X X X X X X X X X X X X X X X * * * * * * * 2 2 2 3 3 3 3 2 2 a { { { { ( { { { { { >.3.3.3.3.3.3.3.3.3.3.3.3.3.3.3.3.",
"<.<.<.<.<.<.<.<.3.3.<.<.<.<.<.<.{ { { ` ! J C C C C C C C g a a a a a a a a p a a a a a a a a a u * % % % * g C Z Z C C C C C C S S S S H H D D D D D D H H H H Z C C C C C C C Z Z Z Z C C Z A A A G G G G U U _ _ _ [ [ [ [ [ [ [ | | | | %.%.%.%.%.%.%.%.%.| [ [ [ _ _ ( _ _ _ _ _ _ _ Y Y ( _ Y U U U U A A v v d d d i i i i i i i i i i i i i i i i i i i i i d x x x x x g g g x x S J J ! ! ! ! J J J &.%.% % % % % % , , , , , , , , , > > H ! ( ` ( ( ` ( ( ! ! ! ! ! ! ! ! ! ( ( ( ! ! J D D D D D D D S Z Z Z Z Z C C x x x x x x g x x x x C C x x x x x Z H H ! ! ( ' ' ' ' >.>.>.>.>.>.>.>.>.>.>.,.+.z z z 1 X X X X X * * * * * * * * * , 2 2 2 7 u g h h h H U 3.( U U U U U ( ( ( [ [ { { [ [ [ [ ' ( ( ( ( ( ( ( >.>.>.' H H J H H H H J ( ( ( ( <.i.p.p.h.W.W.W.6.@.n n n n n n n n = @ @ @ % % @ @ % 2 2 2 2 2 2 2 2 2 2 2 2 2 2 2 2 u i i Z A A S S S S A A A A A A A A Z S S A g g g g g x Z A S S _ _ _ K l l l 6 @ X X X X X X X X X X X X X X % * * * * * * 2 2 2 2 3 2 2 2 2 9 { { ( a u { { { { { { ..<.3.3.3.3.3.3.3.3.3.3.3.3.3.3.",
"<.<.<.<.<.<.<.<.<.<.<.<.<.3.<.<.` ! J J D C C C C C C C C g a a a a a a a a a a a a p a a a a p * % % % 7 C C C Z Z C C C C C C C C C C C C Z Z Z S S A H H H H C C C C C C C C Z Z Z Z Z A A A A A G G G G U U Y _ _ _ [ [ [ [ [ [ [ [ | | %.%.%.%.%.%.%.%.%.%.[ [ [ _ _ U U U ( _ _ ( _ Y U U U Y U U U A A A v v d d d i i i i i i i i i i i i i i i i i i i i i x x x x x x g g x x x x J J J ! ! ! J J J %.&., % % % % % , , , , , , , , , > 2 ! ! ( ` ( ( ` ` ! ! ! ! ! ! ! ! ! ! ! ( ( ! J D D D D D S Z Z Z Z Z Z C x x x x g g g g g g g x x x C C x x x x C Z H H J ! / ' ' ' ' >.>.>.>.>.>.>.>.>.>.,.,.>.b z z l X X X X X % * * * * * * * * , 2 2 2 7 u g h h h U } [ U U U U U J U ( ( [ [ { { { [ [ [ [ [ ( ( ( ( ( ( ( >.>.>.H H H H H H H H H J ( ( ' u.p.p.i.x.W.W.U.*.N n n n n n n n % @ @ @ @ @ @ @ * 2 2 2 2 2 2 2 2 2 2 2 2 2 2 2 7 i a Z A A S S S S S A A A A A A A A A S A Z d g g g g g g g x A _ _ _ _ _ b l l l 6 @ X X X X X X X X X X X X X * * * * * * * 2 4 2 2 2 2 2 2 2 2 2 2 4 4 ( ( ' { { { { { X.3.3.3.3.3.3.3.3.3.3.3.3.3.",
"<.<.<.<.<.<.<.<.<.<.<.<.<.X.` J J J J S C C C C C C C C C a a a p p a a p a a a p p p a a a p * % % , g C C C C x x x x x x x x x C C C C C Z Z C C C C Z Z Z S Z Z C C C C C C C C Z Z A A A A A G G G G G U U U Y _ ( _ [ [ [ [ [ [ [ [ | %.%.%.%.%.%.%.%.%.%.| [ [ _ _ U U U U Y ( ( _ U U U U U U U A A A v v x d d d i i i i i i i i i i i i i i i i i i i i d x x x x x x x x x x x x J J J J J J J J A U &.7 % % % % % * > > , , , , > , , g ! ! / ` ( ( ( ! ! ! ! ! ! ! ! ! ! ! ! ! ! ! H D D D S Z Z Z Z Z C x x x x x g g g g g g g g g g x x x x x x x x C Z H H J J ! ( ' ' ' { >.>.>.>.>.>.>.>.,.,.,.>.[ z z z % X X X X O * * * * * * * * , 2 2 2 y u g h h C U ( U U U U U U U U ( ( [ [ { { [ [ [ [ [ [ ( ( ( ( ( ( ( ( >.>.| H H H H H H H H H H ! ( ' u.i.i.i.I.W.E.6.I n n n n n n n % @ @ @ @ @ @ @ , 2 2 2 2 2 2 2 2 2 2 2 2 2 2 7 i a A A A A S A Z x x g g g v Z A A S S S S Z d g g g g g d d d d v U _ _ _ _ Y c l l l 0 * X X X X X X X X X X X @ * * * % % * * , 2 2 2 3 , > , 2 , 2 4 7 ( ( ( ( ( { { { { { >.<.<.X.| { { { ..3.3.3.",
"<.<.<.3.<.<.<.<.<.<.<.>.' ( J J J H C C C C C C C C C C g a a a p p p a a a a a p a a a a 9 * % * u C Z C C x g g g d g x x x x x g g x C C C C C C C C Z Z C C Z Z C C C C C Z C C Z A A A A A G G G G G G G U U U Y ( _ _ _ [ [ [ [ [ [ [ %.%.%.%.} | %.%.%.%.| [ [ [ ( U U U U U U Y Y U U U U U G A A A v v v x d d d i i i i i i i i i i i i i i i i i i i i g x x x x x x x x x x x x Z J J J J H a 7 7 7 %.9 % % % % % * , , , , , , , , , J ! ! ! ` ( ( ! ! ! ! ! ! ! ! ! ! ! ! ! ! J H D D D S Z Z Z Z Z C x x x x x g g g g g g g g g g g g g g g x x x C Z Z H H J J ! ! ' ' ' ' X.>.>.>.>.>.>.>.,.>.,.,.>.b z z 6 X X X X X % * * * * * * * , 2 2 2 u u g h h H U U U U U U U U U U ( ( [ { { { [ [ [ [ [ [ ( ( ( ( ( ( ( ( J | >.[ H H H H H H H H H H J ( { ,.,.3.u.W.E.H.W n n n n n n n & @ @ @ @ @ @ @ 2 2 2 2 2 2 2 2 2 2 2 2 2 2 2 u g S A S Z v g d g g g g g d d d x Z S S S S v d g g g d g g d g d g g g Z Y _ _ _ b l l l l k 7 * X X X X X X X X X X X X X X @ & & , 2 3 , & & * 2 > , 4 4 ( ( ( ( ( ( { { { { { { { { { { { { { { <.3.",
"<.3.3.3.3.3.3.3.<.>.{ ' ( ( J J J C C C C C C C C C C C a a p a a a a a p p a a a a a u * % % 7 C C C C C x g g g d g g d g x x x x x x x C C C Z C C C C C C C Z Z C C C C Z Z C Z A A A A A A G G G G G G J U U U U Y _ _ _ ( [ [ [ [ [ [ [ | %.[ [ [ } | %.%.| [ [ [ _ ( U U U U U U U U U U G A A v v v v v v x d d d i i i i i i i i i i i i i i i i i i i i x x x x x g g x x x x x x x J J J v 7 7 7 7 7 d 7 & % % % % * , , , , , , , , i ! ! ! ! ( ( ( ! ! ! ! ! ! ! ! ! ! ! ! ! H D D D D D S Z Z Z Z x x x x x x g g g g g g g g g g g g g x x g g x C Z Z Z H H H J ! ! ! ' ' ' [ >.>.>.>.>.>.>.>.>.>.>.>.Y z z l X X X X X X * * * * * * * , 2 2 2 u u g h h U U U J G G J J J U U ( ' [ [ [ [ [ [ [ [ [ [ ( ( ( ( ( ( ( ( ( S [ >.[ H H H H H H H H H H H ( [ ,.,.,.d.l.M.#.n n n n n n n & @ @ @ @ @ @ % 2 2 2 2 2 2 2 2 2 2 2 2 2 2 9 x S S Z x d d g g g g g g g g d d d d g g g g d d d d d d d d d d d d g g d d g G _ _ U l l l l l l l k 0 5 % X X X X X X X X X X @ * * * 2 * * * * 2 * , 2 2 / ( ( ( ( ( ( { { { { { { { { { { { { { >.3.",
"3.3.<.<.<.<.3.<.{ ' ' ' ( ( J J J C C C C C C C C C C C g a p p a a a a p p a a a u , % % , x C C C C C x g g g g g g d d d g x x x x x x x C Z C C C C C C C C Z Z C C C C Z Z C Z A A A A A G G G G G G U U U U U U U Y _ _ _ _ _ [ [ [ [ [ [ [ [ [ [ [ | %.%.%.[ [ [ _ _ U U U G G G G G A A A A A v v v v v v x d d d i i i i i i i i i i i i i i i i i i i i x x x x x g x x x x x x x g A J i 7 7 7 7 7 7 7 7 * % % % % * , , , , , , , > J ! ! ! ! ( ( ( ! ! ! ! ! ! ! ! ! ! ! J D D D D D D D S Z Z Z C x x x x x g g g g g g g g g g g g g g g x x g x C Z Z Z A H H J ! ! ! ( ' ' ' ..>.>.>.>.>.>.>.>.>.>.>.[ z z z % X X X X X @ * * * * * * , 2 2 7 u u f h H U J G G G G G J J U / ( [ [ [ [ { [ [ [ [ [ [ ( ( ( ( ( ( ( ( ( H S ( >.| J H H H H H H H H H H ( >.,.,.d.d.d.d.I n n n n n n 4 % @ @ @ @ @ * 2 2 2 2 2 2 2 2 2 2 2 2 2 9 Z S Z x g g d d g g g g d d g g g g d d g g g g d d g g d d g d d d g d g g d g g x _ _ _ ( c l l l l l l l l l k , X X X X X X X X X @ * * * & * * * * * , 2 7 x ( ( ( ( ( ( ( ' { { { { { { { { { { { >.3.",
"<.<.<.<.<.>.{ ( ( ( ' ' ' ( J J J C C C C C C C C C C C h a a a a a a a a a a u , % % , x C C C Z Z C x g g d d g d d d d d d g g g g g x x x C Z Z C C C C Z Z Z C C C C Z Z Z C A A A A A G G G G G G U U U U U U U U U U Y _ _ _ _ _ [ [ [ [ [ [ [ [ [ [ | | [ [ [ [ _ _ U U U G A A A A A A A A A v v v v v v d k k d i i i i i i i i i i i i i i i i i i i i x x x x x x x x g x x x x g g 9 9 7 9 7 7 9 x G Y 7 % % % % & , , , , , , > u ! ! ! ! ! ` ` ( ! ! ! ! ! ! ! ! ! ! J D D D D D D D D S C Z C C x x x x g g g g g g g g g g g g g g g g x x x x x Z Z Z Z H H J ! ! ! ! ( ' ' ' >.>.>.>.>.>.>.>.>.>.,.>.z b z 5 X X X X X X * * * * * * , 2 2 7 u u g C U J G G G G G G J U U ( ( [ [ ( ( ( ( ' [ [ [ ( ( ( ( ( ( ( ( ( ( ( A A J | ..J H H H H H H H H H ( [ ,.,.5.d.d.d.#.n n n n n n 8 % @ @ @ @ @ , 2 2 2 2 2 2 2 2 2 2 2 2 u Z S x g g g d d g g g g d d d g g g g d g g g d d d d g g g g g g g d g g g g d g g g _ _ _ _ _ G l l l l l l l l l l k % X X X X X X X X X * * * * * * * * , 2 7 g / / / / / ( ( ( ( { { { { { { { { { { >.3.",
"<.<.>...' ( ( ( ( ( ' ' ' ( J J J H C C C C C C C C C C C g a a a a a a p 9 3 2 % > g S S S Z C Z Z C x g g d d d d d d d d d d d d d d g x x x Z Z Z Z C Z Z Z Z Z C C C Z Z Z C A A A A A G G G G G U U U U U U U U U U U U U ( _ _ _ ( [ [ [ [ [ [ [ [ [ [ [ [ [ [ _ _ _ Y U U G A A A A A A A A A v v v v v x g k k d i i i i i i i i i i i i i i i i i i i i x x x x x x x g g x x x x i 7 9 9 9 9 u G ( ( ( ( = % % % % & > , , , , , , J ! ! ! ! ! ` ` ( ! ! ! ! ! ! ! ! ! ! H D D D D D D D D S C C C C x x x g g g g g g g g g g g g g g g g g g x x x x C Z Z Z H H H ! ! ! ! ! ' ' ' [ ..>.>.......>.>.>.,.,.m b b k X X X X X X @ * * * * * * 2 2 7 u u h J J G G G G G G G J J U ( ( ' ( ( ( ( ( ( ( ( ( ( ( ( ( ( ( ( ( ( ( ( J S A A ( >.( H H H H H H H H ( ( ,.,.2.d.d.d.d.n n n n n n e @ @ @ @ @ @ 2 2 2 2 2 2 2 2 2 2 2 2 a S Z g g g g g d d d g g g g d d g g g g d g g g g d d d g g g g g g g g g g g g g g g g Y _ _ _ _ _ Y c l l l l l l l l l l , X X X X X X X X X * * * * * * * , 2 u a Z / / / / ( ( ( ( ( ( { { { { { { { { ..3.",
"( ( ' ' ' ( ( ( ( ( ( ( ( ( J J J J S C C C C C C C C C C C g a p p u 7 3 3 3 3 g S S S S S S C Z Z x x g g g d d d g g g g d d d a a d g g g g g C C C Z Z Z Z Z C C C Z A A A Z Z A A A A G G G G G J U U U U U U U U U U U U Y _ _ _ ( _ _ _ [ [ [ [ [ [ [ [ [ _ _ _ _ _ Y U U G A A A A A A A A A v v v v v d d x x d i i i i i i i i i i i i i i i i i i i i x g g x x x x x x x x x u 7 7 7 7 7 x Y ( ( ( ( Y % % % % % % , , , , , , g J ! ! ! ! ! ( ( ! ! ! ! ! ! ! ! ! ! ! H D D D D D D D D D Z Z Z x x x x g g g g g g g g g g g g g g g g g g x x x x x Z Z Z A H H J ! ! ! J J / ( ' { ' ' ' ' ' ' [ X.>.>.K K m m X X X X X X X * * * * * * 2 2 9 u u J U J G G G G G G G J U ( ( ( ( ( ( ( ( ( ( ( ( ( ( ( ( ( ( ( ( ( ( ( ( ( S S S S J | } J H H H H H H ( ' X.,.2.d.d.d.d.T n n n n n r @ X @ @ @ % 2 2 7 2 2 2 2 2 2 2 7 x S x g g g g g d d g g g g d d g g d g g g d d d d g g g g g g d d d d g g g d d d g g g g G _ _ _ _ _ _ _ ( Y %.,.b k k k l l l 6 X X X X X X X X X * * * * * * , 2 a g g U / ( ( ( ( / ( ( ( ( { { { { { { { { } ",
"( ( ' ' ' ' ( ( ( ( ( ( ( ' J J J J J J C C C C C C C C C C C a u 3 3 3 3 3 u S S S S A S S S C Z Z x x g g g d d d d d g g d d d d a d d g g g g g C C C C Z Z Z Z C C C Z A A Z A A A A A G G G G G G U U U U U U U U U U U U Y _ _ _ ( ( ( ( _ _ [ [ [ [ [ [ _ ( ( _ _ _ Y U U A A A A v v A A A A v v v v x d d d d d i i i i i i i i i i i i i i i i i i i i x x g x x x x x x x g 9 7 7 7 7 7 v [ _ ( ( ( Y [ % % % % % % , , , , , 2 J J ! ! ! ! ! ( ( ! ! ! ! ! ! ! ! ! ! ! J D D D D D D D D D S Z Z C x x x g g g g g g g g g g g g g g g g g x x x x x x C Z Z A H H H J ! ! J J J J ! ( ( ' ' ' ' ' ' ' [ >.P K K K X X X X X X X @ * * * * * 2 2 9 u C U J H Z Z A G G G G J U ( ( ( ( U ( ( ( ( ( ( ( ( Y U ( ( ( ( ( ( ( ( ( ( J S S S S A J | ( H H H H H ( ' { ,.,.d.d.d.d.2.n n n n n r # X X @ @ * 2 7 d 7 2 2 2 2 7 a S Z g d d g g g g d d g g g g d d d g d g g g g d d d g g g g g g d d g d g g g d d d g g g g A _ _ _ _ _ _ _ _ _ !..XJ.k k k l l l l 5 X X X X X X X X X % * * * * , 2 g g g Z / ( ( / ( / / ( ( ( ( ' { { { { { { { ",
"( ' ' ' ( ( ( ( ( ( ( ' ' ' ! J J J J J J H C C C C C C C C a 3 3 3 3 3 3 u ! ! J D S S S S S Z C C x x g g d d d d d d a a d d d d d d d d d g x x x C C C C C Z Z C C C C A A Z Z A A A A A G G G G G G U U U U U U U U U U Y Y _ _ _ _ _ ( ( ( ( _ [ [ [ [ _ _ _ _ ( U U U U U A A A v v v v v A v v v v v d d d d d d i i i i i i i i i i i i i i i i i i i i x x x x x x x x x i 7 7 7 7 7 7 U &.&.&.( ( ( ( 0.% % % % % % , , , , , S J J ! ! ! ! / ( ( ( ! ! ! ! ! ! ! ! ! ! ! D D D D D D D D D D Z Z C x x x g g g g g g g g g g g g g g g g x x x x x x x Z Z Z A H H H H J ! J J J J ! ! ! ! ( ' ' ' ' ' ' ' f.T K K * X X X X X X X * * * * * , 2 u u J G G Z Z v v Z G G G J U U J U U U U ( ( ( ( ( ( U U U Y ( ( ( ( ( ( ( ( ( U U J A S S S S ( [ J H H H ( ( ( ,.,.d.d.d.d.d.B n n n n q # X   @ @ , 2 9 g a 2 2 2 u Z S C d d d d g g g g g d g g g g d d g g d d g g g g g g g g g g g g g g g g g g g g d d g g d d v _ _ _ _ _ _ _ _ _ 9. X X+.k k l l l l l * X X X X X X X X X % * * * * 7 g g g g / ( ( / / / / / / ( ( / ( { { { { { { ",
"( ' ' ' ( ( ( ( ' ' ' ' ' ' ( J J J J J J J J Z C C C g y 3 3 3 2 3 3 3 p ( ~ ! J J H S S S S Z C C x x x g d d d d d d a a a a d d d d d d d d g x x x C C C C Z Z C C C C Z A A Z A A A A Z A G G G G G G G U U U U U U U Y U Y _ _ _ _ _ ( ( ( _ _ [ [ [ _ _ _ _ Y U U U U U G A A v v v v v v v v v v v x d d d d d d i i i i i i i i i i i i i i i i i i i i g x x x x x x g 9 7 7 7 7 7 9 [ &.&.&.&.( ( ( } z.% % % % % % * , , , u J J J ! ! ! ! ( ( ( ( ! ! ! ! ! ! ! ! ! ! ! J D D D D D D D D D S Z Z x x x x g g g g g g g g g g g g g x x x x C Z Z Z Z Z Z Z A H H H H H H H H H H J ! ! ! ! ! ! ( ' ' ' ' d.f.K K 1 X X X X X X X @ * * * * , 2 a A G A Z Z Z v v C A G G J U U U U U U U ( ( ( ( ( Y U U U U ( ( ( ( ( ( ( ( ( U U U U J S S S S A ( ' ( ( ( ( ' X.,.u.d.d.d.d.I n n n e q # X   @ @ 2 2 u g g i 9 x S S x g g d d d d g g g g g d d g g g d g g d d g g g g g g d g g g g g g g g g g g g g g g g g d d d _ _ _ Y A b b Y _ _ W. X{.k k l l l k l k @ X X X X X X X X X % * * * 2 g g g g Z ( ( / / / / / ( ( ( / / ( ' { { { { ",
"( ( ( ( ( ' ' ' ' ' ' ' ' ' ( J J J J J J J H g u 7 3 3 3 3 3 3 3 3 3 C O.O.( ~ J J J D S S S S C C x x x g d d d d d g a d d d a d d g g g a a g g g x x C C C Z Z C C C C C A A A A A A A Z A A G G G G G G G G G U U U U U U Y _ Y _ _ _ _ _ _ _ _ [ [ _ _ _ _ _ U U U U U G G A A v v v v v v v v v v v d d d d d d d i i i i i i i i i i i i i i i i i i i i d x x x x x i 7 7 7 7 7 7 d | &.&.&.&._ Y Y Y 9.z.% % % % % % * > , , J ! ! ! ! ! ! ! ( ( ( ( / ! ! ! ! ! ! ! ! ! ! ! J D D D D D D D D D Z Z C x x x g g g g g g g g g g g g x x x x C Z Z Z Z Z Z Z Z A H H H H H H H H H H H ! J ! ! ! ! ! / ( ' ' >.z.*.K 0 X X X X X X X X % * * * > x G G A Z Z v v v v C C G G G J U U U U U U ( ( ( ( ( U U U U U ( ( ( ( ( ( ( ( ( J U U J U ( S S S S A J >.>.} [ { ,.,.2.d.d.d.d.I n n e q q X X X @ % 2 2 9 d g g Z S Z g g g g g g g g g g g g g d d d g g g g g d g g g g g g g d d g g g g g g g g g g g g g g g g d d d d d g g g d k l b _ [  X X&.l k k k k l l 6 X X X X X X X X X X % * * * i a a i i J ( / / ( ( / / / / ( ( ( / ( ' ' { ",
"' ( ( ( ' ' ' ' ( ( ' ( ! ! J J J J J S C C C 3 3 3 3 u p g g C C S ! O.<.O.( ~ J J J J S S S S C C C x x g d d d d d g d d d d a a g g g d a d d d d g x C C C Z Z C C C C C A A A A A A A Z A A A G G G G G G G G G G U U U U _ _ _ Y _ _ _ _ _ _ _ [ [ _ _ _ ( ( U U U U U A G A v v v v v v v v v v v x d d g d d d d i i i i i i i i i i i i i i i i i i i i i x x x d 9 7 7 7 7 7 7 A &.&.&.&.} _ Y Y Y Y z.z.% % % % % % * , , C ! ! ! ! ! ! ! ( ( ( ( ( / ! ! ! ! ! ! ! ! ! ! ! ! J D D D D D D D D Z Z C x x x g g g g g g g g g g g x x x x Z Z Z Z Z Z Z Z Z Z A H H H H H H H H H H H J J ! ! ! ! ! ! ! / ( { z.f.K b X X X X X X X X O * * * 2 A v x Z Z Z Z Z v v C C A G G J U U U U U U ( ( ( ( ( U U U U U ( ( ( ( ( ( ( ( ( U U U U >.>.| A S A A S J >.,.,.,.,.,.,.d.d.d.d.L n q q q q X X X @ * 2 2 9 g g v S Z g d d g g g g g g g g g g g d d g g g g g g d g g g g g g g d d g g g g g d g g g g g g g g g g d d d d d g g g d d k l l P 9. X{.l k k k k l l l @ X X X X X X X X X X @ * * , a i i i x ( / / / ( / / / / ( ( ( / / / / / ",
"' ' ( ( ( ' ' ' ( ( ! J J J J D C C C C C C C 7 C S S S S S S S ! ..<.<.<...( ( ! J J J D S S S Z C C x x x d d d d g g d d d d d d d d g d d d d d d g x x C C C C C C C C C Z A A A A A A A A A A A G G G G G G G G G U U U Y _ _ ( ( ( ( _ _ _ _ _ [ [ ( _ _ ( ( Y U U U A A A A v v v v v v v v v v x d d d g g k d d d i i i i i i i i i i i i i i i i i i i i i i i 7 7 7 7 7 7 9 _ &.&.&.&._ _ _ ( ( Y _ z.z.7 % % % % % & , 9 ! ! ! ! ! ! ! ! ` ( ( ( ( ( ! ! ! ! ! ! ! ! ! ! ! ! ! J D D D D D D D Z Z C x x x g g g g g g g g g g x x x x C Z Z Z Z Z Z Z Z Z Z A H H G G H H H H G G H ! ! ! ! ! ! ! ! ! ! ! ( d.z.T K @ X X X X X X X X % * * * g g g g x Z Z Z Z Z Z Z Z G G G J J U J J U ( ( ( ( U J U U U U ( ( ( ( ( ( ( ( ( U U U U _ >.>.[ J A S S S Y [ >.>.>.>.>.d.d.d.d.L z q q q q X X O @ > 2 2 9 g x Z x g d d d d g g g g d d d d g g g g g g d d d d g g g g g g d d d g g g g d d d g g g g d d g d g g g g d g g g g g g g d g k l b 2.~.P l k l l l l l 6 X X X X X X X X X X X @ * * i g d d g H / / ( ( ( ( / ( ( ( ( ( / / ( ( ",
"' ' ( ( ( ' ( ! J J J Z g C C C C C C C C D ` O.O.O...` ! D ~ ..<.O.O.<.O.( ( ( ! J J J J S S S S C C C x x x g g d g d d d d d d d d d d d d d d g g x x x x C C C C C C C C C C Z Z Z A A A Z A A A G G G G G G G G G U U U Y _ _ ( ( ( ( ( ( ( ( _ [ _ ( _ _ _ ( Y U U G A A A A Z v v v v v v v v v d d d d g g k k k d d i i i i i i i i i i i i i i i i i i i i 0 7 7 7 7 7 7 d [ &.&.( ( Y Y _ _ ( ( ( } z.z.i % % % % % % , J ! ! ! ! ! ! ! ` ` ( ( ( ` ( ! ! ! ! ! ! ( ( ( ! ! ! ! ! J D D D D D D Z Z C x x g g g g g g g g g g x x x x C C C Z Z Z Z Z Z Z Z Z A H H H H H H H G G G H ! ! ! ! ! ! ! ! ! ! ! ! >.z.*.K 1 X X X X X X X X O * * * u g g g g x Z Z Z Z Z Z Z G G G G J J J J J ( ( ( ( J J U U U U U ( ( ( ( ( ( ( ( U U U U U | >.>.U U J J J U U / [ | >.>.5.d.d.d.L B q q q 6 X X @ @ , 2 2 i g g g g g g d g d d g g g d d d d g g g g g g d d d g g g g g g d d d d g g g d d d d d g g g d d d d g g g g g g g g g g g g d g g k l l l l l l l l l l l k X X X X X X X X X X X X @ * 7 g g g g g ! / ( ( ( ( ( ( ( ( ( ( / / ( ( ",
"' ' ' ' J S g a y 7 3 3 7 7 g C C C C ! X.O.O.<.u.h.n.n.n.O.O.O.<.<.O.O.` ~ ~ ~ ! J J J J S S S S Z C C C x x x g g d d g g g g d d d d d d d d g x x x x x x x C C C C C C C C C C C Z A A A A A A G G G G G G G G G G U U U ( _ _ _ ( _ _ _ ( ( ( ( _ ( Y Y _ _ _ ( U U A A A A A A v v v v v v v v x d d d d g g d d d d d d d d d d d x d i i i i i i i i i i i 0 7 7 7 7 7 7 v | &.[ G A A A A G J Y ( ( } z.z.i % % % % % % g ! ! ! ! ! ! ( ( ( ( ` ` ` ` ( ! ! ! ! ! ( ( ( ( ( ! ! ! ! ! J D D D D D Z Z x g g g g g g g g g g g g x x x Z Z Z Z Z Z Z A D D H A A H H H H G G G H H H H H J ! ! ! ! ! ! ! J J J ! ( z.0.K k X X X X X X X X X % * * , g g g g g x Z Z Z Z v A G G G G G G G G U U ( ( J J J U U U J J ( ( ( ( ( ( ( ( U J J U U Y X.>.( U U J J J U U U ( [ ,.,.d.d.d.L L q q q ; X X @ @ , 2 2 a g g g g g g d g g g g g g g g d d d g g g g g g g g g d d d g g g d d g g d d g g g g d d g g g g g g g g g d d d g g g g g g d g d g k l l l l l l l l l l k X X X X X X X X X X X X X @ , g g g g g Z ( ( ( ( ( ( / / / / / ( ( ( ( ",
"( S y 7 7 7 7 7 3 3 3 u C ` O.O.O.O.u.n.x.x.n.m.n.n.n.n.n.<.O.O.O...{ ` ~ ~ ~ ~ ! J J J J D S S S S C C Z x x x g g x g g g d g d d g d a d d d x x x x C C C C Z C Z Z C C C C C Z Z A A A A A A G G G G G G G G G G G U U U _ _ _ ( _ _ _ _ _ ( ( Y ( ( ( ( _ _ _ ( Y J A A A A A G A v v v v v v v d x d d d x g d d d d d d g g x x x x d d d i i i i i i i i 9 7 7 7 7 7 9 Y &.| Y A A A A A A A A A A U } z.z.i % % % % % * ! ! ! ! / ( ( ( ( ( ( ` ` ` ` ( ( ! ! ! ( ( ( ` ` ( ( ! ! ! J D D D D D S Z Z x g g g g g g g g g g g x x x C Z Z Z Z Z A H H D D H H H H H H H H G G H H H H H J ! ! ! ! ! ! ! J ! ! ! ! z.z.T K X X X X X X X X X @ * * * g g g g g g Z Z Z Z Z G G G G G G G G G J U U J J U U U U U J U J J U / ( ( ( U U J J U U U U X.X.U U U U J U U U ( ( >.,.5.d.d.L L e q q = X X X @ , 2 2 d d g g g g d d d d g g g g g g d d g g g g g g g g g g d d d g g g d g g d d d g g g g d d g g g g d d g g g g d d g g g g g g d g d g g k l l l l l l l l l 0 X X X X X X X X X X X X X X * g g g g g a J ( ( ( ( / / / / / / ( ( ( ( ",
"7 3 7 7 7 7 7 7 a ! ..O.O.O.O.t.a.n.n.n.m.n.n.n.n.n.n.x.a.O...` ' ' ` ( ( ( ( ( ! J J J J H S S S A S C Z C x x g g g x g d d d d d a d a g g d x x x x Z Z C C Z Z Z Z Z Z C C Z Z A A A A A A G G G G G G G G G G G G G U U _ ( ( ( ( _ _ ( _ _ _ Y ( ( ( _ _ _ _ _ Y U A A A A A A A v v v v v v x d x x d d x x x d x x d d g g d d d d d d d d i i i i i i 9 7 7 7 7 7 d [ &.[ A A A A A A A A A A A A A } z.z.i % % % % % 7 ! ! ! ( ` ` ` ' ' ' ' ' ` ( ( ( ( ! ! ! ( ( ( ` ` ` ( ! ! J D D D D D D S Z C x g g g g g g g g g x x x x C Z Z Z Z Z H H H H H H H H H H H H H H H H H H H H H J ! J ! ! ! J ! ! ! ! ! ! 0.z.*.K 5 X X X X X X X X X % * * a g g g g g x Z Z Z Z G G G G G G G G G G J U U J U U U U U U U U U J U U U U U U U U U U U U U ..U U U U U U U U _ ( [ ,.,.d.d.L L z q q # X   X @ , 2 7 d d d d g d d d d d d g d d g d d d g g d d d d d d g g g d g g g g g g g g d d g g g g d g g g g g d d g g g g d g g g g g g g d g g g g g g k k k k k l l l 0 X X X X X X X X X X X X X X X * a g g g g g ( ( ( ( ( ( ( ( / ( ( ( D S ",
"3 3 3 3 7 S  .O.O.<.<.y.a.h.n.n.n.n.n.n.h.h.3.3.X...{ { { ' ' ' ' ' ( ~ ( ( ( ( ! J J J J J S S S A S S C C C C g g g g g d d d g g d d d g d d g x x x C Z C C Z Z Z Z Z C C C A A A A A A A G G G G G G G G G G G G G G U U ( ( ( ( _ _ _ _ _ _ _ _ _ ( ( ( _ _ _ _ Y U G A A A A A A A v v v v v x x x x d d x x x d d x x x g d d d d d i i d d k i i i i 9 7 7 7 7 7 A &.| G A A A A A A A A A A A A A A [ z.z.i % % % % % D ! ! ( ` ` ` ' { { { { { ( ( ( ( ( ! ! ( ( ( ( ` ` ` ( ! ! D D D D D D D S Z C x g g g g g g g g x x x x C Z Z Z Z Z H H H G G H H H H H H H H H H H H H H H H H J J J ! ! ! ! ! ! ! ! ! ! >.z.f.K b X X X X X X X X X O * * 3 g g g g g x Z Z Z Z Z A A G G G G G G G G J U U U U U U U U U U U U U U U U U U U U U U U U J U U U U U U U U U ( ( [ >.,.2.d.L L B q q X X   X @ , 2 i d d d d g g d d d d d g d d d d g g g g d d d d d d d g g g g g g g g g g g d d d g g g d d g g g d d d g g g g d d g g g g g d d d g g g g g g k k k k l l l k X X X X X X X X X X X X X X X X X > u d 3 > g ( ( ( ( ( ( ( J g 7 > > > ",
"3 7 g ..n.n.n.n.n.n.n.n.n.n.n.a.u.3.<.>.....{ { ..{ ' ' ' ' ' ' ' ` / ( / / / / ! J J J J J S S S A A S S C C C C x g g g g d d d d g d d d d d d g x x x C C C Z Z Z C Z Z Z A A A A A A A G G G G G G G G G G G G G G G J U Y ( _ _ _ _ ( ( ( _ _ ( ( ( ( _ _ _ _ _ Y U U U G G G G A A A A v v v x d x d d d d d d x d d d d k d d d i i i i i d k d i i u 7 7 7 7 9 Z [ [ A A A A A A A A A A A A A A A A _ z.z.P % % % % 7 J ! ! ( ( ( ` { { { { { { ' ( ( ` ! ! ( ( ` ` ` ( ( ( ( ! J D D D D D D D S Z x x g g g g g g g g x x x x C Z Z Z Z A D H H G G G G H H H G G G G H H H H H H H H J J J J ! ! ! ! ! ! ! ! ! ( z.z.) K % X X X X X X X X X * * > g g g g g x v v v Z Z Z Z Z C S G G G G G G J J U U U U U U U U U U U U U U U U U U U U U U U J J J U U U J J J ( ( { >.,.,.u.L L L q 5 X X   X @ , 2 d g g g g g g d d d d g g g g g d d d g g g g d d d g g g g g g g g g g g g g g g g g g g g x x x x x x x x x x g g g g g d d d d g g g g g g d d g v [ A k k k k , X X X X X X X X X X X X X X X X X X @ % > > u S ( J S a , > > > > > > ",
"J a.n.n.m.m.n.n.n.n.n.a.y.<.<.<.<.<.O.{ ....{ { { ' ' ' ' ' ' ' ' ( / ( ( / ~ ~ ! J J J J J S S S A S S S Z C C C C g g g g g d d a d d g g d d d d g x x C C C Z Z Z C Z Z C A A A A A A G G G G G G G G G G G G G G G G G U U Y _ _ _ _ _ ( ( _ _ ( ( ( ( _ _ _ _ _ U U U U U G G A A A A A A v v x d x x d d d d d x d d d d k k d i i i i i i i i i i i 9 7 7 7 u G J v d v A A A A A A A A A A A A A A A _ z.z.K % % % % Z J ! ! ( ( ( ( { { { { { { ' ( ( ` ! ( ( ` ` ` ` ( ( ( ! ! J D D D D D D D Z Z x x g g g g g g g x x x x x Z Z Z Z Z D D H H G G G G H H G G G G G G H H H H H H H J J J ! ! ! ! ! ! ! ! ! ! ! f.z.9.K s X X X X X X X X X @ * * a g g g g g x v v v Z Z Z Z C C G G G G G G G G J U U U U U J U U U U U U U U U U U U U U U J J J J U U U J J J ( ( [ X.,.>.>.&.I L q - X X X X @ , 2 a g g g g g g d d g d g g g g g g d d g g g d d d d g g g g g g g g g g g g g g g g x v v v v v v x x x x v x v v x x g g d d d d d g d g g d d d g x 5.5.c l k k l , X X X X X X X X X X X X X X X X X X X @ > > > > > > > > > > > > > > ",
"n.n.n.n.m.m.n.a.u.<.<.<.<.<.<.<.<.<...{ { ....{ ' ' ' ' ' ' ' ' ' ~ ( ( ~ ~ ~ ~ ! J J J J J D S S S S S S S Z C C C g g x d d d d d g d d d d d d d d x x x C C Z Z C C C C C Z A A A A G G G G G G G G G G G G G G G G G G U U U P Y _ _ _ _ ( _ _ _ ( _ _ _ _ _ _ _ U U U U U A G A A A A A A v v v x x x d d d d x x d d d d k i i i i i i i i i i i i i 9 7 7 d G J x d d A A A A A A A A A A A A A A A A Y z.z.c % % % * D J ! ! ( ( ( ( ' { { { { { { ( ( ` ( ( ( ( ( ` ` ( ( ( ! ! J D D D D D D D Z Z x x g g g g g g g x x x x C Z Z Z Z Z D D H H H H H H H H H H H H G G G H H H H H H J ! ! ! ! ! ! ! J J ! ! ! ! 2.z.z.P K X X X X X X X X X X * * 9 g g g g g g g g v v v Z Z C Z G G G G G G H G G J U U U U J J J U J U U U U U J J U U U U U U J U U U U U U U ( ( [ X.,.,.,.>.&.L e @ X X X X @ , 2 9 g g g g g g g g g g g g g g g g d g g g g g d d g g g g d d d d g g g g d d g x x x x x v x x x x x x x x x x x x x x x x g g g g g g g d g g g g g | 5.P l l l l l 4 X X X X X X X X X X X X X X X X X X X % > > > > > > > > > > > > , ",
"n.n.n.n.a.y.<.<.<.<.<.<.<.<.<.<.<.X.} { { { ....{ ' ' ' ' ' ' ' ` ~ ( ( ( ~ ~ ~ ! J J J J J D S S S S S A A Z C C C x x g d d d d d g d d d g g d d d x x x C C Z Z C C C C C C Z A A A G G G G G G G G G G G G G G G G G G G U P P P U Y Y ( ( _ _ Y ( _ _ _ T ( _ _ Y U U U U G A A A A A A A v v v v d d d d d d x x x d d d i i i i i i i i i i i i i i 9 9 Z J J v d d d A A v v x x x v A A A A A A A A U z.z.b % % % 2 D J ! ! ( ( ( ( ' { { { { { { ' ( ` ` ( ( ( ( ( ` ( ( ( ! ! ! D D D D D D D Z C x g g g g g g g x x x x x Z Z Z Z Z Z H D H H H H H H H H H H H H H H H H H H H H H J ! ! ! ! ! ! ! J ! ! ! ! J _ z.z.*.K 5 X X X X X X X X X % * , g g g g g g g g x v v Z Z C A G G H G G G G G G G J U U J J J J J J U U U J J J J U U U U U U U U U U U U U U ( ( } >.,.2.5.>.,.[ r X X   X X @ , 2 7 g g g g g g g g g g g g g g g g d d g g g g d g g g g g d d d d d g g d g x x x x x x x x x v x x x x x x x x x x x x x x x x g x x x x g g g g g g A 5.[ l l l l l l s # X X X X X X X X X X X X X X X X X X > > > > > > > > > > > 7 { ",
"n.u.3.<.<.<.<.<.<.<.<.<.<.<.<.<.<...{ { ....{ { { ' ' ' ' ' ' ' ( ~ ( ( ( ~ ~ ~ ! J J J J J S S S S S S S S S C C v x x g d d d a a a a a a d d d g g g x x C C C C A A A Z Z Z A A A Z A G G G G G G G G G G G G G G G G G G J U U U U U ( _ _ _ _ _ _ ( ( ( ( ( _ ( Y U U U G A A A G K A A A v v v v x d d d d d d d d d d d i i i i i i i i i i i i i i k G G G v k d d d d x d d d g g g x A A A A A A A U z.z.c % % % a D ! ! ! / ( ` ' { { { { { { { { ' ` ` ( ( ( ( ( ( ( ( ( ! ! ! J D D D D D S Z C x g g g g g g g x x x x C Z Z Z Z Z Z H H H H G G G G H H H G G G G G H G G G H H H ! ! J ! ! ! ! J J J J H J J J f.z.z.K b X X X X X X X X X @ * * g g g g g g g g x Z Z Z Z Z G G G G G G G G G G G H J U U U U J G J J U U U U U U J J J U U U U J J U U U U U ( [ | >.,.5.5.3.>.>.B   X X X X @ , 2 2 d g g g g g g g d d g g d d g g g g d d g g g g x x x x x x x x x x x x x x x x x x v v v v x x x x x v v x x x x x v v v x x x x v v v x g g g g g g ,.,.k k k k k l l k & X X X X X X X X X X X X X X X X X * > > > > > > > > > g { { ",
"<.<.<.<.<.<.<.<.<.<.<.<.<.<.<.<.>.{ { { ....{ { ..{ ' ' ' ' ' ' ` ~ ( ( / ~ / / ! J J J J J S S S S S S A S S C C x x x d d d g d d a a d d d d d g g g x x C C C Z A A A A A A A A A A Z A G G G G G G G G G G G G G G G G G G U U U U Y _ _ _ _ _ _ _ ( ( ( ( ( ( ( ( U U U A A A U Y U A A A v v v v v x d d d d x d x x d d d i i i i i i i i i i i i i k G G k i d d d d d k d d d d d g g x A A A A A A U z.z.c % % % a D ! ! ! / ( ' { { { { { { { { { { ' ' ' ' ' ' ' ` ( ( ( ( ! ! ! ! D D D D S Z C x g g g g g g x x x x C Z Z Z Z H A Z A H H H G G H H H H H G H H H H H H H G H J J ! ! J ! ! ! ! J J J H H H J J 9.z.z.@.K % X X X X X X X X X * * a g g g g g g g g Z Z Z Z Z G H G G G G G G G G G J U U U J G G G G G J U U U U U J J U U U U U U J J U U U ( ( | | ,.4.0.5.4.>.P K @ X X X X @ > 2 2 i g g g g g g g d d d g g d d g g g g g g g x x x x x v x x x x x x x x x x x x x x v v v v x x x x v v v v x x x x v v v x x x x x v v v g g g g g d ( 5.l k k k k l l k 4 - o X X X X X X X X X X X X X X X @ > > > > > > > , H { { { ",
"<.<.<.<.<.<.<.<.<.<.<.<.<.<.<.<...{ ..} ....{ { ....{ ' ' ' ' ' ' ( ~ ~ ~ ~ / / ! J J J J H S S S S S S A S S C C x x x d d d d d d g g d d d d d d d g x x C C C A A A A A A A A A A A Z A G G G G G G G G G G G G G G G G G G G U U U ( _ _ _ _ _ _ _ Y Y _ _ _ _ ( ( Y U U A A U U Y G A A A v v v v v x d d d x x x x x d d d d i i i i i i i i i i i i i i i i i i d d d d d g d d d d k d d A A A A A A U z.z.c % % % g D ! ! ! ! ( ' { { { { ......{ { { { { { ' { { { ' ( ( ( ( ( ! ! ! J D D D Z Z x x g g g g g g x x C C Z Z Z Z Z H H D S H H H H H H H H H H H H H H H H H H J J J ! ! J J ! ! ! ! J J H H H H G J } z.z.q.K s X X X X X X X X X % * 9 g g g g g g g g Z Z v v v G G G G G G G G H G G J U J J H H G G G G G J U U U U U J U U U U U U U U U U ( ( [ | | ,.5.0.0.2.K K K 4 X X X X @ * 2 2 7 d g g g g g g d d g g g g g g g g g g g x x x x x x x x x x v v v Z v v v x x x x x x v x x x x v x x v v x x x x x v x x x x x x x x x g g g d d d x 5.A l l l l l l 8 4 4 ; o X X X X X X X X X X X X X X @ > > > > > > 7 ' { { { { ",
"<.<.<.<.<.<.<.<.<.<.<.<.<.<.<.<.{ { ........{ { { ....' ' ' ' ' ' ` ~ ~ ( ~ ~ / ! J J J J H S S S S S S S S S Z C x x x d d d d d g g g d d d d d d d g x x x C C A A A A A A A A A A A Z A G G G G G G G G G G G G G G G G G G G U U U ( _ _ _ ( Y _ _ _ ( _ _ _ _ _ ( U U A A U U Y Y G A A A v v v v v v d d d x x x x x x d d x d i i i i i i i i i i i i i i i i i i i d d d g g g d k k d d x A A A A A U z.z.b % % % g D ! ! ! ! ( { { { { ............{ { { ' ' { { { { ' ( ( ` ` ( ! ! ! J D D Z C x x g g g g g x x Z Z Z Z Z Z Z Z H H H H H H H H H H H H H H H H H H H H H J J J ! ! ! ! ! ! ! J J J J H H H H G G J z.z.z.T K X X X X X X X X X @ * 7 g g g g g g g g Z Z v v v G G G G G G G G H G G J U J H G G G G G G G J U J U U U J U U U U U U U U U ( ( [ | | >.,.0.0.5.5.P K K k X X X   X % 2 2 2 d g g d g g g d d g g g g d d d g g g x x x x x x x v v A A A A A A A A A v v x x x x x x v A Z v v x v v v x x x x v v v x x x x x x x x g g g d d d G v l l l l l w 4 4 4 4 - X X X X X X X X X X X X X X X > > > > > g { { { { { { ",
"<.<.<.<.<.<.<.<.<.<.<.<.<.<.<...{ ......{ { { { { ..{ { ' ' ' ' ' ' ( ~ ( ( ( ( ! J J J J H S S S S S S S S A C C x g g d g d d d d d g a a a d d d d g g g x C Z Z A A A A A Z A A A A A G G G G G G G G G G G G G G G G G G G G G U U U U U U U Y Y ( _ T _ _ _ _ ( Y U G A G Y Y Y Y A A A A Z v v v v v x d d d x x x x d d d d x i i i i i i i i i i i i i i i i i i i i i i i i i d k d d d d v A A A A _ z.z.c % % * g D ! ! ! ! ( ' { { { ................{ { { { { { { { ' ` ` ( ( ! ! ! J D D Z C x x g g g g g x x C Z Z Z Z Z Z Z H H H G G G G H H H H H H H H H H H H H H J J ! ! ! ! ! ! ! ! ! J J ! J H H H H H H >.z.z.,.K 1 X X X X X X X X X * , g g g g g g g x C C v Z Z G G G G G G G H H G G J J J G G G G G G G G G J J J J J J U J J U J U U U Y _ ( } | } ,.,.5.5.5.5.&.K K B         X @ , 2 2 u g g d d d d g g g g g g g g g g g g x x x x x v A A A A A A A A A A A A A Z x x x x x Z A A A v x x x x x x x x v v A A A Z x x x x v v x g g g g g x v l l l l k 5 4 4 4 4 4 @ X X X X X X X X X X X X X X > > > , ! { { { { { { { ",
"..X.X.<.<.<.<.<.<.<.<.<.<.<...{ { ..........{ { { ..{ { { ' ' ' ' ' ` ~ ( ( ( ( ! J J J J H S S S S S S S S S Z C x x g g g g d d d d d d a d d d d g g g g x x C Z Z Z A A Z Z A A A G G G G G G G G G G G G G G G G G G G G G G G U U U U U U U U Y ( _ _ _ _ _ _ ( U U A A P Y Y Y U A A A A A v v v v v x d d d d d d x d d d d x d i i i i i i i i i i i i i i i i i i i i i i i i i d d d d d x A A A A _ z.z.k % % , g S H ! ! ! ( ' { { { ......:.:.........{ { { { { { { { ' ` ( ( ! ! ! J D D Z C x x g g g g x x x C Z Z Z Z Z Z Z H H H H H H H H H H H H H H H G G H H H J J J ! ! ! ! J J ! ! ! ! ! ! ! J H H H H H J z.z.f.K k X X X X X X X X @ * , g g g g g g g v Z C Z Z Z G G H G G G G G G G G G J G G G G G G G G G G G J U J J U J J U U J J U Y _ _ [ | } | >.>.5.5.5.5.4.L K K   X     X X % 2 2 2 g g d d g g g g g g g d g g g g g x x x x A A A A A A A A A A A A A A A A A A v v v A A A A A A x x x x x x v v A A A A A A A Z x x v v v x x g g x v A l l l l 6 4 4 4 4 4 5 - X X X X X X X X X X X X X X > > 7 ' { { { { { { { { ",
"{ ..{ { { ..X.X.O.<.O.X...{ ....{ ..{ { ....{ ....{ { { { { ' ' ' ' ' ~ ~ ~ ( ( ! J J J J H S S S S S S S S Z C C x g g g d g g d d d d d g d d d d g g g g x x x C C C Z A Z Z A G G G G G G G G G G G J G G G G G G G G G G G G G G U P U U U U Y ( ( _ _ ( ( _ _ Y U G A J U Y Y Y U A A A A A v v v v v x d d d d d d d d d d d d d d i i i i i i i i i i i i i i i i i i i i i i i i i d d d d g A A A A [ z.z.9 % % , g S D J ! ! ( ( { { { ........:...........{ { { { { { { ' ( ( ( ! ! ! J D D Z x x x g x x x x x x C Z Z Z Z Z Z Z H H H H H H H J J J J J J H H G G H H H J ! ! ! ! ! ! ! ! ! ! ! ! ! ! ! ! H H H H H H ,.z.z.T K X X X X X X X X % * * g g g g g g g v Z C Z Z A G G H G G G G G G G G G G G G G G G G G G G H H H U U U U U U U U J J J ( _ ( | | { | >.>.2.5.5.5.5.T K K X   X X X X @ * 2 2 7 g g g g g x x g g d d g g g g v v x x v A A A A A A G G G G G J G J G A A A A A A A A A A A A v x x x v Z A A A A A A A A A A A v v v x x x x x x A G l l l w 4 4 4 4 4 4 5 ; X X X X X X X X X X X X X X > g { { { { { { { { { { ",
"{ ....{ { { { { ........{ { { ..{ } ..............{ { { { { { { ' ' ' ( ~ / / / ! J J J J H S S S S S S S S C C Z x g g g g g g d d d d d g d d g d g g d g g x x x C C C A Z Z A G G G G G G G G G J U U U G G G G G G G G G G G G U U P U U U U _ _ _ _ ( ( ( _ _ U G A A U U U U Y K A A A A A v v v v v x d d d d d d d d d d d d d x d d i i i i i i i i i i i i i i i i i i i i i i i i d d d d A A A A &.z.0.% % % 7 g C D D ! ! ! ( ' { { ......................{ { { { { { { ( ( ( ! ! ! J D D Z x x x x x x x x x x x C Z Z Z Z Z Z H H H G H J J U U J U U U J J G G H H H ! ! ! ! ! ! ! ! ! ! ! ! ! ! ! ! J H H H H H H U z.z.,.K = X X X X X X X * * * g g g g g g v v v Z Z Z G G G G G G G G G G G G G G G G G G G H G G G G G G J U U U U U U U U J ( _ _ [ | | } } >.>.,.5.5.5.5.,.K b X X X X X X X @ * 2 2 u g g g x x x x g d d d g g x v v x x v A A A A A G G J G G G G J J J J J G A A A A A A A A A Z x x Z A A A A A A A A A A A A A A A v x x x x x v A +.l l w 4 4 4 4 4 4 4 5 5 X X X X X X X X X X X X X X g { { { { { { { { { { { ",
"{ { { { { { { { { { { { { { ....{ { ..........{ { { { { { { { { ' ' ' ' ~ ~ ~ ~ ! J J J J J S S S S A A S C C C Z x x x x x x g d d d d d d d d a a a a g g d d x x x C C Z A A G G G G G G G G U U U U U U U U G G G G G G G U U U U U U U U U U _ _ ( _ _ ( ( _ _ U A A G U U U U U G A A A A A v v v v v v d d d d d x x d d d d d d x x d d i i i i i i i i i i i i i i i i i i i i i i i d d d x A A A A 5.z.2.% % % 7 g x D D J ! ! ( ' { { ......................{ { { { { { { ( ( ! ! ! ! H D S Z C x x x x g g g x x x x Z Z Z Z Z Z H H H H J J J U U J U U U U U J H H H H ! ! ! ! ! ! ! ! ! ! ! ! ! ! ! ! H H H G G H H H f.z.q.K 0 X X X X X X @ * * * g g g g g x Z Z Z Z A G G G G G G G G G G G G G G G G G G G G G G G G G G G J U U U U U U U U U ( ( ( [ | | | | >.>.>.4.0.0.5.4.K , X X X X X X X X @ % , 2 u g g x x v v x g g g g x x v x x x A A A A A G G J G G J J J J G G J J J G G G A A A A A A A Z A A A A A A A A A A A A A A A A A A A Z v x v A U &.c 8 5 4 4 4 4 4 4 4 4 4 o o X X X X X X X X X X X u { { { { { { { { { { { { ",
"' ' ' ' ' ' ' ' ' ' ' ' { { ....{ { ........{ { { { { { ..{ ....' ' ' ' ~ ~ ~ ~ ! J J J J J S S S S A A C C C C C x x x x x x g x g d d g d d g a a a a g g d d d x x C C Z A A G G G G U U U U U U U U U U U U U U U U U U U U U U U U U U U U U Y _ _ _ _ ( ( _ U A A A U U U U U U A A A A A A Z v v v v v d d d d d x d d d d d d d x d d d k i i i i i i i i i i i i i i i i i i i i i i d d d x v A A A z.z.,.% % % 7 g g D D D J ! ( ' { { } ......................{ { { { { ' ( ( ! ! ! ! D D S Z x x x x x g x g x C x x C Z Z Z Z Z D H H J J J J U U U U U U U U J J H H H ! ! ! ! ! ! ! ! ! ! ! ! ! ! ! J H H H H H H H H %.z.z.K b X X X X X X % * * , g g g g g Z Z v Z G G G G G G G G G G G G G G G G G H G G G G G G G H G G G H U U U U U U U U U ( ( ( | | | | | | >.>.2.5.0.5.5.i X X X X X X X X X X X @ @ @ 2 g x x x v v x g g g x x x x x x A A A A A G G J G G J J J J G G J J J G G G J G A A A A A A A A A A A A A A A A A A A A A A A A A A A A A A +.&.k 4 4 4 4 4 4 4 5 5 4 ; X o X X X X X X X X X X u { { { { { { { ' ( ( ` ( ` ",
"' ' ' ' ' ' ' ' ' ' ' ' ' ' { ..{ { ....{ { { { { { ............' ' ' ' ~ ~ ( ( ( J J J J J D S S S A Z C C C C C x x x x x x x g g g g d d d g d d d d g g d d d g x x C C A A G G G G U Y U U U U U U U U U U U U U U U U U U U U U U U U U U U Y _ _ _ _ _ ( Y A A A A Y U U U U G A A A A A G A v v v v v d d x d d x d d d d d d d x x d d k d i i i i i i i i i i i i i i i i i i i i i d d d d v A A A z.z.%.% % % 7 g g S D D H ! ! ( { { } ......................{ { { { ' ( ( ( ! ! ! J D D S Z x x x x x x x x x C C x C Z Z Z Z A D H H J J J J U U J J U U U U U U J H H ! ! ! ! ! ! ! J ! ! J ! ! ! ! ! J H H H H H H H U z.z.E K X X X X X X % * * , g g g g x Z Z Z Z Z A G G G G G H G H G G G G H G G H G G G H H G G G G G G J J U U U J J J U U ( ( ( [ | | | } } >.>.,.0.0.5.5.[ X     X X X X     X   X @ @ @ * g x x v x x x g x x x x x x v A A A A G J J J J J J J J U G G J J J J G G J G G G A A A A A A A A A A A A A A A A A A A A A A A A A A A A &.&.k 4 4 4 4 4 4 4 4 5 4 - X X X X X X X X X X X , { { { { { ` ( ! / ( ! ( ( ! ",
"' ' ' ' ' ' ' ' ' ` ' ' ' ' ' ` { { { { { { { { { ............{ ' ' ' ` ~ ~ ~ ( ( ! J J J J D S S S A S Z Z C C C v x x x x x x x x x g d g g g d d d d d g d d d g x x x C Z A A G G G U U U U U U U U U U U U Y Y U U U U U U U U U U U Y Y U U U ( _ _ _ _ ( G A A A U Y U U U U A A A A A A G G v v v v v x x x d d d d d d x x d d d d d d k k d i i i i i i i i i i i i i i i i i i i i k d d d v A A J z.z.+.% % % 7 g g x D D D J ! ( ' { } ......................{ { { ' ( ( ( ( ! ! ! J D S Z C x x x x x x x x x C C x x Z Z Z Z D H H H J J J J U U J J J U U U U U U H H J ! ! ! ! ! ! J J ! J J ! ! ! ! J H H H H H H H H f.z.@.K X X X X X X * * * 7 g g g g Z Z Z Z Z Z Z A G G G G H G G G G G G H G G G G G G G H G G G G G G J J U U U J J J U U ( ( ( [ | | | | | >.>.>.4.0.5.5.5.x                         @ @ @ % i x x x x x x x x x x x x A A A A A G J J J J J Y Y Y Y Y U J J J J G G J G G J G G G G A A A A A A A A A A A A A A A A A A A A A A A Y &.&.4 4 4 4 4 4 4 4 4 4 4 & X X X X X X X X X @ 7 C ' { { { ( ( ! / / ( / ! ( ! ",
"( ' ' ' ' ' ' ` ( ( ( ( ' ' ' ' ' { { { ' ' ' ' ' ` { ......{ ' ' ' ` ` ~ ~ ( ( ( ! J J J J H S S S S S Z Z Z C C C x x x x x x x x x g g d d d d d d d d d d d d g g g g C Z A A G G G J U U U Y Y U U U U U U U U U U U U U U U U U U U U U U U U ( _ _ _ ( U A A A U _ U U U U U K A G G G G A A v v v v v x x x d d d d d d x x d d d d d d d d d i i i i i i i i i i i i i i i i i i i d x d d d v A A [ z.f.+.% % % 7 g g g Z D D H ! ( ' { | ........:.............{ { ' ( ( ( ( ( ! ! ! D D S Z Z C x x x x x x x x x x x x Z Z Z Z H H H H J U J J J U J J U U J J J J U J H J J J ! ! ! ! ! J ! ! ! ! J J J J G G G H H H H H ,.z.,.K = X X X X X * * * a g g g x Z Z v v Z Z Z C A G G G G G G G G G G G G G H G G G G G G G G G G G H J U U U U U U U U U ( ( ( | | | | X.>.>.>.3.0.5.5.5.5.d X X X X X X       X X X @ @ @ @ u x x x x x x x x x x v A A A A G J J J J U Y Y Y Y Y Y Y G J J J J G G G G G G G J J J J G A A A A A A A A G J J G A A A A A A G G +.&.T 4 4 4 4 4 4 4 4 4 4 4 o X X X X X X X X * p a C ! { { ' ( ( ! ! ! ( ( ( ! ! ",
"( ( ' ' ' ` ( ~ ( ( ( ( ~ ` ' ' ' ' ' ' ' ' ' ' ' ' ` ` ` ' ' ' ' ' ` ( ~ ~ ( ( ( ( ! J J J J S S S S S Z Z Z Z C C x x x x g x x x x x x g d d d d d d d d d d d g x x g x C Z A A G G G U U U U U U U U U Y Y U U U U U U U U U U U U U U U U U U ( ( _ _ _ G A A G _ _ U U U U Y Y K G G A G A A A v v v v x x x d d d x d d x x d d d x d d d d d i i i i i i i i i i i i i i i i i i i d x d d d v A A } z.0.+.% % % 2 g g g g D D D ! ! ' { } ......:.:.............{ { { ` ` ( ( / ! ! J D D Z Z Z C x x x x x x x g x x x C Z Z Z D H H H H U U J J U U J J U J H H H H H H H J J J ! ! ! J J J ! ! ! ! ! ! J H G G G H H H H H _ z.,.K = X X X X X * * * g g g g Z Z Z v v v Z C C Z G G G G G G G G G G G G G G G G G G G G G G G G G G H U U U U U U U U U ( ( ( [ | | | >.>.>.>.,.5.0.5.5.5.5., X X X X X X       X X X X @ @ @ 7 x x v x x x x x x Z A A A A G J J J P Y Y Y Y Y Y Y U J J J J G G G G G G G G J J J J J J G G G G G G G G G G J G A A A A J J U &.*.z 4 4 4 4 4 4 4 4 4 4 = X X X X X X X @ 7 a a a C Z { { ( / ( ! ! ! ! ( ( ! ! ",
"( ( ~ ( ( ~ ~ ~ ~ ~ ~ ~ ~ ~ ( ` ' ' ' ' ' ' ' ' ' ' ' ' ' ' ' ' ' ' ' ~ ~ ~ ~ ( ( ( ( J J J J S S S S S S Z C C C C x x x x g g x x x x x x g x g g g g g g g d d g x x x x C Z A A G G G J U U U U U U U U Y U U U Y U U U U U U U U U Y Y U U U U _ _ _ _ Y A A A _ _ _ U U U U U U U U G A A A A A v v v v v d d d d x x x x d d d d x x d d d d k d i i i i i i i i i i i i i i i i i i d d d d d A A A 5.z.9.+.% % % , g g g g D D D ! ! ' { } ......................} { { ' ` ` ` ! ! ! H D S Z Z Z C x x g g x x x x x C Z Z Z Z A H H H H J U U J J J J J J H H H H H H H H H H J J J ! ! H H H J ! ! ! ! ! J H H H H H H H H H J z.*.K = X X X X @ * * i v g g g Z Z v v v Z Z Z Z Z G G G G H G G G G G G G G G G G G G G G G G G J G G G J U J U U U U U U ( ( ( [ | [ | >.>.>.>.>.4.5.5.5.5.5.7 X X X X X X     X X X X X X @ @ @ 4 v v v v x x x v A A A A G J J J Y Y Y Y Y Y Y Y Y U J J J J J J G G G G J J J J J J G G G G J J J J G G G G G G G G G G J G [ &.#.6 4 4 4 4 5 4 4 4 4 ; o X X X X X X > p a a a g C C { ` / / ! ! ! ! ! ( ( ! ! ",
"( ~ ~ ~ ~ ~ ~ ~ ~ ~ ~ ~ ~ ~ ~ ~ ( ' ' ' ' ' ' ' ' ' ' ' ' ' ' ` ' ' ' ` ( ( ( ' ( ( ( ! J J J S S S S S S Z C C C C C x C C g g g g g x x x g g g g g g x g g d d g x x x x x C Z A A G G G U U U U U U U U U U U U Y U U U Y Y U U U U Y U U U U U Y _ _ _ U A A Y _ _ ( U U U U U U U Y Y U A A A A Z v v v v d d d d x x x d d d d d x x k g d d k k i i i i i i i i i i i i i i i i i i d d d d d A A A 5.z.2.T % % % , g g g g D D H ! ! ' { } ............:.:.........{ { { ' ` ` ! ! ! D D Z Z Z Z C x g g g x x x x C Z Z Z Z Z H H H H H J U U J J J J J H H H H H H H H H H H J J J J J H H H H J ! ! ! J J H H H H H H H H H H 7.*.K = X X X X @ * 2 Z Z v g v Z Z v v v Z Z Z Z Z A G G G H G G G G H G G G G G G G H G G G G G J U J G J J J U U U U U U ( ( ( _ [ [ | >.>.>.>.>.2.5.5.i.E.E.0 % X X X X X     X X X X X X X X @ @ 2 v v x x x v A A A A G J J U Y Y Y Y Y Y Y Y Y Y U J J J J J J J G J J J J J J J J J G G G J J J J G G G G G G G J J J J G #.&.B 4 4 4 4 4 5 4 4 4 4 @ X X X X X @ 7 a a a a a x C C ( { / / ! ! ! ! ! / / ! ! ",
"~ ~ ~ ~ ( ( ( ( ( ( ~ ~ ~ / ( ( ( ( ( ( ` ' ' ' ' ' ' ' ' ' ' ' ' ' ' ' ' ' ' ' ' ~ ( ( ! J J S S S S S S S C C Z Z Z Z C v x x x x x x x x x x x x x x x g d d g g g x x x x C C A A A G G G U U U U U U U U U U U U U U U U U U Y Y U U U Y Y U U Y _ _ _ U A U _ _ _ Y U U U U U U U U U U U A A A A v v v v d d d x x d d d d d d d d d d d d d d d i i i i i i i i i i i i i i i i i i d d d d d A A A z.z.2.T % % % % g g g g D D H ! ! ( { { ........................{ { { { ( ( ! ! H D Z Z Z C C x x x x x x x x x C Z Z Z Z H H H G G G J U U U U U J J H H H H H H H G H H H H J J J J H H H H H J J J J ! H H H H H G G G H H *.*.K % X X X X @ * i Z Z v v v Z Z v v v v Z Z Z v v G G G G G G G G G G G G G G G G G G G G G G H U U U U U U U U J U U U Y ( ( ( | } >.>.>.>.>.,.1.5.0.x.[.[.+.8 4 X   X X X       X X X X X X X X X , x x v A A A A A G J U Y Y Y Y Y Y Y Y Y Y Y Y P G G J J J G G G J J J J J J J J J J J J J J J J J J J J J G G G J J J _ *.#.6 4 4 4 4 4 4 4 4 - o o X X X @ , p a a a a a g C C S J { ( ! ! ! ! ! / ! ! ! ! ",
"! ~ ~ ~ ( / ( ( ( ( ! ! ! ! ( ( ( ( ( ( ( ( ( ' ' ' ' ' ' ' ` ` ' ' ' ' ' ' ' ' ' ~ ( ( ! J J J S S S S S S Z C C C Z Z Z x x x x x x x x x x x x x x x x g d d d g x x x x x x C C A A A G G G U U U U U U U U U U U U U U Y U U U Y U U U U U U U U Y _ _ U ( _ _ _ _ U U U U U U U U U U U U A A A A v v v v x d d x d d d d d d d d d d d i a d d d d i i i i i i i i i i i i i i i i i k k d d x A A A z.z.9.b % % % % g g g x D D D ! ! ( { { ........................{ { { { ( ! ! ! D S Z Z C x x x x x x x x x C x C Z Z Z A H H H H H G J U U U U U U J J J H G H H H H H H H H H J J H H H H H H H J J J ! H H H H H G G H H H *.@.K X X X X X @ * u x Z Z v v Z v Z v v Z Z Z Z v v Z A G G G G G G G G G G G G G G G G G G J G G J U U U J U U U U U U U ( ( ( ( | } >.>.>.>.>.,.1.5.0.x.[.[.I.8 6 6 * X   X       X X X X X X     X O % 3 A J Y ,.,.,.,.,._ Y Y Y Y Y Y Y Y Y Y Y Y Y U G J J J J G P Y U J J J J J U Y Y Y Y Y J J J J J J J G G G G G J J #.*.K 4 4 4 - * * * * & % @ X X X > u a a a a a a a x C x A A { ' ! ! ! ! / / ! / ! ! ",
"J ! ~ ~ / / ~ ~ ( ~ J J J J J ! ! ~ ( ( ( ~ ~ ~ ` ' ' ' ' ' ' ' ' ' ' ' ' ` ' ' ' ~ ( ( ( J J J H S S S S S Z C C C C Z C x x x g x g g x g g x g g x x g g d g d d x x x x x x x C Z A A A G G U U U U U U Y U U U U U U U Y U U U U U U U U U U U U U _ _ _ _ _ _ _ Y U U U U U Y U U U U Y U G A A A v v v v x d d d d d d d x x x d d x i i i a d d d i i i i i i i i i i i i i i i i i k k d d x A A J z.z.0.k % % % % a g g C D D H ! ! ( { } ........................{ { { ' ( ! ! H S Z C x x x g x x x x g x g x x C Z Z A H H H H H H H J U U U U J J J J U J G G H H H H H H H H G H H H H H H H H J J J J H H H H H H H H H J ,.E K X X X X X % * u d Z Z Z Z Z v Z v v Z Z Z Z Z Z v Z Z A G G G G H G G G G H H G G G G J U U J H J U U U U J J U U U U ( ( ( ( | | | ,.,.>.,.,.2.5.5.M.[.[.[.0 8 8 8 = X X X X           X       O % % % x C G U %.,.,.&.Y Y Y Y Y Y Y Y Y Y Y Y Y Y Y G J J J J U Y Y Y U G J J U Y Y Y Y Y Y J G G G G J J J J G G J J Y #._ w 4 - * * * * * * * * * * * , u a a a a a a a x x C C D D ( { ( ! / / ! / / / ! ! ",
"J J ! ~ / ~ ~ ~ ~ ~ ! J J J J J J J J ! ! ! ~ ~ ~ ( ` ' ' ' ' ' ' ' ' ` ` ` ' ' ` ~ ( ( ( ! J J J D S S S S S C C C C C x x x x g g x x x x g x x g g g g g g g d g x x x x x g x x C Z A A A G G Y Y U U Y Y U Y Y U U U U U U U U U U U U U U U U U U ( _ _ _ _ _ ( U U U U U U U U U U U Y U G A A A v v v v x d d d d d d d x x x d d x a i i i d d d i i i i i i i i i i i i i i i i i k k d d x A A J z.z.5.0 % % % % u g g C D D D J ! ( { ......:.:.................{ { { ' ( ! J D Z C x x x x g g g C x x x x x g Z Z A H H H H H H J J J J J U U U J J J U U J G H H H H H H H H G G H H H H H H H H J J J H J H H H H H H H _ *.E b X X X X X % * u a x Z Z Z Z Z Z v v v Z Z Z Z Z v Z Z Z Z A G G G G G G G G H G G G J J U J U U U U U U U U J J U Y ( ( ( ( ( | | | | ,.,.,.,.5.5.5.c.E.[.[.Y 0 8 8 8 X X X X X         X X   O % % % % 7 x x G J ( [ Y Y Y Y Y Y Y Y Y Y Y Y Y Y Y Y Y U J J U Y Y Y Y Y P U G U Y Y Y Y Y Y U G G G G J J J J G G J J J J 0 * * * * * * * * * * * * * , , u x x g g a g x x x C C A D D { ( ! ! ( ( ( / ( / ! ",
"J J ! ( ( ( ~ ~ ( ( ! J J J J J J J J J J J J ! ~ ~ ( ( ' ' ' ' ' ` ` ` ' ' ' ' ( ~ ~ ~ ( ! J J J J S S S S S Z C C C C x x x x x x x x x x x x x x x g g g x x g x x x x x g g x x x C Z A A A G U U U U U U U U U U U U U U U Y U U U U U U U U U U U Y _ _ _ _ _ Y U U U U U U U U U U U U U G A A A v v v v v d d d d d d d d d d d d d a i i i i d d d i i i i i i i i i i i i i i i i d d d d x A A } z.z.+.7 % % % % 7 g g g D D D J ! ( { ................:...:.....{ { { ' ! ! H S Z x x x x g g g C C x x x x C Z Z Z H H H H H J J J J J U U U U J J J U U U J H H H G H H H H H H G H H H H H H G H J J J H J H H H H H H H #.*.E 8 X X X X X @ * 9 a d Z Z Z v Z Z C Z Z Z v Z Z Z v v v Z C C A G G G G G G G G G G J U U U U U U U U U U U U J ( _ _ _ _ ( ( [ | } } | ,.,.,.3.0.5.i.c.v.[.[._ b b c 6 X X X X X X X X   X X @ % % % % % * x x v J J J Y Y Y Y Y Y Y Y Y Y Y Y Y Y Y Y Y Y Y Y Y Y Y Y Y Y Y Y Y Y Y Y Y Y Y Y Y G G J J J J G J G G A A J Z * * * * * * * * * * * * > , , , 7 C C C C C C C C C C Z D D D ! ! ! ! ! ( ( ( ( ! ! ",
"J J J ( ( ( ~ ~ ( ( ~ J J J J J J J J J J J J J ! ~ ( ~ ( ` ' ' ` ` ' ' ' ' ' ' ~ ~ ~ ~ ( ~ J J J J D S S S S Z C C C C x x x x x x x x x x x x x x x x x x x x g x g x x x g g x x x x x x Z A G U U U U U U U Y U U U U U U U Y U U U U U U U U U U U _ _ _ _ _ ( U U U U U U U U U U U U U U G A A A Z v v v v v x d d d d k d d d d d d d i i i i d d d i i i i i i i i i i i i i i i i d d d d x A A &.z.9.+.7 % % % % , g g g D D D J ! / { ..........................{ { { ( ! J D Z C x x x x x x g C x x x x Z Z Z Z D H H H H H U U J J J U U U U J J J U U U U J H H G G H H H H H G H H H H H H G G G J H H H H G G H H H H *.*.E , X X X X X X * 2 a a x Z Z v Z Z Z Z Z Z v Z Z Z v v v Z C C C A G G G G G G G G J U U U U U U U U U U Y ( ( ( ( ( _ _ _ ( ( } | } } | ,.,.,.5.0.5.i.c.c.W.[.f.G b b 0 X X X X X X X X X X % % % % % % % % g x x A J J U Y Y Y Y Y Y Y Y Y Y Y Y Y Y Y Y Y Y Y Y Y Y Y Y Y Y Y Y Y Y Y Y Y Y Y Y G G J J G G G b v v v A J 7 * * * * * * * * * * * , , , , , , g C C C C C C C C C S D D D ! ! ! ! ! ! ! / ( ! ! ",
"J J J ! ( ( ( ~ ( ( ~ J J J J J J J J J J J J J J ~ ~ ~ ( ( ' ' ' ' ' ' ' ' ' ( / ( ( ~ ( ( J J J J A S S S S S C C C x x x x x x x x x x x x x x x x x x x x x x x g x x x x x x x x x x x A A G G U U U U U U Y U U U U U U Y U U U U U U U U U U U U _ _ _ _ _ Y U U U U U U Y ( _ _ U U U U K A A A A v v v v v v x x d k k d d d d x d d i i i i i d d d i i i i i i i i i i i i i i i d d d d v A A 5.z.2.+.* % % % % % g g g D D D H ! ! { } ........................{ { ' ( ! H S Z x x x x x x x x x x x x C Z Z Z Z H H H H H J U J J J J J U U J J J J U U U U U J H H H H H H H H H G G G H H H H G G J H H H H G G H H H Y ,.*.E , X X X X X X % * a a d Z v v v v Z Z v v v v Z Z v v Z Z Z Z Z Z G G G G G G J J U U U U J J Y Y ( ( ( ( ( ( ( ( ( ( ( ( ( [ | | } } X.>.,.4.0.0.5.d.c.c.M.[.T.5.[ b * X         X X X X % % % % % % % % % 7 x x x G J G Y Y Y Y Y Y Y Y Y Y Y Y Y Y Y Y Y Y Y Y Y Y Y Y Y Y Y Y Y Y Y Y Y Y Y Y U J J J G G v v v v v G G * * * * * * * * * * * , , , , , , , 7 C C C C x x C C C A A A D D ! ! ! ! ! ! ! ! ! ! ",
"J J J J ! ~ ( ~ ( ( ( J J J J J H S S S S J J J J ! ~ ~ ( ( ' ' ' ' ' ` ( ( ( ( / ( ~ ~ ( ! J J J J S S S S S Z C C C g x x d d d d g g g g x x x x x x x x x x x x g g x x x x x x g x x Z A A A G U U U U U U U U U U U U U Y U U U U U U U U U U Y _ _ _ _ _ _ U Y Y U U U Y _ _ _ _ _ U U U U G A A A A v v v v v v v x k k d d d d x d d d i i i i i d d d i i i i i i i i i i i i i i d d d d v A A 9.z.2.[ % % % % % % a g g S D D D J ! { } ........................{ { ' ! J D Z Z x x x x x x x x x x x x Z Z Z Z D H H H H H J U J J J J U U J J J J J U U U U U U H H H H H H H H H G G G H H H H G H H H H H H H G H H H [ ,.*.E , X X X X X X @ * 9 a a v Z v v v Z Z v v v v Z Z v v Z Z Z Z Z Z Z G G G G H U U U U U ( ( ( ( ( ( ( ( ( ( ( ( ( ( ( ( [ | | | | } | >.>.4.5.5.5.5.d.c.c.c.~.~.5.} = * & & & & X X X X X % % % % % % % % % > x x x G G G U Y Y Y Y Y Y Y Y Y Y Y Y Y Y Y Y Y Y Y Y Y Y Y Y Y Y Y Y Y Y Y Y Y Y Y U J J J G v v v v v A J d * * * * * * * * * * * , , , , , , , , a C C C x C C C Z A A A A A H ! ! ! ! ! ! ! ! D ",
"J J J J J J ! ( ~ ~ ~ J J J J S S S S S S S J J J ! ~ ~ / ( ' ' ' ' ( ~ ~ ~ ( ( ( ( ( ~ J J J J J H S S S S S C C C x x x g d d g d d g g g g g x x x x x g g g x x x x x x x g g d d x x Z A A A G U U Y Y U U U U Y U U U U U U U U U U Y U U Y _ _ _ _ _ _ _ _ U U U U U ( _ _ _ _ _ _ Y U U P A A A A A A A Z v v v v v v x x x x x d d d d i i i i i i d d d i i i i i i i i i i i i d x d d d x A A z.z.5.[ % % % % % % 7 g g Z D D D H ! ' | :.....................{ { ' ( ! H D Z Z x x x x x x x x C C x C Z Z Z Z H H H H H G U U J J J J J J U U J J J J U U U U U J H H H H H H H H G G H H H H H H H H G G G H H H H H H *.=.*.E 4 X X X X X X X * , i i x Z Z Z Z Z Z v v v Z Z Z v Z Z Z Z Z Z Z Z A A G G J U U U J U ( ( ( ( ( ( _ ( _ _ _ _ ( ( ( [ } } } } | | >.,.4.5.5.4.5.5.0.c.c.c.R.[.5.v = = = = = = = X X X X % % % % % % % % % % x x x A J J J Y Y Y Y Y Y Y Y Y Y Y Y Y Y Y Y Y Y Y Y Y Y Y Y Y Y Y Y Y Y Y Y Y Y Y J J J J v v v v v v G J % % * * * * * * * * * * , , , , , , , , , x S A A S Z S D D D D D D A A H J J ! J H A A ",
"J J J J J J J ! ( ( ! J J H S S S S S S S S H J J J ~ ~ / ( ' ' ' ` ~ ~ ! ! ! ! ( ! ! J J J J J J D S S S S C C C v x x x g d d d d g g d g i i g x x x x g g g x x x g x x g d d d g x x A A A A G G U U U U U U U Y U U U U U U U U U Y U Y ( _ _ _ _ _ _ _ _ _ U U U U _ _ _ _ _ _ _ _ _ Y U Y U G G G A A A A A A A v v v v x x x x d d d d d i i i i i i i k k d i i i i i i i i i i d x x d d x A G z.z.f.[ % % % % % % , g g x D D D D J ( | ......................{ { ' ! J D S Z Z x x x x x x x x C C x C Z Z Z Z H H H H G G U U J J J J J J U U J U J J U U U U U U H G H H H H G G G H H H H G H H H H G H H H H H H H H *.=.*.E w X X X X X X X % * i i g Z Z Z Z Z Z v v v v Z Z Z Z Z Z Z Z Z Z Z v G G G U U U J J U ( ( ( ( ( ( ( ( ( _ _ ( ( [ | | } } } | | >.,.2.5.5.5.5.5.5.5.x.c.c.c.[.0.6 = = = = = = = & X X   @ % % % % % % % % % a x x x J J J Y Y Y Y Y Y Y Y Y Y Y Y Y Y Y Y Y Y Y Y Y Y Y Y Y Y J U Y Y Y Y Y Y U J J J A v v v v v v J A X % * * * * * * * * * * , , , , , , , , , 7 S A A A A A D D D D D D A A A A A D D A A A ",
"J J J J J J J J ! ! ! J H S S S S S S S S S J J J J ! ~ ~ ( ' ' ` ~ ~ ! J J J J J J J J J J J J J S A A A S C C Z x x x x g d d d d d d d d a a d d g g g d g g g x x x g g d d d g g g x A A A A G G U U Y U U U U U U U U U U U U U U Y U _ _ _ _ _ _ _ _ _ _ _ Y U Y _ _ _ _ _ _ _ _ _ _ ( U U U Y U U U U U G A A A A A v v x d d d d d d d d i i i i i i i d d d d d i i i i i i i i d d d d d x A Y z.z.z.A % % % % % % % g g g D D D D D J { ..............:.:.....{ ' ( ! H D S Z Z Z x x g x x g x C C x C Z Z Z Z H H H H H J U U U J J U J J U U U U J J J J J J J J G G H H H H H G G G H H H H H H H H H H H H H H H H H *.=.@.E b X X X X X X X @ * 7 i d Z Z v v Z v v v v v v v Z Z Z Z Z Z v v Z Z A G G J J J U U U ( ( ( ( ( ( ( ( ( _ _ ( [ | | | | } } } >.>.3.5.5.5.5.5.0.5.5.i.c.c.c.[.&.7 7 = = = = = = = @   X X @ % % % % % % % % 7 x x x J J J P Y Y Y Y Y Y Y Y Y Y Y Y Y Y Y Y Y Y Y Y Y Y Y Y Y J J J J U U U J J J J G v v v v v v G J 2 X @ * * * * * * * * * * > , , , , , , , , , a A D A A A A A A A A A A A A A D D D D A A ",
"S S J J J J J J J J J H S S S S S S S S S S J J J J ! ~ ~ ~ ' ' ( ~ ! J J J J J J J J J J J J J J S A A A Z C C x x x x x g d d d d d d d d a a d d d d d d g g g g x x g d d d g x g g v A A A A G G G U U U U U U U U Y U U U U U U U U Y _ _ _ _ _ _ _ _ _ _ _ _ ( _ _ _ _ _ _ _ _ _ _ _ _ ( U U U U U U U U Y Y U G A A Z v v d d i i i i i i i i i i i i i i d d d d d d d d i i i d d d d d d d A } z.z.z.x % % % % % % % u g g S D D D D D J ......:.......:.....{ { ' ( ! D D S Z Z Z C g g x x x x x x x x C Z Z Z Z H H H H H U U J J U U J J J J H J J J J J J J J H G G H H H H G G G G H H H H H H H H H H H H H H H H H *.=.W E m * X X X X X X X @ , i i x v v v Z v v v v v v Z Z Z Z Z Z Z Z v Z v v G G G G J U U U ( ( ( ( ( ( ( ( ( _ ( [ | | | | | } | >.>.,.5.5.5.5.5.5.0.5.5.5.d.c.c.E.[ 7 7 7 4 = = = = = = X X X X X @ % @ @ % % % > x x x G J J U Y Y Y Y Y Y Y Y Y Y Y Y Y Y Y Y Y Y Y Y Y Y Y Y Y J J J J J G J J J J G v v v v v v v J J X X @ * * * * * * * * * * , , , , , , , , , , , Z D A D A A A A A A A A A A A D D D D A A ",
"S S S J J J J J J J H S S S S S S S S S S J J J J J J ( ~ ~ ( ~ ( ( ! J J J J J J J J J J J J J J D S S A S Z C C x x x x g g g d d g d a a d d d d d d d d d g d x x g d d d g x x x x Z A A A A G G G J U U U U U U U Y U U U U U U U U Y _ _ _ _ _ _ _ _ _ _ _ _ _ _ _ _ _ _ _ _ _ _ _ _ _ _ Y Y U Y ( _ _ _ _ Y U U J A A v v d d i i i i i i i i i i i i i i d d d d d d d k k d g g g d d d d d v 2.z.z.z.d % % % % % % & 7 g g Z D D D D D D ( ................{ { ' ( ! H D D S Z Z Z C g x x x g g x x x x x C Z Z Z A H G G H J U H J U U U U J H H H H H J U J H H H H H H H H H H H G H H H H H H H H H H H H G G G H H H _ @.E E m z X X X X X X X X % a a a x v v Z Z v v v v Z Z v v Z Z C Z v v Z Z v A G G G J U U J ( ( ( ( ( ( ( ( ( ( } | | | } { | | ,.>.>.4.5.5.5.5.5.0.0.5.5.5.5.l.c.U.f.8 8 8 8 8 - = = = = & X   X X X X X @ % % % % x x x A J J J Y Y Y Y Y Y Y Y Y Y Y Y Y Y Y Y Y Y Y Y Y Y Y Y Y J G G J J J J J J G b v v v v v v A J i X X X * * * * * * * * * * , , , , , , , , , , , a D A D D A A A A A A A A A A D D D D A A ",
"S S S S J J J J J H S S S S S S S S S S D J J J J J J ! ~ ~ ~ ~ ( ( ! J J J J J D S S D H J J J J D S S S S Z C C C x x x x x g g d d d a a d d d d d d d d g g d x g d d d g x x x x x Z A A A A G G G G G J U U U U U U U U U U U U U U U ( _ _ _ _ _ _ _ _ _ _ _ _ _ _ _ _ _ _ _ _ _ _ _ _ _ _ Y _ _ _ _ _ _ _ _ Y U U G A v v x d i i i i i i i i i i i i i i i d d d d d d k k d d g g d d d d d v d.z.z.f.d % % % % % % * 7 g g C D D D D D D D ................{ { ' ( ! D D D S Z Z Z C g x C x g g x x x x x x x Z Z Z A H H H H J H H J U U U G G H H H H H H H H H H H H H H H H H H H H H H H H H H H H H H G G H G H H H J E E E m B 6 X X X X X X X X u a a a x v Z Z v Z Z Z Z Z v v Z Z Z Z v v Z Z v v G G G J U U J ( ( ( ( ( ( ( ( ( [ | | | | | { | ,.,.,.,.5.5.5.5.5.5.0.0.5.5.5.5.0.c.M.z.8 8 8 8 8 8 8 4 = * = @   X X X X X % % % % % i x x v J J J Y Y Y Y Y Y Y Y Y Y Y Y Y Y Y Y Y Y Y Y Y Y Y Y Y J G G J J J J J J v v v v v v v v G J % X X X * * * * * * * * * , , , , , , , , , , , , , D A D D D D A A A A A A A A D D D D A A ",
"S S S S S J J J H S S S S S S S S S S S J J J J J J J ! ~ ~ ( ( ( ( ~ J J J J S S S S S S S D J J H S S S S S C C C C x g x x x x x g d i i g g g g d d d d d d g d d d g g x x x x x x Z A A A A G G G G G G G G U Y Y Y U U U U U U U U U U Y _ _ _ _ _ _ _ _ _ _ _ _ _ _ _ _ _ _ _ _ _ _ _ _ _ _ _ _ _ _ _ _ _ _ _ U U U A v v x d d i i i i i i i i i i i i i i d d d x x x d d d d x x x d d d x x z.z.z.2.d , % % % % % , 7 g g g D D D D D D D J ............{ { ' ( ! J D D D S Z Z C g x x C C g g x x x x x x x x Z Z Z H H H H H H H H H J H G G H H H H H H H H H H H H G G H H H H H H D D A A A A S S S S A A A A H H H H T E E B m m 4 X X X X X X X % i a a i x Z Z Z Z Z Z Z Z v v v Z Z Z Z v Z C C Z A G G J U U U ( ( ( ( ( ( _ ( [ | | | | { [ [ >.,.,.,.,.,.2.5.5.4.4.5.5.5.5.5.5.5.i.c.z.8 8 7 8 7 7 7 7 7 8 = &     X X X X O % % * % 3 x x x J G J J Y Y Y Y Y Y Y Y Y Y Y Y Y Y Y Y Y Y Y Y Y Y Y U J G G G G J J J v v v v v v v v v G A X X X X * * * * * * * * > , , , , , , , , , , , , , g A D D D D D D A A A A D D D D D D D D ",
"S S S S S A H S S S S S S S S S S S S J J J J J J J J ! ~ ~ ~ ( ( ( ! J J J D S S S S S S S S S D H S S S S S Z C C C C x x x x x x x x g i g g g g d d d d d d d d g g g x x x x x x x Z A A A A G G G G G G G Y _ _ _ _ _ _ _ _ Y Y U U U U U U Y ( _ _ _ _ _ _ _ _ _ _ _ _ _ _ _ _ _ _ _ _ _ _ _ _ _ _ _ _ _ _ _ _ Y U U A A v x d d d i i i i i i i i i i i i i d d d x x x d d d d x x x d d d d x z.z.z.[ d 2 X X # % % 2 7 g g g D D D D D D D D ( ......{ { { { ' ( ! J D D D Z Z Z C x x x x x x x x x x x x x x x x Z Z Z H H H H H H H H H H H H H H G H H H H H H H H H G A Z Z Z Z Z Z Z Z Z x x Z Z Z Z Z Z Z Z Z Z D H H U E E m m m m , X X X X X X X % i a i * * 7 9 g g Z Z Z v v v Z Z Z v v C C Z Z Z G G J U U U _ ( ( ( ( ( _ ( [ | | | | [ [ [ | ,.,.,.,.,.,.,.,.>.>.>.,.,.,.,.,.,.2.x.z.8 8 7 7 7 7 7 7 7 7 4 & X   X X X X X % % % % * x x x A G G J U Y Y Y Y Y Y Y Y Y Y Y Y Y Y Y Y Y Y Y Y Y Y J J G G G G J G v v v v v v v v v v G , X X X X * * * * * * * * , , , , , , , , , , , , , , 7 A A A D D D D D D A A D D D D D D D D ",
"S S S S S S S S S S S S S S S S S A J J J J J J J J J J ~ ~ ~ ! ! J J J J S S S S S S S S S S S S S S S S S S S Z C C C C x x x x x x x x x g d d d d d d d g d d d d g x x x x x x x x Z A A A A G G G G G Y _ _ _ _ _ _ _ _ _ _ _ _ Y U U U U U U U U U ( _ _ _ _ _ _ _ _ _ _ _ _ _ _ _ _ _ _ _ _ _ _ _ _ _ _ _ _ _ _ U U G A A v d d d d i i i i i i i i i i i d x x d d d d d d x x d d d d d d d d z.z.z.G d , X X X % % 7 7 g g g D D D D D D D D D J { { { { { ' ( ! ! H D D D Z Z Z x x x x x x x x x x x x x x x x g g C Z Z D H H H H H H H H H H H S S S S S S S S S Z Z Z Z Z Z Z Z Z Z Z x u u u a x Z Z Z Z Z Z Z Z A H H H E E m m m m m & X X X X X X X X X X X X X X X X X @ * , 9 d g v Z Z Z Z Z Z Z Z G G G U U U ( ( ( Y Y U U U [ | | | | | | [ } | | >.[ [ >.>.>.,.,.,.,.,.,.>.>.>.,.2.U.8 7 7 8 8 8 8 7 7 8 5 = # X X X X X   O % % % % g x x Z J J J J U Y Y Y Y Y Y Y Y Y Y Y Y Y Y Y Y Y Y Y Y U J J J J G G G v v v v v v v v v v v A X X X X X @ * * * * * * * , , , , , , , , , , , , , , , A D D D D A A A D D D D D D D D D A A ",
"S S S S S S S S S S S S S S S S S H J J J J J J J J J J J J J J J J J J S S S S S S S S S S S S S S S S S S S S S S C Z C C x x x x x x x x g g g g d d d d g g d d g g x x x x x x x x C A A A A G G G U _ _ _ _ _ _ _ _ _ _ _ _ _ _ _ U U U U U U U U U U Y _ _ _ _ _ _ _ _ _ _ _ _ _ _ _ _ _ _ _ _ _ _ _ _ _ _ _ _ _ Y U U A G A d d d d d i i i i i i i i i i d x x d d d d d d d x d d d d d d d d z.z.z.d d , X X X @ > 7 7 g g g S D D D D D D D D D S C J ( ( ! ! ! ! D D D D Z Z C x x x g a a a g x x g g x x x x x g x x Z Z A H H H H H H H H H S Z Z Z Z Z Z Z Z Z Z Z Z Z Z Z Z Z Z Z g u u u u u u x Z Z Z Z Z Z Z D H H H P E B m m m m m & X X X X X X X X X X X X X X X X X X X X X X X X X * * * * * % @ , , 2 i d g g g g x g g g g x A ( | | | } | | | | g g g g g v A J [ _ >.,.>.,.,.,.>.7 7 8 7 8 8 8 8 7 7 8 = &   X X X X     X % % % 7 x x x A G J J J J U Y Y Y Y Y Y Y Y Y Y Y Y Y Y Y U U G G J J J J G G b v v v v v v v v v v v 4 X X X X X X * * * * * * * , , , , , , , , , , , , , , , g D D A D A A D D D D D D D D A A A A ",
"S S S S S S S S S S S S S S S S S S D A S S J J J J J J J J J J J J J S S S S S Z C C C Z S A A S S S S S S S S S S S C C C Z x x x x x x x g g x x x g g d d g d g g x x x x x x g g x x A A A A G G J _ _ _ _ _ _ _ _ _ _ _ _ _ _ _ _ U U U U U U U U U U U Y _ _ _ _ _ _ _ _ _ _ _ _ _ _ _ _ _ _ _ _ _ _ _ _ _ _ _ _ Y U U U U G d d d d i i i i i i i i i i d d x x d d d d d d x x d d d d x x d v z.z.f.d d , X X X X 2 7 7 a g g S D D D D D D D D S y y y C ! ! ! ! J D D D D Z Z x x x g a a a i i i p a a g g g g g g x x x C Z Z H H H G H H H H Z Z Z Z Z Z Z Z Z Z Z Z Z Z Z Z Z Z Z x u u u u u u u u a C Z Z Z Z Z S H H H J E B m m m m m 4 X X X X X X X X X X X X X X X X X X X X X X X X X X X X X X X X X X X X X X X X X X X X X X X X X X X X X X X X X X X X X X X X X X & 7 7 k A _ _ x 7 7 8 8 8 8 8 8 8 8 4 = &       X X X   X X @ % * x x x x x v A G G J J J J J J U U U U U U J J J J J J G J J J G G G b v v v v v v v v v v x , X X X X X X X % * * * * * * > , , , , , , , , , , , , , , 7 A A A A A A A A D D D D A A A A A A ",
"S S S S S S S S S S S S S S S S S S S S S D J J J J J J J J J J J J D S S S S Z C C C C C Z A A S S S S S S S S S S S Z C C Z C x x x x x x x x x x x x g d d g g g x x g g x x x g g g x A A A A G G J _ _ _ _ _ _ _ _ _ _ _ _ _ _ _ _ U U U U U U U U U U U U U Y _ _ _ _ _ _ _ _ _ _ _ _ _ _ _ _ _ _ _ _ _ _ _ _ _ _ Y Y U U Y A d d d i i i i i i i i i i i d d x d d d d x d d x d d d d x x x x G z.z.&.d d 7 X X X X * 7 7 u g g S S D D D D D D D D u y y y C ! ! ! J D D D S Z C x x g a a a a i i i u a a a a a a a a a g g x C Z Z S H G G H H Z Z Z Z Z Z Z Z Z Z Z Z Z Z Z Z Z Z Z a u u u u u u u u u u u u a Z Z Z Z A H H H m m m m m m l - X X X X X X X X X X X X X X X X X X X X X X X X X X X X X X X X X X X X X X X X X X X X X X X X X X X X X X X X X X X X X X X X X X X X @ * 4 8 7 7 7 7 7 8 8 8 8 8 8 8 = = &       X X     X X X X @ u x x x x x x x x x x x x x v G J J J J J J J J J J J G J v v v v k d d d d d d x 9 2 % O X X X X X X X X X X * * * * * * * > , , , , , , , , , , , , * > A A A A A A A D D D D A A A A A A A ",
"A S S S S S S S S S S S S S S S S S S S S D J J J J J J J J J J J J S S S S Z C C Z C C C C Z A S S S S S S S S S S S C C C C x x x x x x x x g g g g g g g d d g x x x x x g x x x x x x Z Z Z A G G G U _ _ _ _ _ _ _ _ _ _ _ _ _ _ Y U U U U U U J G G G U U U U U U ( _ _ _ _ _ _ _ _ _ _ _ _ _ _ _ _ _ _ _ _ _ _ Y U U U U Y x d d i i i i i i i i i i i i i d d d d d d x d d d d g x x x x d d G z.z.U d d i X X X X X 2 7 7 g x D D D D D D D D D D Z u y u S D J J D D D D S Z x x g i a a i i i i u u a p u u a a a a i u u a g x C Z Z A A A Z Z Z Z Z Z Z Z Z Z Z Z Z x a 9 , * @ X X X X X X X X X X X X X X X X @ , 9 a a D 6 - 4 w l l w - - @ X X X X X X X X X X X X X X X X X X X X X X X X X X X X X X X X X X X X X X X X X X X X X X X X X X X X X X X X X X X X X X X X X X X X X X X @ % , 8 8 8 7 7 7 8 8 4 = = & X X   X X X X X X X X X O 3 a d x g d d 7 2 % @   X X X X X X % * * * * * * * * * % % % % % % % % % % % % X X X X X X X X X X X X X X X * * * * * * * * * * > , , , , , > * * * * Z A A A A A A A A A A A A A A A A A ",
"S S S S x g x S S S S S S S S S S S S S S S H J J J J J J J J J J S S S S Z C C Z Z C C C C Z Z S S S S S S S S A A Z C C C x x x x x x x x x g a a g d g g d d g g g g g g g g g g g g g g g x x x G x x x x v A _ _ _ _ _ _ _ _ _ Y U U U U U U J G G G G U U U U U U U U Y _ _ _ _ _ _ _ _ _ _ _ _ _ _ _ _ _ _ _ Y U U U U U Y d i i i i i i i i i i i i i i i d d d d d x x d d x d d d x x d d d G z.z.v d d d X X X X X @ 7 7 g g g S D D D D D D D D D D C S D D D D D D D D Z C x g i a p a i u i i p a a p u u a a a a a a i a a g x x x Z Z Z Z Z Z Z g a a 2 , * @ @ X X X X X X X X X X X X X X X X X X X X X X X X X X X X X - - - - - - - - - $ X X X X X X X X X X X X X X X X X X X X X X X X X X X X X X X X X X X X X X X X X X X X X X X X X X X X X X X X X X X X X X X X X X X X X X X X X X X % 5 7 7 7 8 4 = = = & X X X X X X X X X X X X X         X X X X X X     X X   X X X X X     X X X X X X X X X X @ % % % % % % @ X X X X X X X X X X X X X X X X @ % % * * * * * * * * * * % % % @ O X X X X X X X X X % % , 3 a x A A A A A ",
"S S Z g g g g x S S S S S S S S S S S S S S S S S S S S J J J J H S S A S Z C C Z Z Z C C C C Z C S S S S S S S A S C C C C x x x x x x x g g d a a d d d d d d d d d d g d d d d d d d d d u , % X X X X X X X X x _ _ _ _ _ _ _ Y U U Y U U U U G G G G G J U U U U U U U U U Y ( _ _ _ _ _ _ _ _ _ _ _ _ _ _ ( U U U U U U U v i i i i i i i i i i i i i i i i i d d d d d d d d x x d d d d d d d G z.f.d d d d @ X X X X X * 7 u g g g Z D D D D D D D D D D D D D D D D D D S Z x x a a a a u u u a a a a a a i u i i a i a a a a a a u u u 7 , @ @ X X X X X X X X X X X X X X X X X X X X X X X X X X X X X X X X X X X X X X X X @ - - - - - - - - - # X X X X X X X X X X X X X X X X X X X X X X X X X X X X X X X X X X X X X X X X X X X X X X X X X X X X X X X X X X X X X X X X X X X X X X X X X X X X % , = = = = = = @ X X X X X   X     X X X X X X     X X X X X X     X X     X X X X         X   X X X   X X X % % % % % % % X X X X X X X X X X X X X X X X X X X X X X X X X X X X X X X X X X X X X X X X X X X X X X X X X X O % 3 u ",
"Z Z g g g g g g x S S S S S S S S S S S S S S S S S S S S J J J S S S A Z Z C C Z Z Z Z C C C Z C C Z S S S S Z Z C C C C x x x g g x x x g g d a d d d d d d d d d d d d d d d d d 9 , % X X X X X X X X X X X X @ U Y Y _ _ ( U U U Y Y U U J G G G G G G G G G G J U U U U U U U U Y _ _ _ _ _ _ _ _ _ _ ( Y U U U U U U U A i i i i i i i i i i i i i i i i i i i i d d d d d x x x d d d d d d d A z.G d d d d @ X X X X X X > 7 g g g g S D D D D D D D D D D D D D D D D D S Z x a u a a i i u u a a a a a u 9 7 , , , % % % @ X X X X X X X X X X X X X X X X X X X X X X X X X X X X X X X X X X X X X X X X X X X X X X X X X X X - - - - - - - - - - = # # = = = = = $ # @ @ X X X X X X X X X X X X X X X X X X X X X X X X X X X X X X X X X X X X X X X X X X X X X X X X X X X X X X X X X X X X X X X X X X X X X X X X X X X X X X           X X X X X X X X X X X X X     X X     X X X X         X X X X X   X X X O % % * * 1 1 = @ X X X X X X X X X X X X X X X X X X X X X X X X X X X X X X X X X X X X X X X X X X X X X X X X X X X X ",
"X @ , 3 a a g g g C S S S S S S S S S S S S S S S S S S S S D D S S S Z C C C C C C C C C C C C C C C C C C C C C C g a u u u u u u u u u u u u d d d d d d d d d d d i u 9 , * O X X X X X X X X X X X X X X X X X @ x U U U v x 7 * % * 9 Z G G G G G G G G G G G G G G J U U U U U U U U Y ( _ _ _ _ _ Y U U U U U U U U A i i i i i i i i i i i i i i i i i i i i i i i d d d d d d d d d d d d d g d d d d d d X X X X X X X X * u g g g g S D D D D D D D D D D D D D D D D Z x a p p p 9 9 9 , , * % % X X X X X X X X X X X X X X X X X X X X X X X X X X X X X X X X X X X X X X X X X X X X X X X X X X X X X X X X X X X X X X X @ - - - - - - - - - - - - - - - - - - - - - - $ - & # X X X X X X X X X X X X X X X X X X X X X X X X X X X X X X X X X X X X X X X X X X X X X X X X X X X X X X X X X X X X X X X X X X   X X X X X X X X X X X X X X X X     X X X X X X       X   X X X X   X     X X X X       X X @ % * 4 8 4 4 4 4 4 * X X X X X X X X X X X X X X X X X X X X X X X X X X X X X X X X X X X X X X X X X X X X X X X X X X X ",
"X X X X X X X X * * , 7 7 u u u u u u u u u u u u a g g g g g g g g a a a a a a a a a a a a p 7 7 7 7 7 7 3 2 @ X X X X X X X X X X X X X X X X X O @ @ @ @ @ @ @ @ X X X X X X X X X X X X X X X X X X X X X X X X X X X X X X X X X X X X X X , u v G G G G G G G G G G G G J U U U U U U U U U U U U U U U U U U U U U x i i i i i i i i i i i i i i i i i i i i i i i i i i i a d d d d d d d d d g d d d d d 7 X X X X X X X X X X , a g g g Z D D D D D D D D D D g 7 > @ X X X X X X X X X X X X X X X X X X X X X X X X X X X X X X X X X X X X X X X X X X X X X X X X X X X X X X X X X X X X X X X X X X X X X X X X X X X X X X @ - - - - - 5 6 6 0 6 6 ; - - ; 6 6 0 0 0 0 0 0 0 0 0 0 6 8 1 - & % # X X X X X X X X @ @ @ @ @ @ @ @ @ @ @ @ @ @ @ @ @ % % % % % @ X X X X X X X X X X X X X X % 7 0 v k 0 8 4 4 1 * @ X   X X X X     X X X X X X X X X X X   X X X X X X       X     X X X X       X X X X X     X % * , 8 8 8 4 4 4 4 4 8 4 @ X X X X X X X X X X X X X X X X X X X X X X X X X X X X X X X X X X X X X X X X X X X X X X X X X ",
"X X X X X X X X X X X X X X X X X X X X X X X X X X X X X X X X X X X X X X X X X X X X X X X X X X X X X X X X X X X X X X X X X X X X X X X X X X X X X X X X X X X X X X X X X X X X X X X X X X X X X X X X X X X X X X X X X X X X X X X X X X X X @ , u v A G G G G G G A Z Z A G U U U U U U U U U U U U U U U A a i i i i i i i i i i i i i i i i i i i i i i i 9 7 7 7 7 7 7 7 7 7 7 7 , , , * @ @ @ @ @ X X X X X X X X X X X X X @ , u u a a g g g u 3 * @ X X X X X X X X X X X X X X X X X X X X X X X X X X X X X X X X X X X X X X X X X X X X X X X X X X X X X X X X X X X X X X X X X X @ % % & 4 4 4 4 & % % @ @ @ @ @ # - - - - ; 6 0 0 0 0 0 0 0 6 6 0 0 0 0 0 0 0 0 0 e b b b z l l e w 0 0 0 0 0 6 = & & % % % % % % % % % % % % % % % % % % % % % % % * 0 , , , 4 % * 4 4 4 l K K P T T c v v v v k 4 4 4 4 4 4 , , = & & & @ @ @   X X X X X X       X X X X X     X X X X X X X X X X X X X X X X @ * = 4 8 8 8 8 8 8 8 8 4 4 8 8 8 = X X X X X X X X X X X X X X X X X X X X X X X X X X X X X X X X X X X X X X X X X X X X X X X X ",
"X X X X X X X X X X X X X X X X X X X X X X X X X X X X X X X X X X X X X X X X X X X X X X X X X X X X X X X X X X X X X X X X X X X X X X X X X X X X X X X X X X X X X X X X X X X X X X X X X X X X X X X X X X X X X X X X X X X X X X X X X X X X X X X X X X * * 7 7 u u u u u u u u u a i g v v v v v x i 9 7 7 7 7 7 7 > > * > * * * @ @ O O O @ X X X X X X X X X X X X X X X X X X X X X X X X X X X X X X X X X X X X X X X X X X X X X X X X X X X X X X X X X X X X X X X X X X X X X X X X X X X X X X X X X X X X X X X X X X X X X X X X X X X X X X X X X X X X X X X X X @ & 4 8 0 e e e e e e e e e e e e k ; - - - - - - - - - 6 0 0 0 0 0 0 0 0 0 0 0 0 0 0 0 0 0 0 w z z b b b b b b b b z z e 0 0 0 0 0 0 0 6 8 8 8 4 1 4 4 0 0 0 2 , % % % % % % % % P P P T T T P b l G P T T P P P P P b v v v v x 4 4 4 4 4 4 4 4 4 4 4 4 4 4 4 4 4 , & # X     X X     X X X   X X X X X X X X X X X X X X % 4 8 8 8 4 4 8 6 0 w w e w w w 0 8 8 8 4 X X X X X X X X X X X X X X X X X X X X X X X X X X X X X X X X X X X X X X X X X X X X X X X ",
"X X X X X X X X X X X X X X X X X X X X X X X X X X X X X X X X X X X X X X X X X X X X X X X X X X X X X X X X X X X X X X X X X X X X X X X X X X X X X X X X X X X X X X X X X X X X X X X X X X X X X X X X X X X X X X X X X X X X X X X X X X X X X X X X X X X X X X X X X X X X X X X X X X X X X X X X X X X X X X X X X X X X X X X X X X X X X X X X X X X X X X X X X X X X X X X X X X X X X X X X X X X X X X X X X X X X X X X X X X X X X X X X X X X X X X X X X X X X X X X X X X X X X X X X X X X X X X X X X X X X X X X X X X X X X X X X X X X X X X X X @ % 4 6 0 e e e e e e e e e e e e e e e k c G G G 8 - - - - - - - 5 6 6 0 0 0 0 0 0 0 0 0 0 0 0 0 0 0 0 0 l b b b b b b b b b b b b b 0 0 0 0 0 6 6 0 0 0 0 0 0 0 c b b b b b b % % % % % % v P P T [ %._ T P P P P T T T %.,.P P P P G v v v k 4 4 4 4 4 4 4 4 4 4 4 4 4 4 4 4 4 4 4 4 4 * # @       X X X X X X X X X X X X X X @ = w w 0 0 0 w w w w w w w w e e w w w w w 6 6 4 X X X X X X X X X X X X X X X X X @ = = - - = = = = = = = = & & = & & & # @ @ @ @ @ @ X X @ ",
"% % % , , , 4 8 8 8 8 8 8 0 0 0 0 0 i d d d k k k 8 8 8 8 8 , , , , * % % % X X X X X X X X X X X X X X X X X X X X X X X X X X X X X X X X X X X X X X X X X X X X X X X X X X X X X X X X X X X X X X X X X X X X X X X X X X X X X X X X X X X X X X X X X X X X X X X X X X X X X X X X X X X X X X X X X X X X X X X X X X X X X X X X X X X X X X X X X X X X X X X X X X X X X X X X X X X X X X X X X X X X X X X X X X X X X X X X X X X X X X X X X X X X X X X X X X X X X X X X X X X X X X X X X X X X X X X X X X X X X X X X X X X X X X X X X X X @ % * 4 6 0 e e e e e e e e e e e e e e e l l c b A K G G G G G G b 8 ; ; ; 5 6 0 6 6 0 0 0 0 0 k k k k k k k k k k k k b b b b b b b b b b b b b b w 0 0 0 0 6 0 0 0 0 0 0 0 e b b b P P b b & % % % % 9 2.,.2.2.2.2.2.&.P P P P T T &.2.2._ P P T T P b v v 0 4 4 4 4 4 4 4 4 4 4 4 4 4 4 4 4 4 4 4 4 4 4 4 4 4 4 , 1 1 1 , = = , 4 4 4 4 5 6 w w w w w w w w w w w e e w w e e w w w w w w w w 8 5 ; ; - = # @ X X X X X X X X # - = = - - = = = = = = = = = = = = - - = = = = = = - - - - ",
"0 0 0 0 0 0 0 0 0 0 0 0 0 0 0 i v S S S S S Y Y Y U 0 0 0 0 0 0 0 0 0 s k l 4 % % @ X X X X X X X X X X X X X X X X X X X X & 4 8 8 8 8 8 6 5 4 4 - = = = & & & & & & @ @ @ @ @ X X X X X X X X X X X X X X X X X X X X X X X X X X X X X X X X X X X X X X X X X X X X X X X X X X X X X X X X X X X X X X X X X X X X X X X X X X X X X X X X X X X X X X X X X X X X X X X X X X X X X X X X X X X X X X X X X X X X X X X X X X X X X X X X X X X X X X X X X X X X X X X X X X X X X X X X X X X X X X X X X X X X X X O O @ @ @ % % % % @ @ @ @ X X @ @ @ * 0 e e e e e e k l v b b b G G G G G G G G G G G G K G G G G G G G G U l v G G ( ( ( { ' ( ! J ! ! J J J J J J J J J J ( P P K b b b b b b b b b b b e 0 0 0 0 0 0 0 0 0 0 0 0 l b K %.&.&.+.B 2 % % % % Y 2.2.2.2.2.2.2.2.[ P P P P &.2.2.2.,.P P P T T P c v v 8 4 4 4 4 4 4 4 4 4 4 4 4 4 4 4 4 4 4 4 0 0 0 0 0 0 0 0 k k k 0 6 8 4 8 6 e k e e w w w w e k e e e k z z z b m m m m e w w w w w w w 6 5 5 5 5 5 5 4 % X X X X & = = = = - - - = = = = = - - = = = = - - - - = = = = 4 8 8 8 ",
"0 0 0 0 0 0 0 0 0 0 0 0 0 0 x S S H Y U J J Y Y Y Y A 0 0 0 0 0 s c b b b b b % % % % % % % % % 4 4 4 4 % X X X X X X X X 4 0 0 w e l e 6 6 0 0 0 0 6 4 ; - - - - - - - - - - - - - - = = = & @ @ X X X X X X X X X X X X X X X X X X X X X @ # # # # @ @ X X X X X X X X X X X X X X X X X X X X X X X X X X X X X X X X X X X X X X X X X X X X X X X X X X X X X X X X X X X X X X X X X X X X X @ @ @ @ & % @ X X X X X @ % % % % 4 4 4 4 6 q q q q q 5 6 6 5 * * * * % X X X X X X X X X X X @ @ @ @ @ @ X X @ @ @ @ @ @ % = - 1 1 1 1 1 1 & @ @ @ @ @ 1 w e e e k l b G G G G G G G G G G G G G G G G G G G G K G G G G G U ( { { { { { { { { { { { { { { ' ( J J J J J J J J J J ..y.y.y.y.u.d.d.5.2.+.) T B b e 0 0 0 0 0 0 0 0 0 0 0 0 c M T &.&.&.#.T 2 % % % % ,.2.f.z.z.9.2.2.2.2._ P T &.2.2.2.2.2.&.P P P T T P K v l 4 4 4 4 4 4 4 6 i i i i i i i H U U U U U U U U U U c k k k k k k b m m m m m m m m m m m m m m m m B B m m B B m m z w w w w w w w w w w 5 5 5 5 5 4 X X X # = = = = = ; 4 4 4 4 4 4 - - - = = = = - - - - = = = 4 6 6 8 8 ",
"0 0 0 0 0 0 0 0 0 0 0 0 0 Z S S H Y Y Y Y Y Y ( ( ( Y 0 0 0 k b b b m m b m F 0 % % % % % % % % 4 4 4 e e e 8 & X X o o % 6 0 0 l l l l e 6 6 6 0 0 q q 6 6 4 ; - - - - - - - - - - - - - - - - - - - - = = % % % % % X X X X X X X X X X # # # # # # # # # # # # # @ @ @ o X X X X X X X X X X X X X X X X X X X X X X X X X X X X X X X X @ @ @ @ X X X X X X X X X X X X X X O @ # & & - - 4 4 4 4 4 6 e e e e e e e e e e e e e e e e e e e e e e e e z m m m m m m m m m m m m m m z w 6 8 4 4 4 4 4 4 4 = = @ % * = = - - 1 1 1 1 1 1 1 1 1 % @ @ @ 8 e e e l A K G G G G G G G G G G G G G G G K K G G K G G G G G K U ' { { { { { { { { { { { { { { { { { { ' J J J J ! ! ! J J ` <.y.y.u. X X X X~.~.R.I.M.m.i.y.y.>.G w 0 0 0 0 0 0 0 b b P &.&.9.f.&.2 % % % % 2.v.I.I.I.I.v.5.2.2.2.,.2.2.2.2.2.2.2.2.&.T T P T T P P v x 8 8 0 0 k { ......<.<.X...........{ ' ( ( Y U U U [ b k k k k z m m m K [ [ [ _ _ I K m m m m m m m m m m m m m m m e w w w w w w w w w w w 6 5 5 5 & X X = = = - 8 8 8 8 8 8 8 8 8 8 8 8 4 - - - = = = = = = ; 8 8 8 8 8 ",
"0 0 0 0 0 0 0 0 0 0 0 0 Z S S H Y Y Y Y Y Y Y ( ( ( Y k l b b b b b m m m m P P % % % % % % % % 4 4 4 e e e e e 5 & & & & & * 5 l l l l l e 6 0 0 w e w 6 0 0 6 8 4 ; - - - - - - - - - - - ; 4 5 6 6 6 q l l l l l l 4 4 4 @ X X X X X # # # # 4 4 4 - = & # # # # # # # # # # # # @ % & % % & % % @ X X X X X X X X X % % % % % % % % = 4 4 4 4 4 4 4 - = & & & & & - - - 4 4 4 4 4 4 4 4 4 4 4 4 4 w e e e e e e e e e e e e e e e e e e e e e e e e l m m m m b b m m m m m m m m m m m m m m m m m m m m m m b l k e e 4 - 1 1 1 1 1 1 1 1 1 - @ @ @ 8 e k A G G K G G G G G G G K K G G G G G G G K G K G G G G G U ' { { { { { { { { { { ..X.X.X.O.O.O.O.{ { { ! J J ! J ! ! J J ! ` ..<.u.h.y.y.y.y.y.y.y.y.y.y.y.y.3.X.....X.X.......O.y.3.a.@X3X3X3X3Xv % % % % f.I.I.I.I.I.I.H.2.2.2.2.2.2.2.2.2.2.2.2.2.[ T P T P P P v v v v v c c ' ..y.m.m.m.n...........O.........<.u.p.p.3.[ U v x m m m P [ [ [ [ [ [ [ [ [ P m m m m m m m m m m m m m m e w w w w w w w w w w w 6 5 5 = X X = = 4 8 6 i a g Z Z Z Z Z v 0 8 8 8 8 4 - = = = = 4 8 8 8 8 8 8 ",
"k Z 0 0 0 0 0 0 0 0 0 x S S D Y Y Y Y Y Y Y Y Y ( >.>.K m b b b m m m b K P T P 0 % % % % % % % 4 4 4 e e e e e e e 8 1 & & & & 6 l l l l l w 0 w l l l e w w 6 0 0 0 6 5 4 ; - - - - ; 4 6 q q 6 6 0 0 w l l l l l l 4 4 4 X X X X X @ # # # # 4 4 4 4 4 4 4 ; = & # # = = 4 8 0 w k k k k k k k k l l l k k k k k k k k k k k k k k l 0 8 4 4 4 4 4 4 4 4 4 4 4 4 4 4 4 4 4 4 4 4 4 4 4 4 4 4 4 4 w e e e e e r l z z z m m m z z n z z z r e e e e r m m m m m m m m m m m m m m m m m m m m m m m m m m m m m m m z k k k 4 1 1 1 1 1 1 1 1 1 1 @ @ @ , e b G U ( _ | | | [ Y G G G K A Z A G G G G G G G G G G G U { { { { { { { { { ..O.O.O.O.O.O.O.O.O.O.{ { { ! J J J J ! ! ! J ! { { O.>.y.y.y.y.u.u.y.y.y.y.y.<.X.........X.X...O.a.n.C.C.C.}.3X3X3X3Xv % % % % 9.I.I.I.I.I.I.I.z.2.2.2.2.2.2.2.2.2.2.2.2.&.T P T 5.C.[ v v v v v v v ( ..n.m.N.m.n...........).).y...u.p.p.p.p.p.2.[ [ T K K T [ [ [ [ [ [ [ [ [ [ [ [ P m m m K P T T T P K m m m e w e e e w w w w w w w 5 5 - X X = 8 8 0 a g Z Z Z Z Z Z Z Z Z i 8 8 8 8 8 6 4 4 8 8 8 8 8 8 8 6 ",
"S S 0 0 0 0 0 0 0 0 i S S S Y Y Y Y Y Y Y Y Y Y Y >.,.,.K b b b b b K I P P T P P * % % % % % % 4 4 8 e e e e e e z m m , & & & * l l l l l l e l l l l l l l l k e w w q 0 6 6 0 0 0 0 w e l l e 0 0 e k l l l l l l 4 4 @ X X X X X # # # # = 4 4 4 4 4 4 4 4 8 w k k k k k k k k k k k k k k k k l l l l k k k k k k k l l l b P T T T T l e e w 0 8 4 4 4 4 4 4 4 4 4 4 4 8 8 4 4 4 4 4 4 4 4 4 e e e e r z m m m m m m m m m m m m m m m m z z z m m m m m m m m m m m m m m m B L I I B m m l k k e l z m m m m m l k k k 4 - 1 1 1 1 1 1 1 1 % @ @ % k G K :.>.>.>.>.>.>.>.:._ K K Z C C C Z A G G G G G G G G { { { { { { { { ..O.O.O.O.O.O.O.O.O.O.O.O.{ { ' J J J J ! ! ! ! J J ' { ..O.O.y.y.u.a.a.u.y.y.y...............X.X.<.y.a.n.C.C.C.'.3X3X3X3Xv % % % % 5.oXoXoXoXoXoXT.I.2.2.2.2.2.2.2.2.2.2.2.2.&.T ,././.m.v v v v v v v v { ..y.m.N.N.N.<.........O.+X+XZ.p.p.p.p.p.p.p.2.[ [ [ [ [ [ [ [ [ [ [ [ [ [ [ [ [ [ I B T T T T T T T T P K m m l e e e w w w w w w w 5 5 ; X X & 8 6 a Z Z Z Z Z Z Z Z Z Z Z Z 0 k k x x l 6 8 8 8 8 6 0 0 k x ",
"S S x i 0 0 d d x x Z S S J Y Y Y ( Y Y Y Y Y Y Y | ,.,.,.P m K P T T P P P P P T k % % % % % , 4 4 w e e e e r n m m m w & & & & 6 l l l l l l l l l l l l l l l l l l l l e e e e l l l l l l l e 0 l l l l l l l l # X X X X X X @ # # # # 4 4 4 4 4 4 4 0 e k k l l l l k k l l l l k k l l b b b b z l l k k k l l l l K T T T T T T T T l e e e e e e w w e e e e e e e e e e e 0 4 4 4 4 4 6 e e r m N N B B B B B L L L I L L B N m m m m m m m m m m m m m m m m m m m B L I I I I L m l k e e e e k l z m m m b k k k e 4 1 1 1 1 1 1 1 1 % @ @ @ l G Y >.>.>.>.>.>.>.>.>.>.:.[ A C C C C C C Z G G G G G ( { { { { ` { { { O.O.O.O.O.O.O.O.O.O.O.O.X.{ { ! J J J ! ! ! J J J J ( { { O.O.O.<.y.u.a.a.u.y.y.3.............X.<.y.u.a.n.n.C.C.'.<X3X<X<Xv % % % % i oXoXoXoXoX XI.I.2.2.2.2.2.2.2.2.2.2.2.2._ 2./././.G v v v z c v v U ....O.n.N.m.N.<...........n.+X+Xx.p.p.p.p.p.i.i.u.u.u.u.u.u.u.u.u.3.<.<.<.<.<.<.<.y.u.,.[ T T T T T T T *.6.#.m P P I b w w w w w w w 5 5 ; X X X 8 i a Z Z Z Z Z Z Z Z Z Z Z Z v x x x x k 0 0 i k k x x x x A ",
"J J S S S S S S S S S S S Y Y Y ( ( Y Y Y Y ( ( Y [ ,.,.,.,.+.T T T T T P P P P T P * % % % = 4 4 8 e e e e l m m m m m z & & & & = l l l l l l l l l l l z l l l l l l l l l l l l b +.@.K l l l l l l l l l l l l = X X X X X X X # # # # = 4 4 4 4 0 w k l l k k l k l l k k l l b m P P T T T T T T T T T P K b l l z T T T T T T T T T T T b e e e e e e e e e z B B B m z l e e e 4 4 4 4 4 6 n L I I I I I I I I I I I I I I I I I I I L L B V B B B B B B B B B B L L I I I I I P P I m k k e k k e k k e l m m m l e e k 0 1 = 1 1 1 1 1 1 % @ @ @ i G K :.>.' H C C C C J ( ..>.{ J S Z C C C C Z Z G G G { { { { { ` { { { O.O.O.O.O.O.O.O.O.O.O.O.X.{ { ! J J J J ! ! J J J J ! { { X.O.O.O.y.y.u.a.a.u.y.y.<...........3.y.y.a.a.n.n.C.C.'.$X3X<X%Xv % % % % % [.oXoXoXoXE.I.H.2.2.2.2.2.2.2.2.2.2.2._ 2./././.| v v v c c v v J ......O.y.N.N.C.<.............).+X+Xp.p.p.p.p.i.i.p.p.p.p.p.p.i.i.i.i.i.i.p.p.i.i.p.p.p.p.p.h.R.;X5X9X9X9X4XR.m.5.4.4.4.,.P F b e w w w w 6 5 X X X * a a x Z Z Z Z Z Z Z Z Z Z Z Z v x x x x x x x x l l x x A ` ",
"J J J S S S S S S S S S S S J Y ( ( Y ( &.%._ _ _ >.,.,.,.,.,.&.+._ _ +.%.>.,.,.,.,.,.k 4 4 4 4 8 e e e e z m m m m m m m & & & & & w l l l l l z c A G G G G G A c l l l l l l l I *.*.*.T N z l l l l l l l l k = X X X X X X X @ # # # & 4 4 8 w k k k k l k k k k k l k z B P T T T T T T T T T T T T T T T T T T B P T T T T T T T T T T T T P K K l e l z m B B B B B B B B m e e 4 4 4 4 4 B I T +.+.+.>.>.2.u.u.i.i.i.i.i.i.i.i.i.u.3.>._ I I I I I +.@.+.+.T P P I I I I I I I P E @.K b k e e k k k k k k l m m z e e k e 1 @ = 1 1 1 1 1 @ @ @ @ 0 G G U J g g g g g g g g g Z ( | >.>.>.| U Z Z Z Z A U { { { { { { { { { X.O.O.O.O.O.>.O.O.O.O.O.X.{ { J J ! ! ! ! ! ! J J ! J { { ..O.O.O.O.y.y.u.a.a.u.y.y.y.<.<.<.y.y.y.u.a.a.n.n.C.C.).'.<X<X9.7 % % % % % 2.oX X[.I.I.I.z.2.2.2.2.2.2.2.2.2.&.T %././.C...( c v v c c v J ......O.O.O.n.m.C.u.............O.+X+XC.i.p.p.p.i.i.p.p.p.p.p.p.p.p.p.p.i.i.p.p.p.p.i.p.h.R.%X9X4X2X2X2X1X1XM.m.m.m.m.5.2.2.,.P K K F l e w w w @ X X @ a a g Z Z Z Z Z Z Z Z Z Z Z Z Z v x k k x x x x l l x J ` ` ",
"J J J S S S C C C C C C S S S S D J U _ ,.,.,.,.,.,.,.,.,.,.,.,.,.,.4.5.5.5.,.,.,.,.,.8 4 4 8 0 e e e l m m m m m m m m m & & & & & 5 l z c A G G A G G G G G G G G G G A b c A @.*.*.*.*.T N N N n z n l l l l 4 X X X X X X X X # # # # - 8 e l l l k k k k k k k l m P T T T T T T T T T T T T T T T T T T T T T T T T T >.>.>.>.%.} [ [ [ &.i.h.h.h.h.I B B B B I E +.+.T P B B B e 4 4 4 4 J i.i.i.i.i.i.i.i.i.i.i.i.i.i.i.i.i.i.u.3.<.<.<.3.i.m.M.M.M.I.I.M.M.} { { { ..I.E.E.E.E.E.R.R.H.m z e e k k k k k k z m m m k e k k 4 @ @ 1 1 1 1 = @ @ @ @ x G G G x g g g g g g g g g g g g C D J ( [ / Z Z Z C Z ' { { { { ` { { { { O.O.O.O.O.O.O.O.O.O.O.X.{ { J J ! ! ! ! ! J J ! ! J { { { O.O.O.O.y.y.y.a.a.a.a.u.y.y.y.y.y.y.u.a.a.a.n.n.n.C.C.'.'.(.*.b % % % % % 9 I.I.I.I.I.I.5.2.2.2.2.2.2.2.2.v G P M./.m.......{ G c v A { ..O.O.O.O.O.O.y.C.'./...............V.+X+Xa.p.p.p.i.i.p.p.p.p.p.p.p.p.p.i.i.i.p.p.p.p.i.p.p.p.p.i.i.p.i.i.i.i.p.m.m.m.m.h.2.2.4.,.K K K K K b w w & X X X 9 a a Z Z Z Z Z Z Z Z Z Z Z Z Z Z Z v x x x x x v v ! ` ` ` ",
"J J ! S S C h h h h h h h C C S S S S S / | ,.,.,.,.,.,.,.,.,.,.,.v.I.H.H.J.I.I.H.H.J.J.P e e e e l n m m N N m m m m m z & & & & & * l G G G G G G G G G G G G G G G G G G G P *.*.*.*.*.I N N N N N N z l l e 4 X X X X X X X X # # # & 0 k k l l l l l l z m P P T T T T T T T T T T T T T T T T T T T T T T T T T T T %.>.>.>.,.,.>.>.>.u.x.h.h.x.M.I.I.I.I.M.I.f.6.6.6.6.6.2.I B 0 4 4 4 0 i.i.i.i.i.i.i.i.i.i.i.i.i.i.i.y.3.X.X.X.X.<.<.<.<.<.<.3.i.c.M.I.M.M.4.} } } } ..I.M.v.v.d.i.<.>.[ m l k e e e k k k l m m m l e k k 6 @ @ % 1 1 1 * @ @ @ @ A G G G g g g g g g g g g g g g g g x C Z Z C Z Z Z C C J { { { ` ~ ` { { { O.O.O.O.O.O.O.O.O.O.O.O.{ { ! ! J J J J ! ! J J J ( { { { O.O.O.O.y.y.y.p.p.a.a.a.a.p.p.u.a.a.a.a.a.a.n.n.n.C.C.S.).R.,.P % % % % % % d.I.I.I.I.v.2.2.2.2.2.2.2.} 4 % i } n.3.............O.r.r.O.O.O.O.O.O.t.t.a.'.'.'.y...............'.+X).p.p.p.p.p.p.p.i.i.i.p.p.p.p.p.p.p.p.p.i.p.i.i.p.p.p.p.p.p.p.p.p.i.i.c.m.m.m.m.4.4.2.2.%.K K K F F w w 1 X X X % a a g Z Z Z Z Z Z Z Z Z Z Z Z Z Z Z Z Z Z Z Z Z ! ` ` ` ` ",
"J J ! H S h h h h h h h h h h h C C S S S S S ( >.:.,.,.,.,.,.,.,.5.5.5.5.5.,.,.,.2.f.J.H.L m m m m m m m N m m m m m m e & & & & & & e A G G G G G G G G G G K +.T G G G G G @.*.*.*.*.#.N N N N N N N l l l 8 4 @ X X X X X X X @ # # 4 k k k b T _ _ [ [ T +.,.d.x.m.M.M.m.c.c.5.f.+.T T T T T T T #.9.l.l.z.oX3X#.T T >.>.2.5.5.5.,.>.>.h.x.h.h.x.x.M.I.I.I.I.I.oXoXoXoXoXoXoXXXL 4 4 4 4 i.x.x.i.i.i.a.i.i.i.i.i.u...' ( ( ( ( ( ( ( ( ' { } ..X.X.<.<.3.3.3.u.4.} } } { { ' ' | | | | | | | P b k e e e k e k e z z z k k k k 6 * @ @ % - 1 @ @ @ @ @ G G G v g g g g g g g g g g g g g g g g g g g g x C C C C ` ' ( ( ~ ( ' { { ..O.O.O.O.O.O.O.O.O.O.O.{ { { ` ( ( ! ! ! ! ! ( ' { { { { O.O.O.O.y.y.u.a.p.a.a.a.a.p.a.a.p.a.a.a.a.b.n.n.n.V.C.C.C.n.,.%.% % % % % % A I.I.I.I.z.2.2.2.2.2.,.k % % % g ........X.3.p.a.a.y.p.a.a.a.O.O.O.O.t.r.t.'.'.'.D...............y.+X+Xn.i.p.p.p.p.p.i.i.p.p.p.p.p.p.p.p.p.p.i.u.u.p.p.p.p.p.i.i.p.p.p.i.i.c.m.m.m.m.d.4.2.2.2.P K K F F e w 6 X X X X 7 a a Z Z Z Z Z Z Z Z Z Z Z Z Z Z Z Z Z Z Z S ( ` ` ` ` ` ",
"J ! ! H S h h h h h h h h h h h h h h C S S S S S ! ! ( :.,.>.` ` `  ...........X.>.,.d.J.z.m m m m m m m m m m m m m m 8 & & & & & & 8 c G G G G G G G G G G T *.*.@.K G G +.*.*.*.*.*.W N N N N N N l l l e 4 4 # X X X X X X X X # # k K } 4.u.u.u.u.u.u.u.x.x.n.M.M.C.(.XX_.M.M._.XXE.9.+.T +.2.z.c.c.c.I._.7X7X9.T T ,.9.9.5.5.5.,.>.u.h.h.h.h.h.h.x.M.I.I.I.I.oXoXoXoXoXoXoX[.6 4 4 4 ( ).).).).).C.a.a.a.i.>.( ( ( ( ( ( ( ( ( ( ( ( ! ( } { { { { } { } { } } } { ' ' ' ' ' ' | | | | | | | m z e e k k k k k e k k k k k k 6 8 @ @ @ @ @ @ @ @ @ > G G G g g g g g g g g g g g g g g g g g g g g g g g C C C J ! ( ( ( ( ` { { { O.O.O.O.O.O.O.>.O.O.O...{ { { { { { { { { { ` { { { { ..O.O.O.<.y.u.a.a.a.a.n.b.a.a.a.a.a.a.b.j.j.n.n.n.n.n.C.C.C.n.,.,.% % % % % % * H.I.I.I.I.I.H.z.2.x % % % % 2 { ....X.u.a.a.a.a.a.a.a.a.a.a.3.<.O.O.O.r.O.S.'.'.'.y.............../.@X+Xi.i.p.p.p.i.i.i.p.p.p.p.p.p.p.u.y.<.<.<.<.i.p.p.i.i.i.i.p.p.p.p.i.x.m.m.m.m.m.9.2.2.4.%.K K K K b w 0 X X X X % a a x Z Z Z Z Z Z Z Z Z Z Z Z Z Z Z Z Z J ` ` ` ` ` ` ` ",
"J J ! J S C h h h h h h h h h h h h h h h C C S S S J ! ! { ..` ` ` ` ` ` ..............d.J.6.m m m m m m m m e e e e 8 1 & & & & & & , l G G G G G G G G G G G K T +.*.@.*.*.*.*.*.*.*.V N N N N N l l l l 4 4 4 * X X X X X X X X X u a.a.a.i.u.u.u.u.u.h.x.x.m.M.M.R.XXXXXXXX}.R.(.XXXXXXXX_.E.W.W._. XXXXX*X7X#Xu d T 5.9.9.5.5.5.,.>.h.h.h.h.h.h.h.x.h.m.I.I.I.XXoXoXoXoXoXoX_ 4 4 4 8 h.).).).).).)./.a.<.} ' ( ( ( ( ( ( ( ( ( ( ( ( ( ! ' { { } { { { } { { } { ' ' ' ' ' ' ' ' | | | | | | _ m k e k k k k e e k k k k k e 0 6 4 @ @ @ @ @ @ @ @ a G G v g g g g g g g g g g g g g g g g g g g g g g g C C C J ! J ! ( ( ( ' { { O.O.O.O.O.O.O.O.O.O.O.O.{ { { { { { { { { ` ` { { X.O.O.O.O.<.y.y.a.a.a.a.a.n.n.n.j.j.n.n.n.n.n.n.n.n.n.n.n.C.C.C.C.,.,., % % % % % % [ I.I.I.I.I.v.A % % % % % 2 { ....>.n.C.(.'.$X3X$Xj.a.a.a.a.3.3.O.O.O.O.O.a.'.'.'.C...............a.@X@XZ.i.p.p.i.i.i.i.p.p.p.p.p.u.3.<.<.<.<.<.y.i.p.p.i.i.i.i.p.p.p.p.i.i.m.m.m.m.m.c.9.2.4.4.P K K K K l w X X X X X y a a g Z Z Z Z Z Z Z Z Z Z Z Z Z Z A ( ` ` ` ` ` ` ` ` ",
"J J J S S C h h h h h h h h h h h h h h h h h h j S S J ! ^ a...` ` ` ` ` ` ` `  .........l.H.W E I B m m m m l e e e 8 1 & & & & & & * l b G G G G G G G G G G G G G ( *.*.*.*.*.*.*.*.N B B B N l l l l 0 4 4 4 1 X X X X X X X X h N.N.N.N.N.N.i.u.u.h.x.x.m.C.M.Y.XXXXXXXXXXXXXXXXXXXXXXXXXXXXXXXXXXXXXX*X7X7X>.u u T 5.5.5.5.5.5.,.3.h.h.h.h.h.h.x.x.h.h.n.I.I.W.oXoXoXoXoX[.4 4 4 4 >.C.).).).).).)./.>.{ { ' ( ( ( ( ! ! ! ! ( ( ( ( ! ! ( { { { { { } } { { { ' ' ' ' ' ' ' ' ' ' | | | | | | K z k k k k k k k k e e e k k 0 6 6 4 @ @ @ @ @ @ @ g A A g g g g g g g g g g g g g g g g g g g g g g g g C Z Z S J J J J ~ ~ ` { { X.O.O.O.O.O.O.O.O.O.O.O.O...{ { { { { { { { ..O.O.O.O.O.O.<.y.y.u.a.a.a.a.a.k.n.n.n.n.n.n.n.n.n.n.n.n.n.n.C.C.C.C.C.,.*.0 % % % % % % 4 I.I.I.v.( > % % % % % u { ....>.C./.3X3X3X3X3Xj.a.a.a.a.p.O.<.O.O.O.O.O.O.`.'.'.'.O.............y.).+X+Xx.p.p.p.p.p.p.i.i.i.u.<.<.<.<.<.<.<.<.u.i.i.i.i.p.p.p.i.i.i.i.p.p.m.M.(.C.m.m.m.d.2.4.,.K F K K K l X X X X X 7 a a a a g g x Z Z Z Z Z Z Z Z Z A ` ` ` ` ` ` ` ` ` ` ",
"J J J S S C h h h h h h h h h h h h h h h h h h h Z S S H ! u.p. .` ` ` ` ` ` ` ` ` { ......v.z.W W W E L m N n e e e 8 4 & & & & & & & w c G G G G G G G G G G G G U ( ( 2.*.*.*.*.*.*.B B B B z l l l l 4 4 4 4 1 & X X X X X X h N.N.N.N.N.N.i.u.u.u.h.x.x.M.C.M.C.XXXXXXXXXXXXXXXXXXXXXXXXXXXXXXXXXX%X3X7X7X<Xa u u P 5.5.5.5.5.9.>.i.h.h.h.h.h.h.x.x.h.h.h.n.I.I. XoXoXoXoX%.4 4 4 v h.D.).)./.C.p.X.{ { { { ' ( ( ( ( ! ! ! ! ( ( ( ( ! ! ( ( ( ( ! ! { { { { { ' ' ' ' ' ' ' ' ' ' ' | | | | | >.m z k k k k k k k e e e k k w 6 6 6 * @ @ @ @ @ @ g g g g g g g g g g g g g g g g g g g g g g g g g g g C C Z A S J J J J ( ( ` { ..O.O.>.O.O.O.O.O.O.O.O.O.O.O.....{ ..X.O.O.O.O.O.O.O.O.<.y.y.u.a.a.a.a.a.a.a.n.n.n.n.n.n.n.n.n.n.n.n.n.C.C.C.C.C.C.2.*.b % % % % % % % * i 4 % % % % % % % a ....>.h.C.C.).@X'.C.C.n.a.a.a.a.a.y.O.O.3.O.O.O.O.O.C.'.'.'.C.............<.n.+X+X'.p.p.p.p.p.p.u.y.<.<.<.<.<.<.<.<.<.<.3.u.i.i.i.p.p.p.i.i.i.i.p.p.h.M.(.(.R.m.m.m.x.4.4.,.T K K K K @ X X X X 7 u a a a a a a a a g x Z Z Z Z A ` ` ` ` ` ` ` ` ` ` ` ",
"J J J S S S h h h h h h h h h h h h h h h h h h h C S S J ! { a.u.` ` ` ` ` ` ` ` ` ` ` ....X.H.0.W W W W E V m k e e 0 5 & & & & & & & 8 z G G G G G G G G G G G G ( ( ( %X0.*.*.*.*.*.W N B B z l l l e - 4 4 4 4 1 X X X X X h N.N.N.N.N.N.i.u.u.u.u.i.x.x.n.M.M.M.R.XXXXXXXXXX%X3X3X3X3X3X3X3X7X7X7X7X7X3X7Xc.u u u P 5.5.5.9.9.2.>.h.h.h.h.h.h.x.x.h.h.h.h.h.n.I.I. XoXoXI.6 4 4 8 a.n.).D.n.a.{ { } } } { { ' ( ( ( ! ! ! ! ! ! ( ( ( ( ! ( ( ( ( ! ( { { { { { ' ' ' ' ' ' ' ' ' ' ' ' | | | | [.I m z e e e k k k e e e l k k 6 6 6 6 * X X @ @ @ g g g g g g g g g g g g g g g g g g g g g g g g g g g C Z Z A S D J J J ~ ~ { { { O.O.O.O.O.O.>.O.O.O.O.O.O.O.O.O.O.O.O.O.O.O.O.O.O.<.y.y.y.u.a.a.a.a.p.p.a.a.n.n.n.n.n.n.n.n.n.n.n.n.n.C.C.C.C.C.C.d.*.K * % % % % % % % % % % % % % % % Z u.h.N.C.C.C.C.C.C.C.n.a.a.a.a.a.a.y.O.r.r.3.3.O.O.r.O.p.'.'.'.`.X...........X.p.'.+X/.p.p.u.u.y.<.<.<.<.<.<.<.<.......O.<.<.<.y.i.p.p.p.p.i.i.p.i.p.p.p.M.(.(.(.(.M.m.m.m.d.4.4.+.F K K , X X X X 2 7 a a a a a a a a a a a x Z S ` ` ` ` ` ` ` ` ` ` ` ` ",
"! J J S S S C h h h h h h h h h h h h h h h h h h C S S H ! ! y.a.t.` ` ` ` ` ` ` ` ` ` ` ....3.J.f.*.W W W W E m e e 0 5 & & & & & & & , z G G G G G G G G G G G G ( ( ..}.<X0.*.*.*.*.*.W V V T l l l 0 - 4 4 4 4 - X X X X 3 N.N.N.N.N.N.m.h.u.u.u.u.u.h.x.x.x.M.M.M.R.XXXXXX X3X7X7X7X7X7X7X7X7X7X7X7X7X3X7Xv u u u P 5.5.9.9.9.>.<.h.h.h.h.h.h.h.h.h.h.h.h.h.h.m.M.M._.oX_ 8 4 4 [ h.n.n.h.h.>.{ { } } } } { { ( ( ! ! ! ! ! ! ! ( ( ( ! ! ( ( ( ( ( { { { { { ' ' ' ' ' ' ' ' ' ' ' ' ' ' { | l.XX6.m m z l e k k k e e l b k k 6 6 6 6 6 @ X @ @ @ a g g g g g g g g g g g g g g g g g g g g g g g g g x C C Z A S S J J J ~ ~ { { { O.O.O.O.O.O.>.O.O.O.O.O.O.O.O.O.O.O.O.O.O.O.<.<.y.y.y.y.u.p.a.a.a.a.p.p.p.p.a.n.n.n.n.n.n.n.n.n.n.n.C.C.C.C.C.C.C.x.*.P 0 % % % % % % % % % % % % % 9 p.C.C.C.C.C.C.N.n.j.a.a.a.a.a.a.a.a.y.O.r.r.t.<.3.O.O.r.O.O.`.'.'.'.n.............p.h.+Xh.p.u.<.<.<.<.<.<.<.<.<.<.O...........X.<.<.<.u.p.p.p.p.p.p.p.p.p.p.h.(.(.(.(.(.R.m.m.m.x.4.4.+.K K 0 X X X X 2 7 a a a a a a a a a a a a g J ` ` ` ` ` ` ` ` ` ` ` ` ",
"! ! ! H S S C h h h h h h h h h h h h h h h h h h C S S ! ! ! ` a.a...` ` ` ` ` ` ` ` ` ` ` ....d._.0.*.W W W W W l e w 4 & & & & & & & * c G G G G G G G G G G G ( ( ..>._.<X<X0.*.*.*.*.*.*.*.#.l l l 8 1 - - - - = X X X 3 N.N.N.N.N.N.h./././.x.u.u.u.u.d.x.x.x.M.M.M.Y.(.(.(.(.(.'.$X$X<X3X7X7X7X7X7X7X7X#Xu u u u P 5.5.5.5.,.>.3.h.h.h.h.h.h.h.h.h.h.h.h.h.h.h.M.I.I.c.A i 4 x h.h.h.h.h.p.} { { } } } } { { ! ! ! ( ( ( ( ( ( ( ! ! ! ! ( ( ( { { { { { { { ' ' ' ' ' ' ' ' ' ( ( ( ( ( ' ..XXXX[.m m m m b l e e k z m m k e e 6 6 6 6 4 @ @ @ @ 7 g g g g g g g g g g g g g g g g g g g g g g g g g x C C Z S S S ! J J ~ ( ' { ..O.O.O.O.O.O.O.O.O.O.O.O.O.O.O.O.O.O.>.<.y.y.y.y.y.y.y.u.a.a.a.a.a.a.p.p.a.a.a.a.n.n.n.n.n.n.n.n.n.n.C.C.C.C.C.n.n.C.,.P b % % % % % % % % % % % > { C.C.C.C.C.n.n.a.a.a.a.a.a.a.a.a.a.y.t.t.<.<.O.O.r.r.r.t.O.O.O.n.'.'.'.`.............y.p.a.p.p.3.<.<.<.<.<.<.<.<.<.<.................O.<.<.y.p.p.p.p.p.i.p.p.p.p.m.(.(.(.(.(.(.R.C.M.m.d.4.K F c X X X X , 3 p a a a a a a a a a a a g ^ ` ` ` ` ` ` ` ` ` ` ` ` ",
"! ! ! J S S S C h h h h h h h h h h h h h h h h h C S S ! ! ! ! 3.a.p. .` ` ` ` ` ` ` ` ` `  ...<._.W.6.2.@.W W W B l w 5 & & & & & & & & b G G G G G G G G G G G ( { >.3.m.<X_.d.*.*.*.*.*.*.*.*.b l l 4 1 - - ; ; & X X 3 N.N.N.N.N.N.a.u.Y./.$X*Xi.u.u.u.u.i.h.x.n.C.M.M.M.Y./.(.(.(.(.(.(.(.(.(.(.'.'.3X7Xx.u u u u P ,.2.,.>.>.>.i.h.h.h.h.h.h.h.h.h.h.h.h.h.h.h.n.I.I.4.A A 5 a.h.h.h.h.h...} { { } } } } { ' ( ! ! ( ( ( ( ( ( { ..X...{ ( ' { } { { { { { { ' ' ( / / ( ( ( / / / / / / ( ..XXXXXXI m m m m z e e z m m m z e e w 6 6 6 6 @ @ @ @ > g g g g g g g g g g g g g g g g g g g g g g g g g g C C Z S S S J ! J ~ ( ' { ..O.O.O.O.O.O.O.O.O.O.O.O.O.O.O.O.<.y.y.y.y.y.y.y.y.y.u.a.a.a.a.a.a.a.p.p.a.a.a.a.a.n.n.n.n.n.n.n.n.n.V.C.C.n.n.n.n.C.2.T K % % % % % % % % % % Z m.C.C.C.C.C.n.a.a.a.a.a.a.a.a.a.a.y.r.r.t.t.<.<.O.O.r.r.<.<.O.O.O.y.'.'.'.'.y...........O.p.p.p.p.<.<.<.<.<.<.<.<.<.<.O...................X.<.<.y.u.p.p.p.p.p.p.i.i.p./.(.(.(.(.(.(.(.(.(.(.d._ K F X X X X > 3 u a a a a a a a a a a g H H ^ ` ` ` ` ` ` ` ` ` ` ` ",
"J J ! ! S S S Z h h h h h h h h h h h h h h h h h C S S ! ! ! ! ^ a.a.u.` ` ` ` ` ` ` ` ` ` ` ....i.[.H.2.2.@.W W P K b 8 1 & & & & & & & b G G G G G G G G G G G ..>.<.i.i.m.i.i.i.*.*.*.*.*.*.*.T l l 8 4 4 4 ; 4 & X 3 N.N.N.N.N.N.a.u.u.n./.$X*XR.u.u.u.i.i.u.x.x.m.C.C.M.M.M.C./.(.(.(.(.(.(.(.(.(.(.'.7Xi.u u u u P >.>.>.>.>.>.h.h.h.h.h.h.h.h.h.h.h.i.i.i.i.x.x.I.I.| A A H h.h.h.h.h.<.} } { { } } } } { ( ! ! ( ( ( ( ! ( X.>.>.>.X.X.>.>.X.>.X.X.>.>.} { ' ' ! ! ! ! / / / / / ! ! / / ( d.XXXX9.m m m m m k z m m m m m l e k e 6 6 6 * @ @ @ @ g g g g g g g g g g g g g g g g g g g g g g g g x C C C Z S S S J J J ~ ( ' { X.O.O.O.O.O.O.O.O.O.O.<.<.<.O.O.O.O.y.y.y.y.y.y.y.y.a.a.a.a.a.a.a.a.a.p.p.p.a.a.a.a.a.n.n.n.n.n.n.n.n.n.n.n.n.n.n.n.C.h.+.K 2 % % % % % % % 7 `  .n.C.C.C.a.y.a.a.a.a.a.a.a.y.y.r.O.O.O.O.O.O.<.O.O.O.<.<.<.<.O.O.3.3.D.'.'.'.D.............p.p.p.p.3.<.<.<.<.<.<.<.<.<.........................O.<.<.u.p.p.p.i.i.i.i.p.m.3X3X$X'.(.(.(.(.(.(./.&.K K @ X X X > 3 7 a a a a a a a a a g H J J J ` ` ` ` ` ` ` ` ` ` ` ",
"J J J ! H S S S S C h h h h h h h h h h h h C C C S S S ! ! ! ! ~ O.a.a.O.` ` ` ` ` ` ` ` ` ` ` ....M.[.6.2.2.+.W T K K w 8 4 4 8 * & & & b G G G G G G G G G G ( >.>.u.i.i.i.i.i.i.i.*.*.*.*.*.*.*.l l 0 4 4 4 ; 4 4 J N.N.N.N.N.N.h.u.u.u.i.C.$X*X$Xu.u.u.u.i.u.h.x.x.M.M.M.M.M.M.C./.(.(.(.(.(.(.(.(.(.'.7X3.u u u u ( { ..>.>.>.>.h.h.h.h.h.h.h.h.h.i.i.i.i.i.i.a.h.I.I.J A A <.h.h.h.h.a.{ } } } } } } { { ( ( ! ! ( ( ( ( ( ..>.>.>.>.>.>.>.>.>.>.>.>.>.>.} ' ' ( / ! ! ! / / / / / ! ! ! / / / [ R._.m m m m m m m m m m m m b l k k k 6 6 4 O O @ @ u g g g g g g g g g g g g g g g g g g g g x C Z C C C C Z S S S J ! J ~ ( ' { X.O.O.O.>.O.O.O.O.O.<.y.y.y.y.O.O.O.>.y.y.y.y.y.y.y.a.a.a.a.a.a.a.a.p.p.p.p.a.a.a.p.p.a.a.j.n.n.n.n.n.n.n.n.n.n.b.a.C.m.2.T i % % % % % % % ( `  .<.C.a.y.O.O.y.a.a.a.y.O.O. . ...O.O.O.O.O.O.<.O.O.O.3.<.<.<.O.O.<.3.a.'.'.'.'.X...........u.p.p.p.u.<.<.<.<.<.<.<.<.X...........................O.<.<.y.p.p.p.i.i.i.p.p.*X3X3X3X3X%X#X#X<X*X(.,.K F , X X X % 3 7 a a a a a a a a a S J J J J ! ` ` ` ` ` ` ` ` ` ` ",
"J J ! ! H S S S S C h h h h h h h h h C S S S S S S S H ! ! ! ! ~ ` u.a.p.` ` ` ` ` ` ` ` ` ` ` ....X.W.E.2.2.-.W E K K b 8 8 5 8 = & & & v A G A A Z Z Z A G G X.>.3.i.d.i.i.i.i.i.i.5.*.*.*.*.*.*.L l l ; 4 4 4 1 ' N.N.N.N.N.N.a.u.u.u.u.u.i.Y.*X*Xu.u.u.u.i.u.h.x.x.m.C.C.C.M.M.M./.(.(.(.(.(.(.(.(.(.'.7X3.u u u u [ { { { >.>.>.h.h.h.h.h.h.h.h.a.i.i.i.i.i.i.i.x.I.M.G A J h.h.h.h.a...{ } } } } } { { { ( ( ( ( ' ' ' { { ..>.X.>.>.>.>.>.>.>.>.>.>.>...{ ' ' ( / / / / / / / / / / / / / J A Z Z 4.B m m m m m m m m m m m m b z k k w 6 8 O O O @ 2 g x x x x x x x x x g g g g g g x C Z Z C C C C C C Z S S S D J ! ! ~ ~ ` { X.O.O.O.O.O.O.O.O.>.y.y.y.y.y.y.O.O.O.y.y.y.y.y.y.y.y.a.a.a.a.a.a.p.p.a.a.a.a.a.a.a.a.a.a.a.p.a.a.a.a.a.a.a.a.a.a.a.n.C.0.0.0.v % % % % % 3 ( `  . . . ...O.O.O.O.O.O.O.O.O. . . . ...O.O.O.O.O.O.O.O.3.<.O.O.O.r.3.3.O.`.'.'.'.a...........3.p.p.p.p.<.<.<.<.<.<.<.O...............................X.<.<.<.u.i.p.p.p.p.p.R.3X7X3X7X3X3X3X3X7X$Xd.K F 0 X X X @ 3 7 a a a a a a a a C J J J J H J ^ ` ` ` ` ` ` ` ` ` ",
"J J ! ! S S S S S C h h h h h h C S S S S S S S S S S J ! ! ! ! ~ `  .a.a.O.` ` ` ` ` ` ` ` ` ` ` ....<.[.z.2.2.*.W K B B 8 8 8 8 * & & & 9 9 9 g x x x x x A U >.<.i.i.d.i.i.i.d.d.i.i.*.*.*.*.*.*.*.l l e ; 4 J k.N.N.N.N.j.<.<.<.3.3.3.3.3.y.u.i.h.u.u.u.u.u.u.x.x.x.n.C.C.C.M.C.M.Y.(.(.(.(.(.(.(.(.(.@X7XO.a u u v [ { { { | >.<.h.h.h.h.h.h.h.h.i.i.i.i.i.i.p.i.m.I.i.J J <.h.h.h.h.3.{ { } } } } } } { ( ( ( ( { { { } } { ..X.X.>.>.>.>.>.>.>.>.>.X...} ' ' ' ' ' ( ( / / / / / / / / / J H C C Z Z b m m m m m m m m m m m m b m z k k 6 6 @ @ @ @ > C Z Z Z Z Z Z C C C g g g g g x Z Z Z C C C C C Z S S A S S J ! ! ! ~ ( ` { X.O.O.<.<.O.O.O.O.y.y.y.y.y.y.y.y.<.O.y.y.y.y.y.y.y.y.u.p.a.a.a.a.p.p.a.a.a.a.a.a.a.a.a.a.a.a.p.a.u.u.y.y.u.y.u.p.a.h.C.f.0.0.0.7 % % % % , ( (  . . . . . . ...O.O.O.O.O. . .( ` `  . .O.O.O.O.O.O.O.O.<.O.O.r.r.<.<.O.C.'.'.'.D...........<.p.p.i.p.y.<.<.<.<.<.<.....................................O.<.<.3.u.p.p.p.p.p.3X7X7X7X3X3X3X3X3X#X4.P K l X X X @ 3 7 a a a a a a a g S S S S C H J J ` ` ` ` ` ` ` ` ` ",
"J J J ! S S S S C h h h h h h h C S S S S S S S S S S J ! ! ! ! ! ` ` >.a.p.` ` ` ` ` ` ` ` ` ` ` ......x.W.6.2.2.W L B B 8 8 8 8 * & & & 9 9 9 x x x x x x x ( >.u.d.d.d.d.i.i.d.d.d.d.*.*.*.*.*.*.*.T l b | k.N.N.N.N.k.3.<.<.<.<.<.3.3.3.3.3.3.3.u.u.u.u.u.u.i.x.x.x.x.m.M.M.C.C.C.C./.(.(.(.(.(.(.(.(.*X7XO.g u v A { { { { >.>.3.h.h.h.h.h.h.h.i.i.i.i.i.i.i.i.i.I.I.X.| >.h.h.x.x.a.>.{ { } } { { } } { ( ( ' { { { { { { { ..X.>.>.>.X.X.X.X.X.X.X...{ { ' ' ' ' ' ' ' ( / / / / / U / J H H C C v v v m m m m m m m m m B K P P B m z e 6 6 @ @ @ @ > C Z Z C C C C C C C g g g g g Z Z C C C C C C S S A A A D D J ! J J ( ( ' { X.O.<.y.y.y.<.>.<.y.y.y.y.y.y.y.y.y.y.y.y.y.y.y.y.y.y.u.p.p.p.a.a.a.p.u.u.u.u.u.y.u.u.u.u.u.u.y.y.u.u.y.y.y.y.u.u.u.a.C.f.0.0.0.&.% % % % % ( ( `  .` ' `  . . . ...O.O.O. .` ( ( ( (  . .O.r.O.O.O.O.O.O.O.O.r.t.t.<.O.y.'.'.'.'.X.........>.i.i.p.p.p.<.<.<.<.<.......{ { { ............................X.<.<.<.<.u.p.p.p.(.7X7X3X3X3X3X3X3X#X4._ K b X X X @ 7 7 u a a a a a g S C C C C C S H J ~ ` ` ` ` ` ` ` ` ",
"J J ! H S S S C h h h h h h h h h S S S S S S S S S S J ! ` ! ! ! ` ` ` u.a...` ` ` ` ` ` ` ` ` ` ........W.I.2.-.#.I B K l k k k 1 & & & 9 9 9 x x x x x x x ( <.i.i.d.d.d.i.i.c.I.h.d.u.*.*.*.*.*.*.9.k.N.N.N.N.N.k.3.<.<.<.<.<.<.<.<.<.3.3.3.3.3.3.u.u.u.u.u.i.x.x.x.x.n.M.M.C.C.C.C.Y.(.(.(.(.(.(.(.(.3X3XO.v C C G } } } | >.>.u.h.h.h.h.h.h.i.i.i.i.i.i.i.i.i.x.I.d.} | i.x.x.x.x.<.>.{ { } { { { { { { { { { { { { { { { { ..>.>.>.>.>.X.X.X.X.X.X.{ { { ' ' ' ' ' ' ' ( / / / / / / / J H A C C Z Z v Y P B b b b m K P P L P P P m z e 0 6 * @ @ O > C C Z C C C C C C C C g g g C Z Z C C C C Z S S S S D H J ! J ! J J ( ( ' { O.O.y.y.y.y.y.y.y.y.y.y.y.y.y.y.y.y.y.y.y.y.y.y.y.u.a.p.p.p.p.a.u.u.u.u.u.y.y.y.y.y.u.u.u.u.u.u.y.u.u.y.y.y.y.u.u.u.a.C.f.0.0.0.0.2 % % % % ! ( ( ( ( ( ( ( `  . . . ... . .` ( ( ( ( ` {  .O.O.O.O.O.....O.O.r.r.<.<.O.O.).'.'.'.y.........<.i.i.i.i.p.<.<.<.<.O...{ ' ' ' ' ' ..............................X.O.<.<.<.<.y.h.3X7X3X3X3X3X3X3X@X4.&.K K X X X @ 7 7 9 a a a a g H S C C C C C C S J J ` ` ` ` ` ` ` ` ",
"J J J S S S C h h h h h h h h h h h C C S S S S S S S H `  .` ! ! ^ ` `  .a.y.` ` ` ` ` ` ` ` ` ` { ......<.[.0.2.*.I K B m k k k 1 & & & 9 9 u x x x x x x x X.>.3.u.a.a.a.i.i.U.R.U.d.i.i.i.i.i.i.k.N.n.k.a.u.u.3.<.<.>.>.>.>.>.>.>.<.<.<.<.3.3.3.3.u.u.u.u.u.x.x.x.x.x.x.M.M.C.M.M.M.M./.(.(.(.(.(.(.(.3X$XO.C C C J } } } | >.>.u.h.h.h.h.h.i.i.i.i.i.i.i.i.i.i.M.I.X.| >.h.h.h.h.u.>.X.} } } } { { { } } } { { } } } } { { ..X.>.>.>.X.X.X.>.>.>.>.{ { { ' ' ' ' ' ' ' ' ( / ! ! ! / / J H H S Z v C C C J >.>.>.>.%.[ [ [ P P P P P K b e 0 6 % @ @ @ > C C C C C Z Z Z Z Z C x x C C C Z C C Z Z S S S S D J J ! ! ! J J J ~ ( { { O.O.y.y.y.y.y.y.y.y.y.y.y.y.y.y.y.y.y.y.y.y.y.u.a.a.a.a.a.a.u.u.u.u.u.u.u.y.u.u.u.u.u.u.u.u.u.y.y.u.u.u.u.y.y.u.u.u.u.n.f.0.0.0.0.v % % % % J ! ( ( ( ( ( ( ( ( `  . . . . .` ( ( ( ( ( ( `  .O.O... . . ...O.O.O.O.O.O.O.b.'.'.'.N.........<.p.p.p.p.p.3.<.<.<...{ ' ` ` ` ' ` { ....................................O.<.<.<.Y.3X3X3X3X3X3X3XXX4.,.K K * X X @ 7 7 7 a a a a S J S C S S S C C C H J ! ` ` ` ` ` ` ` ",
"J J S S S C h h h h h h h h h h h h h h h h C C C S S H  . .{ ! ! ! ` ` ` O.p.` ` ` ` ` ` ` ` ` ` ` ........x.W.6.2.T K B B k k k 1 & & & 9 9 u x x x x x x Z >.>.>.>.>.<.u.i.i.M.R.R.x.i.i.i.i.i.i.u.y.3.3.3.3.<.<.<.<.>.>.>.>.>.>.>.>.<.<.<.3.3.3.3.y.u.u.u.i.x.x.x.x.x.x.m.M.C.M.M.M.M.C.(.(.(.(.(.(.'.$X$XO.C C C ( } } } | >.>.i.h.h.h.h.h.i.i.i.i.i.i.i.i.i.i.I.x.| | a.h.h.h.a.X.>...} } } } { } { } } } { { } } } } ..X.>.>.>.>.X.X.X.X.>.>.>...{ { ' ' ' ' ' ' ' ' ( / / ! ! ! / J H J S A Z v C C C C ( X.5.d.h.h.h.h.d.h.+.P P L b e 0 6 % @ @ @ > C C C C C Z Z Z Z Z Z C C C C C C Z C Z A S S D J J J J J J J ! ! J ~ ( { { O.>.y.y.y.y.y.y.y.y.y.y.y.y.y.a.p.u.u.u.u.u.u.a.a.a.a.a.a.u.y.u.u.u.u.u.u.u.u.u.u.y.u.u.u.u.u.y.y.u.u.u.u.y.y.u.u.u.u.p.f.0.0.0.0.U % % % % J J ! ~ ( ( ( ( ( ( ( `  . . . .( ( ( ( ( ( ( (  . . . . . . . ...O.O.O.O.O.O.y.).'.'.).........<.p.p.p.p.u.<.<.<.X...{ ' ` ` ` ' ` ` ....................{ { { {  ...........<.<.<.'.3X3X3X3X3X3X[.4.4.K K * X X @ 7 7 7 a a a C J J C C S S S C C C C J H ` ` ` ` ` ~ J ",
"J S S C h h h h h h j h h h h h h h h h h h h h h h S S {  . .~ ! ! ` ` ` ` y.` ` ` ` ` ` ` ` ` ` ` ........X._.H.=.T K B K l k k 1 & & & 9 9 i x x x x x x H >.>.>.>.>.>.>.3.i.h.R.R.M.i.i.i.i.i.3.3.3.3.3.<.<.<.<.<.<.<.<.>.>.<.<.<.<.<.<.<.<.3.3.3.u.u.u.u.x.x.x.x.x.x.x.x.M.C.M.M.M.M.M.Y.(./.(.(.(.XX$X$XO.C C C ( } } } } >.>.h.h.h.h.h.i.i.i.i.i.i.i.i.i.i.x.I.x.X.<.h.h.h.h.<.X.>...{ { } } } } } } } ..} } } } } } >.>.>.>.>.>.>.....X.>.>...} ' ' ' ' ' ` ' ' ' ' ( / / J H J J H H A S S A v C C Z C v v v C A U [ d.d.d.d.L P L m e 0 6 % @ @ @ * C Z C C C C C C C C C C C C C C C Z S A A S D J J ! ! J J ! ! ! ~ ~ ~ ~ { { O.>.y.y.y.y.y.y.y.y.y.y.y.y.a.a.a.a.a.a.a.a.a.a.a.a.a.a.u.y.y.u.y.u.u.p.a.a.u.u.u.y.y.u.u.u.u.y.y.y.u.u.u.y.y.u.y.u.u.u.d.9.0.0.0.U % % % % J J J J ! ~ ( ( ( ( ( ( ( ` ` ( ( ( ( ( ( ( ( ( `  . . . . ... . .O.r.O.O.t.a.j.b.'.'.'.........y.p.p.p.p.y.<.<.O.....' ' ` ` ' ' ` ' ..................{ ' ' ' ' ' ' { ........O.<.<.XX3X3X3X3X3X}.2.4.P K * X X @ 3 7 3 u a g J J S C C C S C C C C C S H ! ` ` ` ! J J ",
"S S C h h h h h h h j h h h h h h h h h h h h h h h C S (  . .` ! ! ^ ` ` ` ` ` ` ` ` ` ` ` ` ` ` `  .........i.[.6.T K K K b k k * & & & 7 9 a x x x x x x ! >.>.>.>.>.>.>.>.u.i.M.R.U.d.i.i.u.3.3.3.3.<.<.<.<.<.<.<.<.<.<.<.<.<.<.<.<.<.<.<.y.3.3.u.u.u.u.i.x.x.x.x.x.x.x.x.m.M.M.M.M.M.M.M.R./.(.(.(.XX$X$Xu.C C C } { } } } >.>.h.h.h.h.i.i.i.i.i.i.i.i.i.i.i.M.M.i.u.a.h.h.h.u.>.>.>...{ { } } } } } } i.>.} } } } } ..>.>.>.>.>.>.>.X.{ { } } } } ' ' ' ' ' ` ' ' ' ( / / / J H H H H A S S S A C C C Z v v v C C v C Z Z [ l.l.+.P L b e 0 6 % @ @ @ @ C Z C C C C C C C C C C C C C C Z A A A D J J J J ! ! ~ ~ ~ ( ( ( ~ ~ ~ { { O.<.y.y.a.a.p.a.y.y.y.y.y.a.a.a.a.a.a.a.a.a.a.a.a.h.a.a.u.y.y.y.y.u.u.p.p.a.a.u.y.u.y.u.u.3.3.3.3.3.3.3.3.3.<.<.<.u.u.u.u.0.0.0.0.Y % % % % J J J J J J ! ! ~ ( ( ( ( ( ( ( ( ( ( ( ( ( ( ( ( `  . . . . . . . .O.O.O.p.j.j.j.).'.'.<.......y.p.p.p.p.<.<.<.....{ ' ' ` ` ' ' ' ' { ..............{ ` ' ' ' ' ' ' ' { ........X.<.y.%X3X3X3X3X<X4.4.P K @ + @ @ < 7 3 7 g ! J H S C C C C C C C C C C H H ~ ! H H J J ",
"C h h h h h h h h h h h h h h h h h h h h h j h h h h S J  . . .! ! ~ ` ` ` ` ` ` ` ` ` ` ` ` ` ` `  ...........W.W.W B K K b k k & & & & 9 u a x x x x x x ! >.>.>.>.>.>.>.>.>.i.d.Y.R.x.u.y.3.3.3.<.<.<.<.<.<.<.<.<.<.<.<.<.<.<.<.<.<.<.<.<.3.3.3.u.u.u.u.x.x.x.x.x.x.x.x.x.m.M.C.M.M.M.M.C.C./.(.(.(.XX$X$Xi.v v C [ { { { { >.>.h.h.h.h.i.i.i.i.i.i.i.i.i.i.i.h.i.i.h.h.h.h.h.>.>.>.>...{ { } } } } } i.n.>.} } } } { ..>.>.>.>.>.>.>.>.} { { { { { ' ' ' ' ' ' ( ( ( / / / / J H H H G S S S S S v v v v v v v v C v v v v C >.h.2.P K z k 0 6 % @ @ @ @ g Z Z C C C C Z C C C C C C Z A S S S S J J J J ! ~ ~ ~ ~ ~ ~ ~ ~ ( ( ( { X.O.<.y.y.p.p.p.a.y.y.y.y.u.a.a.a.a.p.p.a.a.a.h.h.h.a.a.a.a.u.u.y.y.y.a.a.a.a.p.u.u.u.u.u.y.<.<.<.<.<.<.<.<.<.<.<.<.y.u.u.u.0.0.0.0.+.% % % % J J J J J J J J J J ! ! ~ ( ( ( ( ( ( ( ( ( ( ( ( ( {  . . . . . . ...O.O.j.j.j.N.S.'.'.y.......u.i.i.i.u.<.<.O.....{ ' ' ` ` ` ` ' ' ' ............{ ' ' ` ` ` ` ' ' ' ` { ..........<.u.3X7X7X3X3Xd.2._ K @ @ @ @ > 3 3 7 ! ! J H C C C C C C C C C C C H H H H H H J J ",
"h h h h h h h h h h h h h h h h h h h h h h h h h h h C S  . . .~ ! ! ` ` ` ` ` ` ` ` ` ` ` ` ` ` ` ` ..........h.[.*.B K K b k k & & & & u 9 a x x x x x x ! >.>.>.>.>.>.>.>.>.<.i.i.h.u.y.y.3.3.3.<.<.<.<.<.<.<.<.<.<.<.<.<.<.<.<.<.<.<.<.3.3.3.u.i.i.u.i.x.x.x.x.x.x.x.x.x.m.C.C.M.M.M.M.C.C.C./.(.(.XX$X$Xi.v v A [ { { | | >.>.h.h.h.i.i.i.i.i.i.i.i.i.i.i.i.i.i.i.h.h.h.h.i.>.>.>.>.>...{ } } { { i.n.x.{ } } } } { X.>.>.X.>.>.>.>.>...{ { { { { { ' ' ' ( ! ! ! / / / / J J H H J A A A S S A v C C v v Z v v C v v C C C J h.f.P m z k 0 6 * @ @ @ @ g A A S S S Z Z Z Z Z Z S S S A S S D ! ! J J ! ( ( ( ~ ~ ( ~ ~ ~ ( ( ` { O.O.t.y.u.a.p.p.a.y.y.y.y.a.a.a.a.a.p.p.a.a.a.a.k.h.k.a.a.a.a.u.u.y.u.a.a.a.a.p.a.u.u.u.u.3.<.<.<.<.<.<.<.<.<.<.<.<.3.u.u.u.0.0.0.0.T % % % % D J J J J J J J J J J J J ! ~ ( ( ( ( ( ( ( ( ( ( ( `  . . . . . . . .O.O.j.j.j.V.A.`.'.n.......p.i.i.i.<.<.<.......` ' ' ` ` { { ' ' ' ' { ....{ ' ' ' ' ` ` ` ` ' ' ` ' { ............O.a.7X3X7X3X[.4.[ K @ @ @ @ @ 3 3 S ! ! J S C C C C C C C C C C C H H H H H H J J ",
"h h h h h h h h h h h h h h h h h h h h h h h h h h h C S `  . .` ! ! ! ` ` ` ` ` ` ` ` ` ` ` ` ` ` ` ..........X.[.f.B K K b k k & & & & u u a x x x x x x ! >.>.>.>.>.>.>.>.>.>.<.3.3.y.y.y.y.y.y.3.<.<.<.<.3.3.3.3.3.3.3.<.<.<.3.3.3.3.3.3.3.3.u.i.i.u.h.x.x.x.x.x.x.x.x.x.M.C.C.C.M.M.M.M.C.M.M./.(.XX$X$Xp.C C A [ | | | >.>.>.h.h.i.i.i.i.i.i.i.i.i.i.i.i.i.i.i.i.h.h.h.h.3.>.>.X.>.X.X...{ { { i.x.x.X.{ { { { { { X.X.>.X.X.>.>.>.>...{ { { { { { ' ' ( ! ! ! ! U / / J J J J H A A A A S S A v C C C C Z Z C C C C C C C C d.h.P m l k k 6 @ @ O @ X g A A A S S S S S A A A A S S S S J J ! ! ! ~ ( ( ( ( ` ' ` ` ( ( ( ` { { O.O.y.y.u.a.a.a.a.u.y.y.y.u.u.u.u.u.a.a.a.a.h.a.k.k.n.h.a.a.a.a.p.p.a.a.a.a.p.p.p.u.u.u.y.<.<.<.3.3.<.<.<.<.<.<.<.<.<.u.u.u.0.0.0.0.T & % % % e J J S S S S S J J J J J J J ~ ( ( ( ( ( ( ( ( ( ( ( {  . . . . . . ...O.j.j.j.A.A.D.'.n.....O.p.p.p.u.<.<.O.......` ' ' ` ` { ` ' ' ` { ' ' ' ' ' ' { ` ` { ` ` ` ` ` ` ' ..............X.Y.7X7X3X3X9.&.K @ @ @ @ @ > h ! ! ! J J J H H S S S S S S S H J J H J H H H H ",
"j h h h h h h h h h h h h h h h h h h h h h h h h h h h S ( ..p.<.! ! ! ! ` ` ` ` ` ` ` ` ` ` ` ` ` ` ` ` ........I.I.B K K b k k & & & & u u a x x x x x x ! >.>.>.>.>.>.>.>.>.>.>.>.>.<.3.y.y.3.3.3.3.3.3.3.3.3.3.3.3.3.3.3.3.3.3.3.y.3.3.3.3.y.u.u.u.i.x.x.x.x.x.x.x.x.x.x.M.C.C.C.M.M.M.C.C.M.C.C./.XX$X$Xy.C C J } | | | >.>.<.h.h.i.i.i.i.i.i.i.i.i.u.4.3.3.3.3.u.i.h.h.u.3.>.>.X.X.X.>.>.>.>.>.i.h.X.{ { { { { { { ..X.X.X.X.>.>.>.>.X.{ { { { { ' ' ' / ! ! ! ! / U J H J J H H A A A A S S S v C C C C C Z C C C C C C C C 3.d.P m l k k 6 @ @ O O O g A A S S S S S S A A A A S S D J J J ! ! ~ ( ( ( ( ' { { { { { { { { { O.O.<.y.y.a.a.a.a.a.a.u.u.y.y.y.y.y.y.u.a.a.a.h.h.k.k.n.n.a.a.a.a.a.a.a.a.a.a.p.a.a.a.y.u.3.<.<.<.3.3.<.<.<.<.<.<.<.<.<.y.u.u.0.0.0.0.B 1 % % % w C C C C C C C C S H J J J J J ! ~ ( ( ( ( ( ( ( ( ( `  . . . . . . . .O.j.j.j.A.A.A.D.V.....y.p.p.p.3.<.<....... .` ' ` ` ` ` ` ` ` ` ` ' ' ' ' ' ' ` { { { ` ` ` ` ` ` ' { ................XX3X3X3XI.&.A @ @ @ @ @ , ! ! ! ! ! ! ! ! ! J J J J H H J J J J J J H H H H ",
"j h h h h h h h h h h h h h h h h h h h h h h h h h h h S J <.a.a.{ ! ! ! ! ^ ` ` ` ` ` ` ` ` ` ` ` ` ` ` `  .....u._.P K K l k s & & & & 9 u u x x x x x x ! >.>.>.>.>.>.>.>.>.>.>.>.>.>.>.>.<.3.3.y.y.y.y.y.y.3.3.3.3.3.y.3.3.3.u.u.u.u.u.y.3.u.u.u.u.i.x.x.x.x.x.x.x.x.x.x.M.C.C.C.C.M.M.M.M.M.C.C.C.'.$X$Xu.C C J } } } ..>.>.<.h.i.i.i.i.u.4.3.3.3.3.3.3.3.3.3.3.3.3.u.i.3.3.>.>.>.X.X.X.X.>.>.>.X.{ { { { { { } } } ..>.>.X.X.X.>.>.>.X.{ { { ' ' ' ' ' ( / U U J H H H H H H H A S S S S S S S C v v v Z C C v v v Z Z C C C [ h.&.m e e e 6 @ @ @ @ @ g S S S S S S S S S S S S S D J J J J J ! ( ( ( ` { { { { { { { { ......O.O.y.y.u.a.a.a.a.a.a.a.a.a.a.u.y.y.y.y.a.a.h.h.a.k.k.h.h.h.h.h.h.a.p.a.a.a.u.u.y.y.u.y.3.<.<.<.3.3.<.<.<.<.3.<.<.<.<.<.3.u.9.0.0.0.*.m 6 % % * w C C C C C C C S S C S J J J J J J J ! ! ! ~ ( ( ( ( (  . . . . . . . .O.a.j.b.A.A.A.A.A.y...p.p.p.u.<.<.O.......{ ' ' ' ` ` ` ` ` ` { ` ' ' ` ` ` ` ` ` ' ' ' ` ` ` ` { { { ................X.*X3X3X[.4.v @ @ @ @ @ @ S ! ! ! ! ! ! ! ! ! ! ! H H H H H H H H H H H H H ",
"h h h h h h h h h h h h h h h h h h h h h h h h h h h h C S ! a.a.3.! H f f h ! ` ` ` ` ` ` ` ` ` ` ` ` ` ` `  ...X._.,.K K l k s & & & & 9 u u x x x x x x D >.>.>.>.>.>.>.>.>.>.>.>.>.>.>.>.>.>.>.<.<.<.3.3.3.3.3.3.3.3.3.y.u.u.u.u.u.u.u.u.u.u.u.u.u.i.x.x.x.x.x.x.x.x.x.x.M.C.C.C.C.M.M.M.M.M.C.M.C./.$X$Xx.C C ( { } } >.>.>.<.3.3.3.3.3.3.3.3.3.3.3.3.3.3.3.3.3.3.3.3.3.3.<.>.>.>.X.X.X.>.>.>.>...{ { { { { { } } } >.>.>.X.X.X.X.>.>.X.{ { ' ' ' ' ' ' ( / U U J H H H H H H H A S S S S A Z v C v v Z Z C C v v v v C C C Z J h.5.m e k e 6 @ @ @ @ @ g x S S S S S S S S S S S D J J J J J ! ( ( ( ` { ` { { { ............O.O.y.y.y.u.a.a.a.a.a.a.p.a.u.u.a.a.y.y.u.a.a.h.h.a.k.k.h.h.h.a.h.k.a.a.a.u.u.u.y.y.y.y.y.<.<.<.<.3.<.<.<.<.3.3.<.<.<.<.<.3.u.9.0.0.0.L m e 0 8 4 w C C C C C C C C S C S S J J J J J J J J J ! ( ( ( ( ( `  . . . . . . ...y.j.b.A.A.A.A.A.b.<.p.p.p.3.<.<.........{ ' ' ' ` ` ` ` ` ` ` { ' ' ` ` ` ` ` ` ' ' ' ' ` ` ` ` ` { ..................i.3X3X}.4.i @ @ @ @ @ % , S ! ! ! ! ! ! ! ! ! ! H H H H H H H H H J J J J ",
"h h h h h h h h h h h h h h h h h h h h h h h h h h h h C S ! X.a.a.~ y 7 3 3 3 u H ` ` ` ` ` ` ` ` ` ` ` ` ` ` ....W.U.K K k k 0 & & & & 9 u u x x x x x x Z >.>.>.>.>.>.>.>.>.>.>.>.>.>.>.>.>.>.>.>.>.>.>.>.<.3.3.3.3.3.y.u.u.u.u.u.u.u.u.u.u.u.u.u.u.i.x.x.x.x.x.x.x.x.x.x.x.x.n.m.C.M.M.M.M.M.M.M.M.R.$X$X>.C C ( { { ..>.>.,.3.3.3.3.3.3.3.3.3.3.3.3.3.3.3.3.3.3.3.3.3.3.3.>.>.>.>.X.X.>.>.X.>.......{ { { { } } } ..>.>.>.X.X.>.>.>.>...{ ' ' ' ' ( ( ( ( ( / U U H J J H H H H A S S A Z v v v v C Z C C C C C C C C C C v Z v d.d.m k k 0 6 @ @ @ @ @ g g S S S S S S S S S S J ! ! J J ! ! ( ( ( ( { { ` { { { ....X.X.O.O.O.y.y.y.a.a.p.p.p.p.a.a.a.y.y.y.y.u.y.y.u.a.a.h.j.j.k.n.h.h.k.k.k.a.a.a.u.u.u.u.u.y.u.u.3.<.<.<.<.<.<.<.<.<.<.<.<.<.<.<.<.3.u.9.0.0.#.m m w w w w w a a g h C C C C C C C C C H ! ! J J J J J J ~ ( ( ( ( `  . . . . . . . .O.j.b.A.A.A.A.A.b.a.p.p.u.<.<.X.............{ ' ' ' ' ' ` ` ` ` ' ` ` ` { { ` ` ' ' ` { ` ` ` ` ` ` ...................._.*X}.5.7 @ @ @ % % % % < j ! ! ! ! ! ! ! ! ! H J J H H H H J J J J J J ",
"h h h h h h h h h h h h h h h h h h h h h h h h h h h h C S ! ~ a.a.! 3 7 3 3 7 3 3 S ` ` ` ` ` ` ` ` ` ` ` ` `  ...U.[.P B k k 8 & & & & 9 9 u x x x x x C C >.>.>.>.>.>.>.>.>.>.>.>.>.>.>.>.>.>.>.>.>.<.<.3.3.y.y.3.u.u.u.u.u.u.u.u.u.u.u.u.u.u.u.u.i.x.x.x.x.x.x.x.x.x.x.x.x.x.x.x.m.M.M.m.n.x.n.m.M.R.$X$XS C C [ { { >.>.,.3.3.3.3.3.3.3.3.3.3.3.3.3.3.3.3.3.3.3.3.3.3.3.3.X.>.>.>.X.X.>.>.>.>.>.>.X.X.X.>.} } } } X.>.>.>.>.>.>.>.>.>.} { ' ' ' ( / / / / / / U U J J J J J H A S S A v v v v v v C C C C C C C C C C C C v v v >.h.K l k 0 6 @ @ @ @ @ g g x S S S S S S S S J ! ! ! J J ! ~ ( ( ( ` { { { { { ......O.O.O.<.y.y.u.a.a.a.p.a.a.a.a.a.a.y.y.y.y.y.y.y.a.a.h.h.b.n.k.k.a.a.a.k.a.a.a.u.u.u.u.u.u.u.u.y.<.<.<.<.<.<.<.<.<.<.<.<.<.<.<.<.<.3.u.0.0.0.L m z w w w w w a a a a a g C C C C C C Z Z D ! J J J J J J ! ( ( ( ( `  . . . . . . . .O.a.j.A.A.A.A.A.b.j.p.u.<.<.<.................{ ' ' ' ' ` ` ` ` ` ` ` ` { ` ` ` ' ' ` ` ` ` ` ` ` ` ............{ ` { ..X.XX}.f., @ @ @ % % % : < 3 ! ! ! ! ! ! ! ! ! ! J J J H H H J J J J J J ",
"h h h h h h h h h h h h h h h h h h h h h h h h h h h h S S J ! ..a.{ 7 7 7 7 3 7 7 7 h ` ` ` ` ` ` ` ` ` ` ` ` ` ..c.[.*.m k k 8 % & & & 9 9 9 x x x x x x x >.>.>.>.<.3.<.<.>.>.>.>.>.>.>.>.>.>.>.>.>.3.3.3.3.3.3.u.u.u.u.u.u.u.u.u.u.u.u.i.i.u.i.x.x.x.x.x.x.x.x.x.x.x.x.x.x.x.x.x.m.m.x.x.x.x.x.x.m.M.@Xm.C C C { { | >.>.<.<.<.3.3.3.3.3.3.3.3.3.3.3.3.3.3.3.3.3.3.<.3.3.<.X.X.X.X.>.>.>.>.>.>.X.X.X.X.>.>.} } { { >.>.X.X.>.>.>.>.X.X.{ ' ' ' ( ! ! / / / / / / / / J J J J J A A S Z v v v C C C v v C C v v C C C v v v C C C J h.[ z k 0 6 @ @ @ @ o g g g S S S S S S S S J J ! ! J J ! ~ ( ( ( ` { { { { ......O.O.O.t.y.y.u.a.p.p.p.p.p.a.a.a.a.a.u.y.y.y.y.y.u.a.a.h.n.n.n.a.y.a.a.a.a.a.a.u.u.u.u.u.u.u.u.u.<.<.<.3.3.3.<.<.<.<.<.<.<.<.<.<.<.<.3.u.0.0.2.m m e w w w w w i a a a a a a g C C C C C C Z S J ! ! ! J J J ~ ( ( ( (  . . . . . . . ...y.j.b.A.A.A.A.j.j.p.3.<.<.X.....................' ' ' ' ' ` ` ` ` ` ` { ` ' ' ` ` { { ` ` ` ` ' { ..........{ ' ' ' { .._.}.f.% @ @ @ @ @ @ : < < ! ! ! ! ! ! ! ! ! ! J J J J J J J J H J J J ",
"C h h h h h h h h h h h h h h h h h h h h h h h h h h Z S S H ! ! u.a.y 7 7 7 7 7 7 7 7 f ` ` ` ` ` ` ` ` ` ` ` { ..c.[.z.m k k 5 X @ & & 9 9 9 x x x x x x x >.>.>.u.u.u.u.u.u.u.y.<.>.>.>.>.>.>.>.>.>.3.3.y.y.3.3.u.u.u.u.u.u.u.u.u.u.u.u.i.h.x.x.x.x.x.x.x.x.x.x.x.x.x.x.x.x.x.x.x.x.x.x.x.x.x.x.x.x.m.C.i.C C Z } { >.>.>.>.>.>.>.<.3.3.3.3.3.3.3.3.3.3.3.3.3.3.3.3.<.<.3.>.X.X.>.>.>.>.>.>.>.>.X.X.X.X.>.>.} } { } >.>.X.X.>.>.>.>.X...[ ' ' ( ! ! / / / / / / / / / J J J J A A A S S A Z C C C C v v C C v v v C C v v v C C v C 5.2.m l k w @ @ @ @ * g g g Z S S S S S S S H J ! ! J J ~ ~ ( ( ( ` ` ` { { ....X.O.O.y.y.y.u.p.a.p.p.p.p.p.a.a.p.a.a.p.u.u.u.u.a.a.a.a.x.n.j.a.O.O.O.u.a.a.u.y.<.3.u.u.u.u.u.u.3.<.<.<.3.<.3.<.<.<.<.<.<.<.<.<.<.<.<.y.u.0.0.+.m n w w w w w w w 0 a a a a a a a C Z C C C C S S J ! J J J J ! ( ( ( ( {  . . . . . . . .O.j.j.N.A.A.N.j.a.y.<.<.O.......................{ ' ' { ' ` ` ` ` ` ` { ` ' ' ` ` { { ` ` ` ' ' { ........{ ' ' ' ' ' ' W.}.f.@ @ @ @ @ @ @ > < y ! ! ! ! ! ! ! ! ! ! J J H J J J J J H J J J ",
"S C h h h h h h h h h h h h h h h h h h h h h h h C S S S S J ! ! ` a.! 3 3 y y 7 7 3 3 y j H ~ ` ` ` ` ` ` ` `  ...c.[.[.m k k 1 X X % & 9 9 9 g x x x x x x { >.3.u.i.h.h.h.i.u.u.u.u.<.>.>.>.>.>.>.>.3.y.y.y.3.3.u.u.u.u.u.u.u.u.u.u.i.h.x.x.x.x.x.x.x.x.x.x.x.x.x.x.x.x.x.x.x.x.x.x.x.x.x.x.x.x.x.h.h.d.>.C C S { { >.:.| | | | | >.,.3.3.3.3.3.3.3.3.3.3.3.3.3.3.3.<.<.3.<.>.>.>.>.>.>.X.X.>.>.>.X.>.>.>.>.} } { { { ....X.X.>.X.X...{ ' ' ' ( ! ! / / / / / / / / / / H H H S A A S S S S S S Z C v v C C v Z C C C C Z Z C C C C U d.m z k k @ @ @ @ > g g g C S S S S S S S D J ! ! J ! ~ ~ ~ ( ( ` { ` { ......O.O.<.y.y.a.a.a.a.a.p.p.a.a.a.a.p.p.p.p.a.a.a.a.a.a.a.a.j.j.a.O.O.O.O.O.u.y.<.<.<.<.3.u.u.u.u.y.<.<.<.<.<.<.<.<.<.<.<.<.3.3.<.<.<.3.y.u.u.0.0.) m z w w w w w w w w w 9 < u a a a a C S C C C C C S J J J J J J ~ ( ( ( `  . . . . . . . ...p.j.j.j.b.j.j.a.<.<.<...........................` ` { { ` ` ` ` ` ` ' ' ' ' ` ` ` ` ` ` ' ' ' ' ........' ' ' ' ' ' ' I.}.d.% % @ @ @ @ @ < < j ! ! ! ! ! ! ! ! ! ! H H H H H H H H H H J J ",
"S C h h h h h h h h h h h h h h h h h h h h h h C S S H ! ! ! ! ! ! O.a.p 3 y 3 3 3 3 3 3 y S S S ! ` ` ` ` ` ` ....c.[.[.P k k 1 X X @ & 9 9 9 g x x x x x x { <.u.i.h.h.h.h.h.i.u.u.u.u.y.>.>.>.>.>.>.3.3.y.y.3.3.y.u.u.u.u.u.u.u.u.h.x.x.x.x.x.x.x.x.x.x.x.x.x.x.x.x.x.x.x.x.x.x.x.x.x.x.x.x.x.x.i.u.u.u.X.C Z J { { { } { { { [ [ [ >.>.3.3.3.3.3.3.3.3.3.3.3.3.3.3.<.<.3.3.>.>.>.>.X.X.X.X.>.>.X.X.>.>.>.>.} } { { { { { { { { { { { ' ' ' ( ! ! ! / / / / / / / / / J H H A A A A A S S S S S S C v v C C Z Z C C C C C Z C C C C C 2.m m k k @ @ @ @ > g g g g S S S S D D D D J J J ! ~ ~ ~ ~ ~ ( { { ` ......X.O.<.y.y.a.a.a.a.a.a.p.a.a.a.a.a.p.p.p.p.a.a.a.a.a.a.h.a.a.j.t.O.O.O.O.O.<.<.<.<.<.<.<.3.u.u.u.3.<.<.<.<.<.<.<.<.<.<.<.<.3.3.<.3.y.u.u.u.u.0.0.#.m z w w w w w w w w w @ X X % u a a a C C C C C C C C D J J J J ! ( ( ( '  . ... . . . . . .y.j.j.j.j.j.j.y.<.<.....................' ' ` ` ` ` ` ` ` ` ` ` ` ` ' ' ' ' ` ` ` ` ` ` ' ' ' ' { ....' ' ' ' ' ' ' ' u.}.4.@ % % % @ @ % < < ! ! ! ! ! ! ! ! ! ! ! ! H H H H H H H H H J J ",
"S S h h h h h h h h h h h h h h h h h h h h C Z S S ! ! ! ! ! ! ! ! ! y.y.y 7 7 7 7 3 7 3 3 f S S S S ! ^ ` ` ` ....R._.[.2.k k 1 X X X & 4 9 9 a x x x x x x { 3.u.h.h.h.h.h.h.h.u.u.u.u.u.u.<.>.>.>.>.u.3.3.3.3.u.u.u.u.u.u.u.u.i.x.x.x.x.x.x.x.x.x.x.x.x.x.x.x.x.x.x.x.x.x.x.x.x.x.x.x.x.x.x.x.i.u.u.i.i.( C C ( { [ } { { { | | | } | >.>.<.<.3.3.3.3.3.3.3.3.3.3.3.3.3.3.3.3.>.>.>.>.>.X.X.X.X.X.X.>.>.>.>.} } } { ' ' { { { { { { ' ' ' ( / / / / / / / / / / / / J H H H S S S S A A S S S A Z v C C C C C C v v v Z Z C C v v v v U 2.B l k * @ @ @ * g g g g S D ! ! ! ! J J J J J ! ( ( ( ( ( ' { { { ....X.O.O.y.y.a.p.p.p.p.p.p.a.a.a.a.a.a.a.a.a.a.a.a.a.a.a.n.n.n.a.a.O.O.O.O.O.O.<.<.<.<.<.<.<.<.<.3.<.<.<.<.>.X.>.<.<.<.<.<.<.<.<.3.y.y.u.u.u.u.u.0.0.9.B m l w w w w w w w w @ X X X X , a a a C C C C C C C C S H J J J ( ( ( `  . . . . . . . . ...y.a.j.j.j.y.<.<.....................{ ' ' ' ' ' ' { ` ` ` { ` ` ` ` ` ` ` ` ` ` ` ' ' ' ' ' ' ....{ ' ' ' ` ` ` ` ' <.}.2.@ % % % @ @ % < p ! ! ! ! ! ! ! ! ! ! ! ! H H J H H H H H H H J ",
"S S C h h h h h h h h h h h h h h h h C C S S S S ! ! ! ! ! ! ! ! ! ! ~ a.y.f 7 7 7 7 7 3 3 f S S S S S S ! ` ` ...._._.[.W.k k % X X X % * 9 9 u x x x x x x { u.d.h.h.x.x.h.h.h.h.d.u.u.u.u.u.3.>.>.u.u.u.i.u.u.u.u.u.u.u.u.i.h.x.x.x.x.x.x.x.x.x.x.x.x.x.x.x.x.x.x.x.x.x.x.x.x.x.x.x.x.x.x.x.i.u.u.u.i.i.( C C ( [ [ { } } { | | | } { >.>.>.>.>.,.<.3.3.3.3.3.3.3.3.3.3.3.3.3.3.<.>.>.>.X.X.X.X.X.X.>.>.>.>.} } { ' ' ' ' { { { ' ' ' ' ' ( / / / / / / / / / / / / J H H A S A S S S A S S S A v v C C C Z C C v v v Z C C C C v v Z Z f.9.K k * @ @ @ O g g g g S ! ! ! ! ! ! J J J ! ( ( ( ( ( ` { { { ......O.O.<.y.y.a.p.a.p.p.a.a.a.a.a.a.a.u.y.u.a.a.a.h.h.h.k.n.n.n.h.O.O.O.O.O.O.O.<.<.<.<.<.<.<.<.<.<.<.<.<.X.X.X.X.X.<.<.<.<.<.3.y.y.y.y.u.u.u.u.u.0.0.0.2.E m n r w w w w w w 4 X X X X o * a a a C C C C C C C C C J J J ~ ( ( `  . . . . . . . . . ...O.<.<.<.<.<.......................{ ' ' ' ' ' ' { ' ` ` { { ` ` ` ' ` ` ` ` ` ` ' ' ' ' ' { ....' ' ' ` ( ( ( ( ( >.}.4.% % @ @ @ @ > < C ! ! ! ! ! ! ~ ^ ` ` ~ ! ! H H H H H H H H H J ",
"S S S C h h h h h h h h h h h h h h h h S S S S ! ! ! ! ! ! ! ! ! ! ! ! ` a.a.O.` { { h 3 y S S S S S S S S S ~ ` >.I.R.[.[.b k % X X X @ & , 9 u g 7 7 7 g x { u.h.x.m.m.m.m.x.h.h.h.h.h.d.i.u.u.u.u.u.u.u.u.u.u.u.u.u.i.h.x.x.x.x.x.x.x.x.x.x.x.x.x.x.x.x.x.x.x.x.x.x.x.x.x.x.x.x.x.x.x.x.x.h.u.u.u.u.i.i.( C Z } } } | | | | } | } } { { >.>.>.>.>.>.>.<.<.<.3.3.3.3.3.3.3.3.3.3.3.3.>.>.>.X.>.>.X.X.>.>.X.X.} } { ' ' ' ' ' { { ' ' ' ' ( / / / / / / / / / / / / J J H H A S S S S A S S S S C v v C C Z Z C C C C C C C C C C C C C C 2.f.2.k * @ @ @ @ g g g g S J J J J ! ! J J ! ~ ~ ( ( ( ` { { { ......X.O.O.y.y.y.a.a.a.a.a.a.a.a.a.a.a.y.y.y.y.a.a.a.a.a.h.h.a.n.k.a.O.O.O.O.O.O.O.<.3.3.3.3.3.3.3.<.<.<.<.X.X.X.X.X.X.X.>.<.3.y.u.u.u.y.y.u.u.u.u.u.0.0.0.*.@.I V m n l e e e e l - o X X o o , a a f C C Z C S S C S J J J ! ( ( (  . . . . . . . . . . .O.<.<.<.O...........................' ' ` ` ` ` ' ' ` ` ' ' ` ` ' ' ' ' ` ` ` { { { { { ........{ ' ' ' ( ( ( ( ( ' [.,.@ @ @ @ @ @ < < h ! ! ~ ~ ` ` ` ` ` ` ` ! ! H H J J H J H H H H ",
"S S S S h h h h h h h h h j j h h h h h Z S S J ! ! ! ! ! ! ! ! ! ! ! ! ! 3.C././././././.~ S S S S S S S S S S ! ` ` ` 3.[.2.l % X X X X % & & & > 7 7 7 7 u { h.h.m.m.m.m.m.m.x.h.h.h.h.h.h.h.u.u.u.u.u.u.i.u.u.u.u.h.x.x.x.x.x.x.x.x.x.x.x.x.x.x.x.x.x.x.x.x.x.x.x.x.x.x.x.x.x.x.x.x.x.x.h.u.u.u.u.i.i.i.[ C ( | } } | } | } } } } { { [ ..>.>.>.>.>.>.>.>.>.>.<.3.3.3.3.3.3.3.3.3.<.>.>.>.>.>.>.X.>.>.>.>.X.} } { ' ' ' ' ' ' ' ' ' ' ( / / / / / / / / / / / / J H J H S A S S S S S S A A S C v C C C v v C C C C C C C C C C C C C C [ f.+.k * @ @ @ @ g g g g Z J J ! ! ! ! ! ~ ~ ~ ~ ( ~ ` { { { { ......O.O.O.y.y.y.a.a.a.a.a.a.a.a.a.a.u.y.y.y.y.p.a.h.h.a.h.h.j.j.j.<.O.O.O.O.O.O.O.y.u.u.u.u.u.u.3.<.<.<.X.X.X.X.X.X.X.X.X.X.>.3.u.u.u.y.y.u.u.u.u.u.0.0.0.#.@.W I I N m m m m m m m - X X X X o 7 a a C C Z S S S C S J J J ! ( ( (  . . . . . . . . . . . .<.>...............................{ ' ` ` ` ` ' ' ` ` ' ' ' ` ' ' ' ' ` ` ` ....................{ ' ' ' ( ( ( ( ( [.[ @ @ @ @ @ @ < < S ` ` ` ` ` ` ` ` ` ` ` ! ! ! H J J J J H H H H ",
"S S S S C h h h h h h h h h h h h h h h C S S ! ! ! ! ! ! ! ! ! ! ! ! ! ! ` p././././././.y.S S S S S S S S S S S ! ` ` ` x.I.,.% X X X X X o o & > 7 7 7 7 7 >.h.x.m.m.m.m.m.m.m.h.h.h.h.h.h.h.h.u.u.u.u.u.u.u.u.u.h.x.x.x.x.x.x.x.x.x.x.x.x.x.x.x.x.x.x.x.x.x.x.x.x.x.x.x.x.x.x.x.x.x.h.i.u.u.u.u.u.u.u.u.{ { } } | | } } } { { { { { | | | >.>.>.>.>.>.>.>.>.>.>.3.3.3.3.3.3.<.<.3.>.>.>.>.>.>.>.>.>.>.>.>.X.{ { { { ' ' ' ' ' ' ' ' ' ( / / / / / / / / / / U J H H J A A A S S S S S S S S S C C C C C v v v v C C C v v v v v Z C C C G f._ k * @ @ @ @ g g g g C J J ~ ( ( ( ( ( ( ( ( ` ' { { { { ......X.O.O.O.y.y.y.a.a.a.a.a.a.a.a.a.u.y.y.y.y.y.u.a.a.a.a.a.a.a.a.a.O.O.O.O.O.O.O.O.y.u.u.u.u.u.u.<.<.<.X.X.X.X.X.X.X.X.X.X.X.X.X.X.y.u.u.u.u.u.u.u.9.0.0.0.@.@.@.R I I N n m m m m m z # X X X X @ p a g C C C Z S C J J J J J ( ( ( {  . . . . . . . . . . .O...' { { { ........................' ` ` ` ` ` ' ` ` ' ' ` ` ` ` ' ' ` ` ........................{ ' ' ` ( ( ( ( W.U @ @ @ @ @ % < < ~ ` ` ` ` ` ` ` ` ` ` ` ! ! ! H J J H H H H J J ",
"S S S S S h h h h h h h h h h h h h h h S S ! ! ! ! ! ! ! ! ! S C j C C S S S ! x././././.C.S S S S S S S S S S S J ! ` ` X.U.,.9 X X X X X X X & > 7 7 7 7 7 >.h.m.m.m.m.m.m.m.m.n.h.h.h.h.h.h.h.i.u.u.u.u.u.u.u.i.x.x.x.x.x.x.x.x.x.x.x.x.x.x.x.x.x.x.x.x.x.x.x.x.x.x.x.x.x.x.x.h.d.u.u.u.u.u.u.u.u.u.u.u.{ { } } } | } } { { { [ { { | | | ..>.>.>.>.>.>.>.>.>.>.>.3.3.3.<.>.<.<.<.>.>.>.>.X.>.>.>.>.>.>.>.X.{ { { { ' ' ' ' ' ' ' ' ( / / / / / / / / / / / U H H H A A A S S S S S S S S S S A C v C C v v v v v C v v v v v v Z Z C C C 2.P k * @ @ @ @ g g g g C J J ~ ( ( ~ ( ` ` ' { { { ` { ..........X.O.O.O.<.y.y.a.p.p.a.a.a.a.a.a.y.y.y.y.y.y.u.a.a.h.a.k.a.a.h.y.O.O.O.O.O.O.O.O.y.u.u.u.u.u.3.<.<.>.X.X.X.X.X.X.X.X.X.X.X.....X.X.<.u.u.u.d.0.0.0.0.0.0.@.@.@.W I I R B n m m m m m l o X X X X , a a C C C C C S J J J J ! ( ( ( `  . . . . . . . . . . ...' ' ` ' ' ' {  ...................{ ` ` ` ` ' ' ` ` { ` ` ` ' { ' ` ` ` ..........................{ ' ' ( ( ( ( h.U @ @ % % @ : < < ~ ` ` ` ` ` ` ` ` ` ` ~ ! ! ! ! J J H H H H J J ",
"S S S S S h h h h h C C C C h j h h h h S J ! ! ! ! ! ! ! H f f f f f f g g g S ! h./././.h.H S S S S S S S S S S S ! ! ` ` U.,.9 X X X X X X o & , 7 7 7 7 7 >.x.m.m.m.m.m.m.m.m.m.h.h.h.h.h.h.h.h.u.u.u.u.u.u.u.h.x.x.x.x.x.x.x.x.x.x.x.x.x.x.x.x.x.x.x.x.x.x.x.x.x.x.x.h.h.i.u.u.u.i.u.u.u.u.i.u.u.u.u.u...[ } [ | | { { [ { [ [ { } | | { { { { [ [ { { | ..>.>.>.>.,.<.>.,.<.<.>.>.>.>.X.X.X.X.>.>.>.>.>...{ { { ' ' ' ' ' ' ' ' ' ( / / / / / / / U / U U J J H A S S S S Z v v Z Z Z S S A Z v v C C C C v Z C C C C Z Z v v C C C C C G K e * @ @ @ @ a g g g C D ! ! ( ~ ~ ~ { { { { { { { ............X.O.O.O.<.y.y.a.p.p.p.p.a.a.a.u.y.y.y.y.y.y.u.k.a.a.n.n.n.n.a.O.O.O.O.O.O.O.O.O.y.y.u.u.u.u.3.<.<.X.X.X.X.X.X.X.X.X.X.X...........X.X.y.I.I.l.d.0.0.0.0.*.@.@.@.R I I I B n m m m m m w X X X X @ a a g C C C C J J J J J ~ ( ( ( `  . . . . . . . . . . .' ( ( ( ` ' ' ` ' { ..................{ ` ` ` ' { { ` ` ` ` ` { ..{ ` ` ' ..........................{ ' ` ` ( ( ( h.U > % % % @ > < < ~ ` ` ` ` ` ` ` ` ` ~ ! ! ! ! ! ! H H H J J J J ",
"S S S S S C h h C S S S S S C h h h h C S ! ! ! ! ! ! ! ! f f f f f f f g g f S H ! n./.C.! ! ! S S S S S S S S S S ! ! ~ ` U.,.x X X X X X X @ & 7 7 7 7 7 7 >.x.m.m.m.m.m.m.m.m.m.h.h.h.h.h.h.h.h.i.u.u.u.u.i.i.d.x.x.x.x.x.x.x.x.x.x.x.x.h.i.i.i.i.i.h.h.h.h.i.i.i.u.u.u.u.u.u.u.u.u.u.u.u.i.i.u.u.u.u.u.>.[ [ [ | | { { { { [ [ [ } } } { { { { { { { [ [ | >.>.>.>.>.>.<.3.<.<.>.>.>.>.X.X.X.X.X.X.>.>.>...{ { { ' ' ' ' ' ' ' ' ' / / / / / / / / U U / J J J H S S S S A v v v v v v C C v v v v C C C C Z Z C C C C C C C C C C C C C v P e * @ @ @ @ a g g g C D ! ! ( ~ ~ ` { { { { { ..................O.O.O.>.y.y.a.p.p.p.p.a.a.u.y.y.y.y.y.y.y.a.a.a.a.n.n.n.n.y.O.O.O.O.O.O.O.O.O.y.y.y.y.u.u.<.<.<.X.X.X.X.X.X.X.X.X.X...................4.M.I.I.v.f.0.0.0.*.@.@.W I I I I N m m m m m m 4 X X X o , a g C C C C J J J J ! ( ( ( ( ( `  . . . . . . . . . .' ( ( ( ( ( ' ` ' ` ....................` ` ` ' { ` ` ` ` ` ` { ....` ' ' { ........................{ ` ` ` ( ( ( h.U < % % % @ < < < S ` ` ` ` ` ` ~ ! ! ! ! ! ! ! ! ! J H H J J J J ",
"S S S S S S S S S S S S S S S Z h h h Z J ! ! ! ! ! ! ! H f f f g g g g f f C S H ! ~ C.~ ! ! ! ! S S S S S S S S S J ! ! ` W.,.x X X X X X X % * 7 7 7 7 7 a >.m.m.m.m.m.m.m.m.m.m.h.h.h.h.h.h.h.h.h.u.u.u.u.u.u.u.h.x.x.x.x.x.x.x.x.h.i.u.u.u.u.u.u.u.u.u.u.u.u.u.u.u.u.u.u.u.u.u.u.u.u.u.u.u.u.u.u.u.u.u.<.| [ { } } | | | } } { { { { } | | | } { { } } } >.>.>.>.>.>.<.3.4.d.3...>.>.>.>.>.>.>.>.>.>.>.>...{ { { ' ' ' ' ' ' ' ' ( ! ! / / U / / / U U J H J J J A S A A A S Z v v v v C C C C C C C C C C C C Z C C C C C v v v v v Z C C P e & @ o X X 7 g g g C D ! ! ( ~ ( ` { { { { { ..................X.O.O.O.y.y.a.a.a.a.a.u.y.y.y.y.y.y.y.y.u.h.h.h.k.a.a.a.a.O.O.O.O.O.O.O.O.O.O.y.y.y.y.u.u.<.<.<.>.X.X.X.X.X.X.X.X.........{ { { ..........i.I.I.I.d.0.0.9.#.@.@.R I I I R N m N I I I I 8 X X X @ a a C C C S J J J J ~ ( ( ( ( ( (  . . . . . . . . . .` ( ( ( ( ( ( ' ' ' { ..................{ ` ` ' ' ' ' ' ' ' ' { ....' ` ' ` { ....{ { ` ` ` { {  . .` ` ` ( ( ( ( h.U < @ @ @ @ < < < p ! ~ ~ ! ! ! ! ! ! ^ ` ` ` ~ ! ! ! J J H H H H ",
"S S S S S S S S S S S S S ! S S Z h C S ! ! ~ ~ ! ! ! ! C g f f g g g f f f S S H ! ! ! ! ! ! ! ! S S S S S S S S S H ! ! { [.,.4 X X X X X X % , 7 7 7 7 u a >.m.m.m.m.m.m.m.m.m.m.h.h.h.h.h.h.h.h.h.u.u.u.u.u.u.u.u.i.h.h.h.h.h.i.u.u.u.u.u.u.u.u.u.u.u.3.<.>.<.u.u.u.u.u.u.u.u.i.u.u.u.u.u.i.u.u.3.u.u.u.>...{ { } } | | } } | | { { { { | | } } { { { { | >.>.>.>.>.,.3.3.d.d.3.{ ..>.>.>.>.>.>.>.>.>.>.>...{ { { ' ' ' ' ' ' ' ' ( ! ! / / U / / / U J H H J J J H A A A A S S Z v v v C C C C C C C C C C C C Z Z C C C C Z C v v C C C C P e @ @ o o X 3 g g g C S ! ! ( ~ ~ ' { { { { { { ..................O.O.O.y.y.a.a.a.a.u.y.y.y.y.y.y.y.y.y.a.h.h.n.k.j.j.h.<.O.O.O.O.O.O.O.O.O.3.y.y.u.u.u.y.3.<.<.<.X.X.X.X.X.X.X...........{ { ................h.c.v.0.0.0.9.@.@.W I I R R I I I I I I R R o X X X 3 a C C C J J J J ! ( ( ( ( ( ( ( `  . . . . . . . . .` ( ( ( ( ( ( ' ' ' { ....................` ` ' ' ' ' ' ' ' ' { ....{ ` ' ' ` ' ` ` ` ` ` ` ' ` ` ` ` ` ` ( ( ( ( h.U < @ @ @ @ < < < t S S ! ! ! ! ! ! ^ ` ` ` ` ` ` ! ! ! ! H H H J ",
"S S S S S S S S S S S S ! ! J S S S S J ! ~ ~ ~ ! ! ! ! C g f f g f f f f S S S H ! ! ! ! ! ! ! ! H S S S S S S S S H ! ! ` [.,.@ X X X X X o & 7 7 7 7 7 a a >.m.m.m.m.m.m.m.m.m.m.h.h.h.h.h.h.h.h.i.u.u.u.u.u.u.u.u.u.u.u.u.u.u.u.u.u.u.u.u.u.u.u.3.>.>.>.>.>.>.<.u.u.u.u.u.u.i.i.u.u.u.u.u.i.<.>.>.>.>.>.>.>.{ { } } [ { { { | | { { { { } | { { [ [ { { } | | :.>.>.3.3.u.d.d.[ { { { ..>.>.X.X.X.X.>.>.>...{ { { ' ' ' ' ' ' ' ' ( ! ! ! / / / / / U H J J J J H J A S A A S S S A v v v C Z v C v C C C C C v Z Z v v v v C C C C C C C C P k @ @ @ @ @ > g g g C S J ! ( ~ ~ ` { { { { { { { ................O.O.O.<.y.a.a.a.u.y.y.y.y.y.y.y.y.y.a.a.n.n.n.n.n.S.S.y.O.O.O.O.O.O.O.O.3.u.u.i.a.u.y.y.y.<.<.<.<.X.X.X.X.X...............{ ............{ ' ( ( } 9.0.0.0.*.@.@.E I R R R R R R I I R R X X X X @ a C C S J J J J ~ ( ( ( ( ( ( ( (  . . . . . . . . .( ( ( ( ( ( ( ` ` ' ' .................... .` ' ' ' ' ' ' ' ' ......{ ` ` ` ` ' ' ` ` ` ` ' ' ` ` ` ` ` ( ( ( ( ( h.U < @ @ @ % < < < < S S H ! ! ! ! ~ ` ` ` ` ` ` ` ` ! ! ! ! H J J ",
"J S S S S S S S S S S ! ! ! ! S S S J ! ~ ~ ~ ! ! ! ! J h g f f g g f f S S S S S ! ! ! ! ! ! ! ! ! S S S S S S S S J ! ! ` [.>.X X X X X X @ * 7 7 7 7 a a a 3.m.m.m.m.m.m.m.m.m.m.h.h.h.h.h.d.i.u.i.i.i.i.u.u.u.u.u.u.u.u.u.u.u.u.u.i.u.u.u.3.<.>.>.>.>.>.>.>.>.>.u.u.u.u.u.u.u.u.u.u.u.u.i.<.>.>.>.>.>.>.>.>.{ { } } [ { { { | } { [ [ { } | { [ [ [ { { { } | } ..>.>.<.d.d.d./ ' { { { ..>.X.X.X.X.>.>.>...{ { ' ' ' ' ' ' ' ' ' ! ! ! ! ! / / / / J H H J H H H H D S S S S S S S A v C C Z Z Z v x x x v v v v Z v v v v C C C C C C C C _ k @ @ @ @ @ @ g g g g S D ! ( ~ ~ ` { { { { { { { { { ............X.O.O.<.y.a.u.y.y.y.y.y.y.y.y.y.y.a.a.n.).'.a.n.S.S.n.O.O.O.O.O.O.y.u.u.u.i.a.a.a.a.y.y.y.<.<.<.<.<.X.X.X...........................{ ` ` ` ( ( ( ` 2.0.0.9.#.@.@.R R R R R R R I I I m o X X X X 7 C C S J J J J ( ( ( ( ( ( ( ( ( `  . . . . . . . .( ( ( ( ( ( ( ` ` ` ` { .................... .` ` ' ' ` ` ' { ......{ ` ` ` ` ' ' ` ` ` ` ( ( ( ( ( ( ( ( ( ~ ~ ~ d.( < @ @ @ % < < < < S S ! ! ! ! ~ ` ` ` ` ` ` ` ` ` ` ! ! ! ! ! H ",
"! ! J H S S S S S J ! ! ! ! ! ! S S ! ! ~ ~ ! ! ! ! H S h f f f g g h S S S S S S ! ! ! ! ! ! ! ! ! S S S S S S S S ! ! ! ` [.[ X X X X X X % 2 7 7 7 7 a a a 3.m.m.m.m.m.m.m.m.m.n.h.h.u.u.i.u.u.u.u.u.u.u.u.u.u.u.u.u.u.u.u.u.u.u.u.u.u.3.>.>.>.>.>.>.>.>.>.>.>.<.u.u.u.i.i.i.u.u.u.u.u.u.3.>.>.>.>.>.>.>.>.>.} { [ [ [ { } | { { [ [ } } { { { | } { { [ } } { { >.>.>.u.d.d.>./ / [ } } { { ..X.>.>.>.>.>.} { { ' ' ' ' ' ' ' ' ( / / / / / / / / / H H J J J J J H H S S S A A A A S A v v v C v v x x x x x x x x x v v C C C C C C C C C _ e @ @ @ @ @ @ X * > 3 3 a S ~ ( ( ` { { { { { { { { { { ..........X.O.O.<.y.y.y.y.y.y.y.y.y.y.y.y.a.h.n.).'.y.S a.S.C.y.O.O.O.O.<.u.u.u.u.a.a.a.a.a.a.u.u.u.y.<.<.<.<.<.X.X.X...................{ ..{ ( ( ` ` ( ( ( ( ( ,.0.0.6.@.@.W R R I I R R R R W = X X X X X % C C J J J J ! ( ( ( ( ( ( ( ( ( (  . . . . . . . .( ( ( ( ( ( ( ` ` ` ` ' ........................{ { {  ...............` ` ` ` ' ' ' ` ( ( ( ( ( ( ( ( ( J J J J J 4.[ < @ @ @ > < < < y S S ! ! ! ! ` ` ` ` ` ` ` ` ` ` ` ` ! ! ! ! ! ",
"! ! ! ! ! ! ! ! ! ! ! ! ! ! ! ! ! ! ! ~ ~ ~ ! ! ! J S S S f f h C S S S S S S S S ! ! ! ! ! ! ! ! ! ! S S S S S S S ! ! ( ` [.l.X X X X X X & 7 7 7 7 p a a a i.m.m.m.m.m.m.m.m.m.x.h.i.u.u.i.u.u.u.u.u.u.u.i.u.u.u.i.i.u.u.u.u.u.u.3.<.>.>.>.>.>.>.>.>.>.>.>.>.>.u.u.u.u.u.i.i.u.u.u.u.u.u.,.>.>.>.>.>.>.>.>.>.| { { [ [ { | | { { [ [ } { { { | | } } { { } } { { >.>.>.d.d.u.h J / ( { { { { { } ..>.>.>.>.{ { { ' ` ' ' ' ' ' ' ( / / / / / / / J H H H J J J J J H H D S S S S A A S S A v C C C v v x x x g x x x x x x x x v C C C C C C Y w @ @ @ @ @ @ o @ @ @ o X * ~ ( ( ` { { { { { { { { { { ......X.O.O.O.O.>.y.y.y.y.y.y.y.y.y.y.y.u.h.n.).'.m.S S u.S.a.O.O.O.O.<.u.u.i.a.a.a.a.a.a.a.i.u.u.u.u.y.<.<.<.<.<.X.X.X.X.............{ { ..{ ( ( ( ` ( ( ( ( ( ( | 9.0.=.@.@.R R I I R R R @.K X X X X X X X C C J J J ! ( ( ( ( ( ( ( ( ( ( ( ` ` ` ` ( (  . .( ( ( ( ( ( ( ` ` ` ` ' { ............................................{ ` ` ` ' ' ` ( ( ( ( ( ( ( ( ( ( J J J J J 4.[ < X @ @ > < < < y S H ! ! ! ^ ` ` ` ` `  ... .` ` ` ` ` ! ! ! ! ",
"! ! ! ! ! ! ! ! ! ! ! ! ! ! ! ! ! ! ~ ~ ~ ~ ! ! ! S S S S S S S S S S S S S S S H ! ! ! ! ! ! ! ! ! ! S S S S S S ! ! ~ ` { _._.* X X X X @ > 7 7 7 7 a a a a i.x.m.m.m.m.m.m.m.m.h.h.u.u.u.u.u.u.u.u.u.u.u.u.u.u.u.i.i.u.u.3.3.,.>.>.>.>.....} >.>.>.>.>.>.>.>.<.u.u.u.u.u.u.u.u.u.u.u.u.u.>.>.>.>...{ >.>.>.>.| | { [ { { | | } } | | } } { { | { { ..>.| | } { ..>.>.2.d.d.{ g S ( ( ( } { { { { { ..>.>.>.{ { { ' ` ' ' ' ' ' ' ( / / / / / / J H H J J J J J J H H H H A S S S S S S S S A C C C v Z x x x g g x x x x g g x x x v Z Z C C U 6 @ @ O O O @ @ @ @ @ @ @ @ > ~ ( ( { { { { { { { { { { ....X.O.O.O.O.O.O.y.y.y.y.y.y.y.y.y.y.u.h.n.).'./.! S ! S.m.a.u.O.O.3.u.u.a.a.a.a.a.a.a.a.a.i.u.u.u.u.u.3.<.<.<.<.<.X.X.X.X...................( ( ( ( ( ( ( ( ` ` ` { 0.5XL.@.@.R I I I I @.@.z X X X o o o o a S J J ! ( ( ( ( ( ( ( ( ( ( ( ( ( ( ( ( ( (  . .( ( ( ( ( ( ( ' ` ` ` ' ' ..............................................{ ` ` ' ' ' ` ` ` ( ( ( ( ( ( ( J J J J J 4.[ 3 X @ @ > < < < y S ! ! ! ^ ` ` ` ` ............` ` ` ` ^ ! ! ! ",
"! ! ! ! ! ! ! ! ! ! ! ! ~ ~ ~ ~ ~ ~ ~ ~ ~ ~ ! ! S S S S S S S S S S S S S S S S J ! ! ! ! ! ! ! ! ! ! ! ! J J ! ! ! ` ` { <.[.[.% o X X X % , 7 7 7 y a a a } u.h.h.n.m.m.m.m.m.n.h.i.u.u.u.u.u.u.i.u.u.u.u.u.u.u.u.3.,.>.>.>.>.>.:.| { { { { { >.>.>.>.>.>.>.3.u.u.u.u.u.u.u.u.u.u.u.u.u.3.>.>.>.} { { >.>.>.>.| | { { { { | | } | | | } | { { | ..>.>.>.>.>.>.>.>.>.>.d.d.d.C g h ( ( ( ' { { { { { { } ..>.{ { { ` ` ` ' ' ' ' ' ( / / / / / / J H H J J J J J J J J J H H A S S S S S S S S C C C C C C v x x g x x x x x g x x x x x v C C A 8 @ @ O O O O @ @ @ @ @ @ @ @ 7 ( ( { { { { { { { { { { ....O.O.O.O.O.O.O.<.y.y.y.y.y.y.y.y.y.a.h./.'.'.O.S S u.S.h.a.a.u.u.u.a.a.a.a.a.a.a.a.a.a.a.i.u.u.u.u.u.3.<.<.<.<.<.>.X.X.X...{ { ............{ { { ' ` ( ( ( ` ` ` ` d.0X0XF.@.W I I I +.@.@.z X X o o o o o u S J J ~ ( ( ( ( ( ( ( ( ( ( ( ( ( ( ( ( ( ( `  .( ( ( ( ( ( ( ' ` ` ` ' ' { ..............................................{ { ' ' ' ' ` ` ` ' ` ( ( ( ( ! J J J J i.[ 3 X @ @ > < < < y S H ! ! ` ` `  ................. .` ` ` ^ ! ! ",
"! ! ! ! ! ! ! ! ! ! ~ ~ ~ ~ ~ ~ ~ ~ ~ ~ ~ ! ! J S S S S S S S S S S S S S S S S H ! ! ! ! ! ! ! ! ! ! ! ! ! ~ ` ` ` ` { O.<._.[.& & @ X @ & 7 7 7 7 u a a H <.u.i.h.h.h.n.m.m.m.h.h.u.u.u.u.u.u.u.u.u.u.u.u.u.3.,.>.>.>.>.>.>.} { { { { { { { >.>.>.>.>.>.,.u.u.u.u.u.u.u.u.u.u.u.u.u.u.4.>.>.>.} { { } >.>.>.>.| } { { { { { { { { { ..| [ { | >.>.>.>.>.>.>.>.>.>.>.,.d.h.3.g g g / / / / { { } } } } { { | { { { ' ' ' ' ' ' ' ' ( ! ! ! U / U J J J H H H H J J J H H H H A S A A A S S S Z C v C v Z Z C C C x x x x x x x x x x x x x C C C , @ @ O X X O @ @ @ @ O @ @ @ @ g ( { { { { { { { { { ....X.O.O.O.O.O.O.O.O.y.y.y.y.y.y.y.y.a.h.C.'.'.C.S S ! S.S.a.a.a.a.a.a.h.h.h.a.a.a.a.a.a.a.a.u.u.u.u.u.u.3.<.<.<.<.<.<.>.X.X.X.............{ { ........{ ` ` ` ( ` ` ( ( ~.0X0X8.@.W W @.@.@.@.P X X o o o o o 3 J J J ( ( ( ( ( ( ( ( ( ( ( ( ( ( ( ( ( ( ( `  .` ( ( ( ( ( ( ' ` ` ` ' ' { ................................................{ { ' ' ' ` ` ' ' ' ` ( ( ( ! J J J J h.[ 9 X @ @ > < < < y S H ! ! ` ` ` .................... .` ` ` ~ ! ",
"! ! ! ! ! ! ! ! ~ ~ ~ ~ ~ ~ ~ ~ ~ ~ ~ ! ! ! ! S S S S S S S S S S S S S S S S S J ! ! ! ! ! ! ! ! ! ! ` ` ` ` ` ` ` ` O.<.<._.E.& & & & & & 7 7 7 9 a a g { >.u.u.i.h.h.h.h.h.h.h.i.u.u.u.u.u.u.u.u.3.<.,.>.>.>.>.>.>.>.>.} { { { { { { { { ..>.>.>.>.>.>.u.u.u.u.u.u.u.u.u.u.u.u.u.u.3.>.>.>.| { { { ..>.>.>.>...{ { [ } | >.| { { | >.>.>.>.>.>.>.>.>.>.>.>.>.>.>.>.u.d.d.( g g g / / / / ( { } } } } { { } { { { ' ' ' ' ' ' ' ' ( ! ! ! U U U J J J H H H H J J H H H H H A S A A A S S Z v C C C v Z v C C C C x x x x g g x x x x g x x C C @ @ @ O X X @ @ @ @ @ O O @ @ @ @ J { { { { { { { { { ....O.O.O.O.O.O.O.O.O.>.y.y.y.y.y.y.y.a.n.'.'.'.^ S S y.S.S.n.h.h.h.h.n.n.n.n.n.a.a.a.a.a.a.a.u.u.u.u.u.u.<.<.<.<.<.<.<.<.X.X.X.X.............{ ........` ` ` ` ` ` ` ( ( { 4X0X0X8.@.@.@.@.@.@.@.@ o o o o o o * J J ! ( ( ( ( ( ( ( ( ( ( ( ( ( ( ( ( ( ( ( `  .` ( ( ( ( ( ( ` ` ` ` ' ' ` ` ` ` { { ....................................................{ ' ' ` ( ( ( J J J J J h.[ a X @ @ > < < < y S S ! ! ` ` ` ......................` ` ` ` ~ ",
"! ! ! ! ! ! ! ~ ~ ~ ~ ~ ~ ~ ~ ~ ~ ~ ! ! ! ! ! ! J H H H H J ! S S S S S S S S S ! ! ! ! ! ! ! ! ! ! ` ` ` ` ` ` ` ` O.<.<.<._.>X& & & & & & 7 a a a a a S { >.<.u.u.u.u.u.i.i.i.i.u.u.u.u.u.3.,.>.>.>.>.>.>.>.>.>.>.>...{ { { { { { { { { | >.>.>.>.>.>.<.u.u.u.u.i.u.u.u.u.u.u.u.u.<.>.>.>...{ { { { >.>.>.>.>.>.} { } >.>.>.>.| { >.>.>.>.>.>.>.>.>.>.>.>.>.>.>.>.>.d.d.d.C g a S / / / / / { } } } } { { { { { } { ' ' ' ' ' ' ' ( / ! ! ! U J H J J H J J J H H H H J H J A S S A A S Z C C C C v v Z Z C C C v x x x x x x x x g g g g x x v O @ @ @ @ @ @ X X @ @ X X @ @ @ @ > { { { { { { { { { ..X.O.O.O.O.O.O.O.O.O.O.O.>.y.y.y.y.y.u./.'.'.m.S S ! S.S.C.n.n.n.n.n.n.n.n.n.n.h.a.a.a.a.a.a.u.u.u.u.u.u.<.<.<.<.<.<.<.<.>.X.X.X.....................{ ( ( ` ` ` ` ( ( ` ( <.0X0X0X8.@.@.@.@.@.@.l o o o o X X % J J ! ( ( ( ( ( ( ( ( ( ( ( ( ( ( ( ( ( ( ( (  .` ( ( ( ( ( ( ` ` ` ` ' ' ' ` ' ' ` ' ` { { { ..............................................' ` ` ( ( ( J J J J J h.[ u X @ @ > < < < y S S ! ! ` ` `  .......................` ` ` ` ",
"! ! ! ! ! ! ! ~ ~ ~ ~ ~ ~ ~ ~ ~ ~ ! ! ! ! ! ! ! ! ! ! ! ! ! ! J S S S S S S S ! ! ! ! ! ! ! ! ! ! ! ` ` ` ` ` ` ` ..<.<.<.<._.3X& & & & & & 9 a a a a a ! } >.>.4.u.u.u.u.u.u.u.u.u.u.u.<.>.>.>.>.>.>.>.>.>.>.>.>.>...{ { { { { { { { { { >.>.>.>.>.>.>.>.u.u.u.u.i.u.u.u.u.3.<.>.>.>.>.>...{ { { { } >.>.>.>.>.>.>.>.>.>.>.>.>.>.| >.>.>.>.>.>.,.<.<.<.<.,.>.>.>.>.1.d.h.h.y > % / / / / / / { } } { ......| } { { } } { { ' ' ' ' / / ! ! J H H H J J J J J J H H H H J J J A S S A A S C C C C C v v v Z C C C x x x x x x x x x x g g g x x 3 O @ @ @ @ @ @ X X O @ X o @ @ @ O O ! { { { { { { { { ..X.O.O.O.O.O.O.O.O.O.O.O.O.O.y.y.y.y.a.'.'.'.^ S S u.S.S.n.n.n.n.n.n.n.n.n.n.n.n.a.a.a.a.a.a.u.u.u.y.y.u.3.<.<.<.<.<.<.<.>.X.X.X.X...........{ { ....` ( ( ( ( ` ` ` ( ( ( ( (.5X0X0XK.@.@.@.@.@.@.@ o X X X X X J J ! ( ( ( ( ( ( ( ( ( ( ( ( ( ( ( ( ( ( ( (  .( ( ( ( ( ( ( ' ` ` ` ' ' ` ` ' ' ' ' ' ' ' ' ' { ..........................................' ` ` ( ( J J J J J J h.[ > X @ @ % < < < y S S ! ! ` ` ` ` ...................... .` ` ` ",
"! ! ! ! ! ! ! ~ ~ ~ ~ ~ ~ ~ ~ ~ ! ! ! ! ! ! ! ! ! ! ! ! ! ! ! H S S S S S ! ! ! ! ! ! ! ! ! ! ! ! ~ ` ` X.O.O.O.X.<.<.<.<.<.[.9X0 & & & & & 9 a a a a a ( ..>.>.>.u.u.u.u.u.u.u.u.u.<.>.>.>.>.>.>.>.>.>.>.>.>...} { { { { { { { { { { { } >.>.>.>.>.>.>.>.<.u.3.<.>.>.>.>.>.>.>.>.>.>.>.} { { { { { >.>.>.>.>.>.>.>.>.>.>.>.>.>.>.>.>.>.>.>.>.>.,.<.<.<.<.<.<.<.,.<.2.d.d.| % % % J ! ! / / / { } { ..>.......>.>...} { { { { { ' ' / / / / H H H H H H J J J J J J J H H H J A S S S S A v C C C C C C C C C C x x x x x x x g g g g d g g g x @ @ @ @ @ @ @ @ X O @ @ @ o @ @ @ @ X u { { { { { { { ....O.O.O.O.>.O.O.O.O.O.O.O.O.O.>.y.y.y.n.'.'.m.S S ! S.S.C.n.n.n.n.n.n.n.n.n.n.n.n.a.a.a.a.a.a.u.y.y.y.y.u.y.<.<.<.<.3.3.<.<.X.X.X.X.X.................` ( ( ` ` ` ` ( ( ( ( { (.(.5X0X0X~.@.@.@.@.@.l X X X X X X C J J ~ ( ( ( ( ( ( ( ( ( ( ( ( ( ( ( ( ( ( ( ` ( ( ( ( ( ( ( ' ' ' ' { ` ` ` ' ' ` ` ` ` ` ' ` ` ` { ....................................{ ` ` ( ( J J J J J J ( h.[ X X @ @ % < < < < S S ! ! ` ` ` `  .......................` ` ` ",
"! ! ! ! ! ! ! ! ~ ~ ~ ~ ~ ~ ~ ~ ! ! ! ! ! ! ! ! ! ! ! ! ! ! ! S S S S S ! ! ! ! ! ! ! ! ! ! ! ! ! ` `  .<.<.<.<.<.<.<.<.y.x._.9XA & & & & & 7 a a a a a ( >.>.>.>.>.3.u.u.2.<.,.>.>.>.>.>.>.>.>.>.>.>.>.>...{ { { { { { { { { { { { { { { >.>.>.>.>.>.>.>.>.>.>.>.>.>.>.>.>.>.>.:.| { { { { { { { ..>.>.>.>.>.>.>.>.>.>.>.>.>.>.>.>.>.>.>.>.>.>.<.<.<.<.1.1.<.<.<.<.4.d.d.( % % % Z ! / / / / { } ..>.>.:...:.:.>.>.>...{ { { { { ' ( / / J H J H H J J J J J J J J J J H H J J A S S S Z v v v C C v v C C C x x x x x x x g g d d g d d d d i @ @ @ @ @ @ @ @ @ @ @ @ O X @ @ @ @ X @ { { { { { { ....X.O.O.O.O.O.O.O.O.O.>.O.O.O.O.O.y.y.y./.'.'.` S S u.S.S.m.n.n.n.n.n.n.n.n.n.n.n.n.a.a.a.a.a.i.u.y.y.y.y.u.u.3.<.<.<.3.3.<.>.X.X.X.X.X.X.X...{ ........{ ( ( ` ` ` ` ( ( ( ( m.(.(.R.2X0X0X5X8.@.@.@.@.X X X X X X 7 J J ! ( ( ( ( ( ( ( ( ( ( ( ( ( ( ( ( ( ( ( ( ( ( ( ( ( ( ( ` ' ' ' ` ` { ` ` ' ` ` ` ` ` ' ` ` ` ` ' ................................{ ' ` ` ( ! J J J J J J ' h.( X X @ @ @ , < < < S S ! ! ~ ` ` ` ` ...................... .` ` ",
"! ! ! ! ! ! ! ! ! ~ ~ ~ ~ ~ ~ ! ! ! ! ! ! ! ! ! ! ! ! ! ! ! ! S S S S S ! ! ! ! ! ! ! ! ! ! ! ! ~ { ` ` O.<.<.<.<.<.<.a.n.n.Y.9X,.& & & & & , a a a a a ( >.>.>.>.>.>.>.>.>.>.>.>.>.>.>.>.>.>.>.>.>.>.>...{ { { { { { { { { { { { { { { { { { | X.>.>.>.>.>.>.>.>.>.>.>.>.>...{ { { { { { { { { { >.>.>.>.>.>.>.>.>.>.>.>.>.>.>.>.>.>.>.>.>.>.>.,.1.<.<.1.1.2.,.<.<.i.d.d.' % % % Z / / / / / { { >.>.>.:...>.>.>.>.>.>...} } } ..' ( / / / U U J J J J J J H H J J J J H H J A S S S S A v v v C Z v x x x g g x x x x g g d d d d d g d d d 0 4 = @ @ @ @ @ @ @ @ @ @ O @ @ @ @ @ @ @ J { { { { ......O.O.O.O.O.O.O.O.O.O.>.O.O.O.O.O.<.y.y.).'.R.S S ! S.S.S.n.n.n.n.n.n.n.n.n.n.n.n.n.a.a.i.u.u.u.u.u.u.u.u.u.u.3.<.<.<.<.<.<.X.X.X.X.X.X.X.X.X.{ ..........( ( ( ` ( ( ( ( ( 3.(.(.C.u.I.;X0X0X0X!.*.@.@.0 @ X X X X * y J J ~ ( ( ( ( ( ( ( ( ( ( ( ( ( ( ( ( ( ( ( ( ( ( ( ( ( ( ( ` ' ' { ` ` ` ` ` ` ` { ` ` ` ` ' ' ' ' ..............................{ ' ` ` ` ~ J J J J J J ( d.h.U X X @ @ @ % < < < S S ! ! ~ ` ` ` ` ` ......................` ` ",
"~ ! ! ! ! ! ! ! ! ! ~ ~ ~ ~ ~ ! ! ! ! ! ! ! ! ! ! ! ! ! ! ! ! S S S S H ! ! ! ! ! ! ! ! ! ! ! ! ` { ` ` O.u.<.<.<.u.x.n.n.n.n.9X9.& & @ X X @ u a a a a ! >.>.>.>.>.>...| ..>.>.>.>.>.>.>.>.>.>.>.>.>...{ { { { { { { { { { { { { { { { { { { { { { ..>.>.>.>.>.>.>.>.>...{ { { { { { { { { { { >.>.>.>.>.>.>.>.>.>.>.>.>.>.>.>.>.>.>.>.>.>.>.>.>.<.<.,.1.,.2.,.<.<.d.d.d.( % % % g / / / / ( { | >.>.>.>.>.>.>.:.>.>.>.>.>.>.>.>.' ' ( / / U U J J J J J H H H J J J J H H A A S S S S A v v v C Z x x x x x g g x x x x g d d d d d d d d d 8 4 4 4 & @ @ @ @ @ @ @ @ O @ @ @ @ @ @ @ u ! { ........O.O.<.O.O.O.O.O.O.O.O.O.O.O.O.O.O.<.y.a.'.'.O.S S u.S.S.S.n.n.n.n.n.n.n.n.n.n.n.n.k.a.a.a.u.u.u.u.u.u.u.u.u.u.3.<.<.<.<.<.<.<.>.X.X.X.X.X.X.X...........{ ( ( ` ` ( ( ( ` u.(.(.x.u.u.m.I.{.5X0X0X5XK.@.L * * * % * * * , S J ( ( ( ( ( ( ( ( ( ( ( ( ( ( ( ( ( ( ( ( ( ( ( ( ( ( ( ' ' ` ` { ` ` ` ` ` ` { { ` ` ` ` ` ` { ......{ ' { ................{ ` ' ` ` ( J J J J J J ( d.h.h.A X X X @ @ @ > < < f S S ! ! ` ` ` ` ` `  ...................` ` ",
"~ ! ! ! ! ! ! ! ! ! ~ ~ ~ ~ ~ ! ! ! ! ! ! ! ! ! ! ! ` ` ` ` ! J S S S J ! ! ! ! ! ! ! ! ! ! ! ~ { { { ` ` h.n.h.n.n.n.n.n.n.n.9X4.& & X X X X @ g g a a S | >.>.>...{ { { { [ ' ..>.>.>.>.>.>.>.>.>.>.{ { { { { { { { { { { { { { { { { { { { { { { { } ..>.>.>.>.>.>...{ { { { { { { { { { { } >.>.>.>.>.>.>.>.>.>.>.>.>.>.>.>.>.>.>.>.>.>.>.>.>.>.<.<.<.<.<.,.<.3.h.h.d.! % % % u / / / / ( { ..>.>.>.>.>.>.>.>.:...:.:.:.>.>.>.{ ' ( / ! ! ! H H H J J J H H J J H H H S S S S S S S S C C C C C x x x x x g g g x x x d d d g g d d d d g 8 4 4 4 4 4 % @ @ @ @ X X @ @ @ @ O X O O * 3 ' ..X.X.O.<.h.h.>.>.O.O.>.O.O.O.>.O.O.O.O.>.>.y.C.'.'.S S ! S.S.S.S.n.n.n.n.n.n.n.n.n.n.n.n.n.a.a.a.a.u.u.y.u.u.u.u.u.y.<.<.<.<.<.<.<.<.<.<.>.X.X.X.X.X.........{ ( ( ( ( ( ( ( { u.(.R.u.u.y.y.i.I.I.E.5X0X0X0X5XG.7 * * * * * * * > C ! ( ( ( ( ( ( ( ( ( ( ( ( ( ( ( ( ( ( ( ( ( ( ( ( ( ( ( ` ` ` ` ` ` ` ` ` ` ` ` ` ` ' ' ' ` { ....{ ' ' ' ..............{ ' ' ' ' ` ~ J J J J J ( d.h.3.( 3 X X X X % @ % < < y S S ! ! ` ` ` ` ` ` `  ................. .` ",
"~ ~ ! ! ! ! ! ! ! ~ ~ ~ ~ ~ ! ! ! ! ! ! ! ! ! ! ~ ` ` ` ` ` ` ! ! S S ! ! ! ! ! ! ! ! ! ! ! ! ` ` ` { { ` { a.n.n.n.n.n.n.n.n.9X4.& & X X X X X 3 g a a C { { { { { { { ( J J J J ' ..>.>.>.>.>.>.>.{ { { { { ..>.>.| { { { { { { { { { { { { { { { { { { { ..>.>.>.} { { { { { { { { { { { { >.>.>.>.>.>.>.>.>.>.>.>.>.>.>.>.>.>.>.>.>.>.>.>.>.>.>.,.<.<.<.<.,.<.u.h.d.d.! % % % , / / / / ( { ..>.>.>.>.>.>.>.>.>.....:.:.>.>.>.' ( ( / ! ! J H H J J J J H H H H H H A S S S S S S A A C C C C v x x x x x g x g x x g d d d d d d d d d g 4 4 4 4 4 4 4 - % @ O O O @ @ @ @ @ X @ @ @ 3 g O.O.O.u.h.h.h.>.>.O.O.>.O.O.O.O.O.O.O.O.O.O.y./.'.n.S S x.m.N.n.n.n.n.n.n.n.n.n.n.n.n.n.n.h.a.a.a.a.u.u.u.u.u.u.u.y.3.<.<.<.<.<.<.<.<.<.<.<.<.X.X.X.........' ` ( ( ( ( ( ` { u.(.(.u...X.3.y.y.h.I.I.E.0X0X0X5Xv.2.4 * * * * * * * * g ( ( ( ( ( ( ( ( ( ( ( ( ( ( ( ( ( ( ( ( ( ( ( ( ( ( ( ( ` ` ` ` ` ' ' ` ` ` ` { ` ' ` { { { ..{ ' ' ' ` ..............{ ' ' ' ' ( ! J J J J ' i.>.! J J @ X X X X @ % @ > < < S S ! ! ! ` ` ` ` ` ` ` `  ...............` ",
"~ ~ ~ ! ! ! ! ~ ~ ~ ~ ! ! ! ! ! ! ! ! ! ! ! ! ! ` ` ` ` ` ` ~ ! ! ! ! ! ! ! ! ! ! ! ! ! ! ! ! ` ` ` ` ` ` ` <.R.C.n.n.n.n.n.n.3X4.& & X X X X X @ a a a g { { { { { ' J J J J J J J ' { >.>.>.} { { { { { { { >.>.>.>.{ { { { { { { { { { { { { { { { { { { { { { { { { { { { { { { { { { { ..>.>.>.>.>.>.>.>.>.>.>.>.>.>.>.>.>.>.>.>.>.>.>.>.>.>.,.<.<.<.<.<.1.<.d.d.d.d.D % % % % / / / / ( { } :.:.>.....>.>.>.>.>.>.:...| | { ' ' ( / / / H H H J J J J J J J J H G S S S S S S S A Z C Z C C x x x x x x x x x x g g g d d d d d d d d u X - 4 4 4 4 4 4 4 = @ O X @ @ @ @ O O @ @ O 3 3 ..O.i.h.h.h.h.>.>.O.O.O.O.O.O.O.O.O.O.O.O.O.y.'.'...S  .n.n.n.n.n.n.n.n.n.n.n.n.n.n.n.n.n.h.a.a.a.a.i.y.u.u.u.y.y.y.<.<.<.<.<.<.<.<.<.<.<.<.<.X.X.X.......` ( ( ` ( ( ( ` { u.(.(.u...........X.3.h.I.I. X0X0XH.9.&._ 9 * * * * * * * * C ( ( ( ( ( ( ( ( ( ( ( ( ( ( ( ( ( ( ( ( ( ( ( ( ( ( ( ( ` ' ` ` ` ` ` ` ' ` { { ` ` ` ` { ' ' ' ' ' ' { ..........{ ' ' ' ' ( ( J J J ! ! ' J J J J J X X X X X X % @ % < < p S ! ! ! ` ` ` ` ` ` ` ` ` `  ...........` ",
"~ ~ ~ ~ ~ ~ ~ ~ ~ ~ ! ! ! ! ! ! ! ! ! ! ! ! ! ~ ` ` ` ` ` ~ ! ! ! ! ! ! ! ! ! ! ! ! ! ! ! ! ! ` ` ` ` ` ` ` O.R.R.R.R.Y.C.Y.R.<X4.& & X X X X X X < u a a { { { { { J J J J J J J J J ' { } { { { { { { { { X.>.>.>.>...{ { { { { { { { { { { { { { { { { { { { { { { { { { { { { { { { { ..>.>.>.>.>.>.>.>.>.>.>.>.>.>.>.>.>.>.>.>.>.>.>.>.>.>.>.<.<.<.<.<.<.1.2.h.d.d.d.D % % % % H / / / / { { | { } | ......>.>.>.>.:.( ' ' ' ' ' ( / / J H H H J J J J J J J J H A S S A A S S S S v v Z Z v x x x x x x x x x x g g g g d d g d d g d 3 X X 4 4 4 4 4 4 4 4 4 % @ @ @ @ @ @ O @ @ @ , < h i.h.h.h.h.h.O.O.O.O.O.O.O.O.O.O.O.O.O.O.O.u.'.'.S S u.n.n.n.n.n.n.n.n.n.n.n.n.n.n.n.n.n.h.a.a.a.a.a.u.u.u.u.u.y.3.<.<.<.<.<.<.<.<.<.<.<.<.>.X.X.........( ( ( ` ( ( ' ..<.(.(.u...................3.I.I.2X5Xd.Y J J J 7 * * * * * * * 7 ( ( ( ( ( ( ( ( ( ( ( ( ( ( ( ( ( ( ( ( ( ( ( ( ( ( ( ( ( ( ` ` ` ' ` ` ' { { { ` ` { ` ' ' ' ' ' ' ' { ..........{ ' ' ' ` ( ! J ! X...J J J J J J S X X X X X X @ @ @ : < 3 S S ! ! ! ` ` ` ` ` ` ` ` ` ` ` `  .....` ",
"~ ~ ~ ~ ~ ~ ~ ~ ~ ! ! ! ! ! ! ! ! ! ! ! ! ! ! ~ ` ` ` ` ~ ! ! ! ! ! ! ! ! ! ! ! ! ! ! ! ! ! ! ~ ` ` ` ` ` ` u.(.(.R.R.R.R.R.R.4X4.& & X X X X X X , , 3 u ' { { { ( J J J J J J J J J J { { { { { { { { { | >.>.>.>.>.>.{ { { { { { { { { { { { { { { { { { { { { { { { { { { ( { { { { ..>.>.>.>.>.>.>.>.>.>.>.>.>.>.>.>.>.>.>.>.>.>.>.>.>.>.>.,.,.<.<.<.<.1.1.4.d.d.d.d.S % % % % g ! / / / ( { } } { { { { | } ..>.>.| ' ' ' ' ( ( ( / / J J J J J J J J J J J J J A S S A A S S S Z Z v v Z v x x x x x x x x x g d d d d d d d d d a a % X X * 4 4 4 4 4 4 4 5 4 , @ @ @ @ @ @ @ @ @ * 3 u h.h.h.h.h.h.O.O.O.>.O.O.O.O.O.O.O.O.O.O.O.u.'.C.S H n.n.h.h.h.h.h.n.n.n.n.n.n.n.n.n.n.h.a.a.a.a.a.a.u.u.u.u.y.y.y.<.3.3.<.<.<.<.<.<.<.>.X.X.X.X.........' ( ( ( ` { ..X.R.(.m.......................3.I.W.1X5.J G G J A * * * * * * * 7 ( ( ( ( ( ( ( ( ( ( ( ( ( ( ( ( ( ( ( ( ( ( ( ( ( ( ( ( ( ( ( ( ` ` ` ` ' ' ` ` ` ` ` ` ' ' ` ` ` ` { ` ..........` ` ` ` ( ! J ' <.>.J J J J J J J Z X X X X X X + @ @ @ < < j S ! ! ! ^ ` ` ` ` ` ` ` ` ` ` ` ` ` ` ` ",
"~ ~ ~ ~ ~ ~ ~ ~ ! ! ! ! ! ! ! ! ! ! ! ! ! ! ! ~ ` ` ` ~ ! ! ! ! ! ! ! ! ! ! ! ! ! ! ! ! ! ! ! ! ` { ` ` ` ` W.9X9X9X%X(.R.R.R.9X4.& & X X X X X X % < 2 , x { { { ! J J J J J J J J J J ( { { { { { { { } >.>.>.>.>.>.>...{ { { { { { { { ' ( ( ( ( ( ( ' ' ' { [ [ { { ' ( ( ( { { { ..>.>.>.>.>.>.>.>.>.>.>.>.>.>.>.>.>.>.>.>.>.>.>.>.>.>.>.>.,.,.<.<.<.<.,.,.i.d.d.d.d.C % % % % , ! / / / / { } } { { { { { { } >.>.| ' ' ' ' ( ( U / J H J J J J J J J J J J J A A S S A A S S A v C C v v C v x x x x g g x x g g d g d d d d d d a a X X X X 4 4 4 4 4 4 4 5 4 4 4 % @ @ @ @ @ @ @ @ 3 3 D h.h.h.h.h.O.O.O.O.O.O.O.O.O.O.O.O.O.O.O.h.'.3.S ` h.a.a.a.a.a.a.a.h.n.n.n.n.n.n.n.h.a.a.a.a.a.a.a.u.u.u.u.u.y.3.<.3.3.3.3.<.<.<.<.>.X.X.X.X...........{ { { { ......h.(.Y...{ ` ~ ~ ` ` ............d.I.:X2.J G G G J > * * * * * * 9 ( ( ( ( ( ( ( ( ( ( ( ( ( ( ( ( ( ( ( ( ( ( ( ( ( ( ( ( ( ( ( ( ` ` ` ` ' ' ` ` ` ` ` { ' ' ` ` ` ` ` { ........{ ' ` ` ( ! J ( <.<.( J J J J J J J a X X X X X X X @ @ @ : < p S ! ! ! ! ^ ` ` ` ` ` ` ` ` ` ` ` ` ` ` ",
"~ ~ ~ ~ ~ ~ ~ ! ! ! ! ! ! ! ! ! ! ! ! ! ! ! ! ! ~ ! ! ! ! ! ! ! ! ! ! ! ! ! ! ! ! ! ! ! ! ! ! ! ~ ` ` ` ` ` W.9X9X9X9X9XoX(.oX9X4.& & X X X X X X O < , , , ( { { J J J J J J J J J J J J { { { { { { } >.>.>.>.>.>.>.>.>.} { { { { { { { ( ( ( ( ( ( ( ( ( ( ( ( ( ( ( ( ( ( ( [ { | >.>.>.>.>.>.>.>.>.>.>.>.>.>.>.>.>.>.>.>.>.>.>.>.>.>.>.>.>.,.<.,.<.<.,.,.,.h.h.d.d.d.C % % % % % ! / / / / ( { } { { { { { { { ......' ' ' ( ( / U J H H J J J H H H H J J H S S S S S S S S S Z v C C C C C C v x x x x g x x g g d d d d d d a a a u X X X X 4 4 4 4 4 4 4 4 4 4 4 4 , @ o @ @ @ @ @ , 3 3 >.h.h.h.d.O.O.O.O.O.O.O.O.O.O.O.O.O.O.O.y.).<.~ X.a.a.a.a.i.i.a.a.a.h.n.n.n.n.n.n.n.x.a.a.a.a.a.a.u.u.u.u.u.y.<.<.<.3.<.<.<.<.<.<.X.X.X.X.............{ ............/.R...~ ! ! ! ! ! ! ! ( ..........I.;X2.J G G J J 7 * * * * * * S ( ( ( ( ( ( ( ( ( ( ( ( ( ( ( ( ( ( ( ( ( ( ( ( ( ( ( ( ( ( ( ( ` ` ` ` ' ' ' ` ` ` ` ` ` ` ` ` ` ` ` { { ......{ ' ` ( ! J J >.<...J J J J J J J J u X X X X X X X @ @ @ % < < S S ! ! ! ! ~ ^ ` ` ` ` ` ` ` ` ` ` ` ` ",
"~ ~ ~ ~ ~ ~ ! ! ! ! ! ! ! ! ! ! ! ! ! ! ! ! ! ! ! ! ! ! ! ! ! ! ! ! ! ! ! ! ! ! ! ! ! ! ! ! ! ! ` ` ` ` ` ` u.3XI.oX9X9X9X9X9X9Xf.& & X X X X X X X , , , , u { ! J J J J J J J J J J J J ' { { { { | >.>.>.>.>.>.>.>.>.>.>...| { { { { { ( ( ( ( ( ( ( ( ( ( ( ( ( ( ( ( ( ( ( { { >.>.>.>.>.>.>.>.>.>.>.>.>.>.>.>.>.>.>.>.>.>.>.>.>.>.>.>.>.>.,.1.<.<.1.,.,.2.h.d.d.d.d.S % % % % % x / / / / / ( ( [ ' ( [ } { { } X.X.( ( / / / / J H H H H J H H H H H J J A S S S S S S S S A v v C C C C C C C x x x x x x x g d d a a d d i a a a , X X X X * 4 4 4 = 4 4 4 4 4 4 4 4 4 % @ o @ @ @ * 3 3 7 h.h.h.y.>.>.O.O.O.O.O.O.O.O.O.O.O.O.<.y.C.<.<.y.u.u.u.u.u.i.a.a.a.a.a.n.n.n.n.n.n.a.u.u.a.a.a.a.u.u.u.u.y.3.<.<.<.<.<.<.<.<.<.>.X.X.X.X.............{ ..........X.Y...~ ! ! ! ! ! ! ! ! ! ~ ` ......c.2X%.J G G J J 7 * * * * * , J ~ ( ( ( ( ( ( ( ( ( ( ( ( ( ( ( ( ( ( ( ( ( ( ( ( ( ( ( ( ( ( ' ' ' ` ` ' ' ' ' ` ` ` ` ` ` ` ` ` ` ` { { ......' ' ( ! J J ( <.>.! J J J J J J J J u X X X X X X X @ @ @ @ < < h S ! ! ! ! ! ! ! ~ ` ` ` ` ` ` ` ` ` ` ",
"~ ~ ~ ~ ~ ! ! ! ! ! ! ! ! ! ! ! ! ! ! ! ! ! ! ! ! ! ! ! ! ! ! ! ! ! ! ! ! ! ! ! ! ! ! ! ! ! ! ` ` ` ` ` ` ` ` u.m.m.%X9X9X9X9X9X>X& * X X X X X X X * < < < < Z J J J J J J J J J J J J J ' { { { { >.>.>.>.>.>.>.>.>.>.>.>.>.>.>...{ { [ ( ( ( ( ( ( ( ( ( ( ( ( ( ( ( ( ( ( ( ' | >.>.>.>.>.>.>.>.>.>.>.>.>.>.>.>.>.>.>.>.>.>.>.>.>.>.>.>.>.>.,.,.,.<.1.1.1.5.h.h.d.d.2.( % % % % % 3 ! ! / / ( ( ( / / / / ( { { { { [ / / U / J J H H H H H H J J J H H H J S S S S A A S S S C C C Z v C C C C C C x x x x x x g d d d d d d d d d d X X X X X & 4 4 4 = = 4 4 4 4 4 8 4 4 4 1 @ @ @ @ @ , 3 3 D h.h.O.O.O.O.O.O.O.O.O.O.O.O.O.O.<.y.y.u.<.<.<.<.<.O.O.O.<.a.a.a.a.a.h.n.n.n.h.a.a.3.<.i.a.a.a.u.u.u.u.y.<.<.<.<.<.<.<.<.3.<.X.X.X.X...............................~ ! ! ! ~ ~ ! ! ! ! ~ ~ ! ' ....d.2X%.J G G J J > * * * * * a J ! ( ( ( ( ( ( ( ( ( ( ( ( ( ( ( ( ( ( ( ( ( ( ( ( ( ( ( ( ( ( ` ' ( ( ( ` ` ` ` ' ' ` ` ` ` ` ` ` ` ` ` ........` ( ! J J J ( >.! J J J ( ( ( ( ( Y , X X X X X X X @ @ @ @ > < t S S ! ! ! ! ! ! ! ~ ` ` ` ` ` ` ` ` ` ",
"~ ~ ~ ! ! ! ! ! ! ! ! ! ! ! ! ! ! ! ! ! ! ! ! ! ! ! ! ! ! ! ! ! ! ! ! ! ! ! ! ! ! ! ! ! ! ` ` ` ` ` ` ` ` ` ` ` u.m.m.4X9X9X9X9X9X* * X X X X X X X O < < < , C J J J J J J J J J J J J J { { { { { >.>.>.>.>.>.>.>.>.>.>.>.>.>.>.>.} { { ( ( ( ( ! J J J J ( ( ( ( ( ( ( ( ( ( ( ..>.>.>.>.....} ..>.>.>.>.>.>.>.>.>.>.>.>.>.>.>.>.>.>.>.>.>.>.,.,.,.<.<.1.1.d.h.h.d.d.1.>.% % % % % , H J / / ( ( / / / / / / / ( ' { ( U U J H H H J H H A S A A H J H H J J S S S S A A S S C C C C v v C C Z C C C C x x x x x g d d d g g d d d d a X X X X X = 4 4 = = = = 4 4 4 4 4 4 4 4 4 4 % @ @ @ > 3 3 3 ! O.O.O.O.O.O.O.O.O.O.O.O.O.>.3.y.y.y.{ ! { <.<.<.O.O.O.O.u.a.a.a.a.a.n.h.a.a.a.a.3.<.y.a.a.a.u.u.u.u.3.<.<.<.<.<.<.<.3.3.<.X.X.X...............{ ..............` ! ! ! ! ~ ~ ! ! ! ! ~ ~ ! ! { ..i.5X_ J J J J d X @ * * * * H J J ( ( ( ( ( ( ( ( ~ ( ( ( ( ( ( ( ( ( ( ( ( ( ( ( ( ( ( ( ( ( ( ( ( ( ( ' ` ` ' ( ( ` ' ' ' ' ' ' ` ` ` ......' ( ~ J J J J ! ! J J J ( ( ( ( ( ( J * X X X X X X X @ @ @ @ > < < S S H ! ! ! ! ! ! ! ! ` ` ` ` ` ` ` ` ",
"~ ~ ! ! ! ! ! ! ! ! ! ! ! ! ! ! ! ! ! ! ! ! ! ! ! ! ! ! ! ! ! ! ! ! ! ! ! ! ! ! ! ! ! ~ ` ` ` ` ` ` ` ` ` ` ` ` ` x.m.XX9X9X9X9X9XA * X X X X X X X X , , , , a J J J J J J J J J J J J ( { { { { { >.>.>.>.>.>.>.>.>.>.>.>.>.>.>.>...{ { ( ( ( H H H H H H H H J ( ( ( ( ( ( ( ( { | { { { { { { { { ..>.>.>.>.>.>.>.>.>.>.>.>.>.>.>.>.>.>.>.>.>.,.<.<.<.<.3.d.h.h.d.u.<.<.* % % % % , A A H J J / / / / / / / / / / / U J H H J H H H A S S S S S A J H H H H S S A S S S S v C C C C v v v C Z Z C C C x x x x x g g d d g d d d d d 3 X X X   = , 4 4 , = = = , 4 4 4 4 4 4 4 4 4 4 * @ @ @ 3 3 3 3 O.O.O.O.>.O.O.O.O.O.O.<.y.y.y.y.y.y.( ! ! ~ X.<.O.O.<.<.<.i.a.a.a.a.a.a.a.a.a.a.3.<.<.a.a.a.u.u.u.y.<.<.<.<.<.<.<.<.3.<.<.X.X.X.............{ { ............{ ! ! ! ! ! ! ~ ! ! ! ! ! ! ! ! ~ { d.0XG J J J J * X X % * * , J J J J ( ( ( ( ! J J J ( ( ( ( ( ~ ! ! ! ~ ( ( ( ( ( ( ( ( ( ( ( ( ( ( ( ( ` ` ` ` ( ( ( ( ( ( ( ( ( ` ` ` ..{ ' ' ( J J J J J J J J J ( ( ( ( ( ( ( A = X X X X X X X @ @ @ @ : < < f S S ! ! ! ! ! ! ! ! ! ^ ` ` ` ` ` ` ",
"! ! ! ! ! ! ! ! ! ! ! ! ! ! ! ! ! ! ! ! ! ! ! ! ! ! ! ! ! ! ! ! ! ! ! ! ! ! ! ! ! ! ! ` ` ` ` ` ` ~ ~ ~ ` ` ` ` ` ..m.M.9X9X9X9XOXU * X X X X X X X X % , , , 3 J J J J J J J J J J J ( { { { { { { >.>.>.>.>.>.>.>.>.>.>.>.>.>.>.>...{ { ( ( ! H H H H H H H H H H J J ! ( ( ( ( [ { { { { { { { { { ..>.>.>.>.>.>.>.>.>.>.>.>.>.>.>.>.>.>.>.>.>.,.<.<.<.<.5.d.h.h.d.2.<.<., % % % % , A A A A A A A A D H / / / / / / / H H H H A S S S S S A S S A A H H A S S S S S S S Z v C C C x x v v v v v C C C C x x x x g g g g d d d d d d @ X X X @ = , 4 , , = = = = 4 4 4 4 4 4 4 4 4 4 4 = @ @ , 3 3 3 ~ O.O.O.O.O.O.O.<.3.y.y.y.y.y.y.i.m.X.! ! ! ! { <.<.<.<.<.3.a.a.a.a.a.a.a.a.a.a.y.<.<.a.a.a.u.u.u.<.3.3.<.<.<.<.<.<.<.<.<.X.X...............{ { { ..........~ ! ! ! ! ! ! ! ! ! ! ! ! ! ! ! ! ` X.0XG G J J Z X X X @ * * g J J J J J ! ! J J J J J ( ( ( ( J J J J J J J ! ( ( ( ( ( ( ( ( ( ( ( ( ( ( ( ` ` ( ( ( ( ( ( ( ( ( ( ( ' ` ' ' ' ' ( J J J J J J J J J ( ( ( ( ( ( ( A = @ X X X X X X @ @ @ @ > < < t S S S ! ! ! ! ! ! ! ! ! ! ~ ` ` ` ~ ",
"! ! ! ! ! ! ! ! ! ! ! ! ! ! ! ! ! ! ! ! ! ! ! ! ! ! ! ! ! ! ! ! ! ! ! J S S S C S S J ~ ~ ~ ! ! ! ! ! ! ! ~ ` ` ` ` u.m.9X9X9Xl.D x % X X X X X X X X X , , , < D J J J J J J J J J { { { { { { { { >.>.>.>.>.>.>.>.>.>.>.>.>.>.>.>...{ ' ( ( H H H H H H H H H H H H H H H H ( ( ' { { { { { { { { { ..>.>.>.>.>.>.>.>.>.>.>.>.>.>.>.>.>.>.>.>.>.>.<.<.<.<.4.d.d.d.d.<.<.<.d % % % % , A A A A A A A A A A J / / / / / / H A S A A S Z Z Z v C Z S S S A S S S S S S S S Z v v C C C x x v v v v v v C C C v x x x x x x x x g a a i a X X X X = = 1 , , , , = = = 4 4 4 4 4 4 4 4 4 4 8 , = @ * 3 3 3 p O.O.O.O.>.3.y.y.y.y.y.y.y.y.n.C.C.u @ 7 H ! ! ` X.<.<.O.<.u.a.a.a.a.a.a.a.a.a.u.<.<.a.a.a.u.u.3.<.<.<.<.<.<.<.<.<.<.<.>.X.....{ { ..........{ ..........{ ! ! ! ~ ~ ~ ! ! ! ! ! ! ! ! ! ! ! ~ { 5XG G J J , X X X X * * g H J J J J J J J J J J J ( ( ~ J J J J J J J J J ! ( ( ( ( ( ( ( ( ( ( ( ( ( ( ( ( ( ( ( ( ( ( ( ( ( ( ( ( ' ` ` ` ` ~ J J J C H J J J U _ ( ( ( ( ( ( A * @ X X X X X X @ @ @ @ , < < < S S S S ! ! ! H S H ! ! ! ! ! ! ! ! ",
"! ! ! ! ! ! ! ! ! ! ! ! ! ! ! ! ! ! ! ! ! ! ! ! ! ! ! ! ! ! ! ! ! C g g f f g g g g g g f h C S ! ! ! ! ! ! ~ ` ` ` { m.9X9XM.! D D % X X X X X X X X X % , < < a J J J J J J J ! { { { { { { { { { >.>.>.>.>.>.>.>.>.>.>.>.>.>.>.>.{ { ( ( ( H H H H H H H H H H H H H H H H H ( ( { { { { { { { { { X.>.>.>.>.>.>.>.>.>.>.>.>.>.>.>.>.>.>.>.>.>.>.>.<.<.<.<.d.d.d.d.<.<.<.x % % % % 2 A A A A A A A A A A A ! ( / / / / x C C Z Z v C C C C v v Z Z A S S A Z Z Z S S Z v v v C C x x x Z v C v v C C C C C x x x x x x x x x a a d 2 X X X @ = = = = , , = = = = 4 4 4 4 4 4 4 4 4 4 8 , , @ @ @ @ @ , X.O.O.O.y.y.y.y.y.y.y.y.u.m.C.N.C.u @ X @ C ! ! ! X.<.<.<.<.u.a.a.a.a.a.a.a.a.u.<...a.a.i.u.y.<.<.<.<.<.<.<.<.<.<.<.<.X.X.....{ { ........{ { ....{ { ..~ ! ! ! ! ~ ~ ! ! ! ! ! ! ! ! ! ! ~ ! { !.G G J A X X X X X % , g x J J J J J J J J J J J ( ( J J J J J J J J J J J J ~ ( ( ( ( ( ( ( ( ( ( ( ( ( ( ( ( ( ( ( ( ( ( ( ( ( ( ( ' ` ` ` ! J J C C Z J J J Y ( _ ( ( ( ( ( U * @ X X X X X X @ @ @ % < < < < f S S S S S S S S S S ! ! ! ! J S S ",
"! ! ! ! ! ! ! ! ( ( ! ! ! ! ! ! ! ! ! ! ! ! ! ! ! ! ! ! ! ! ! ! h g g g g f g g g g g g g g f g f h S ! ! ! ! ! ` ` ` x.9X3X3.( D D > X X X X X X X X X X , < < 3 J J J J J ( { { { { { { { { { { { ..>.>.>.>.>.>.>.>.>.>.>.>.>.>...{ [ ( ( J H H H H H H H H H H H H H H H H H J ( { { { { { { { { { >.>.>.>.>.>.>.>.>.>.>.>.>.>.>.>.>.>.>.>.>.>.>.>.,.<.<.1.1.u.d.u.<.1.,.( % % % > i a g Z A A A A A A A A D J / / / / u u i d g x x C C C C v v C v C C C C C C C C v v v v C x x x x v C C C C C C C C C v x x x x x x x g a a a @ X X X & , = = = , , , , = = = 4 4 4 4 4 4 4 4 4 4 4 = % @ O O X @ > { O.O.y.y.y.y.y.y.y.y.m.C.C.N.N., o O O O p ! ! ! X.<.<.<.<.u.u.i.a.a.a.a.u.<.<.J u.a.i.u.<.<.<.<.<.<.3.<.<.<.<.<.3.X...............................{ ~ ! ! ! ! ~ ! ~ ! ~ ~ ! ! ! ! ! ! ~ ~ ..T.J J J 7 X X X X X @ , g g S J J J J J J J J J ! ( J J J J J J J J J J J J J J ! ( ( ( ( ( ( ( ( ( ( ( ( ( ( ( ( ( ( ( ( ( ( ( ( ( ( ( ( ( ( J J C C C C J J J Y Y ( ( ( ( ( ( ( * X X X X X X X @ @ @ , < < < < t S S S S S S S S S S S S S S S S S ",
"! ! ! ! ! ! ! | | } } { ( ! ! ! ! ! ! ! ! ! ! ! ! ! ! ! ! ! ! C g g g g g g g g g g g g g g g g g g g g h S ! ! ! ~ ` 3.Y.i.3...D D 9 X X X X X X X X X X O , 3 3 g J J J [ { { { { { { { { { { { { } >.>.>.>.>.>.>.>.>.>.>.>.>.X.{ { ( ( ( H H H H H H H H H H H H H H H H H H H ( { { { { { { { { { >.>.>.>.>.>.>.>.>.>...} } } } ....>.>.>.>.>.>.>.>.,.<.<.1.1.,.<.<.1.,.( % % > a a a a i a x Z A A A A A A Z Z A D x u u u 9 9 9 9 u u u u 9 u d g x x x x v v v v v v x x x x x x x x C C C C C v x x g x x x x g x g g d a a a X X X X , = , = = = = = = = = = 4 4 4 4 4 4 4 4 4 4 4 = * @ @ O X @ @ @ g X.y.y.y.y.y.y.y.p.C.C.C.N.n.o o O O O @ > a a > 7 g ( X.<.<.<.<.<.<.<.<.<.<.C X.a.u.y.<.<.<.<.<.3.3.<.<.<.3.3.<.X...............................` ~ ! ! ! ! ! ! ~ ~ ~ ~ ! ! ! ! ! ! ! ` ..v.J J A X X X X X X X , g g g J J J J J J J J J J J J J J J J J J C f f g S J J J ! ( ( ( ( ( ( ( ( ( ~ ~ ! ! ! ! ~ ( ( ( ( ( ( ( ( ( ( ( ~ J J Z C C C C H J J ( ( ( ( ( ( ( ( ( * X X X X X X X @ @ @ , < < < < < S S S S S S S S S S S S S S S S S ",
"! H h h h h S | | | | | | [ C h ! ! ! ! ! ! ! ! ! ! ! ! ! ! S f f f f f f f g g g g g g f f f f g g g g g g g h S ! ! ` 3.3.3.<.D D u X X X X X X X X X X X O > 3 7 J J { { { { { { { { { { { { { { { ..>.>.>.>.>.>.>.>.>.>.>.>.{ { ' ( ( ( H H H H H H H H H H H H H H H H H H H J { { { { { { { { { >.>.>.>.>.>.>.>.>...{ { { { { { { { { { | >.>.>.>.>.,.,.1.<.<.<.1.<.( d 9 7 a a a i i i i a a a a x u 9 9 7 7 7 7 7 7 7 u u u u u 9 9 9 9 u u u u 9 u u u d x g g g g g g d d d d d d g g g g g g g g g g g g g g d a a a a a , X X X X * = = = = , , , , , , = = 4 8 8 8 4 4 4 4 4 4 = * @ @ @ @ @ @ @ @ % S 3.y.y.y.y.y.h.C.C.N.C./ @ @ @ @ O O @ @ @ @ @ @ @ O , S X.<.<.<.O.O.O...g J a.u.3.<.<.<.<.<.<.<.<.<.<.<.<.>.X.............................{ ! ! ! ~ ~ ! ! ! ! ! ! ! ~ ~ ~ ~ ! S S ! ' { J J 7 X X X X X X X * u g g x J J J J J J J J J J J J J J J J g g g g g g g S J J J ! ! ! ! J J J J J J J J J J J J J J J ! ! ! ! ! ! J J J S C C C C C S J J ( ( ( ( ( ( ( ( ( = X X X X X X X X @ @ % < < < < < h S S S S S S S S S S S S S S S S ",
"X X X X X X X X X X X X X X X X X X % , 7 p h h h J ! ! ! C f f f f f f g g g g g g g g f f f f g g g g g g g g f f f h ! 3.3.3.J D > X X X X X X X X X X X X X O % a H J ' { { { { { { { { { { { { { { } >.>.>.>.>.>.>.>.>...{ { { ( ( ( J H H H H H H H H H H H H H H H H H H H H H / ( [ { { { { { { | ..>.>.>.>.>.>.{ { { { { { { { { { { { { { { ..>.>.>.,.,.<.1._ d i a a a a i a a i 9 2 % O X X       X X X X X       X X X X X       X X X     X X X X     X X O O % > > 7 7 7 7 u d d a a a a a a a a 7 7 7 3 > > X X X X X X     X X = = = = = = , , = , = = 4 8 8 8 4 4 4 4 4 4 = = @ @ @ @ @ @ @ @ O @ * C X.y.y.y.a.C.C.N.h.@ @ @ @ @ O O @ @ @ @ @ O O O @ @ @ , J X.O.O.X.C g g y.<.<.<.<.<.<.<.<.<.<.<...J a 7 7 @ @ @ X X @ 3 3 3 3 3 3 3 * @ @ @ @ @ @ @ , , , , , , , , 3 7 7 3 7 7 7 7 7 7 @ X X X X X X X % * u g g S J J J J J J J J J J J J J J g g g g g g g g g g S J J J J J J J J J J J J J J J J J J J J J J J J J J J J H C C C C C C C J J ( ( ( ( ( ( ( ( ( , X X X X X X X X @ @ @ @ % > > < y S S S S S S S S S S h h u y > * ",
"X X X X X X X X X X X X X X X X X X X X X X X X X X X X X X X X X X X X % * * * * * * * * * * * * * % X X X X X X X X X X X X X X X X X X X X X X X X X X X X X X X X X X X @ > p C H { { { { { { { { { { { ..>.>.>.>.X...{ { { { { ( ( ( H H H H H H H H H H H H H H H H H H H H H H x g g g g C Z C g C H ' { { { { { { { { { { { { { { { { { { { { ' ! D H ( ..>.( 7 , % % @ X X X X @ X X X X   X X     X X X X X X     X X X   X X     X X X X     X X X X   X X X X X X X X X X X X X X X X X X X X X X X   X X X X X X X X X X     X X X % = = = = = = = = = = = = 4 4 4 4 4 4 4 4 1 = = @ @ O O @ @ @ @ O O @ @ @ @ 7 7 u Z ` g @ @ @ @ @ @ @ @ @ @ @ @ * * % @ @ @ @ @ @ % a C h g g g X.<.<.<.<...{ S S 7 > @ @ o @ @ O @ @ @ @ o @ @ @ @ @ O X X @ @ @ @ O X O @ @ @ @ @ @ @ @ @ @ O @ @ @ @ @ * % % X X X X X X X X O * * 7 g g J J J J J J J J J J J J J C g g g g g g g g g g g h H J J J J J J J J J J J J J J J J H H H H H H H S S S C C C C C C C C C J _ _ _ ( ( ( ( ( U = X X X X X X X X X X @ @ @ + X X X X > > > > > X X X X X X X X X X ",
"X X X X X X X X X X X X X X X X X X X X X X X X X X X X X X X X X X X X X X X X X X X X X X X X X X X X X X X X X X X X X X X X X X X X X X X X X X X X X X X X X X X X X X X X X X X X @ * a C J ' { { { { { { { { { { { { { { { ( S S S x x x x Z H H H H H H H x g 7 7 * * @ o o o o @ o o X @ X X X X o @ @ * * 9 i a H H H H ' { { { { { ' H H g a a a a a a * X X o o X X X X X X X X X X     X X X X X X   X X X X   X X     X X X X X X X X X X   X   X     X X X X X X X X X X X X X X X X X X X X X X X X X X X X X X X X X       X X X % = = = = = = = = = = = = 4 4 4 4 4 4 4 = = = @ @ X X X X @ @ @ O @ O @ @ @ @ @ @ @ @ @ @ @ @ @ @ @ @ @ @ @ * = = = = * @ @ @ @ @ @ @ @ % > > 7 % O X @ @ @ @ @ @ @ @ @ @ @ @ X @ @ @ @ @ @ @ @ @ @ X O X o @ @ @ O X @ @ @ @ @ @ @ @ @ @ @ X @ @ @ @ @ @ @ X X X X X X X X X X * * * * a D J J J J J J J J H S C C g g g g g g g g g g g g g g g g g g g g g g g g g g u h C C C C C C C C C C C C C C C C C C C C C C C A G ( ( ( ( ( k % X X X X X X X X X X X X X X X X X X X X X X X X X X X X X X X X X ",
"X X X X X X X X X X X X X X X X X X X X X X X X X X X X X X X X X X X X X X X X X X X X X X X X X X X X X X X X X X X X X X X X X X X X X X X X X X X X X X X X X X X X X X X X X X X X X X X X X X X * * 7 u g J J J J J { H J S * * * * * * * * * * * * * * * * @ X X X X @ @ @ @ @ X @ @ @ @ X X X X X X X X X X @ @ @ @ X X @ @ X X X X @ @ X X % , 2 2 2 % o o o X X X   X     X X X X X X         X X X X   X X X X X X X     X X X X X X X X X         X X X X X X X X     X X X X X X X X   X X X X     X X X X X X X X   X X   X X X X X X % = = = = = = = = = = = = 4 4 8 8 4 4 = , , * @ O O @ @ X @ @ O @ O @ @ @ @ @ @ @ o @ @ @ @ @ @ @ @ @ @ @ = = = , , , , % @ @ @ @ @ @ @ @ @ @ @ @ X @ @ @ @ @ @ @ @ O O @ @ X X @ @ @ @ @ @ @ @ @ @ @ @ @ @ @ @ @ X @ @ @ o @ @ @ @ @ @ X X @ @ @ @ O @ @ X X X X X X X X X X @ * * * * g J J C g u a g g g g g g g u u u 3 3 3 * % % X X X X X X X X X X X X X X X X X X X X X X X X X X X X @ * * * * * X X X X * * * = = = , 4 d x , % X X X X X X X X X X X X X X X X X X X X X X X X X X X X X X X X X ",
"X X X X X X X X X X X X X X X X X X X X X X X X X X X X X X X X X X X X X X X X X X X X X X X X X X X X X X X X X X X X X X X X X X X X X X X X X X X X X X X X X X X X X X X X X X X X X X X X X X X X X X X X X X X X X X X X X X @ * * * * * * * * * * * * * % o o o X X @ X @ @ @ X @ O X @ X X X X X X X X X X @ o @ @ X X @ @ X X X X @ @ X X X X X X X X X X X X X X X       X X X X X X     X   X X X X   X X X X X X X     X X X X X X X @ @ @ #   X @ % = = 5 8 5 = * % X X X X X X       X X X X     X X X X X X   X   X @ X X X X X X X X X * = = = = = = = = = = 4 8 8 4 4 = = , , = @ @ @ @ @ X O O O o X @ @ @ @ @ @ o o @ @ @ = * @ o @ @ @ @ = = = , , = = = = @ @ @ O @ @ @ @ @ @ @ @ @ @ @ @ @ @ @ @ O O @ @ X X @ @ @ @ @ @ @ @ @ O @ @ @ @ @ @ O O @ o @ @ @ @ O O @ @ o o @ @ @ @ @ @ @ X X X X X X X X X X X @ * * @ X X X X X X X X X X X X X X X X X X X X X X X X X X X X X X X X X X X X X X X X X X X X X X X X X X X X X X X X X X X X X * * * = = = = = * = = % X X X X X X X X X X X X X X X X X X X X X X X X X X X X X X X X X ",
"X X X X X X X X X X X X X X X X X X X X X X X X X X X X X X X X X X X X X X X X X X X X X X X X X X X X X X X X X X X X X X X X X X X X X X X X X X X X X X X X X X X X X X X X X X X X X X X X X X X X X X X X X X X X X X X X X X @ * * * * * * * * * * * * % o o o o X X X X @ O X X X X X X X X @ @ X @ X X X X X X @ X X X @ @ @ X X X X @ X @ % = , 8 8 8 0 0 0 0 0 0 e k w 0 0 0 6 8 8 , , * * & * * & & & & & & X X X X X X X X X X @ 6 k k k k k k k 0 6 6 6 6 8 8 8 8 8 8 8 4 % X           X X X X   X X     X X @ @ % % % % X   X X X X X X X @ = = = = = = , = = = 4 4 4 = = = , , = * @ @ @ @ @ @ @ @ @ @ @ @ @ @ @ @ o o @ @ * = = % X X @ @ % = = = = , = = = = = * @ O O O @ @ @ @ @ @ @ @ @ @ @ @ @ @ O O @ @ O @ @ @ @ O O @ @ @ O O @ @ @ @ @ @ @ @ X o @ @ @ O O O @ @ @ @ X X @ @ @ @ @ X X X X X X X X X X X X X X X X X X X X X X X X X X X X X X X X X X X X X X X X X X X X X X X X X X X X X X X X X X X X X X X X X X X X X X X X X X X X * * * = = , , * * = = % X X X X X X X X X X X X X X X X X X X X X X X X X X X X X X X X X ",
"X X X X X X X X X X X X X X X X X X X X X X X X X X X X X X X X X X X X X X X X X X X X X X X X X X X X X X X X X X X X X X X X X X X X X X X X X X X X X X X X X X X X X X X X X X X X X X X X X X X X X X X X X X X X X X @ % * * * * * * * * * * * * * * * @ o o o X X X X X X X X X X X X X O @ @ @ @ @ X X X X X X O X X X @ @ o o X X @ 1 8 0 0 0 i x x x k l b m B B B B B B B B B B B B K B B B B B B B B B B B B B B B B B B B B B B B m z l k k k k w 6 6 8 8 8 8 8 8 8 8 8 8 6 0 1 X       X X X     X * = * % % % % % % % % % X X X X X X X X X X @ = = = = , , , = = = = = = = , , = = = * @ @ @ @ @ @ @ @ % % & * * * % % % , = = = = % O @ @ % = = = , , = = = = = = = * @ @ @ @ @ @ @ @ O O @ @ @ @ @ @ X X @ @ @ @ @ @ X O @ @ @ @ X X o @ @ @ @ @ @ @ @ o @ @ O O O O @ @ @ @ X X @ @ @ @ & - & X X X X X X X X X X X X X X X X X X X X X X X X X X X X X X X X X X X X X X X X X X X X X X X X X X X X X X X X X X X X X X X X X X X X X X X X X % * * * = = = = * * * * * X X X X X X X X X X X X X X X X X X X X X X X X X X X X X X X X X ",
"X X X X X X X X X X X X X X @ @ @ @ @ @ @ @ @ @ @ @ @ @ O X X X X X X X X X X X X X X X X X X X X X X X X X X X X X X X X % & % @ X X X X X X X X X X X X % * * % % % % X X X X X X X X X X X X X X X X X X X X @ @ % * * * * * * * * * * * * * * * * * * * % X X X o @ X X X X X X @ @ @ o o o X X X X X X X X X X X X o o X X X X o o % 7 0 0 0 0 0 x x x x x b B B B B K B B B L P E E E W W W W W W E K B B B B B B B B B B B B B B B B B B B B B B m k k k 6 6 6 6 6 6 6 6 0 w k k k k k k 8 @ X X @ % = 5 8 7 8 8 8 8 4 = % % % % % % X X X X X X X X X X X X & , = = = = = , , , = = = = = = , , , = = = = , , , , , = = = = = = = = = = = = = % @ @ & = = = = = = = = = , 4 8 8 6 6 6 6 6 6 6 6 4 4 4 4 = * % % % % % @ @ @ @ @ @ @ @ @ @ @ @ @ @ @ @ @ @ o o o @ @ @ @ @ @ o @ @ @ @ o O @ @ % = - - - - - & X X X X X X X X X X X X X X X X X X X X X X X X X X X X X X X X X X X @ @ X X X X @ X X X X X X X X X X X X X X X X X X X X X X X X X X X X * * 4 8 0 0 0 0 0 7 4 , * * @ X X X X X X X X X X X X X X X X X X X X X X X X X X X X X X X X ",
"X X X X X X O & - = = = = = = = = = - - = = = = = = = = = = = = = = % # @ X X X X X X X X X X X X X X X X X X X X % * ; 8 5 = & & % @ @ @ @ # # % & & & & 6 i i 0 0 0 0 i i 0 7 7 * O * > 4 9 4 % % % % * * * * * * * * * * * * * * , , , , , 1 , * * * * * * @ @ o o @ X X X X X X @ X @ o X o X X X X X X @ @ o X X X o o o o X X @ 8 0 0 i d i x x x x x x x m B B B K K B L @.@.@.@.@.@.@.@.@.+.@.@.@.@.L B B B B B B B B B B B B B B B B B B B B B B b k k 6 6 6 6 6 6 w k k k k k l l l k k k 0 8 8 8 8 8 8 7 8 8 8 8 8 8 8 8 8 8 8 8 5 X X X X X X X X X X X X @ = = = = = = , , = = = , = = , , = = = = = = , , = , = = = = = = = = = = = = = = * % = = = = = = = = 4 0 0 0 w w 0 0 0 0 0 0 0 0 0 w 0 0 0 0 & & & & & & & & & % % @ @ @ @ @ @ @ @ @ @ @ @ @ o o @ @ @ @ @ @ o @ @ # # & & = - - - - - - - - - - @ @ X X X X X X X X X X X X X X X X X X X X X X X X X X X @ * , 2 2 2 4 , , , , 4 4 2 2 2 4 9 9 9 9 9 2 * @ @ @ X X X X X X X X X X @ % * , 6 0 0 0 0 0 0 0 0 0 0 0 7 , @ X X X X X X X X X @ 4 6 8 , , % % % % % % % X X X X X X X X X ",
"X X X X X @ = = = = = = = = = = = ; 4 5 5 5 5 5 8 8 4 4 4 4 4 4 ; ; 4 4 5 8 8 8 4 * @ X X X X X % % = = - 4 4 8 8 8 8 8 8 8 & & & & & & & & & & & & & & & 0 0 0 0 0 i k v b b b b b c x i i i i i 0 , * * * * * * * * * * * * 4 i i i i i i i i i i i i i i * * * * % % @ @ @ @ @ X X X X X X X O X @ @ X @ @ @ @ @ @ @ % % % % * 4 0 0 0 d x x x x x x x x x x B B B B K K L @.@.@.@.@.@.@.@.@.@.@.@.@.@.@.@.L B B B B B B B B B P E W @.@.@.W I B B B B B l k 0 6 6 6 w k k k k z m B K B B B m z k k k w 0 0 6 6 6 6 6 6 8 8 8 8 8 8 8 8 8 4 X % # X X X X X X X @ , = = , , = = , , = = , = = = * * * = = = = = = = 4 7 7 0 u g g g x x x x x x g i 9 8 , = = = = = = 7 k k k k e e l l l z c c c z l e 0 0 0 0 = & & & & & & & & & & & & & & & 4 k k k k k 0 0 0 0 6 8 5 4 ; - - - - - - - - - - - - - - - - - - - = # # # @ o X X X X X X X @ @ # # # # # # o X X X X X X * * 2 2 2 2 4 4 2 2 , , 4 9 7 7 7 9 9 9 9 a a 0 9 9 9 9 0 u u i 9 7 7 7 7 7 7 7 9 0 0 0 0 0 0 0 0 0 0 0 0 0 0 0 0 0 0 0 7 7 7 7 7 6 0 0 0 0 0 0 0 0 0 0 0 0 0 0 0 0 0 0 7 7 , * ",
"X X X X X = 8 w 0 8 4 = = = - 4 8 5 6 8 5 8 8 8 6 6 6 6 6 6 6 6 5 5 8 8 8 8 8 8 8 8 8 8 4 4 5 8 6 6 6 6 5 5 8 8 8 8 8 8 5 5 & & & & & & & & & & & & & & & 0 0 0 0 k b b b b b b b b b b b v k i i i i i i u 7 7 , , * * * , i i i i i i i i i i i i i k v v 0 7 7 7 * * * * * * , , , , = % X X @ @ O @ X @ * * * * * * * * * 7 0 0 0 d x x x x x x x x x x x v B B B B B L @.@.@.@.@.@.@.@.@.@.@.$.6.8.8.6.*.@.L B B B B L E @.#.#.$.$.$.$.$.$.$.@.T B B B b k k 0 6 w k k k l m B B B K K K B B B B l k k k k k k k k k k k k k k w w 0 6 8 8 8 4 = = = = = * * = = , = = , = = = = , = = = = * % * * & & = = 4 x x x x x x x g g d d d d d d d x x x x H H H S S S S H H H H H J G A b c c c c c c c c c k 0 0 0 8 & & & & & & & & & & & & & & & 7 k k k k k k 0 0 0 0 0 0 0 0 0 6 8 5 ; - - - ; - - - - - - - - - - - $ # # # # # @ @ # # # # # # # # ; ; - - = # X X X X @ * * , 2 2 2 4 4 2 2 2 2 7 9 9 9 9 9 9 a g g u i 9 9 9 9 0 u i g g g C S S S S D H k k 0 0 0 0 0 0 0 0 0 0 0 0 0 0 0 0 0 0 0 0 0 0 0 0 0 0 0 0 0 0 0 0 0 0 0 0 0 0 0 i i i i 0 0 ",
"X X X X O w e e k k e 0 8 8 w e e e e e 0 6 8 8 6 0 0 0 0 6 6 8 8 8 8 8 8 8 8 8 8 6 8 8 8 8 8 8 6 6 5 5 5 5 8 8 8 8 5 5 5 - & & & & & & & & & & & & & & & 4 0 0 0 c b b b b b b b b b b b b b b G U Y U G Z k i i i i u 0 i i i i i i i i i i i i v P T T T T T T T T T P z e e e e e e e 0 X X X X X @ o o * * * * * * * > 0 0 0 d x x x x x x x x x x x x x v B B B B K E @.@.@.@.@.*.6.8.8.8.8.q.q.q.q.q.q.q.=.K I W #.$.$.$.$.$.$.$.$.$.$.$.$.$.$.@.L B B k k k k k k k l B B B B B B B B B B B B B l k k k k k k k k k k l l k k k k k w 6 7 8 8 4 , = = = = = = = , = , , = = , , , , = * & & & % * * , 4 x x x x x x g d d d d d d d d d d g x x v H H H H H H H H H H J ( ' ' ' ' ' [ +.P b c c c c c k 0 w 0 & & & & & & & & & & & & & & & 4 k k k k k k k 0 0 0 0 0 0 0 0 0 0 0 0 0 4 - - - - - - - - 4 0 6 4 - - # # # # # # # # # # # # # # # ; ; ; ; ; ; & X X X @ * * * , , , 2 4 4 4 2 2 9 9 9 9 0 d g g g i i i 0 0 i a g g g g g g S S S S S ( ( ( ( ( U J A b k i 0 0 0 0 0 0 0 0 0 0 0 0 0 0 0 0 0 0 0 0 0 0 0 0 0 0 i k k x l l x x x x l l ",
"X X X X * k e e k k e e e e e e e e e e e e e e e e e e e e e e 0 6 8 8 8 8 8 6 6 0 6 8 8 8 8 8 8 8 5 5 5 5 8 8 8 8 5 5 5 & & & & & & & & & & & & & & & & & = 4 6 l b b b b b b b b b b A [ ,.2.2.2.[ _ _ _ _ _ U G U G U | %.[ G G G G G G G b Y *.*.f.f.f.6.6.6.6.*.+.T T I l e e e e e e % @ X X O @ o o % * * * * * > 0 0 i x x x x x x x x x x x x x x x v B B B L @.@.@.@.*.7.q.q.q.q.q.G.G.G.K.J.U.I.J.F.z.=.=.6.q.v.U.W.oX!.K.F.q.q.q.6.$.$.$.$.$.B B k k k k k k k m B [ >.>.>.>.>...[ _ _ P P P b b b b b c c b b b b b b A b l k k k k 6 8 8 7 8 4 , = = = = = = , , = = , , = = * & & & & % * = = g x x x x x d d d d d d d d d d d d d x x v H H H H H H H H H H ( ' ' ' ' ' ' &.*.*.*.#.P b c c c k w w = & & & & & & & & & & & & & * * k k k k k k k k 0 0 0 0 6 0 0 w A K A 0 0 4 - - - - - - - 6 0 6 6 6 ; = # # # # # # # # # # # # # # $ ; ; ; ; ; ; @ X X @ * * % , , , 2 2 4 4 2 7 9 9 i g g g g g g i i i a g g g x g g g g g S S S S S D U ( ( ( ( ( ( ( U U U J G Z k s 0 0 0 0 0 0 0 0 0 0 0 i d d d d i k k l l l l x l l x v x x l l ",
"X X X X , k G b b b c v v c b b b c c c l e e e e e e e e e e e e e e e e e e e e e e e e e w 0 0 8 8 8 5 5 5 5 5 5 5 5 5 X & & & & & & & & & & & & & & & & * 1 1 _ v.v.v.f.f.f.f.f.f.v.v.T.OXOXOXOXOXOXOXoX XW.E.I.m.m.m.m.m.m.U.R.R.R.R.R.R.(.XX[._._._._.(.z.6.6.6.6.6.*.T T m e e e e e = o X X X X o o % * * * * * 4 0 d x x x x x x x x x x x x x x x x x L I W @.@.=.F.G.K.~.~.;X;X2X2X2X2X2X1XW.W.W.W.W.W.W.W.W.W.W.W.W.oXOXOXOXOXOXOXOXOXoXT.=.$.I B k k k k k k c ,.d.i.u.4.4.4.3.>.>.X.| | | | | | | | | _ Y K K b b b b b b b b b b b b v k k k v U } | [ x = = = = = = = , = = & & & & & % & = 8 x x x x x g d d d d d d d d d d d d d d x x H H H H H H H H H H J ( ' ' ' ' ' { %.*.*.*.*.*.[ K c c e w 8 * * * * & & & & & & & & & & * , k k k k k k k k w 0 0 0 w k v P U U A 0 0 ; - - - - - ; 0 0 0 6 6 6 5 # # # # # # # # # # # # # # # = ; ; ; ; ; - X X X * % % % > , , , 4 4 9 9 0 g g g g g g g x g x x g g x g x g g g g g C S S S S S S H J J U U ( ( U Y ( ( ( ( ( ( U J A v k i 0 0 x Z S S S S S S S v l l l x x x l l l l x x v v ",
"X X X X 8 A O...Y b b b b b b b b b b b b b c z k e e e e e e e e e e e e e e e e e e e e e e e e e w 0 6 5 8 5 5 5 5 5 = X & & & & & & = , = & & & & & & & * 4 1 H c.l.l.l.l.l.l.l.l.l.l.M.[.[.R.U.M.c.h.h.h.h.h.x.x.x.m.m.R.8X8X8X8X8X8X8X8X8X8X8X%X_.M.(._.(.z.7.6.6.6.6.6.+.T P l e e e 8 o X X o X X o @ * * * * * 0 i x x x x x x x C x x x x x x x x x x v P @.6..X2X2X2X2X2X2X2X2X2X2X2X1XOXE.M.W.W.W.W.W.W.W.W.W.I.M.d.4.d.R.oXOXOXOXOXOXOXOXOXT.I c i u u u i e 9.c.c.c.c.u.4.4.>.>.>.>...| | | | | | | | | | | | | | | | | | | | | | | | | | | | | | | | | >.0 = = = = = = , = * & & & % % % * , x x x x x x d d d d d d d d d d d d d d d x x H H H H H H H H H H H H ( ' ' ' ' ' ' { } &.*.*.*.*.#.P b w w = * * * & & & & & & & & & & * * * d k k k k k k k k k k k k l P U P P 0 0 6 ; - - - - 4 0 0 0 0 0 6 0 - # # # - ; ; ; ; ; ; - - - = = - ; ; ; ; 4 @ X X @ % % % * * , , 2 9 9 0 g g g g g g g g x x x x g g g g C < , , a g g g C S S S S S S S S S S D H J J U ( ( ( ( ( ( ( ( ( ( J D S S J J S S S S S S S Z v v v x v v v v Z Z S C ",
"X X X X 0 { X.X.X.{ b b A A b b b b b b b b A P P P K A c k e e e e e e e e e e e e e k e e e e e e k e e e w 0 6 8 8 8 @ X & & & & & = 1 1 1 1 = * & & & & * 1 7 H <.y.y.y.y.y.y.y.y.y.y.y.y.O.O.O.O.O...O.O.O.O.y.y.y.y.u.m.8X8X8X3X$X'.R.a.p.y.y.O.X.O.O.(.(.v.z.7.6.6.6.6.6.*.T T B k e w X X X @ @ @ X X % * * * * 8 x x x x x x x x x x x x x x C x x x x C x Z J ! d.h.m.M.M.M.M.M.m.x.x.h.i.[ [ [ [ [ | | | >.>.>.>.>.>.>.>.>.h.c.c.W.[.OXOXOXOXOXA 9 9 9 9 u u S c.c.c.c.h.4.4.3.>.<.<.>.>...| | | | } _ ( [ | ..| | | ....| | | | | | | | | | | | | | | | | ,.*.= = = = = = = * % % % & & % * = 0 x x x x x x d d d d d d d d d d d d d d d d x Z H H H H H H H H H H H H J ' ' ' ' ' ' ' ' { } &.&.&.*.*.[ l 6 & * * & & & & & & & & & & & & & * 0 l l l k k k k k k k k k A P P K k 0 0 6 4 - - - 8 6 6 0 e l k w 6 # = ; ; ; ; ; ; ; ; ; ; ; ; ; ; ; ; ; ; q - X X X % % % * * * , 2 9 9 9 9 i g g g g x x g g g g x x g g J S , , , 7 g g g g h C S S S S S S S S S S S S S S H H H H H H S S S S S S ` ` ` ^ H S S S S S S S S S S S S S S S S 3 ",
"X X X X l X.X.X.O.X.( A b A A b b b A A b A P P P P U U U U G l e e e e e e l z z z z k e e e e e e e e e e e e e e 8 5 X X & & & & & 1 1 1 1 1 1 1 1 = & & = 1 x H ..y.y.y.y.y.y.y.y.y.y.y.O.O.O.O.O.O.O.O.O.O.t.y.y.y.y.y.y.m.}.y.y.y.y.y.y.y.t.O.O.X.O.O.h.(.U.z.f.6.6.6.9.9.6.,.T T T I L , X X X X @ @ @ @ * * * * 7 x x x x x x x x x x x x x x x x x x x x x x C ! ! ..<.u.x.x.x.x.x.3.( ! ! ! ! ! ! ! ! ( [ | | | ..>.>.>.<.,.u.u.u.u.c.m.[.OXOXf.9 9 9 9 9 u u d.c.c.c.c.u.4.4.3.>.>.<.>.>.>.| | | } ( ( ( ( ( _ [ [ | ....| | | | | | | | | | | | | | | | | 2.6.0 = = = = = = % % % % & % * = , x x x x x x x x d d d d d d d d d d d d d d d d x Z H H H H H H H H H H H H ( ' ' ' ' ' ' ' ' ' ' [ %.*.*.*.*.+.b 4 & & & & & & & & & & & & & & & & k k k k k k k k k k k k v P P K l 0 0 0 6 4 - - 8 6 6 0 k l l r r 5 ; ; ; ; ; ; ; 5 5 4 ; ; ; ; ; ; ; ; 6 r w X X X @ * % * * * * * 4 7 7 7 7 7 d g g x x g g g g x x g g ! ! u , , , < g g g g g C S S S S S S S S S S S S S S S S S S S S S S S S S H ` ` ` ` S S D ! ! ( ' ' ' ' ' ' ! S S C % ",
"X X X y { X.X.X.X.O...{ ` J A b A A A G K U U U P P P U P P P P K k e k l z z z z z b z l k e e e e e e e e e e e e 6 4 X X % & & & & 1 1 1 1 1 1 1 1 1 1 1 1 8 H H ( y.y.y.y.y.y.y.y.y.<.O.O.O.O.O.O.O.O.O.O.O.O.O.y.y.y.y.y.y.a.y.y.y.y.y.<.O.O.O.O.O.O.O.O.W.(.z.z.0.9.9.9.9.9.9.6.+.T T T K X X X X X X X X @ * * * * x x x x x x x x x x x x x x x x x x x x x x x J J ! O.O.<.x.x.x.' ! ! ! ! ! ! ! ! J J ( ( ' ..| | | >.<.>.<.u.u.u.u.c.c.m.OXOXJ 9 0 0 9 9 u ( c.c.c.c.d.u.4.4.<.>.<.<.>.>.>...| | ( ( ( ( ( ( ( ( ( ( ( [ | ..| | | | | | | | | | | | | | ..6.6.P = = = = * & & & & % & * = = 0 x x x x x x x x d d d d d d d d d d d d d d d d d x Z H H H H H H G A Z Z A H ' ( ( ' ' ' ' ' ' ' ' ' ' [ %.*.*.*.#.m b b b b & & & & & & & & & & & = k k k k k k k k k k k k A P P l w 0 6 6 6 6 4 8 6 6 0 k l l r r e 5 ; ; ; 5 e k r l l l e w 0 6 5 6 e k l l X X X X @ % @ X * * % * , 2 2 2 2 2 a g g g g g g g x x g g ! ! ! , , , , , u g g g g Z S S S S S S S S S S S S S S S S S S S S S S S S S H ` ` ` X.>.>.>.>.>.>.3.u.u.c.c.c.I.x.g % ",
"X X @ ` { X.X.X.X.X.X.{ { { { ` ( U U U U U U P P P U U P P P P P P z z z z z z z z z z z z k e e e k l z l k e e e 6 = X X % & & & * 1 1 1 1 1 1 1 1 1 1 1 i G H H ..y.y.y.y.y.y.<.O.O.........O.O.O.O.O.O.O.O.O.O.O.t.y.y.y.y.y.y.y.y.y.y.y.O.O.O.O.O.O.O...h._.P.z.z.7.9.6.9.9.9.9.6.W T T T 8 X X X X X X X X @ * * * u x x x x x x x C x x x x x x x x x x x x x x S J J ..O.O.<.h.{ ! J D D D J ! ! ! ! J ( ( ' { | | | ..<.<.3.u.u.u.i.m.c.c.XXOXi 0 0 0 9 9 a x.c.c.c.h.u.u.4.4.>.>.<.<.<.>.>...| | ( ( ( ( ( ( ( ( ( ( ( ( ( [ [ ( ( ( ( { | | | | | | | | ..6.6.-.= = * & & & & & % % & = = = x x x x x x x x x d d d d d d d d d d d d d d d d d d g x v v v v x x x x x x x J ( ' ' ' ' ' ' ' ' ' ( J J J ( [ *.*.#.B b b b & & & & & & & & & & & & 4 i b A G J x k k k k k l P P l k 0 6 6 6 6 0 0 6 6 0 e k l e e e e 6 5 0 k k k l l l l k l k e k k k k l l & X X X X X X X * * * % * , 2 2 2 2 2 u u u u u g g g x g g J ! ! C , , , , , 3 g g g g S S S S S S S S S S S S S S S S S S S S S S S S S S J ` ` ` ..>.>.>.>.<.R.W.W.W.W.W.W.U., % ",
"X X h { {  .O.O.X.X.X...{ { { { { ` ( Y U U P P U U P P P U U U U U K c z z z z z z b z z z z z z z z z z z z k e e 0 # X X @ & & & * 1 1 1 1 1 1 1 1 1 4 9 A G J J 3.y.y.y.y.<.O.O...` ` ` ` ` ` ` ` ....O.O.O.O.O.O.O.O.O.t.O.O.O.y.y.y.y.y.t.O.O.O.O.O.O.O.O._.R.z.z.f.6.6.6.6.6.6.6.9.@.P l 0 X X X X X X X o @ % * * , x x x x x x x x x x x x x x x x x x x x x x C J J ` <.<.<...! J D D D D A J ! ! ! ! ( ( ( ' ......>.>.>.u.u.u.u.i.m.c.c.OX[.u u 9 9 9 9 2.c.c.c.x.4.u.4.4.4.>.>.>.>.>.>...| | | ( ( ( ( ( ( ( ( ( ( _ ( ( ( ( ( _ ( ( ( | ......| | | | | 6.6.6.= * & * * * & & & % * = = 7 x x x x x x x x x x d d d d d d d d d d d d d d d d d d d x x x x x x x x x x x Z ( ' ' ' ' ' ' ' ' ( J J J J J J ( %.*.#.m b b & & & & & & & & & & & & , 0 G G J J k k i 9 i k k A P c l k 0 6 6 6 6 0 6 0 0 0 e k e e k k r r r r k k k k k k k k l l k k k k l l 8 X X X X X X X @ * * % * * 2 2 2 2 2 u u u u u u a x g g g S ! ! ! y , , , , , , a g g C S S S S S S S S S S S S S S S S S S S S S S S S S S S ` ` ` { X.>.<.<.<.u.c.I.W.W.E.u % % ",
"X 2 { { { {  ....... .{ { { { { { { { { { { { { ` ` ` ' ' ( ( U P P U P b z z z z z b b z z z z z z b z z z z z e e 0 @ X X @ & & & * 1 1 1 1 1 1 1 1 4 9 a G G H ( y.y.y.y.O.O.O...` ` ` ` ` ` ` ` ` ` ` ` ` ` ` ` ..O.O.O.O.O.O.O.O.O.O.y.y.y.t.O.O.O.O.O.O.O.m._.c.z.z.7.6.6.6.6.6.6.9.9.w w w & X X X X @ X o o @ % * * a x x x x x x x x x x x x C x x x x x x x x C J J ~ <.<.<.( D D D D D D A D ! ! ! ! ( ( ( { | | ..>.,.,.u.u.u.u.h.m.c.c.%XI.u u 9 9 9 A c.c.c.x.u.4.u.u.4.3.>.>.>.<.>.>.| | | } ( ( ( ( ( ( ( ( ( ( _ ( ( ( ( _ ( ( ( ( ( } | | | | | | | 6.6.6.7 % & * * * & & & & = = = d x x x x x x x x x x d d d d d d d d d d d d d d d d d d d d d d x x g d d x x x x J ' ' ' ' ' ' ' ( J J J J J J J J J #.*.+.m b & & & & & & & & & & & & , 4 G G J G k 0 9 9 7 0 k v P b l l l l k w 0 0 6 6 0 0 0 0 e e k k r l e e k k k k l z m m K L L m l k l r e X X X X X X X @ * * % * * , 2 2 2 2 7 u u u u u u g g g g x ! ! ! ( 3 , , , , , , u g g C S S S S S S S S S S S S S S S S S S S S S S S S S S S ` ` ` ` `  .........{ ` ! 3 % % % ",
"@ ` { { { { { { { { { { { { ` ` { { { { { { { { { { { { { { ` ` { [ P P P P b b K P P P U K A b z z b z z z z z k e w X X X @ & & & & 1 1 1 1 1 1 1 1 9 9 x H H J y.y.y.y.O.O...` ` ` ` ` ` ` ` ` ` ` ` ` ` ` ` ` ` O.O.O.O.O.O.O.O.O.O.O.O.O.t.y.t.O.O.O.O.O.O.<._.U.z.z.z.7.6.6.6.9.9.9.#.w w w 8 X X @ @ @ @ X o X X % * 2 x x x x x x C x x x x x x x C x x x x x x C J J { <.<.{ D D D D D D D D H ! ! ! ( ( ( ' | | | ..>.,.<.u.u.u.u.h.m.c.m.OXc.9 9 9 9 a h.c.c.x.u.4.4.4.4.4.3.>.>.>.>.>.| | ..| ' ( ( ( _ ( ( ( ( ( ( ( ( ( ( ( ( ( ( ( ( ( ( ( ( _ _ ' } >.6.6.6.6   X % * * & & % & = , , x x x x x x x x x x x d d d d d d d d d d d d d d d d d d d d d d d d d d d d x x x J ( ' ' ' ' ' ' ! J J J J J J J A A T *.*.B b & & & & & & & & & & & & = 4 d G G A 0 9 9 9 9 9 8 k P K l l l l l l k 0 0 0 0 0 0 0 0 w k l l l e e l b K P I I I I I I I I P l r r k % X X X X X X X * * * * * , 2 2 2 2 4 u u u u u u u g g g g S ! ! 3.u.a , , , , , , 7 g g Z S S S S S S S S S S S S S S S S S S S S S S S S S S J ` ` ` ` ` ` ` ` ` ` ! % % % % % ",
"h { { { { { { { { { ` ` ~ ~ ~ ~ ~ ( ( ( ^ ` ` ` { { { { { { ` ` M._.c.[ P P U P P P P P U U P P P b z z z z z z z e w X X X @ & & & & 1 1 1 1 1 1 1 7 9 9 Z H H { y.y.y.O. .` ` ` ` ` ` ` ` ` ` ` ` ` ` ` ` ` ` ` ` O.O.O.O.O.O.O.O.O.O.O.O.O.O.O.O.O.O.O.O.O.O.O.Y._.c.z.z.z.7.6.6.6.9.9.K w w w w % X O @ @ @ X X X X X * * g x C x x x x x x x x x x x x x x x x x x C ! ! ..<.X.D A A D D D D D D H ! ! ! ( ( ' | | | | >.>.>.3.u.u.u.u.x.c.c.M.oXc.9 9 9 9 | c.c.x.u.u.u.4.4.4.4.<.>.>.>.>.| | | | { ( ( ( ( ( ( ( ( ( ( ( ( ( ( ( ( ( ( ( ( ( ( ( ( ( ( ( ( ( [ 6.6.} =     @ & & & % % & = , 7 x x x x x x x x x x x d d d d d d d d d d d d d d d d d d d d d d d d d d d d x x x J ( ' ' ' ' ' ( J J J J J J J A A A A #.*.+.b & & & & & & & & & & & & * 4 4 G G 0 9 9 9 9 9 9 9 9 A P c l l l l l l l w 0 0 0 0 0 0 0 w l l l m L I I I I I I I I I I I I I I l e k - X X X X X X X % * * * * * 2 2 2 2 2 u u u u u u u u g g g g H ( i.i.i.! , , , , , , 3 g h S S S S S S S S S S S S S S S S S S S S S S S S S S S ! ^ ` ` ` ` ` ` ` ` , % % % % % ",
"{ { { { { ` ` ^ ~ ~ ~ ~ ~ ~ ! ! ~ ~ ~ ~ ~ ~ ~ ~ ~ ~ ` { { { { { R._./.x.} U U U U U U U P P P P P P K b z z z z z k e X X X X & & & & & = = , 4 1 4 9 9 9 a Z J y.y.y...` ` ` ` ` ` ` ` ` ` ` ` ` ^ ` ` ` ` ` ` `  .O.O.O.O.O.O.O.O... . . ...O.O.O.O.O. . .....O.y._.U.z.z.z.f.9.9.9.9.6.k w w w 6 = X X O @ @ @ @ X X X @ * 2 x x x x x x x x x x x x x x C x x x x x Z ! ! O.<.J Z Z C C C D D D D J ! ! ! ( ' | | | | :.>.>.,.u.u.u.u.u.c.c.c.M.W.d.9 9 9 J c.c.x.u.4.4.4.4.u.4.3.>.>.>.>...| | ..| _ ( ( ( ( _ ( ( ( ( ( ( ( ( ( ( ( ( ( ( ( ( ( ( ( ( ( ( ( ( ( 6.*.( #     o & & % % % * , = 0 x x x x x x x x x x x d d d d d d d d d d d d d d d d d d d d d d d d d d d d g x x A J ( ' ' ' ' ( J J J J J J A A A A A _ *.*.B & & & & & & & & & & & & & , 4 v v 9 9 9 9 9 9 9 7 9 d P K l l l l l l l l k w 0 0 0 0 6 0 m L I I I I I I I I I I I I I I I I I L k k 1 @ X X X X X X % * * * * * > , , , , 7 u u u u u u u u g g g g Z 3.i.i.i.3.u , , , , , , g h Z S S S S S S S S S S S S S S S S S S S S S S S S H ! ! ^ ` ` ` ` ` ` ! % % % % % , ",
"{ { ` ~ ~ ~ ~ ~ ~ ~ ~ ~ ~ ~ ! ! ~ ! ! ! ! ~ ~ ~ ~ ~ ~ ~ ` { { { x._.n.n.n.3.Y U P U U U P P P P P P U P K z z z z z k X X X X & & & & & & & & & = 7 9 9 9 9 d ` y.y...` ` ^ ` ` ` ` ` ` ` ` ` ! ! ! ! ~ ` ` ` ` ` ..O.O...O.O.O.O.O. . . . . . .....O... . . . .O.O.R.(.c.z.z.z.9.9.9.9.*.w w w w 4 4 @ X X @ @ @ @ X X X X % * g x x x x x x x x x x x x x x x x x x x S J ! <.` C C C C C C Z D D D J ! ! ( ( { ..| | | >.>.>.,.u.u.u.u.u.c.c.c.m.m.4.9 9 a x.c.x.u.4.4.4.4.4.u.3.>.>.>.>...| | ....| ( ( ( ( ( ( ( ( ( ( ( _ ( ( ( ( ( ( ( ( ( ( ( ( ( ( ( ( ( ( ( #.( U       @ & & & % % * = = d x x x x x x x x x x g d d d d d d d d d d d d d d d d d d d d d d d d d d d d d x x A J / ' ' ' ' / J J J J J J A A A A A G *.*.#.& & & & & & & & & & & & & = 4 7 i 9 9 9 9 9 7 7 9 9 9 K P l l l l l l l l l l l k w l B I I I I T +.@.@.+.+.T I I I I I I I I I I z k 1 - X X X X X X X * * * * * * , , , , 4 u u u u u u u u u a g g g g J 3.i.i.i.! 3 , , , , , a g C S S S S S S S S S S S S S S S S S S S S S S S ! ! ! ! ~ ` ` ` ` ^ H % % % % % J ",
"{ { ^ ~ ~ ~ ~ ~ ~ ~ ~ ~ ~ ~ ~ ! ! J J J J J ! ~ ~ ~ ~ ~ ~ ~ ` { { a.n.n.n.n.a.>.P P U U P P P P P P P P P P z z z z z = X X o & & & & & & & & & , 9 9 9 9 9 C ` ..` ` ~ ! ! ! ! ~ ` ` ` ` ~ ! ! ! ! ! ! ~ ` ` ` ` ..O.O.....O.O.O.O. . . . . . . . . . . . . . . .O.h._.U.z.z.z.0.6.7.6.K w w w 6 4 4 & X X X X X X X X X X X * , x x x x x x x x x x C x x x x x x x x J J { { x x C C C C C C S D D J ! ! ' [ ......| ..>.>.>.<.u.i.i.u.i.c.c.c.c.c.[ u u 2.c.x.u.u.4.3.3.<.<.<.<.>.>.>.>.| ..| | | [ ( ( ( ( ( ( ( ( ( ( ( ( ( ( ( ( ( ( ( ( ( ( ( ( ( ( ( ( ( ( ( ( ( 7       % & & & & % % , = x x x x x x x x x x x d d d d d d d d d d d d d d d d d d d d d d d d d d d d d d x x Z H J ! ' ' ( J J J J J J A A Z Z Z Z A *.*.*.8 & & & & & & & & & & & & * 4 4 9 9 9 9 7 7 9 9 9 9 9 v P A l l l l l l l l l l l K W W W +.*.5.2.#.#.#.@.@.@.#.+.T I I I I I I I K k 1 - & X X X X X X X % % % * * & , , , , 7 u u u u u u u u u u a g g g g ( u.i.i.i.C , , , , , u g x S S S S S S S S S S S S S S S S S S S S H ! ! ! ! ! ! ! ~ ^ ~ ! C % % % % g ~ ",
"{ ` ~ ~ ~ ~ ~ ~ ~ ~ ~ ~ ~ ~ ! J J J J J J J J J ! ~ ~ ~ ~ ~ ~ ` { { a.n.n.n.n.u.3.,.[ P P T +.+.+.+._ T P P P b z z z z = X @ & & & & & & & & , 9 9 9 9 9 9 ~ ` ` ` ` ! ! ! ! ! ! ! ~ ` ~ ! ! ! ! ! ! ! ! ` ` ` ` ..O.O.O.O.O.O.O.O. . . . . . . . . . . . . . . ...O.(._.z.z.z.f.6.6.6.w w w w 4 4 4 4 X X X X X X X X X X X % * a x x x x x x x x x x x x x x x x x Z J ! ! g g g g g x C C C C D D J ! ( ' | ......| >.>.>.>.3.u.u.u.u.i.c.c.m.c.c.v u J c.c.u.u.4.<.<.>.>.>.<.<.>.>.>.>.| | | | | ( ( ( ( ( _ ( ( ( ( ( ( ( ( ( ( ( ( ( ( ( ( ( ( ( ( ( ( ( ( ( ( ( ( @     @ & = = * & % % , 4 x x x x x x x x x x x d d d d d d d d d d d d d d d d d d d d d d d d d d d d d d x x Z A J J ! ( ( J J J J J J A A Z Z Z A A +.*.*.k % X o @ % & & & & & & & & , 4 4 9 9 9 7 7 7 7 9 9 9 d P P l l l l l l l z P *.9.9.9.9.9.9.9.9.9.>.[ @.@.@.@.#.#.#.+.+.T I I I I I l 1 1 1 @ X X X X X X @ % % * * * , & * % * u u u u u u u u u u u u u u a a g H >.i.i.u.Z , , , , g g C S S S S S S S S S S S S S S S S S S H ! ! ! ! ! ! ! ! ! ! ! ! y % % % 3 ~ ~ ",
"` ~ ~ ~ ~ ~ ~ ~ ~ ~ ~ ~ ~ ! J J J J J J J J J J J ! ~ ~ ~ ~ ~ ~ ^ {  .a.n.n.n.3.3.3.3.3.+.+.+.+.+.+.+.+.+.+.T P b z z z l X X & & & & & & & * 9 9 9 9 9 9 a ` ` ` ` ~ ! ! ! ! ! ! ! ! ! ! ! ! ! ! ! ! ! ! ~ ` ` ` O.O.O...O.O.O.O.O. . . . . . . . . . . . . . . ...O.M._.U.z.z.f.6.6.+.w w w 8 4 4 4 4 @ o X X X X X X X X @ @ * , x x x x x x x x x x x x x x x x x J ! Z g g g g g g g g C C C S D J ! ( ( | | | | >.>.<.<.<.u.u.u.u.u.i.c.c.m.m.x.9 a h.c.d.u.3.<.<.<.<.>.>.>.>.>.>.>...| | | | { ( ( ( ( { | | [ ( ( ( ( ' ' ' ' ( ( ( ( ( [ ....| [ ' ( _ } [ ( ( H       % & = = = = & & , 9 x x x x x x x x x x x d d d d d d d d d d d d d d d d d d d d d d d d d d d d d d g x Z A J J J J J J J J J J J A A A A A A A ( *.*.A & X X X o & & & & & & & & * 4 4 4 9 9 7 7 9 9 9 9 0 d P P P P U K P _ ,.9.9.9.9.9.9.9.9.5.%.Y A A A A Y q.z.z.f.,.#.#.#.#.T I P P z 1 1 1 1 X X X X X X X % * * * * * * * * % , u u u u u u u u u u u u u u u u u u g ( u.i.u.Z 3 u g g C S S S S S S S S S S S S S S S S J ! ! ! ! ! ! ! ! ! ! ! ! ! H * % % * ! ~ ~ ",
"~ ~ ~ ~ ~ ~ ~ ~ ~ ~ ~ ~ ! J J J J J J J J J J J J J J ! ~ ~ ~ ~ ~ ~ { ..a.n.n.u.3.3.3.3.3.3.>.@.+.+.+.+.+.+.+.+.+.T z z l X X o & & & & & & 9 9 9 9 9 9 9 J ` ` ` ( ! ! ! ! ! ! ! ! ! ! ! ! ! ! ! ! ! ! ! ! ` ` ` ..O.O.....O.O.O.O. . . . . . . . . . . . . . . ...O.y._._.c.z.z.6.6.m w w 0 4 4 4 4 4 & o X o @ X X X X X @ @ * * g x x x x x x x x x x x x x x x S ! J g g g g g g g g g x C C Z A J ! ( ( | ..| >.>.>.<.<.<.u.u.u.u.u.u.c.c.m.m.h.9 | c.x.4.3.<.<.<.<.<.>.>.>.>.>.>...| | | | | | { { | | | | | | | { [ | ..| | | | | | | | ....| ..| | | | | | ( ( 7       % & = = = = = = = i x x x x x x x x x x d d d d d d d d d d d d d d d d d d d d d d d d d d d d d d d g x Z A H J J J J J J J J J J A A A A A A A U *.*.[ & X X X X & & & & & & & & & , 4 4 4 9 9 7 9 9 9 i d d P P P T &.4.9.9.9.9.9.9.9.>.[ U A Z Z A A A A A A J ,.H.H.H.z.*.#.#.#.I P I m 1 1 1 1 = X X X X X X X * * * * * * * * % * 7 u u u u u u u u u u u u u u u u u u u a J u.i.i.>.! g S S S S S S S S S S S S S S S S ! ! ! ! ! ! ! ! ! J H H H H H 2 % % % C ~ ~ ~ ",
"~ ~ ~ ~ ! ~ ~ ~ ~ ~ ~ ! J J J J J J J J J J J J J J J J ! ~ ~ ~ ~ ~ ` { ..a.n.h.i.u.4.3.3.3.3.3.3.2.d.;X.XT.0.T +.+.m z 1 X X X X @ % & & 4 9 9 9 9 9 9 x ` ` ` ` ! ! ! ! ! ! ! ! ! ! ! ! ! ! ! ! ! ! ! ! ! ~ ` ` ..O.O.O...O.O.O.O... . . . . . . . . . . . . . . .O.O.R._.v.z.z.7.9.w w w 5 4 4 4 4 4 - o o o @ @ @ X X X X @ * * 2 x x x x x x x x x x x x C x C ! ! x g g g g g g g g g g C C C A J ! ( ( { ..| >.>.>.>.<.<.u.u.u.u.u.u.c.c.c.c.h.J c.c.i.3.>.>.>.<.>.>.>.>.>.>...| | | | | | | | | | | | | | | | | | | ....| | | | | | | | | | | | | | | ..| | [ ( #       @ * , , , , = = = g x x x x x x x x x x d d d d d d d d d d d d d d d d d d d d d d d d d d d d d d d g x v A A J J J J J J J J J J A A A A A A A A &.*.#.& X X X @ & & & & & & & & & = 4 4 4 4 7 9 0 u d d d G _ ,.9.9.9.9.9.9.4.&.( G Z Z v Z Z Z Z Z Z Z Z A A A A J 9.H.H.H.*.#.#.T P I m k l w w w 8 X X X X X X X % % * * * * * * * > u u u u u u u u u u u u u u u u u u u u u u J u.3.i.i.u.3...' ( S S S S S S S S S S S ! ! ! ! ! ! ! S S S S S S S S % % % u ~ ~ ~ ~ ",
"~ ~ ! ! ! ~ ~ ~ ~ ~ ! J J J J J J J J J J J J J J J J J J ! ~ ~ ~ ~ ~ ` { { a.n.n.n.n.<.X.<.3.3.3.3.3..X;X;X~.m m 6 = X X X X X X X X # & 9 9 9 9 2 & 7 ` ` ` ` ~ ! ! ! ! ! ! ! J H J ! ! ! ! ! ! ! ! ! ! ! ! ` ` ` O.O.O.O.O.O.O.O.O. . . . . . . . . . . . . . . .O.O.x._.U.z.z.f.+.w w 8 4 4 4 4 4 4 4 o o o @ @ @ O X X X @ % * * g x x x x x x x C x x x x C J ! Z g g g g g g g g g g g C C Z D J ! ( ( { | | ..>.>.>.>.3.u.u.u.u.u.u.x.c.c.c.i.h.c.x.2.>.>.>.>.>.>.>.>.>.>.X.| | | | | | | | | | | | | | | | | | | | | | | | | | | | | | | | | | | | | | | | [ (           * , , , , = = = x x x x x x x x x x x d d d d d d d d d d d d d d d d d d d d d d d d d d d d d d d g x v A A H J J J J J J J J A A A A A A A Z A &.&.*.= @ X X # & & & & & & & & & * 4 4 4 4 4 7 i d d d K 9.9.9.9.9.9.,._ A Z Z Z Z v v v v v v v v Z v v Z Z Z A A A _ f.H.H.*.#.+.I P m l l l l l k * X X X X X X @ % % % * * * * * * y u u u u u u u u u u u u u u u u u u u u u u u f f S ' <.i.i.i.i.S S S S S S S S S H ! ! ! ! ! ! S S S S S S S S p % % > ~ ~ ~ ~ ~ ",
"~ ~ ~ ~ ~ ~ ~ ~ ~ ! J J J J J J J J J J J J J J J J J J J J ! ~ ~ ~ ~ ~ ` ` ` y.n.n.n.a.......3.3.3.3.v.;X;X;X6.m b o X X X X X X X X o = 9 9 7 = & 4 ! ` ` ` ` ! ! ! ! ! ! D D D D D D J ! ! ! ! ! ! ! ! ! ! ^ ` ` ..O.O.O.O.O.O.O.O. . . . . . . . . . . . . . . .O.O.<._.(.z.z.z.m w 0 4 4 4 4 4 4 4 4 X X X X X @ @ X X X X @ * * 7 x x x x x x x x x x x C J J H g g g g g g g g g g x C C C S D J ! ( ( { | | | >.>.>.>.3.u.u.u.u.u.u.i.c.c.x.u.x.c.i.>.>.<.<.>.>.>.>.>.>.>...| | | | | | | | | ..>.>.>.| | | | | | | | | } | | | | | | | | | | | ........| | [ x           & = , = = = , 4 v x x x x x x x x x x d d d d d d d d d d d d d d d d d d d d d d d d d d d d d d d g x v A A A J J J J J J J A A A A Z v v v x v #.*.*.0 @ X X @ & & & & & & & & & & , 2 2 , 4 4 9 9 d v 9.9.9.9.4._ A v v v v x x x x x x x x x x x x x v Z Z Z v v A A A &.H.H.*.+.I I K l k k k k k k % X X X X X X @ * * * * % % % % , u u u u u u u u u u u u u u u u u u u u u u u u a f f f h ! ~ ! S S S S S S S S S J ! ! ! ! ! S S S S S S S S h g u , J ~ ~ ~ ~ ~ ",
"~ ! ~ ~ ~ ~ ~ ~ ! J J J J J J J J J J J J J J J J J J J J J J ! ~ ~ ~ ~ ~ ` ` ` O.k.n.n.........<.3.3.3.{.;X;X.Xm m w X X X X X X X X o & = * & & 9 D ! ~ ` ` ! ! ! ! D D D D D D D D D D D J ! ! ! ! ! ! ! ! ! ` ` ` O.O.O.O.O.O.O.O... . . . . . . . . . . . . . .O.O.O.Y._.I.z.z.k w 8 4 4 4 4 4 4 4 4 @ X X X X O @ X X X X @ * * > x x x x x x x x x x Z J J J g g g g g g g g g g C C C C C D D J ! ( ( { | | | >.>.>.>.3.u.u.u.u.u.u.u.i.i.i.u.i.d.<.>.>.<.<.>.>.>.>.>.>.X.| | | | | | } | ..>.>.,.,.,.| | | | | | | | | | } | | | | | } | | | { ( _ _ _ _ ( ( ,           & , , = = = = 0 A A x x x x x x x x x g d d d d d d d d d d d d d d d d d d d d d d d d d d d d d d d x v A A A J J J J J J J A A A Z v v v v v v _ *.*.v * X X @ & & & & & & & & & & , 2 2 2 4 7 9 9 d d U 9.2.U Z Z v v x x x x x x x x x x x x x x x x x x Z Z Z v v v A A J 2.q.@.I I I I K b l k k k e @ X X X X X X * * * * % % % % * u u u u u u u u u u u u u u u u u u u u u u u u a f f g g C S S S S S S S S S S S J ! ! ! ! S S S S S S S Z f g g g f ~ ~ ~ ~ ~ ~ ",
"~ ~ ~ ~ ~ ~ ~ ! J J J J J J J J J J J J J J J J J J J J J J J J ! ~ ~ ~ ~ ~ ~ ` { O.n.n...........X.3.3.d.;X;X;XK.m m 1 X X X X X X X @ & & & & 9 D J ! ! ~ ! ! ! S S S D S D D D D D D D D D D ! ! ! ! ! ! ! ! ~ ` `  ...O.O.O.O.O.O.O. . . . . . . . . . . . . . .X.X.O.a.(.(.z.9.w w 8 4 4 4 4 4 4 4 4 % o X X X @ @ X X X X @ * * * g x x x x x x x Z J J J J C g g g g g g g g g C C C C C Z D D H ! ( ' { | | | >.<.>.>.>.<.<.>.<.<.3.3.u.u.u.3.<.>.>.>.>.<.>.>.>.<.<.>.<...| | | | | | | | >.>.>.,.,.<.......| | | | | | | | | | | | | } | | | ( ( ( ( ( ( ( ( @           & = = = = = = v A A v x x x x x x x x x d d d d d x x x d d d d d d d d d d d d d d d d d d d d d d d x v A A A A J J J J J A A A Z Z v x v v v v P *.*.v & X X X & & & & & & & & & & 4 4 , 2 7 0 9 9 d d d x x x x x x x x x x x x x x x x x x x x x x x x x x v Z Z v v v Z A A _ f.7.+.I I I I I K z e r w X X X X X X X % * * * * * * * 7 u u u u u u u u u u u u u u u u u u u u u u u u f f g g g S S S S S S S S S S S H ! ! ! H S S S S S S C g g g g f ! ~ ~ ~ ~ ~ ~ ",
"~ ~ ~ ~ ~ ! J J J J J J J J J J J J J J J J J J J J J J J J J J J J ! ~ ~ ~ ~ ~ ^ ` O.a...............<.3.U.;X;X;X@.m m & X X X X X X X & & & , D D J ! ! ! ! ! S S S S D D D D D D D D D D D D J ! ! ! ! ! ! ! ! ~ ` {  ...O.O.O.O.O... . . . . . . . . . . . . ...X.O.O.O.(._.U.P w w 8 4 4 4 4 4 4 4 4 & o o X X @ @ o X X O @ * * * 9 x x x x x x J ! ! J J S g g g g g g g g g x C C C C C Z D D D ! ( ( { | | | >.<.>.>.>.>.>.>.>.>.>.,.,.>.>.>.>.>.>.>.>.X.| | ..>.<.<.>.| | | | | | | | >.,.>.>.>.>.<.| ....| | | | | | | | | | | | | | | | } ( ( ( ( ( ( ( J             & = = = = = 4 A A A v x x x x x x x x x d d d g x x x x x d d d d d d d d d d d d d d d d d d d d d d x v A A A A A J J J A Z A A Z v v v v v x v v *.#.v & X X X % & & & & & & & & * 4 4 , 4 0 0 9 9 d d d x x x x x x x x x x x x x x x x x x k k x x x x x x x Z Z v v v Z Z A A ,.f.f.,.I I I I I I L l r 4 X X X X X X @ * * * * * * * > u u u u u u u u u u u u u u u u u u u u u u u u g g g g g h S S S S S S S S S S S J ! J S S S S S S g a g g g f ! ~ ~ ~ ~ ~ ~ ~ ",
"~ ~ ~ ~ ! J J J J J J J J J J J J J J J J J J J J J J J J J J J J J J J ! ~ ~ ~ ~ ~ ~ { ................X.3..X;X;X~.m m m @ X X X X X X % & & C D D J ! ! ! ! D D D D D D D D D D D D D D D D D J ! ! ! ! ! ! ! ! ! ` `  . ...O.O.O... . . . . . . . . . . . . ...O.O.O.O.O.Y._._.l w w 0 4 4 4 4 4 4 4 4 = X @ X X X X @ @ @ O @ * * * 2 x x x x C J ! J J J H g g g g g g g g g g C C C C C C S D D D ! ( ( { ......>.<.<.<.>.>.>.>.>.>.>.>.>.>.,.<.<.<.<.>.X.| | | | ........| | | | | | ....,.,.>.>.<.>.>.| } } | | | | | | | | | | | | | | | | [ ( ( ( ( ( ( ( 4             , , = = = = 0 A A A x x x x x x x x x x x x x x x x x x x d d d d d d d d d d d d d d d d d d d d d d x v A A A A A A J G A Z A A A v v v v v x v v T [ v @ X X X @ & & & & & & & & , 4 4 1 7 0 9 9 9 d d d d x x x x x x x x x x x x x x k d d d d d x x x x x x v v v v Z Z Z Z A J f.z.H.6.I I I I I I I b k % X X X X X X * * * * * * * * y u u u u u u u u u u u u u u u u u u u u u u u p a a a a g S S S S S S S S S S S S S S S S S S S f g a g g f ! ~ ~ ~ ~ ~ ~ ~ ~ ",
"! ~ ~ ! J J J J H S S S S S J J J J J J J J J J J J J J J J J S H J J J J J J ! ! ! ! ! { ..................<..X;X;Xq.m m z @ X X X X X X & , D D D D ! ! ! D S D D D D D D D D D D D D D D D D J ! ! ! ! ! ! ! ! ! ~ ` `  . ....... . . . . . . . . . . . . ...O.O.O.O.O.O.h._.m.w w w w 0 4 4 4 4 4 4 4 = X o X X @ X @ X @ @ @ * * * * x x x C J ! ! J J J g g g g g g g g g g g C C C C C C Z D D D ! ( ( { | ....>.<.<.>.>.>.>.>.>.>.>.>.>.>.>.>.>.<.<.>.| | | | | | | | | | | | | | | ..>.,.,.>.>.,.>.>...| | | | | | } | | | | | | | | | | | ' ( ( ( ( ( ( ( o           o , = = = = = Z A A A x x x x Z x x x x x x x x x x x x x x d d d d d d d d d d d d d d d d d d d d d d x Z A A A A A A A A A A A A v v v v v v v x v v U v X X X X o & & & & & & & * 4 4 4 4 9 9 9 9 0 d d d d d x x x x x x x x x x k d d d d d d d d d x x x x x x Z Z Z Z Z Z Z A A %.!.!.!.6.I I I I I I I z w X X X X X X @ * * * * * % * 7 u u u u u u u u u u u u u u u u u u u u u u u u a a a a g C S S S S S S S S S S S S S S S S Z f g a a a f ! ~ ~ ~ ~ ~ ~ ~ ~ ~ ",
"! ~ J J J J H S S S S S S S S S J J J J J J J J J J J J J J S S S J J J J J J J J J J ! ( ....................X.!.;X;XL m m 0 X X X X X X % 4 D D D D D D D D D D D D D D D D D D D D D D D S D J ! ! ! ! ! ! ! ! ! ! ` ` `  . . . . . . . . . . . . . . . . .O.O.O...O.O.O.<._.%.w w w w w 0 5 4 4 4 4 4 - X X O @ @ @ X X X X * * * * * x x C J ! ! ! ! ! C g g g g g g g g g g g C C C C C C Z D D D J ( ( | | | | >.>.>.>.>.>.>.<.<.>.<.>.>.>.>.>.>.<.>.| | | | | | | | | | | | | | | | >.<.,.<.<.<.,.,...| | | | | | | } | | | | | | | | | | | ( ( ( ( ( ( ( d             @ , = = = = 4 A A A Z x x x A Z x x x x x x x x x x x g d d d d d d d d d d d d d d d d d d d d d d d g x Z A A A A A A A A A A Z Z v v v v v v v v v v v v X X o o o & & & & & & & , 4 4 4 0 0 9 9 9 u d d d d d d d x x x x x x x k d d d d d d d d d d x x x x x x v Z Z Z Z Z Z Z A A H.!.!.!.6.I I I I I I P k 5 X X X X X X * * * % % * * , u u u u u u u u u u u u u u u u u u u u u u u u g g g g g f S S S S S S S S S S S S S S S C g g g g a f ! ~ ~ ~ ~ ~ ~ J ! ~ ~ ",
"! J J J J J S S S S S S S S S S S J J J J J J J H S S S S S S S S S J J J J J J J ! ! ~ ( ....................' ( { !.F.m m m = X X X X X X a D D D D D D D D D D D D D D D D D D D D D D D S D J J J J ! ! ! ! ! ! ! ` ` ` `  . . . . . . . . . . . . . . ...O.O.O. ...O.O.O.R.b w w w w w w w 8 4 4 4 4 1 X X X @ @ @ X X X @ * * * * * g x J ! ! ! ! ! C g g g g g g g g g g g g x C C C C C C D D D J ( ( { | | | >.>.>.>.>.<.<.<.<.<.<.>.>.>.>.>.<.>...| | | | | | | | | | | | | | | >.<.<.<.<.<.<.,.,...| | | | | | | | | | | | | | | | | | } ( ( ( ( ( ( ( o             % , = = = = d A A A v x x A A Z x x x x x x x x x d d d d d d d d d d d d d d d d d d d d d d d d d g x x Z A A A A A A A A A A A Z v v v v v v v v v v v x X X o o o # & & & & & = 4 4 4 7 9 9 9 9 9 i d d d d d d d d d d x x x x d d d d d d d d d d d x x x x x x x Z Z Z Z Z Z Z A A U !.!.!.!.6.I I I I I P l k @ X X X X X o * * * % % * * u u u u u u u u u u u u u u u u u u u u u u u u p g g g g g h S S S S S S S S S S S S S g g g g g g h ~ ~ ` ` ~ ~ ! H J ! ~ ~ ",
"J J J J J J S S S S S S S S S S S S H J J J S S S S S S S S S S S S J J J ! ! ! ~ ~ ~ ~ ` ..................( ( ( ( ( d.9.K m b X X X X X X 9 D D D D D D D D D D D D D D D D D D D D D D D D D D D D D D D D ! ! ! ! ` ` ` ` ` `  . . . . . . . . . . . . . ..... . . ...O.O.x.w w w w w w w w w 4 4 4 4 1 o o X X X X X X X * * * * * * g D J J J J J S g g g g g g g g g g g g g g x C C C C C S D D J ( ( { | | ..>.>.>.>.>.<.<.<.<.<.<.>.>.>.>.>.>...| | | | | | | | | | | | | | | >.>.>.<.>.>.>.>.<.<.>...| | | | | | | | | | ..{ _ ' | | | [ ( ( ( ( ( ( ,               * = 4 7 8 4 v A A A x x Z A A v x x x x x x x x d d d d d d d d d d d d d d d d d d d d d d d d d x x x x Z A A A A A A A A A A A Z v v v v v v v v v v v d X X X o X @ & & & & * 4 4 4 4 9 9 9 0 9 9 d d d d d d d d d d d d d d d d d d d d d d d d d d x x x x x x v Z Z v v v Z Z Z A A &.!.!.~.~.@.I I I I I b k 0 X X X X X X * * * * * * * y u u u u u u u u u u u u u u u u u u u u u u u u g g g g g g Z S S S S S S S S S S C g f g f a a C ` ` ....` ~ ! H H ! ! ~ ~ ",
"J J J J J J S S S S S S S S S S S S S S S S S S S S S S S S S S S S J J ( ( ~ ~ ~ ~ ~ ~ ( ................( ( ( ( ( ( ( 0.0.T m 1 X X X X X % Z D D D D D D D D D D D D D D D D D D D D D D D D D D D D D D D D ! ! ! ` ` ` ` ` ` `  . . . . . . . . . . . . . . . . . . ...O.| w w w w w w w w w 4 4 4 4 1 o o X X X X @ @ X * * * * * * C J J J J J S g g g g g g a a g g g g g g g g g C C C C Z D D H ( ( [ | | ..>.>.>.>.>.<.>.<.<.>.>.>.>.X.X...| | | | [ ' { | | | | | | | | ..>.,.,.>.<.<.>.>.,.,.<.,.>...| | | | | | | | | | ( ( ( ( ( ( ( ( ( ( ( ( i               o , 8 6 6 7 7 v A A A x Z A A A x x x x x x x x x d d d d d d d d d d d d d d d d d d d d d d d d x x x x x x A A A A Z Z A A A A Z v v v v v v v v v v v v 7 X X X X X @ & & & & , 4 4 4 7 9 9 9 0 0 9 d d d d d d d d d d d d d d d d d d d d d d d d d d d x x x x x v Z v v v v Z v A A A A 9.!.!.~.!.+.I I I I K e k % X X X X X @ * * * * * * 7 u u u u u u u u u u u u u u u u u u u u u u u u p g f f g g f Z S S S S S S Z h f g g g g f a H ........{ ~ ! H H H ! ~ ~ ~ ",
"J J J J J J S S S S S S S S S S S S S S S S S S S S S S S S S S S S J J ! ( ( ( ( ( ( ( ~ ( ............` ~ ( ( ( ( ! ! :.0.0.2.m X X X X X X , D D D D D D D D D D D D D D D D D D D D D D J D D D D D D D S S ! ! ! ` ` `  . . . . . . . . . . . . . . . . . . . . . . . .O.J w w w w w w w w 6 4 4 4 4 4 o o X X O @ @ @ @ * * * * * 9 J J J J J S g g g g g g a i i a g g g g g g g g g C C C C D D H ! ( ' | | ..>.<.>.>.>.>.>.>.>.>.>.| | | | | | | | ' ( ( ( { | | | | | | >.>.>.,.,.,.,.<.<.,.,.,.,.>.>.>.>...| | | | | | | [ ( ( ( ( ( ( ( ( ( ( ( 0                 , 7 8 8 8 7 0 A Z A A v A A A A x x x x x x x x d d d d d d d d d d d d d d d d d d d d d d d d x x x x x x x Z A A A Z Z Z A A A Z v v v v v v Z v v v v v , X X X X o % & & & , 4 4 4 4 9 9 9 9 9 9 0 d d d d d d d d d d d d d d d d d d d d d d d d d d d x x x x x v Z Z v v Z v v A A A G G z.~.~.~.Q.T I I I L e e 4 X X X X X X * % * * * * < u u u u u u u u u u u u u u u u u u u u u u u u u a f f f f g g h C C h f p y 7 3 3 3 y p h ' ..........` ! ! ! H H ! ~ ~ ~ ",
"J J J J J J S S S Z Z Z Z S S S S S S S S S S S S S S S S S S S S S J J J ( ( ( ( ( ( ( ~ ~ ` ........` ~ ~ ( ( ! J J J J 9.0.0.0.* X X X X X > f D D D D D D D D D D D D S D D D D D D J ! J D D D D D D D S J ! ! ~ ` `  . . . . . . . . . . . . . . . . . . . . . .........v w w w w w w w w 4 4 4 4 4 4 o o X X X @ @ @ @ * * * * , J J J J J S g g g g g g a a i i i a g g g g g g g g g C C C Z D D ! ( ( | | | >.<.>.<.<.>.>.>.>.>...| | | | | | | { ' ' ( ( ' { | | | | ..>.>.>.,.,.,.,.>.>.,.<.<.,.>.>.>.>.,.>...| | | | | ( ( ( ( ( ( ( ( ( ( ( &               X 4 8 8 8 8 8 7 v A A A A A A A A Z x x x x x x x x d d d d d d d d d d d d d d d d d d d d d d d x x x x x x x x v A A A Z Z Z A A A Z v v v v v Z Z v v v v v @ X X X o o & & & = 4 4 4 2 7 9 9 9 9 9 0 i d d d d d d d d d d d d d d d d d d d d d d d d d d d x x x x v Z Z Z v v Z v v A A A A G G 0.!.~.!.G.I I I I e w 8 X X X X X X @ % * * * * , u u u u u u u u u u u u u u u u u u u u u u u u u u a f f f g g g f u 3 , , , , , , , , C ............` H H ! ! H ! ~ ~ ~ ! ",
"J J J J J J S Z Z Z Z Z Z S S S S S S S S S S S S S S S S S S S S J J J J ! ( ( ( ( ~ ~ ~ ~ ( ......{ ~ ~ ~ ~ ( J J J J J ( 0.0.0.0 X X X X X > > D D D D D D D D D D D D D D D D D D ! ! ! J S D D D D D D D ! ! ! ~ `  . . . . . . . . . . . . . ........... .....O.O.O.O.O.w w w w w w w w 8 4 4 4 4 4 4 % X @ @ @ @ X X * * * * * S J ! ! ! Z g g g g g g a u i i i i i a g g g g g g g g x C C C S D J ! ( ' | | >.<.<.>.>.>.>.>.>...| | | | | | | ..{ ' ' ( ( ' [ ....| | ..>.,.,.,.<.<.,.<.<.<.,.,.>.>.>.<.<.<.,.>.>.>...| | ( ( ( ( ( ( ( ( ( ( H               o 8 8 8 8 8 8 8 x ( ( A A A A A A Z Z Z v Z v x x x x d d d d d d d d d d d d d d d d d d d d d d g x x x x x x x x x Z A A Z Z Z Z A A A A v v v Z A A v v v v k X X X o X @ & * * 4 4 , 1 1 9 9 9 9 9 9 9 i d d d d d d d d d d d d d d d d d d d d d d d d d d d x x x x v v Z Z Z v Z Z A A A A A G G G [ Q.!.!.*.I I I r 6 6 @ X X X X X o % % % % * > u u u u u u u u u u u u u u u u u u u u u u u u u u u p f f p y 3 , , , , , , , , , < ! ..........{ ! H ! ! ! ! ! ~ ~ ~ ! H ",
"J J J J J D Z Z Z Z Z Z Z Z S S S S S S S S S S S S S S S S S S J J J J J ! ( ( ( ( ~ ~ ( ~ ( ( ..{ ( ( ~ ~ ( ! J J J J D D %.0.0.U X X X X X > > f D D S S D D D D D D D D D D D D ! ! ! ! S S D D D D D J ! ! ! ! ` ` `  . . . . . . . .......O.O.O.O.O.O.O.O.O.O.O.O.O.O.>.w w w w w w w 0 4 4 4 4 4 4 4 @ X @ X @ @ X @ * * * * C J ! ! J C g g g g g g a i u u u i i i i g g g g g g g g g x C C Z D D ! ! ' [ | | ..X.>.>.....| | | | | | | | | | | ' ' ' ( ( ' ' ....| | >.,.,.,.>.>.<.<.<.<.,.,.,.:...X.>.<.<.,.>.>.>.>.| | ( ( ( ( ( ( ( ( ( ( ( &             4 6 8 8 8 8 8 8 J ( ( A A A Z A A A Z Z A A A x x x d d d d d d d d d d d d d d d d d d d d d d d g x x x x x x x x x v A Z Z Z Z Z A A A A v v v A A A v v v v 7 o X X o X & & * 4 4 4 , 1 1 9 9 9 9 9 9 9 d d d d d d d d d d d d d d d d d d d d d d d d d d d d x x x v v v Z Z Z Z Z Z A A A A A A A A A U 2.!.6.T I I k 6 6 = X X X X X X % % * * * > u u u u u u u u u u u u u u u u u u u u u u u u u u 7 3 3 , , , , , , , , , , , , a { ........{ ~ H ! J ! H ! ! ! ~ ~ ! H H ",
"J J J J S Z Z Z Z C x C C Z Z S S S S S S S S S S S S S S S H J J J J J ! ~ ~ ~ ( ~ ~ ~ ( ( ( ( ~ ( ( ( ~ ~ ~ J J J J Z Z Z Z ,.9.Y X X X X X > > 3 D D S S D D D D J ! J J D D D ! ! ! ! ! D D D J J ! ! ! ! ! ! ! ` ` `  . . . .....O.O.O.O.O.O.O.O.O.O.O.O.O.O.O.O.O.O.h.c.w w w w w w w 6 4 4 4 4 4 4 4 X X X X X X X @ * * * u J J J H g g g g g g g g i i u i i i i i i a g g g g g g g g g g C C Z S J ! ( ( ' [ { | | | | | | | | | | | | | | | { ' ( ( ( ( ' ' { | | | >.,.<.,.>.>.>.<.,.,.,.,.,.| | | | X.<.,.,.,.>.>...| [ ( ( ( ( ( ( ( ( ( ( G           & 6 8 8 8 8 8 8 d ( ( ( A A Z Z Z A A A A A A A v x x d d d d d d d d d d d d d d d d d d d d d d d g x x x x x x x x x v A A A A A A A A A A A A Z Z A A v v v v @ X X X X X * * 4 2 4 4 , , 4 9 0 0 9 9 9 0 d d d d d d d d d d d d d d d d d d d d d d d d d d d d x x x v v Z Z Z Z Z Z A A A A A G A A A A A G A *.*.P P 0 6 6 4 X X X X X X * * * * * * u u u u u u u u u u u u u u u u u u u 7 7 3 < 3 , , , , , , , , , , , , , , , y ~ ..........` H H H ! ! H H H H H ! ! ! ! ! ",
"J J H Z Z Z Z C C x x x x C Z Z S S S S S S S S S S S S S J J J J J ! ( ~ ~ ~ ~ ( ~ ~ ~ ( ( ( ( ~ ( ( ( ~ ( ! J J J Z Z Z Z Z J [ Y X X X X X > > > S D S J J ! ! ! ! ! ! ! ! ! ! ! ! ! ! ! ! ! ! ! ! ! ! ! ! ! ! ~ ` `  . . . ...O.O.O.O.O.O.O.O.y.y.y.<.O.O.O.O.O.O.O.h.c.c.w w w w w w w 8 4 4 4 4 4 4 - o X X X X X X @ * * u ! J J Z g g g g g g g g i i u i i i i u i i i g g g g g g g g g g C C C S S J ! ! ( ( ( ( ( ' ' ' ' { { { | | | | | | ' ( ( ( ( ( ' ' { | | | >.,.<.<.<.<.<.3.3.,.,.,.>.| | | | | ..>.<.,.,.>.>.| [ ( ( ( ( ( _ J J J _ ( ,       o 8 6 6 8 8 8 8 8 J ( ( ( A A Z Z Z A A A A A A A v x x d d d d d d d d d d d d d d d d d d d d d d d g x x x x x x x x x Z A A A A A A A A A A A A A A A A v v v k X X X X X X * , , , 4 4 4 1 7 0 0 0 0 9 9 u d d d d d d d d d d d d d d d d d d d d d d d d d d d d x x x v Z Z Z Z Z Z A A A A A A A A A A A A G G T 6.*.k 6 6 6 6 X X X X X X X * * * * * u u u u u u u u u u u u y 7 7 3 < , , , , , , , , , , , , , , , , , , , , a ` ..........{ ! H H H ! ! S S H H H H H ! ! ! ! ",
"J S Z Z Z Z C x x x x C C x Z Z S S S S S S S S S S S J J J J J J ! ~ ~ ( ( ( ( ~ ~ ( ( ( ~ ~ ~ ~ ~ ~ ~ ( J J J J Z Z Z Z Z Z A _ _ X X X X X > > > g J ! ! ! ! ! ! ~ ~ ! ! ! ! ! ~ ~ ~ ! ! ! ! ! ! ! ! ! ! ! ! ! ` ` `  . . . .O.O.O.O.O.O.y.y.y.y.y.p.p.O.O.O.O.O.<.x.n.n.h.w w w w w w 8 4 4 4 4 4 4 4 % o X X X X X X X 7 g J ! S g g g g g g g g a i i i u u u u u u i i i p g g g g g g g x C C C C S D D ! ! ! ! ( ( ( ( ( ( ' ' ' ( ( [ } | | { ' ' ( ( ( ( ( ( { | | | <.<.<.4.4.4.4.4.3.>.<.<.>.| | | | | | | >.>.>.>.>...[ ( ( ( ( ( J J J J J ( x       % 8 8 8 8 8 7 7 , A ( ( J Z A A Z Z A A A A A A A v x g d d d d d d d d d d d d d d d d d d d d d d d g x x x x x x x x x Z A A A A A Z A A A A A A G A A A v v v 8 X X X X X @ & , 4 4 4 4 4 4 9 9 9 9 0 9 9 i d d d d d d d d d d d d d d d d d d d d d d d d d d d d x x x x v A A A A A G A A A A G A A G G G A A A A 6.6.6 6 6 6 6 @ X X X X X X X X X X X X @ , 7 y u u u u u y , , , , , , , , , , , , , , , , , , , , , , , y S ............{ ~ S S J J ! S S C C S ! ! ! ! ! ! H S ",
"C C Z Z Z C x x x x C C g x C Z Z S S S S S S S S S J J J J J J J ~ ~ ~ ( ( ( ( ~ ( ( ( ( ~ ~ ~ ~ ( ~ ! J J J J Z C Z Z Z Z Z Z _ _ * X X X X > > > y ! ! ! ! ! ! ` ` ` ` ~ ~ ~ ` ` ` ^ ! ! ! ! ! ! ! ~ ~ ~ ~ ~ ` ` ` `  . . .O.O.O.O.O.y.y.p.p.y.y.y.a.a.O.u.XXXX'.Y.c.n.n.1.w w w w 0 5 4 4 4 4 4 4 4 1 o o o X X X X O * g g C g g g g a i u u u i i i i u u i i u u i i i i u p g g g g g g C C C C C Z D D J ! ! ! ! ! ! ! ( ( ' ( ' ' ' ' ( ( ( ' ' ' ( ( ( ( ( ( { | | ..<.<.<.4.4.4.4.4.3.>.<.<.>.| | | | | | | | ..>.>.>.| [ ( ( ( ( / J J J J J J x       2 8 8 8 8 8 7 , * Y ( ( J Z A A A A A A A A A A A v x d d d d d d d d d d d d d d d d d d d d d d d d g x x x x x x x x x v A A A A Z Z A A A A Z G G G A A v v v 7 X o X X X @ & , 4 4 4 4 4 4 9 9 9 9 0 0 9 i d d d d d d d d d d d d d d d d d d d d d d d d d d d d x x x x Z A A A A A G A A A A G G A G G G A A A A *.6.6 6 6 6 6 & X X X X X X X X X X X X X X X X O * < y y , , , , , , , , , , , , , , , , , , , , 3 f J ..............' J C C C C S S C C C C C C S ! ! ! ! J S C ",
"C C C C x x x x x x g g g x C Z Z Z Z S S S S S S S J J J J J J J ! ~ ~ ( ( ( ( ~ ~ ( ( ! ~ ! ~ ! ! J J J J J S C C Z Z Z Z Z Z _ _ , X X X X > > > 3 ! ! ! ! ~ ` ` ` ` ` ` ` ` ` ` ` ~ ! ! ! ! ! ! ` ` ` ` ` ` ` ` ` `  . ...O.O.O.O.y.y.y.p.p.y.a.N.n.O.O.O.'.XXXXXX_.Y.h.>.w w w w 4 4 4 4 4 4 4 4 4 @ o o o @ O X X % * 7 g g g a i i i a u u i i i i i u u i i i i i i i i i i a g g g g g g C C C C C D D A J ! ! ! ! ! ! ( ( ( ( ( ( ' ' ( ( ( ( ' ' ( ( ' ' ( ( { | | >.<.,.3.4.4.4.4.4.<.>.<.<.,.X.....| | | | | | ..>.>.| [ ( ( ( ( J J J J G J J 7       7 8 8 8 8 8 4 * , ( ( ( U J G A A A A A A A A A A x x d d d d d d d d d d d d d d d d d d d d d d d d g x x x x x x x x x v A A A A Z A A A A A A G G G A A v v v , o o o o X @ & , 2 4 4 4 4 7 9 9 9 9 9 9 9 i d d d d d d d d d d d d d d d d d d d d d d d d d d d d x x x x v A A A A A G A A A A A A A A A A A A A A *.6.6 6 6 6 6 4 X X X X X X X X X X X X X X X X X X X X X % > , , , , , , > > % * % > , , , u C ` ..............` ! S C C C C C C Z C C h f g C C C H H H S C C C ",
"C C x x x x x x x x x g g g C Z Z Z Z Z Z Z S S S S J J J J J J J J ! ~ ~ ( ( ~ ~ ~ ( ( ( J J J J J J J J J D Z C C Z Z Z Z Z Z _ _ 7 X X X X > > > > ! ! ! ~ ` ` ` ` ` ` ` ` ` ` ` ` ~ ! ! ! ! ! ! ~ ` ` ` ` ` ` ` `  . . .O.O.O.O.y.y.y.y.y.a.N.C.n.<.O.O.O.<.m._._.XXXXW.>.w w w w 4 4 4 4 4 4 4 4 = o o o o @ X X X * * * > , 7 u i a a a i i i i i i i i u i i i i i i i i i i i i a g g g g g C C C C S D A D ! ! ! ! ! J / ( ( ( ( ( ( ' ( ( ( ( ' ' ( ( ' ' ( ( { | | >.,.,.3.4.4.4.4.4.3.>.>.>.,.>.| ..| | | | | | | | | | [ ( ( ( ( H G J J G J J @       7 8 8 8 8 8 * * g ( ( ( U U Y U A A A A A A A A v x g d d d d d d d d d d d d d d d d d d d d d d d d x x x x x x x x x x v A A A A A Z A A A A G G G G A A v v v & o o o o X @ & , 2 4 4 4 4 0 0 9 9 9 9 9 0 i d d d d d d d d d d d d d d d d d d d d d d d d d d d d x x x x v A A A A A A A A A G A A A A A A A A A A *.#.6 6 6 6 6 8 X X X X X X X X X X X X X X X X X X X X X X X X X X X X X X X X X X X 3 C .............. .` ! S C C C C C C C C C h f g g g g g C C C S C C C C C ",
"x x x x x x x g x x x g x x C Z Z Z Z Z Z Z Z S S S S J J J J J J ( ( ( ~ ~ ~ ~ ~ ~ ~ ~ ( ! J J J J J J J D Z Z Z Z Z Z Z Z Z Z Y _ k X X X X > > > > S ! ! ^ ` ` ` ` ` ` ` ` ` ` ` ` ~ ! ! ! ! ! ! ! ! ~ ^ ` ` ` ` `  . . .O.O.O.y.y.y.p.p.n.C.C.n.O.O.O.O.O.O.O.<.i.a.m.R.>.w w w w 4 4 4 4 4 4 4 4 @ O X X X @ @ X X * * * * * * : : > 3 9 i i i i i i i i i i i i i i i i i i i i i i a g g g g g C C C Z A D D J ! ! ! ! ! ! ( ( ! ! ! ! ( ' ' ' ' ( ( ( ( ' ' ' ' | | | ,.,.,.4.4.4.4.4.4.3.,.,.,.,.>.>.......| | | ..| | | | [ ( ( ( J J G G H H H x         8 8 8 8 6 4 * * A ( ( Y Y U ( ( J A Z Z Z Z A Z x x d d d d d d d d d d d d d d d d d d d d d d d d d g x x x x x x x x x v A A A G G G A A A G G G G G G A v v v & X X X o X @ & , , , , 2 7 9 9 9 9 9 9 9 9 i d d d d d d d d d d d d d d d d d d d d d d d d d d d x x x x v Z A A A J J J A A A A A A A A A A A A A A *.@.6 6 6 6 6 6 @ X X X X X X X X X X X X X X X X X X X X X X X X X X X X X X X * C ` ............` ~ S C C C C C C C C C C g g a a a a g g g g f C C C C C C C C ",
"x x x x x x x g x x x x x x C Z Z Z Z Z Z Z Z Z S S S J J J J J ( ( ( ( ~ ~ ~ ~ ~ ~ ( ( ( ( J J J J J J S Z Z Z Z Z Z Z C C C C Y _ k X X X @ > > > > u ! ! ` ` ` ` ` ` ` ` ` ` ` ` ` ~ ! ! ! ! ! ! ! ! ! ! ! ` ` ` `  . ...O.O.y.p.y.y.p.C.C.C.p...O.O.O.O.O.O.O.<.u.i.i.Y.4.w w w w 4 4 4 4 4 4 4 = X @ X X X @ @ X X * * * * * * * : * * * > u i i i i i i i u u i i i i u i i i i u i i a g g g g g C C C A D D D ! ! ! ! ! ! ! ! ! ! ! ! ! ( ' ' ' ( ( ( ( ' ' ' ' | | >.,.,.,.4.4.4.4.4.4.4.<.,.,.>.,.<.<.>.>.>.>...| | | | | [ ( ( ( J J G G H H A *       @ 8 6 8 8 6 * * , ( ( ( ( Y Y Y Y J A Z Z Z Z A x x x d d d d d d d d d d d d d d d d d d d d d d d d d g x x x x v Z Z Z v A A A G G G G G A G G Y Y U G G A A v v & X X X X X @ & , , , 2 4 9 9 9 9 0 9 9 9 9 d d d d d d d d d d d d d d d d d d d d d d d d d d d k x x x x v Z A A A J J J J J A A A A A A A A A A A A ,.P 6 6 6 6 6 6 & X X X X X X X X X X X X X X X X X X X X X X X X X X X X X a ( ..........` ~ J C C C C C C C C h h f g a a a a a a a a g g g g g g f g g h g g g ",
"x g g g g g g x x x x x x C Z Z Z Z Z Z Z Z Z Z Z S S S J J J ! ~ ( ( ( ~ ~ ( ( ( ( ( ( ( ( ! J J J J S Z Z Z Z Z C C x x x x x J _ i X X X @ > > > > < ! ! ` ` ` ` ` ` ` ` ` ` ` ` ` ` ~ ! ! ! ! ! ! ! ! ! ! ! ` ` `  . ...O.O.y.p.y.a.C.C.n.<.O...O.O.O.O.O.O.<.<.i.i.a.Y.4.w w w w 8 4 4 4 4 4 4 % @ @ @ X X @ X X X * > > * * * * * * * * * > a a i u u i i i i u u i i i i i u u u i i g g g g g g C C C D D D A J ! ! ! ! ! ! ! ! ! ! ! ! ! ' ' ( ( ( ' ' ( ( ' { | | >.<.<.<.4.4.4.4.4.4.4.4.3.,.>.>.>.<.<.<.,.,.,.>...| | | [ ( ( ( ( J G G H G 7 *       7 8 8 8 8 7 * * g ( ( ( ( ( ( Y Y J A A A A A v x x g d d d d d d d d d d d d d d d d d d d d d d d d d x x x v A A A A A A A A A G G G G G G G Y Y Y Y G G A A v v & X X X X X @ & , 4 4 2 7 9 9 0 0 0 0 9 9 i d d d d d d d d d d d d d d d d d d d d d d d k x x x x x x x x v Z Z A A G J J J J J G A A G G G A A A A U 6.m 6 6 6 6 6 5 = o X X X X X X X X X X X X X X X X X X X X X X X X X 3 ! ........` ~ J C C C C h g f f g g g g g g g g g a a g g a a g g g g g g g g g g a g g g ",
"g g g g g g g x x x x x x C Z Z Z Z Z Z Z Z Z Z C C S S S J J J ~ ~ ~ ~ ~ ~ ( ( ( ( ( ( ( ( J J J D C Z Z Z Z C C x x x x x x x Z _ d X X X @ > > > > < ! ! ` ` ` ` ` ` ` ` ` ` ` ` ` ` ` ~ ! ! ! ! ! ! ! ! ! ! ^ ` ` `  ...O.O.p.p.p.C.C.y.O.O.O.O.O.O.O.O.O.O.<.<.a.a.a.Y.d.w w w w 0 4 4 4 4 4 4 = @ @ @ X X @ O X X * * : : * * * * * * * > S S S C h g g a u u u i i i i u u u u u i i g g g g g g C C C D D A A H ! ! ! ! J J ! ! ! ! ! ! ! ( ' ( ( ( ' ' ( ( ( { | | ..<.<.<.4.4.4.4.4.4.4.4.4.3.>.>.<.<.3.3.3.2.,.,.>...| | [ ( ( ( ( ( J G H x * *     # 8 8 8 8 8 , * * J ( ( ( ( ( ( Y Y J A A A A v x x x g d d d d d d d d d d d d d d d d d d d d d d d d d x x x Z A A A A A A A A A G G G G G G U Y Y Y Y G G A A v v & X X X X X @ & , 4 4 4 9 9 9 9 0 9 0 9 i d d d d d d d d d d d d d d d d d d d d d d x x x x x x x x x x x Z Z Z Z A A J J J J J J J G G G G A A A A _ 6.l 6 6 6 6 6 ; = & @ X X X X X X X X X X X X X X X X X X X X X > Z ......` ~ J C C C C h f a a g g g g g g g g g g g g g g g g g a a g g g g g g g g g g g g g g ",
"g g g g g g g x x x x x C Z Z Z Z Z Z Z Z Z Z Z Z Z Z S S J J J ~ ~ ( ( ( ~ ~ ( ( ( ( ~ ~ ! J H Z Z Z Z Z Z Z C x x g g g x x x x Y g X X X % > > > > p ! ~ ` ` ` ` ` ` ` ` ` ` { ` ` ` ` ` ~ ! ! ! ! ! ! ! ! ! ^ ` ` `  ...O.O.p.p.n.a.O...O.O.O.O.O.O.O.O.<.<.<.y.i.i.i.Y.h.w w w w w 4 4 4 4 4 4 4 % o o X X X X X X % * * * : : * * * * u ( ( ! S S S S S S x g a a a a u u u i i i i u a g g g g g C C C Z D D D D J J ! J ! ! ! ! ! ! ! J J ( ( ( ' ' ' ' ( ( ' ' ......>.<.<.3.4.4.4.4.4.4.4.4.4.4.4.4.4.u.u.4.4.,.,.,.,...| } ( ( ( ( ( ( U J 7 * *     4 8 8 8 8 7 * * 3 ( ( ( ( J J U Y ( A A A A A x x x x x d d d d d d d d d d d d d d d d d d d d d d d d d x x x A A A A A A A A A G G G G G G G Y Y Y Y U G G G A Z v * X X X X X @ & 1 4 4 7 0 9 9 9 0 0 0 i d d d d d d d d d d d d d d d d d d d d d k x x x x x x x x x x x v v v Z Z Z A A J J J J J J J J G A A A A A *.*.6 6 6 6 6 6 - = & & = = = = = = & & & @ O X X X X X X X @ g ` ......` S C C C C g a a a a a g g g g g g a u a a a g g g g g g g g a u u p a g g g g g g g g g g ",
"g g g g g g g x x x x x Z Z Z Z Z Z Z Z Z Z Z Z Z Z Z Z S S J J J ~ ( ( ( ( ~ ~ ( ( ( ! J J S Z Z Z Z Z Z Z C x x x x x g g x x x x g X X X % > > > y ! ! ` ` ` ` ` ` ` ` ` ........` ` ` ` ` ` ` ^ ` ^ ^ ^ ` ` ` ` ` ` ` ..O.O.p.p.O.O.O.O.O.O.O.O.O.O.<.<.<.<.<.i.i.i.i.Y.x.w w w w w 8 4 4 4 4 4 4 4 @ o X X X X X X @ * * * : * * * * C ` ( ( ( S S S S S S x x g a i a i i u i i i i u a g g g g g x C C C Z D D D D D D A D D J ! ! ! ! ! J ! ( ( ' ' ' ' ( ( ' ' } ..| >.<.<.3.4.4.4.4.4.4.4.4.4.4.5.d.h.h.h.i.4.3.,.,.,.>.| | ( ( ( ( ( ( ( ( * * *   # 8 8 8 8 8 2 * * x ( ( ( A A A A A A A A A A Z x x x x x g d d d d d d d d d d d d d d d d d d d d d d d d x x x Z A A A A A Z Z G G G G G G G P Y Y Y Y U G G G A Z 8 % X X X X X X & , 4 4 9 0 9 9 9 9 i d d d d d d d d d d k x x x x x x k d d d d x x x x x x x x x x x x v v v Z Z Z Z A A G J J J J J J J J J J G G U 6.z 6 6 6 6 6 6 - = & & = & = = = = = = & & O O O O O u g ( ........{ ! C C C C g g g g a a g a g g g g g g u u u u u u a g g g g g g u u u u u u p a g g g g g g g ",
"i g g g g g g g x x x C Z Z Z Z Z Z Z Z Z Z Z Z Z Z Z Z Z S S H J J ! ( ~ ~ ~ ~ ( ( ~ J S C C Z Z Z Z Z Z Z x x x x x x C g g g x x g X X X > > > 3 ! ! ~ ` `  . .....................` ` ` ` ` ` ` ` ` ` ` ` ` ` ` ` ` `  .O.O.O... .....O.O.O.....O.<.<.<.<.<.y.i.i.i.i.Y.d.c e w w w w 4 4 4 4 4 4 4 4 o o o X X X X @ * * * : : * a ~ ` ' ( ( ( J S S S S S C x x x a i i i u u i i i i u g g g g g g x C C C S D D D D D D D D D J ! ! ! ! ! ! ( ( ( ' ( ( ( ( ' ' | | | >.>.<.3.4.4.4.4.4.4.4.4.4.u.h.g.h.h.h.i.4.3.>.,.,.>.| ..{ ( ( ( ( ( ' Z * * %   4 8 8 8 8 8 * * * J ( ( ( A Z A A J ( J J A A x x x x x x x d d d d d d d d d d d d d d d d d d d d d d d d x x x v A A A A A Z Z G G G G G G G P Y Y Y Y U G G G A x 8 # X o X X X X & , 4 7 9 9 9 9 i d d d d d d d d d d x x x x x x x x x x x x x x x x x x v x x x x x v Z Z Z Z Z Z Z A A G J J J J J J J J J J J J J U *.e 6 6 6 6 6 6 = = & & & & & & = ; 4 4 = & # O @ O O , C ` ......{ S C C C h g g g g g g g g g g g a g g u u u u u u a g g g g g a u u u u u u u u u a g g g g g g ",
"i g g g g g g x x x C Z Z Z Z Z Z Z Z Z Z Z Z Z Z Z Z Z Z Z S S S J J ! ~ ~ ~ ~ ( ! J Z C C x x x x C C C C x x x x x x x g g g g g g X X X > > > y ~ ` ..............................` ` ` ` ` ` ` ` ` ` ` ` ` ` ` `  .{  ...` ` ` ` ` ` O.O.O.O...<.<.<.<.y.u.a.i.i.i.i.C.d.b b k w w w 5 4 4 4 4 4 4 4 & o o O X X X % * * * * , ^ O.O.O.O.' ( ( ( S S S S S C x x x x a i i u u i i i i u a g g g g g g x C C C D D D D D D D D D D H ! ! ! ! ! ! ( ( ( ( ' ( [ { | | | | >.>.>.<.4.4.4.4.4.4.4.4.u.h.h.a.a.h.h.i.4.4.<.>.>.>.....| [ ( ( _ } | u * * @ @ 7 8 8 8 8 4 * * 2 ( ( ( ( ( ( ( [ [ [ [ J A A x x x x x x x d d d d d d d d d d d d d d d d d d d d d d d d x x x x A A A A Z Z A G G G G G G G Y Y Y Y Y G G G G G k 8 = o o X X X X & , 2 7 9 9 9 u d d d d d d d d d k x x x x x x x x x x x x x x x x x v Z Z v Z Z Z Z Z Z Z Z Z Z A A A J J J J J J J J J J J J J J J _ E e 6 6 6 6 6 6 = = & & & & & = ; ; 4 ; ; = & # @ @ O O h J ..{ ( Z C C C g g g g g g g g g g g g g g g p u u u u u p g g g g g a u u u u u u u u u u u u u p a g g ",
"a a g g g x x x x x C Z Z Z Z Z Z Z Z Z Z Z Z Z Z Z Z Z Z Z Z S S S J J J ! ( ( ! D Z Z C x x x x x x x x x x x x x x x g g g g g g g X X X % > > > p ` h.n.x.i.X................... .` ` ` ` ` ` ` ` ` ` ` ` ` ` ` `  . . .` ` ` ` ` ` ` O.O.O.O.O.<.<.<.u.a.a.a.a.a.i.i.M.m.b b b k w w 0 4 4 4 4 4 4 = & X X @ @ @ @ : : : * y O.O.O.O.O...( ( ( ( ! S S S S C x x x x g a u u i i i i i i i a g g g g g g x C C C S D D D D D D D D D D J ! ! ! ! / ( ( ( ( | | | | | | | >.,.,.,.4.4.4.4.4.4.4.u.h.h.h.h.h.h.h.u.4.4.3.<.<.<.......| | } | | | , * * * * 8 6 6 6 7 * * * i ( [ [ [ [ [ [ [ [ [ ( J A A x x x x x x x g d d d g g x x d d d d d d d d d d d d d d d d x x x x A A A A A A G G G G G G G U Y Y Y Y Y G G G G G 0 8 = o o o X X X & , 2 9 9 9 9 d d d d d d d d k x x x x x x x x x x x x x x x x x v Z Z Z Z v v Z Z Z Z v Z A A A A G J J J J J J J J J J J J J J J J *.m e w w e e w 6 = = & & & & & = ; ; ; - - - = & O O O O , C Z C C S C C h a g g g g a g g g g g g g g u u u u u u a g g g g a u u u u u u u u u u u u u u u u u a g ",
"g g g g x x x x g C Z Z Z Z Z Z Z Z Z Z Z Z Z Z Z Z Z Z Z Z Z Z S S S J J J J J D Z Z C x x g g g x x x x x x x x x g g g g g g a a u % X X X > > > , h ~ n.n.n.u.<.................` ` ` ` ` ` ` ` ` ` ` ` ` ` ` ` ` ` ` ` ` ` ` ` ` ` ` O.O.O.O.<.<.y.i.i.a.a.a.a.i.i.i.M.Y.b b b b w w 0 4 4 4 4 4 = = % X X @ @ @ > : : : f O.O.O.O.O.O.` ( ( ( ( ( S S S S Z x x x x x g u i i i i i i i i i a g g g g g g g C C C C C Z Z S D D A D D D J J ! ! ! / ( ( ( | | | | | | | >.,.,.,.3.4.4.4.4.4.4.i.h.a.a.h.h.h.h.4.4.4.4.<.<.>.>...>.>.>.>.>.>._ * * * * , 8 6 6 8 * * * * Z ( { [ [ [ [ [ [ [ [ / J A A v x x x x x x x x x x x x x x d d d d d d d d d d d d d d d d x x x v A A A A A G G G G G G G G U Y Y Y Y Y G G G G G 8 8 = o o o o X X % , 4 9 0 9 i d d d d d d x x x x x x x x x x v v v v v v Z Z Z v Z Z Z Z Z Z A A A A A A A A A G J J J J J J J J J J J J J J J J J U 6.r e e e e e e e ; = & & & & & & ; ; ; 4 - - 4 - % + O + O h Z S C S C C g a g g g g a a g g g g g g u u u u u u a g g g a u u u u u u u u u u u u u u u u u u u u a ",
"g g g g x x x x C Z Z Z Z Z Z Z Z Z Z Z Z Z Z Z Z Z Z Z Z Z Z Z Z S S S J J S S Z Z x x g g g g g g g g g g g g g g g g a a a u u u u % X X X % > > > f h ` n.n.n.y.y...............` ` ` ` ` ` ` ` ` ` ` ` ` ` ` ` ` ` ` ` ` ` ` ` ` ` ` O.O.O.<.<.y.a.i.i.i.i.i.i.i.i.i.m.Y.K b b b w w w 4 4 4 4 - = = X X X X @ : : : : 7 O.O.O.O.O.O.{ ` ` ( ` ( ( ( S S S S x x x x x g g i i i i i i i i i i i a g g g g g g g C C C C C C C C C Z S D D H J ! ! ! / ( ( { | | | | | | >.<.<.<.3.4.4.4.4.4.4.h.h.h.a.h.h.h.u.4.4.4.4.<.<.,.>.>.<.,.,.,.,.>.d 2 * * * 7 8 6 6 , * * * * A ( ' [ [ [ [ [ [ [ ( J H A A Z x x x x x x x x x x x x x x g d d d d d d d d d d d d d d d x x x Z A A A A G G G G G G G G G Y Y Y Y U G G G G G G 8 8 = @ o X X X X # , 7 9 9 9 d d d d d x x x x x x x x x v Z Z Z Z v v Z Z Z v Z Z A A A A A A A A A A A A G G J J J J J J J J J J J J J J J J J J J _ #.e e e e e e e e w = = = & & = = = ; 4 4 4 4 4 4 - @ O + O , C C C C C C a a a a g g a a g g g g g u u u u u u u g g p u u u u u u u u u u u u u u u u u u u u u u u ",
"g g g x x x x x C Z Z Z Z Z Z Z Z Z Z Z Z Z Z Z Z Z Z Z Z Z Z Z Z S S S S S S Z C x x g g g g g g g g g g g g g a a a u u u u u u u u % X X X X > > > p h h y.n.n.h.y.y............. .` ` ` ` ` ` ` ` ` ` ` ` ` ` ` ` ~ ! ! ! ^ ` ` ` ` ` O.O.O.<.<.a.a.i.i.u.<.y.i.i.i.i.h.Y.[ b b b w w w 8 4 4 4 = = * X X X @ * * : : : ` O.O.O.O.O...` ` ` ` ` ( ( ( ~ S S S C x x x x g x g i i i u i i u i i i i i i a a g g g g g g g a g g g x x C Z D D D H J ! ! ( ( ' | | | | | | >.<.<.<.<.4.4.4.4.4.4.h.h.h.h.h.h.i.4.4.4.4.4.3.,.,.,.>.>.,.,.,.3.A d , * * > 8 8 8 6 , * * * * x S J [ [ [ [ [ [ ( J J A A A A Z x x x x x x x x x x x x x x d d d d d d d d d d d d d d g x x x A A A G G G G G G G G G G U Y Y Y U G G G Y _ U G 7 8 = @ o o X X X # = 7 9 9 0 d d d x x x x x x x x x x Z Z Z Z Z v v Z Z Z A A A A A A A A A A A A G G J J J U U Y U J J J J J J J J J J J J J J J J #.T e e e e e e e e q 6 - = = = = = = - 4 4 4 4 4 4 4 * O + O O h C C C C g a g g a a g a a g g g g u u u u u u u u a u u u u u u u u u u u u u u u u u u u u u u u u u ",
"g g g x x x x C Z Z Z Z Z Z Z Z Z Z Z Z Z Z Z Z Z Z Z Z Z Z Z Z Z Z S S S Z C x x x g g a a u u u a a a a a a u u u u u u u u u u u u % X X X X % > > t f h j n.n.n.i.y.3.X...........{ ` ` ` ` ` ` ` ` ` ` ` ` ` ~ ! ! ! ! ! ! ` ` ` ` ` O.O.<.<.y.a.a.a.y.<.<.<.<.i.a.a.a.Y.,.b b c w w w 8 4 4 - = = & X X X % * : : * * O.O.O.O.O.O.' ` ( ( ( ` ` ` ` ` ( S S C x x x x x x x g a a a a u u i i i i u u i i i i u u i i i i i i i i a a x H / D D D H J ! ( ( { ......| | >.<.<.<.<.3.4.4.4.4.4.h.h.h.h.h.h.4.4.4.4.4.4.4.<.<.<.<.<.,.,.3.4.d i * * * , 8 8 8 8 , * * * * * * , x | [ [ [ [ U J J A Z Z Z A Z x x x x x x x x x x x x x d d d d d d d d Z d d d d d g x x v A A Z G G G G G G G G G G Y Y Y U G G U _ _ _ G G 6 8 = # X o X X o # * 7 9 9 i d d x x x x x x x x x x v v Z Z Z Z Z Z A A A A A A A A G G J J J J J J J J J U / / ( ( Y U J J J J J J J J J J J J J J *.m e e e e e e e q 6 6 4 $ $ = = = = = 4 4 4 4 4 4 1 - O O O O 7 C Z C C f g g g g g g g g g g a p u u u u u u u u u u u u u u u u u u u u u u u u u u u u u u u u u u ",
"g g g x g x C Z Z Z Z Z Z Z Z Z Z Z Z Z Z C Z Z Z Z Z x C Z Z Z Z Z Z Z C x x x x g i a u u u u u u u u u u u u u u u u 9 u u u u u u X X X X X X > > , f f h O.n.n.n.y.y.3.............` ` ` ` ` ` ` ` ` ` ` ~ ! ! ! ! ~ ! ! ! ^ ` ` `  .O.O.<.<.y.i.i.y.<.<.<.<.<.<.i.a.a.m.d.b b c w w w 8 4 4 = = = * X X X * * : : : : O.O.O.O.O...` ` ( ( ( ( ` ` ` ( ` ( J S x x x x x x x x g a p p i u i i i i u u i i i u u u i i i i i a Z U ' ......| D D D D D J ! ( [ | | ....| ,.<.<.<.<.<.4.4.4.4.4.i.h.h.h.h.u.4.4.4.4.4.4.4.3.<.<.<.<.3.4.4.>.d 0 * * * 7 8 8 8 8 , * * * * * * * Z <.>.[ [ ( J U G A Z Z Z A A Z x x x x x x x x x x x x d d d d d d d d A x d d d d g x x A A A Z A G G G G G G G G U Y Y U G G G _ _ _ _ G G i 8 = & X X X o o @ & 7 9 9 i d k x x x v x x x x x v v v Z Z Z Z A A A G J J J J J J J J J J J J J J J J U U / / ( ( Y Y U U U J J J J J J J J J J U 6.l e e e e e e q 6 6 6 = $ & & = = = = - 4 4 4 ; 4 - - O O O O @ C Z C C g g g g g g g g g a u u u u u u u u u u u u u u u u u u u u u u u u u u u u u u u u u u u u u ",
"g g g x x x x C Z Z Z Z Z Z Z Z Z Z Z C x x x x C Z C x x C C Z Z Z C x x x g g g a u u u u u u u u u u u u u u u u u 9 9 9 u u u u u X X X X X X @ > > f f f j n.n.n.y.y.y.<...........` ` ` ` ` ` ` ` ` ..` ! ! ! ! ! ~ ~ ! ! ~ ` ` ` ..O.<.<.<.<.y.<.<.<.<.<.<.<.<.<.i.i.a.m.b b b w w w 8 4 4 = = = * X X @ * * * : * * O.O.O.O.O.' ` ( ( ( ( ` ` ` ( ( ( ( ` ( J D C g x x x x x g a i i i i u i i u i i i i i i u i i u a x / / [ { { ..' H A D D D D D J ( ' | | | | | ,.,.<.,.,.>.4.4.4.4.4.4.i.h.h.i.4.4.4.4.4.4.4.4.4.3.3.3.4.4.4.4.| d 2 * * * 8 8 8 8 8 2 * * * * * * d <.<.>.[ ( J J J A A A A A A A A Z x x x x x x x x x x x g d d d d d d d A Z d d d d g x Z A A A A A A G G G G G G K Y Y Y G G G J _ _ _ _ G G k 8 = = X X X X X @ & , 9 9 d d x x x v Z v v Z Z Z Z v Z Z A A A A A J J J U U U J J J J J J J U ( ( U U Y Y / / ( ( Y Y ( ( Y U U J J J J J J J J _ *.e e e e e e w 6 6 4 = & & & & & & = = = 4 ; ; ; - - - @ O O O + g C C h g g g a g a p u u u u u u u u u u u u u u u u u u u u u u u u u u u u u u u u u u u u u u u u ",
"g g g g x x x x C C Z Z Z Z Z Z Z Z C x x x x x x C C x x x x C C x x x g g g g a u u u u u u u u u u u u u u u u u 9 9 9 9 u u u u u X X X X X X X > > p f f f y.n.n.u.y.y.y.<.........` ` ` ` ` ` ` ` ....! ! ! ! ~ ~ ~ ~ ! ! ! ` ` ` ..<.<.<.<.<.<.<.<.<.<.<.<.<.<.<.y.i.i.n.b b b k w w 8 4 4 = = = = X X @ * * * : * * C O.O.O...` ( ( ( ( ( ` ` ` ( ( ( ( ` ( ( ( ` ` J C x x x x x g i i i i u u i i i i i i i i i i a g x x x x x x x x x S D D D D D J ! ( } | | | | ,.,.,.,.,.>.<.2.3.4.4.4.4.4.4.4.4.4.4.4.4.4.4.4.4.4.4.4.4.4.4.4.3.0 * * * , 8 8 8 8 8 4 * * * * * 9 <.<.<.X.[ ( J J J A A A A A A A A A v x x x x x x x x x x g d d d d d d d Z A d d d d d x v A A A A A A G G G G G G Y Y Y G G G G U _ _ _ Y G G x 5 = = X X X X X @ & & 9 9 d x x x v Z Z Z v Z Z Z Z v A A A A A A J J J U ( ( ( U U J J J U U U ( ( ( ( Y Y / ( ( Y Y Y ( ( Y Y Y U U J J J J J J #.@.e e e e e e 6 6 6 4 = & & & & & = = = = - ; ; ; ; - - % O O O O 3 C C g g g a u u u u u u u u u u u u u u u u u u u u u u u u u u u u u u u u u u u u u u u u u u u u ",
"g g g g g x x x x x x x C C C C C C x x x g g x x x x x x x x x x x x g g g g a u u u u u u u u u u u 9 9 9 9 u u 9 9 9 9 9 u u a a u X X X X X X X * > p h h h ! n.n.a.y.y.y.y.<.......` ` ` ` ` ` ` ....~ ! ! ! ~ ! ! ~ ! ! ! ~ ` ` ` >.<.<.<.<.<.<.<.<.<.<.<.<.<.<.<.<.u.i.i.F b b l w w 8 4 1 = = = * X o @ * * * * * : y O.O.O.{ ` ` ` ` ` ( ( ! a y y C X.3.y.y.>.>...' ` ! x x x x x g g i u u u i i i u i i i i u u u u i a g x g g g x x x Z D A A A D ! ( [ | | | | >.>.>.,.,.,.,.,.,.<.3.4.4.4.4.4.4.4.4.4.4.4.4.4.4.4.4.4.4.4.4.4.4.* * * * 4 6 8 8 8 8 7 * * * * , <.<.<.<.[ [ ( J J J J A A A A A A A A A v x x x x x x x x x g d d d d d d d Z A x d d d d g x v A A A A A G G G G G G Y Y U G G G G Y _ _ _ U G G b 4 = = X X X X X # & & 4 9 d x x x v Z Z Z Z Z Z Z A A A A A A G J J J J U ( ( ( ( ( U ( ( ( Y Y ( ( ( ( ( Y U ( ( _ ( ( ( ( ( ( ( ( ( U J J J J J 6.L e e e e e q 6 6 6 5 4 = # = = & = = = & = - ; 4 4 ; ; % O O O O % C C g g g u u u u u u u u u u u u u u u u u u u u u u u u u u u u u u u u u u u u u u u u u u u u u ",
"g g g g g x x x x x x x x x x x x x x x g g i a g x x x x x x x x x x g g g a u u u u u u u 9 9 9 9 9 9 9 9 9 9 9 9 9 9 9 u u a g g u X X X X X X X * > y h h h j n.n.h.y.y.y.y.y.<.....` ` ` ` ` ` ....` ~ ! ! ! ~ ! ! ~ ~ ! ! ` ` ` O.<.<.<.<.<.<.<.<.<.<.<.<.<.<.<.<.<.<.i.i.[ b b b w w 8 4 - = = = % X o % * * * * * * 3 O.O.O.` ` ` ` ` ` ( ( u y y y y 3.u.u.u.u.u.u.u.y...` D x x x x x g g a u i i i i i i i i i i u u i i i a x x x x x x x Z D D D A J ! ' | | | ..>.>.>.,.,.,.,.,.>.,.,.>.<.3.4.4.4.4.4.4.4.4.4.4.4.4.4.4.4.4.4.4.4.* * * * 4 6 8 8 8 8 8 * * * * X.<.<.<.>.[ [ / J J J J A A A A A A A A A A x x x x x x x x x d d d d d d d d v A x d d d d d x x Z A A A G G G G G G K Y Y G G G G G _ _ _ _ G G G k 4 = = @ o o X X # & & 4 9 d x x v v Z Z Z Z A A A A A A A A G J J J J J / ( ( ( Y ( ( ( ( ( Y Y ( ( ( ( ( ( ( ( ( ( ( ( ( ( ( ( ( ( ( ( Y U J J Y 6.V l e e e e 6 6 6 6 5 5 - # & & & & & & & & - ; 4 4 4 ; % O O O O O C h g g a u u u u u u u u u u u u u u u u u u u u u u u u u u u u u u u u u u u u u u u u u u u i a ",
"a i a i g g g g g g g g x x x x x x g g g g g g g g g g x x x x x x g g g a u u u u u 9 9 9 9 9 9 9 9 9 9 9 9 9 9 9 9 9 9 u u g g g u X X X X X X X % > 3 h h h h p.n.n.3.3.y.y.y.<.....` ` ` ` `  ...` ~ ~ ! ! ! ! ! ! ! ! ! ~ ` ` O.<.<.O.......................X.>.<.<.<.y.i.3.b b b k w 8 4 - = = * X o o % * * * * : : : O.O.O.' ( ` ( ` ` ( C y y y y y g u.u.u.C./.n.u.u.u.3.` ( Z x x x x x x g g a i i u u u u i i i i u i i u g x x x x x x x D D D D J ! ( { | | ..>.<.<.<.<.,.<.>.>.,.,.<.<.>.<.2.4.4.4.4.4.4.4.4.4.4.4.4.4.4.4.4.4.* * * * 4 6 6 8 6 6 8 * * * J 3.<.<.<.| [ [ ( J U U U U A A A A A A A A A Z x x x x x x x x d d d d d d d x v A Z d d d d d d x x A A A G G G G G G U Y U G G G G U _ _ _ Y G G G 0 1 = = @ X o X o # & & 4 0 d x x v v v v Z A G G A A A A A G J U ( ( U U U U U U ( ( Y Y U U ( ( ( ( ( ( ( ( ( ( ( ( ( ( ( ( ( ( ( ( Y Y Y Y ( U #.*.V l e e e w 6 6 6 5 5 5 5 = = # = = = = & & = 4 4 4 ; ; % O O O O O g g g g a u u u u u u u u u u u u u u u u u u u u u u u u u u u u u u u u u u u u u u u u u a g g g ",
"g i i i g g g g g g g g g g g d g g g g g g g g g g g g g g g g g g g d g a u u u u 9 9 9 9 9 9 9 9 9 9 9 9 9 9 9 9 9 9 u u a g g x 9 X X X X X X X % > , h h h h O.n.n.3.3.3.y.y.O...{ ` ` ` ` ` .. .! ~ ~ ! ! ! ! ! ! ! ! ~ ` ` ..<.<.<.............................X.<.<.<.i.i.A b b l w 8 4 = = = % @ o o % * * * * : : : ..O.O...( ( ( ( ( ( u y y y y y y ( u.u./././.R.h.u.u.u.X.( H x x x x x x x x g a i u u u i i i i i i i u g x x x x x x x D D D D J ! ( ' | | X.>.<.<.<.<.<.<.>.>.,.,.<.<.>.>.,.,.<.3.3.3.3.<.4.4.4.4.4.4.4.4.4.4.* * * * 4 6 6 8 8 6 7 * * i 3.3.<.<.<.[ [ [ ' J U U U U J Z Z Z Z A A A A A v x x x x x x x x g d d d g x x v A A x g d d d d d x v A A G G G G G G Y Y G G A G G Y _ _ _ U G G G 8 - = = @ X o o o # & & 7 0 d x x v v v A A A G G A A A A G J U ( ( ( ( U U U U U Y Y U U U ( ( ( ( ( ( ( ( ( ( _ [ [ _ ( ( ( ( ( ( ( ( Y Y Y ( ( *.E V n e e e w 6 6 6 5 5 5 5 - = = = = = = & & = 4 4 4 ; - O O O O O O p g g g a u u u u u u u u u u u u u u u u u u u u u u u u u u u u u u u u u u u u u u u a g g g g g ",
"g g i i i i g g g g g g g g d d g g g g a a u a i g g g g g i d g g g g g u u u u 9 9 9 7 9 9 9 9 7 9 9 7 7 7 7 9 9 9 9 u u g g g g 7 X X X X X X X O > > h h h h ` n.n.y.y.y.y.y.....` ` ` ` ` ....~ ~ ! ! ! ! ! ! ! ! ! ~ ` `  .<.<.<.................................O.<.<.u.a._ b b k w 8 4 = = = @ X X X % : : * * * * * ` O.O.O.` ` ` ( ( ( y y y y y y y a u.u./././././.m.a.u.u.u.{ ( S x x x x x x x x g a i u u u i i i i i a g x x x x x x x D D D D H ! ( ( { | >.,.,.,.>.>.......>.>.<.<.<.,.,.,.,.,.,.,.>.>.,.3.4.4.4.4.4.4.4.4.4., * * * = 6 6 6 8 8 , * * >.<.<.<.<.<...[ [ [ ( U U J J J A A A A A A A A A Z v x x x x x x x x x x x x x x x A A Z x x x x x x x v A G G G G G G U Y U G A A G G _ _ _ _ G G G 0 8 1 = = @ o o X X # & & 7 0 d x x Z Z Z A A A A A A A A G J J U Y ( ( ( ( ( / U ( ( ( ( ( ( ( ( ( ( ( ( ( ( ( ( [ [ { { { [ ( ( ( ( ( ( U U Y Y _ ,.L V n e e e e 6 5 5 6 6 6 5 4 & & & & & & & & & - ; ; ; % O O O O O O y g g g a u u u u u u u u u u u u u u u u u u u u u u u u u u u u u u u u u u u u u u a g g g g g g ",
"g g g g i i g g g g g g g g i i g g g a u u u u u a i g g g g g g g g g a u u u 9 9 9 9 7 7 9 9 7 7 7 7 7 7 7 7 9 9 9 9 u a g g x x * X X X X X X X O > > f h h h S n.n.u.y.y.y.<.....` ` ` `  ...` ! ! ! ! ! ! ! ! ! ! ~ ` ` ` <.<.<.....................................<.<.y.a.>.b b w w 8 4 = = = O X X X @ : : * * * * * g O.O. .` ( ` ( ( ( y y y y y y y y u.u.m././././././.n.u.u.u.X.` / Z x x x x x x x x g a i i i i i i i g g x x x x x x x S S D D H ! ( ( ' | >.,.,.>.....| | | | | ....>.,.,.,.,.<.<.>.,.>.,.<.4.4.4.4.4.4.4.4.4.7 * * * * 8 6 6 8 7 * * x <.<.<.<.<.<.<.[ [ [ ' J J J J U J A A Z Z A A A A Z Z x x x x x x x x x x x x x x x A A A x x x x x x x Z A G G G G G U Y Y G A A A G G _ _ _ Y G G i 8 8 1 = = @ o X X X # & & 0 u d x v Z Z A A A A G J J J J J J J Y Y ( ( ( ( / / U U ( ( ( ( ( ( ( ( ( ( ( ( ( ( ( { { { { { [ [ ( ( ( ( ( U U Y Y &.K.W V n e e e e w 6 5 6 6 6 6 6 $ $ & & & & & & & = ; ; = @ O O O O O O y g g g a u u u u u u u u u u u u u u u u u u u u u u u u u u u u u u u u u u u u a g g g g g g g g ",
"g g g g g g g g g g g a a u u a a a u u u u u u u u u u a a a u u a a a u u u u u 9 9 9 7 9 7 7 7 7 7 7 7 7 7 7 9 9 9 u u g g g x g * X X X X X X X X : > p h h h h n.n.a.y.y.y.X...{ ` ` ` ` ..` ! ~ ! ! ! ! ! ! ! ! ! ` ` ` <.<.<.O.....................................<.<.<.i.u.b b w w 8 4 = = % X X X @ @ : : * * * * : u ` ` ( ( ( ( ( ( ( y y y y y y y J u.u.a./././././././.Y.a.u.u.y.' ( H S C g x x x x x x g a i i i i a g x x x x x x x C S D D D H ! ! ( [ | >.>.X...| | | | | | | | ....,.,.>.>.<.>.,.,.<.<.<.3.4.4.4.4.4.4.4.4.u * * * * * 8 6 7 , * * >.<.<.<.3.3.<.<.[ [ [ [ ( J J J U U A A Z Z A A A A A Z Z x x x x x x x x x x x x x x Z A A v x x x x v A A A G G G G G Y Y U G A A A G U _ _ _ J G G i 8 8 - = = @ X X X X # & , 9 i d x Z Z A A A A J J J J J J J J U Y Y U ( U U / U U U U U ( ( ( ( ( ( ( ( ( ( ( ( [ [ { { { { [ { [ [ ( ( ( U ( ( ( q.K.;.V n e e e e e w 6 5 6 6 6 6 = = = = = = & & = = = = = @ O O O O O O y g g g a u u u u u u u u u u u u u u u u u u u u u u u u u u u u u u u a a a g g g g g g g g g g g ",
"g g g g g g g g g i u u u u u u u u u u u u u u u u u u u u u u u u u u u u u u u 9 9 9 7 7 7 7 7 7 7 7 7 7 7 7 9 9 9 u a g g g x x X X X X X X X X X : : y h h h h n.n.h.y.y.3.....` ` ` ` .. .~ ~ ~ ! ! ! ! ~ ! ! ! ` ` ` <.<.<.<.......................................<.<.<.u.i.A b w w 5 1 = = @ X X X O @ : : * * * * : < ( ( ( ( ( ( ( ( ( g y y y y y S u.u.u.u.h.R./././././././.m.u.u.u...( J S S Z C x x x x x x g g a a g x x x x x x x x S D D D D H ! ! ( | ....| ........| | | | | | ....>.,.>.>.<.<.,.,.<.<.<.3.4.4.4.4.4.4.4.4.Z * * * * * = 7 = * * 7 <.<.<.<.<.3.<.<.[ [ [ [ ( J J J J U A A A A A A A A A Z A v x x x x x x x x x x x x x Z A A A x x x v A A A G G G G G G Y Y G A A A A G _ _ _ Y G G G b 8 8 - = = @ X X X X # & 4 9 i d x Z Z A A A J J J J J J J J J ( Y Y U ( U U U U U U U U ( ( ( U ( ( ( ( ( ( ( ( [ [ [ { { { { { [ [ _ ( ( ( ( ( ( G.K.;.V n e e e e e e w 6 6 6 6 6 = = = = = = & = = = = = # @ O O O O O O 3 g a p u u u u u u u u u u u u u u u u u u u u u u u u u u u u a d g g g g g g g g g g g g g g g g ",
"g g g g g g i i a u u u u u u u u u u u u u u u u u u u u u u u u u u u u u u 9 9 9 9 9 9 9 7 7 7 7 7 7 7 7 7 7 9 9 9 u i x x x g g X X X X X X X X @ > : t f f h h u.n.h.y.y.O.....` ` ` ....~ ~ ~ ~ ~ ~ ~ ! ! ~ ~ ^ ` ` <.<.<.<.......................................O.<.<.<.u.i._ c w w 4 = = = X @ X X X @ * * * * * * * > ( ( ( ( ( ! J J ( ( u a Z ` y.u.u.u.u...J J h./././././././.R.h.u.u.3.' ( J D D S Z x x x x x x x g g x x g g g x x x D D D D D J ! ( { | | | | ..| | | | | | | | | | | X.<.<.<.>.>.<.>.,.,.,.<.4.4.4.4.4.4.4.4.J * * * * * * * * * * A 3.3.<.<.<.<.<.3.[ [ [ [ [ J J J J J A A A A A A A A A A A A A Z v x x x x x v v v Z A A A A Z v x x A A A A G G G G G G G G G A A A A J _ _ _ J G G G G 0 8 - = = @ X X X X @ & 7 9 i k Z Z A A A J J J J J J J J J U ( U U U U U ( ( ( ( ( ( ( U Y Y ( ( ( ( ( ( ( _ ( [ { { { { { { { [ [ { ( ( ( ( ( ( K.K.;.V z e e e e e e e w 6 6 6 6 = = = = = = = = = = & & @ O O O O O O O * u u u u u u u u u u u u u u u u u u u u u u u u u u u u a g g g g g g g g g g g g g g g g g g g g ",
"d g g g g g i a u u u u u u u u u u u u u u u u u u u u u u u u u u u u 9 9 9 9 9 9 9 9 9 9 7 7 7 7 7 7 7 7 7 7 9 9 9 u g x x x g i X X X X X X X X @ > > 3 f f h h y.n.n.y.y.......` ` ....~ ! ! ~ ~ ~ ~ ~ ! ! ~ ` ` ....<.<.<.O.....................................>.<.<.<.<.y.i.%.c w w 4 = = * @ @ X X X @ * * * * * * * * ( ( ( ( J H H H H X.u.u.u.u.u.u.u...J J D D H { C./././././././.m.u.u.u...` ( J D D D Z x x x x x g g x x g x x x x S D D D D D H ! ( | | | | | | | | | | | | | | | | | ..<.<.<.,.<.<.<.,.>.,.,.4.4.4.4.4.4.4.4.[ * * * * * * * * * * g 3.3.<.<.<.<.<.<.[ [ [ [ [ J J J J A A A A A A A A A A A A A A A A A A A A A A A A A A A A A Z Z Z v A A A A G G G G G G G G A A A A A Y _ _ _ G A x k 7 8 8 - = = @ X X X X @ & 7 9 d v v v A A G J J J J U U U U Y ( ( ( U U U Y ( ( ( ( ( ( ( U Y Y ( ( ( ( ( ( ( ( _ { { { { [ { { { [ [ { ( ( ( ( ( %.K.K.$.V r e e e e e e e e w 6 6 6 = = = = & = = = = = & & @ O O O O O O O O 9 u u u u u u u u u u u u u u u u u u a u u u u u u u g g g g g g g g g g g g g g g g g g g g g g ",
"i i g g g g u u u u u u 9 9 9 9 9 9 9 9 9 9 9 u u u u u u 9 9 9 9 9 9 9 9 9 9 9 9 9 9 9 9 7 7 7 7 7 7 7 7 7 7 7 9 9 9 u d g x x g 7 X X X X X X X X % > > < h h h h 3.n.n.y.y.............~ ~ ! ! ! ! ! ! ! ! ! ` ` ....>.<.<.<...................................O.<.<.<.<.<.<.u.i.3.b w w - = = % @ @ X X X @ * * : * : : * > D ! J H H H H H J H ! { <.>.{ ( J J J J D D D H J u./././././.(././.h.u.u.<.' ( ( H D D D S C x x x x x x x x x x C A A D D D D H ! [ | | { ' ' ' [ { | ..| | | | | | | | >.,.,.,.,.<.<.>.>.,.,.4.4.4.4.4.4.4.4.>.* * * * * * * * * * u >.3.3.<.<.<.<.X.[ [ [ [ ( J J J A A A A A A Z Z A A A A Z Z A A A A A A A A Z Z A A A A A A A Z A A A A A G G G G G G G G A A A A A A _ _ _ U A k k 6 8 8 8 4 = = @ X X o o @ & 7 u d Z v A A G J J U U ( ( ( Y U Y Y ( ( ( U U ( ( ( ( ( ( ( Y U U ( ( ( ( ( ( ( ( ( _ { { [ [ [ [ { { [ { { ' ( _ ( ( [ K.q.L m e e e e e e e e e e 5 6 5 = = & & # & = = & & & & O O O O O O O O O % u u u u u u u u u u u u u u u u u a g g g d a a a g g g g g x Z Z Z Z Z v x g g g g g g g g g g ",
"i i g g g a u u u u u 9 9 9 9 9 9 9 9 9 9 9 9 9 9 9 9 9 9 9 9 9 9 9 9 9 7 9 9 9 9 9 9 9 9 9 7 7 7 7 7 7 7 7 7 7 7 9 9 u d g g g g , X X X X X X X X * > > > h h h h ` n.n.y.<.....X.<...~ ~ ~ ~ ! ! ! ! ! ! ! ( `  ...X.<.<.<.X.............................X.<.<.<.<.<.<.<.<.<.u.i.i.U w w = = = % X @ X X X * * * * @ : : * * H H H H H H H H H J J J H H H H J J J J D D D D J J ' m./././.(./././.C.a.u.u...` ` ( J D D D S C x x x x x x x C D D A A D D D J ( ' ' ( ( ( ( ( ( ( ' { ..| | | | | | | >.,.,.,.,.<.<.<.>.,.,.4.4.4.4.4.u.d.i.4.* * * * * * * * * * u { 3.<.<.<.<.<.[ [ [ [ [ U J J G A A A A Z Z Z Z Z Z A A Z Z A A A A A A A A A Z A A A A A A A A A A A A G G G G G G G G G A A A A A G _ _ _ A k k 0 8 8 8 8 = = = @ X X X o o & 7 i v v v A A J U ( ( ( ( Y ( ( Y Y ( ( ( ( U U ( ( ( ( ( ( ( U U U ( ( ( ( ( ( ( ( ( [ { { [ [ [ [ { { { { { [ ( ( ( ( ( ( ( V r e e e e e e e w e e 6 6 4 = & & & & & & & & & & & O O O O O O O O O O > u u u u u u u u u u u u u u u u a g g g g g g g g g g g x v v v v Z Z Z v x g g g g g g g g g ",
"i g g g g a u u u u 9 9 9 9 9 9 9 9 9 9 9 9 9 9 9 9 9 9 9 9 7 9 7 7 7 7 7 7 7 7 9 7 7 7 7 7 7 7 7 7 7 7 7 7 7 7 7 7 7 9 a g g g g * X X X X X X X X > > > > h h h h ` n.n.u.<...O.y.<.~ ! ! ! ! ! ! ! ! ! ! ~ ` { ....<.<.<.X.............................O.<.<.<.<.<.<.<.<.<.<.i.i.i.A w 8 = = = @ X X X @ @ @ > * O @ * * * * D H H H H H H H H H H H H H H H H H H H H H H H H H H H >.R./././././././.n.u.u.y.' ` ` ( J D D D S x x x x x S D A A D D D D D ( ( ` ` ( ( ( ( ` ( ` ` ( ' { | | | | | | >.<.,.,.,.,.,.,.,.,.,.4.4.4.5.d.d.h.u.4.v > % @ * * * * * * u J <.<.<.<.<.} [ [ [ [ U U U G A A A A A A Z x x x x x A A A A A A A Z Z Z A A A A Z Z Z A A Z A A A A A G G G G G G G G A A A A A A G U _ U x k d 8 8 8 8 - = = = o o o o o o & 8 x v v Z A G J ( ( ( ( Y Y Y Y ( ( ( ( ( ( ( ( ( ( ( Y Y Y ( ( ( Y ( ( ( ( ( ( ( ( ( [ { { { { [ { { { { { [ [ ( ( ( ( ( ( ( l e e e e e e q 0 6 e e q 6 - & & & & & & & & & & = # O O O O O O O O O O O > u u u u u u u u u u u u u u u a g g g g g g g g g g x Z Z Z v Z Z Z Z Z v x g g g g g g g g ",
"i g g g g u u u u u 9 9 9 9 9 9 9 9 9 9 9 9 9 9 9 9 9 9 9 9 7 7 7 7 7 7 7 7 7 9 7 7 7 7 7 7 7 7 7 7 7 7 7 7 7 7 7 7 7 9 u g g g x o X X X X X X X X > > > > h h h j ^ n.n.u.y.O.y.<.( ~ ! ! ! ! ! ! ! ! ~ ~ ` ` ....X.<.<.<...............................O.<.<.<.<.<.<.<.<.<.y.i.i.i.A w = = = = X X X X X @ @ X O O % * * * * Z H H H H H H H H H H H H H H H H H H H H H H H H H H H H ! h./././././././.Y.a.u.u.<.` ` ` ( H D D D S S D D D A A D D D D D ( ( ` ` ` ( ( ( ( ( ` ` ` ( ( ( ' | | | | | ,.<.3.d.h.h.h.d.d.4.3.u.d.d.d.d.d.h.4.3.A * X X * * * * * , u f <.<.<.<.} [ [ [ ( J J U A A A A A A A v x x x x x x x Z A A A A A Z Z A A A A A A Z Z A Z A A A A A G G G G G G G G G A A A A A A G G G A k k 8 8 8 8 8 = = = = o o o X o X & 4 v v v Z A J J U ( ( Y Y Y Y Y ( ( ( ( ( ( ( ( ( ( ( ( ( Y ( / ( ( ( ( ( ( ( ( ( ( ( [ { { [ { [ [ [ { { { [ [ ( ( ( ( ( ( A e e e e e w 0 0 0 6 e e q 6 = & = & & = & & # & & = # O @ O O O O O O O O O O % 9 u u u u u u u u u u u u u a g g g g g g g g g x Z Z Z Z v v Z Z Z Z v v x g g g g g g g ",
"g g g g a u u u u 9 9 9 9 9 9 9 9 9 9 9 7 7 9 9 9 9 7 7 9 9 9 9 7 7 7 7 7 7 7 7 7 7 7 7 7 7 7 7 7 7 7 7 7 7 7 7 7 7 7 7 u g g g g X X X X X X X X @ > > > > p h h S ! n.n.u.y.y.<.~ ~ ~ ! ! ! ! ~ ~ ! ! ~ ` ` ....X.<.<.<.....................................X.>.<.<.<.<.<.<.u.i.i.i.A 8 = = = = @ X X X X X X X * * * * * * * Z H H H H H H H H H H H H H H H H H H H H H H H H H H H H H J { Y./././././././.m.u.u.u.<.' ` ( ! D D D D D D D D D D D D ! ( ( ( ( / J J / / / / / ( ` ( ( ( ( ' | | | X.,.>.h.h.h.h.h.h.h.d.h.h.h.h.h.d.h.h.4.>.A * X X X * * * * , u u <.<.X.[ [ [ [ ( J J J A A A A A Z Z x x x x x x x x x x x Z A A A A Z A A A A A A A A A A A A A A G G G G G G G G G G A A A A A A G G G x k 0 8 8 8 8 4 = = = & X X o X X X % 4 v Z Z A A J J J U U U ( ( Y Y ( ( _ ( ( ( ( ( ( ( ( ( ( U U ( ( ( ( _ ' ( ( ( ( ( ( { [ [ [ [ [ [ { { { { [ [ ( ( ( ( ( Y l e e e e w 0 0 0 0 6 w e w 4 = = = = = = = # # = = = = @ @ O O O O O O O O O O O @ 3 u u u u u u u u u u u u i g g g g g g g g g v Z Z A A A A A A Z Z Z v Z g g g g g g g ",
"g g g g a u u u 9 9 9 9 9 9 9 9 9 9 9 9 7 7 9 9 9 9 7 7 9 9 9 9 7 7 7 7 7 7 7 7 7 9 7 7 7 7 7 7 7 7 7 7 7 7 7 7 7 7 7 7 u a g g i X X X X X X X X % > > > > y h h ! ! n.n.u.y.y.~ ! ~ ~ ~ ~ ! ! ! ~ ~ ~ ` ` ......<.<.<.............................................X.<.<.<.<.u.i.i.i.b = = = = & @ @ X X X X X @ * * * * * * * a H H H H H H H H H H H H H H H H H H H H H H H H H H H H H H ! ( u././././././././.h.u.u.u.y.{ ` ( D D D D D D D H ! ( ` ( ` ( ( J J J J J J J J J J J ( ` ( ( ( ' | | >.>.>.h.h.h.h.i.i.d.h.h.h.h.h.h.h.h.h.4.| A * X X X % * * * * u u ( [ [ [ [ [ ( J J J A A A Z x x x x x x x x x x x x x x x x A A A A Z A A A A A A A A A A A A A A G G G G G G G G G G A A A A A G G G A k i 8 8 8 8 8 = = = = & X X X X X X # , Z Z Z Z A J J J J J U ( ( Y ( ( ( ( ( ( ( ( ( ( ( _ ( Y ( ( ( ( ( _ [ { [ [ [ ( ( ( { [ { { [ [ [ { { { { [ [ ( ( ( ( ( b e e e e q 0 0 0 0 0 6 q e e - = = = = = = = & = = = = = # @ O O O O O O O O O O O O O % 7 u a u u u u u u u u u g g g g g g g g v v Z A A A A A A D A A Z Z Z Z g g g g g g ",
"g g g g u u u u 9 9 9 7 7 , , , 9 9 9 9 9 9 9 9 9 9 9 9 9 9 9 9 7 7 7 7 7 7 7 7 7 7 7 7 7 7 7 7 7 7 7 7 7 7 7 7 7 9 9 9 u u g x 7 X X X X X X X X % > > > > t h h ! ! x.n.u.y...! J J J J ! ~ ! ! ! ! ` ` { ....O.<.<...................................................O.<.<.u.i.i.i.0 = = = = % O X X X X X X % : * * : : : : a H H H H H H H H H H H H H H H H H H H H H H H H H H H D D D J ( ( { m./././././././.n.u.u.u.u...( ( D J ! / ( ( ` ( ' ..( ` ( J J J J J J J J J J J J J ( ` ( ( ' ....<.,.,.d.3.>...........>.<.4.h.h.d.d.h.4.( A * X X X X * * * * u u J [ [ [ [ / J J J A A Z x x x x x x x x x x x x x x x x x x Z A A A A A Z A A A A A A A A A A A A G G G G G G G G G G A Z A A A G G G x i 8 8 8 8 8 8 = = = = # X X o X X o @ & x Z Z Z A J J J U U U / / / ( ( ( ( ( ( ( ( ( ( ( ( ( ( ( ( ( ( ( [ [ { [ [ [ [ [ [ [ [ [ { { { [ { { { { { { ( ( ( ( U e e e e 0 0 0 6 6 0 0 0 0 0 4 = = = = = = = = = = = = = = = @ O O O O O O O O O O O O O O O @ 7 Z g u u u u u u u g g g g g g g x Z Z Z A A A H H D D A A D Z Z Z v g g g g g ",
"i i g a i i u 9 9 9 7 2 , , , , 7 9 9 9 9 7 7 9 9 9 9 9 9 9 9 9 7 7 9 7 7 7 7 7 7 7 7 7 7 7 7 7 7 7 7 7 7 7 7 7 9 9 9 9 9 u i x , X X X X X X X X > > > > 3 t h h ! ! u.n.u.>.J S D S D D ! ~ ! ! ! ` ` { ......<.<.......................................................<.<.u.i.i.a.= = = = = @ O X X @ o X X : : : * : : * : u H H H H H H H H H H H H H H H H H H H H H H H H H H H D D H H ! ( ( ( 3./././.(./././.n.u.u.u.u.' ( ( ( ( ( ( ( ' u.I.c.` ( J J J J J J J J J J J J J J / ` ` ( ' ....,.<.,.>.....................3.i.d.d.i.4...A @ X X X X % * * * u u C [ [ ' J J J G A Z x x x x x x x x x x x x x x x x x x x x Z A A A A Z Z A A A A A A A A Z A A A A A G G G G G G G G Z Z A A A G G A i 8 8 8 8 8 8 8 = = = = @ X X o X X o o & 4 Z Z v A J J U Y U U / / ( ( ( ( ( ( ( ( ( ( ( ( ( ( ( ( ( ( ( ( [ [ { { [ [ [ [ [ [ { { { { [ [ { [ { { [ { [ ( ( U l e e e e w 0 0 6 6 0 6 0 0 6 - = = = = = = # & = = = = = = = & O O O O O O O O O O O O O O O O O * g v a u u u u u g g g g g x Z Z Z Z A A A A H H D D A A D Z Z Z v v x g g g ",
"i i a u u u 9 9 7 2 2 2 , , , , 3 9 9 7 2 , , , 7 9 9 9 9 7 7 7 9 9 9 9 7 7 7 7 7 7 7 7 7 7 7 7 7 7 7 7 7 7 7 7 9 9 9 9 9 u u x * X X X X X X X @ > > > > 3 t f f ! ! u.n.y.! D D D D D D ! ! ! ! ( ` ` ......<.O...........................................................<.u.a.a.<.= = = = = O X X X @ @ @ O : * * * * * * * u H H H H H H H H H H H H H H H H H H H H H H H H H H H D D J ! ( ( ( ( ( ' m././.(./././.n.u.u.u.<.` ` ` ` ( ( ( c.I.I...( J J J J J J J J J J J J J J J J ` ` ( { | >.,.,.>.X.{ { { { { ' ' ' ....>.4.4.4.4.4.>.[ X X X X X X * * * 7 u a [ ( J J J G Z x x x x x x x x x x x x x x x x x x x x x x Z A A x x Z A A A A Z Z A Z Z A Z A A A A A A A G G G G A Z A A A A A v 8 8 8 8 8 8 8 8 8 = = = = @ X o o X o X o % & i Z Z A J U ( ( ( ( ( Y / ( ( ( ( ( ( ( ( ( ( ( _ ( ( ( ( ( ( _ { { { { { { { { { [ { { { { [ | >.5.u.,.| [ [ U A b e e e e e e e w 6 6 6 6 0 0 0 = = = = = & & = ; = = & & = & = = % O O O O O O O O O O O O O O O O O @ u Z g u u u a g g Z Z Z Z Z Z Z Z A A D D D H A A A A A Z Z Z Z v v Z x g ",
"i a 7 7 2 2 2 , > , 2 , , , , , , 2 2 , , , , , , 7 9 9 9 9 7 7 9 9 9 9 7 7 7 7 7 7 7 7 7 7 7 7 7 7 7 7 7 7 7 7 9 9 9 9 9 u u i @ X X X X X X X @ > > > > t t p f ! ! u.n.` D D D D D D D ! ! ! ~ ` ` ........................................` ( ` ........................O.3.i.a.{ = = = = * X X X X @ @ @ @ * * * * * * * * u H H H H H H H H H H H H H H H H H H H H H H H H H H H J ! ( ( ( ( ( ( ( ( ( h.%X&X#X(././.a.u.u.u.` ` ` ` ( ( 4.I.I.c.( / J J J J J J J J J J J J J J J / ( ( ' | ..>.>...| { ' ( ( ( ( ( ( ( ' ....>.3.3.3.>.....X X X X X X * * * 4 u u ( J J J Z x x x x x x x x x x x x x x x x Z Z Z Z x x x x A A A x g v A A A Z Z Z Z Z Z Z Z A A A A A A A A Z A A A Z Z A A A i 8 8 8 8 8 8 8 8 8 8 - = = = X X o o o o X X @ & & d Z A J U ( ( ( ( ( Y ( ( ( ( ( ( ( ( ( ( ( ( ( ( ( ( ( ( ( [ [ { { { { { { { { { { { { { 3.c.m.m.m.m.c._ b b b c e e e e e e e e w 6 6 6 0 0 5 = & = = = & & - ; ; = & & & & = = & @ O O O O O O O O O O O O O O O O O O , Z v g g g g Z v v Z Z Z Z Z Z A A A D A A A A A A A Z Z Z Z v v Z g g ",
"7 @ O O O O O O O O O O @ @ % * * > , , , , , , , , 7 9 9 9 9 9 9 9 9 9 9 9 9 7 7 7 7 7 7 7 7 7 7 7 7 7 7 7 7 7 9 9 7 7 7 u u u X X X X X X X X X > > > > t t y f j ! p.n.S S S D D D D J ~ ! ! ` ` ` ....................................{ ~ ~ ~ ~ ` ........................<.i.i.v = = = = % X X X X @ @ @ @ @ * : : : : : * a H H H H H H H H H H H H H H H H H H H H H D J J J ! ! ( ( ( ( ( ( ( ( ( ( ( ( m.<X<X<X}./.C.u.u.u.( ` ` ` ( ' M.I.I...( J J J J J J J J J J J J J J J J ( ( ( | | | | ....[ ' ( ( ` ` ` ` ` ( ( ' ........X.X.....X X X X X X @ * * , u u H J J x x x x x g a u a x x x x x x x x x Z A A A A A A A A A A x g x A A A Z x x g g x x x a u 9 9 7 x v Z Z Z A A Z Z Z v 6 8 8 8 8 8 8 8 8 8 8 8 4 = = = X X o o X X X o X % & * x Z J J U ( ( ( Y Y Y ( ( ( ( ( ( ( ( ( ( ( ( [ { { [ [ [ { { { { [ [ [ [ [ { { { [ [ [ m.m.m.m.x.u.>.b b b b c e e e e e e e e e w 0 6 6 6 = = # # = = = = ; ; ; ; - - ; 4 ; = & & @ O O O @ @ O O O O O O O O O O O O O % g Z Z Z Z Z v v Z Z v v Z Z A A A A D D D A A A H A A A A A S x g a ",
"O O O O O O O O O O O O O O O O O O O O O @ % > , , , 2 7 9 9 9 7 9 9 9 9 9 7 7 7 7 7 7 7 7 7 7 7 7 7 7 7 7 7 7 7 9 9 9 9 9 9 9 X X X X X X X X X > > > > t t t h h ! p.n.S S S D D D D J ~ ! ~ ` ` .................................... .~ ~ ~ ~ ~ ~ ........................X.3.i.4 = = = = % @ X X X @ @ @ o X @ : : : : * * a D H H H H H H H H H H H H H H J J / ( ( ( ( ( ( ( ( ( ( ( ( ( ( ( ( ( ( ( ( ( ( <.%X<X%X/./.u.u.u.( ( ` ` ( 3.I.I.d.( J J J J J J J J J J J J J J J J J ( ( ' | { { ' ' ` ` ` ( ( ` ` ` ` ( ( ( ( { ......X.X.....X X X X X X X * * * 7 u x A x x x x g u u u u a x x x x x x x x x x A A A A A A A A A A v g x Z v x g g g g g a 9 7 7 7 7 * X X X 4 7 0 x A Z Z d 8 8 8 8 8 8 8 8 8 8 8 8 8 5 = = & X X o o X X X o X o & & = x G J J U Y ( Y Y Y Y ( ( ( ( ( ( ( ( ( ( ( [ { { [ [ [ { [ { { { [ [ [ [ { { { [ [ [ h.m.3.' J J b b b b b b e e e e e e e e e 0 0 6 6 ; & = & & = = = = ; ; ; ; 4 4 4 4 ; ; = & & @ O @ @ @ O O O O O O O O O O O O O O @ g Z Z Z Z v v v Z v v Z Z A A A A D H D A A A H H A A A A A g 7 7 ",
"O O O O O O O O O O O O O O O O O O O O O O O O @ * , , , 7 9 9 7 9 9 9 9 9 7 7 9 7 7 7 7 7 7 7 7 7 7 7 7 7 7 7 7 7 9 9 9 7 7 7 X X X X X X X X X % > > > 3 t t h f S y.n.! S S D D D D ! ~ ~ ` ` { ....................................~ ~ ~ ~ ~ ~ ~ ~ ..............' ` ......<.{ = = = = = & @ @ X X X X X X X X O @ * * * * a Z H H H H H H H H H H H H J ( ( ( ( ( ( ( ( ( ( ( ( ( ( ( ( ( ( ( ( ( ( ( ( ( ( ( ( x.h.m.C.h.u.<.( ( ( ` ` x.I.I.{ / J J J J J J J J J J J J J J J J / ( ( ( ` ` ( ( ( ( ( ` ( ( ( ` ( ( ( ' ' ' ' ..............X X X X X X X @ * * , u a x x g g u u u u u u a x x x x x x x x x x Z A A A A A Z Z Z Z v g x x g g g g g g 9 7 7 7 7 7 X X X X X X @ 5 8 7 i 6 8 8 8 8 8 8 8 8 8 8 8 8 8 8 8 = = & X X X o X X o o X o @ & & * Z J J J U ( Y Y ( ( ( ( / / ( _ ( ( ( ( ( _ [ { { { { { { { { { { { { { { { { { [ [ { J J J J J b b b b b b e e e e e e e e 0 6 6 6 8 = = = & & & = & & - ; ; ; ; 4 4 4 4 4 ; & & & @ O @ @ O O O O O O O O O O O O O O O O u Z Z Z v v Z Z v Z Z Z A A A A D D D A A A A A A A A Z u 7 7 7 ",
"9 % O O O O O O O O O O O O O O O O O O O O O O O O O % > , 2 7 7 9 9 9 9 9 9 9 9 9 7 7 7 7 7 7 7 7 7 7 7 7 7 7 7 7 7 7 7 7 7 , X X X X X X X X X X > > > < t t f h h j x.( D D D D D D ! ~ ~ ` `  ...................................{ J S S S S J ! ~ ~ ( ` ` ( ~ ~ ~ ~ ~ ` ..X.i = = = = = * @ @ X X X X X X X X X X X @ * , a Z H H H H H H H H H H H H H / ( ( ( ( ( ( ( ( ( ( ( ( ( ( ( ( ( ( ( ( ( ( ( ( ( ( ( ( ( ( d.qXqXu.( ( ` ` ` I.I.d.( J J J J J J J J J J J J J J J J J ( ( ( ( J J J ( ( ( ( ` ( ( ' | ..........X.X...............X X X X X X X X * * * 7 u u u u u u u u u u u a x x x x x x Z A A A Z A A A A A Z Z v x g g g x g g g g a 7 7 7 7 7 < X X X X X X X X X % 5 8 8 8 8 8 8 8 8 8 8 8 8 8 8 8 8 8 - = & X X X X X X o o o o X @ & & , J J J U Y Y Y Y ( ( ( / / ( ( J Z Z J ( ( ( [ { { { { { { { { { { { { { { { { [ [ J J J J J A b b b b b c e e e e e e e 0 0 0 6 6 = = & & & & & = & & & ; ; ; ; ; 4 4 4 4 4 = & & & % @ @ O O O O O O O O O O O O O O O O O 2 Z v v v Z Z Z Z Z Z Z A A A D D D A A A A A A g 9 7 7 7 a G ",
">.>.[ A * O O O O O O O O O O O O O O O O O O O O O O O O @ % * , 7 9 9 9 9 9 9 7 7 7 7 7 7 7 7 7 7 7 7 7 7 7 7 7 7 7 7 7 4 , & X X X X X X X X X X X > > > , % X X X X S ..D D D D D D ! ! ~ ` ` ..................................` S Z Z Z Z S S S S H ! ~ ~ ~ ~ ~ ~ ~ ~ ~ ` ..7 = = = = = = @ O X X X X X X X X X X X @ * 7 a Z H H H H H H H H H H H H H J / ( ( ( ( ( ( ( ( ( ( ( ( ( ( ( ( ( ( ( ( ( ( ( ( ( ( ( ( ( _.qXqXu.' ` ` ' ..I.l.' A A A A A A J J J J J J J J J J J J J J J J J J J / ( ( ( ` ' ......( ( ( ( ( ..X.X.............X X X X X X X X X * * * 7 u u u u u u u u u u g x x x x x x g x x Z Z Z Z A Z Z x g g g g g g g g g g g 7 7 7 7 7 , X X X X X X X X X X X X @ * * * * * & * 4 8 8 8 8 8 8 8 8 5 = & X X X X X X X o o o o X o @ & 0 J J J J J J J J U U A g i u u u u u u u g ( ( [ { [ [ [ [ [ { { { { { { { { ' J J J J J J A b b b b b k e e e e e e w 0 0 0 0 5 = = # & = & & = & = = = 4 4 4 4 ; ; ; ; 4 4 & & & & # @ @ @ O O O O O O O O O O O O O O O O > x Z Z Z Z v v Z Z Z A D D A A A A D A x u 7 7 7 7 g 2.f.f.",
">.>.>.>.&.O O O O O O O O O O O O O O O O O O O O O O O O O O O O @ 7 9 9 9 9 9 7 7 7 7 7 7 7 7 7 7 7 7 7 7 7 7 7 7 7 7 4 * * % X X X X X X X X X X X X X X X X X X X X X 7 g Z D D D D J ! ! ` { ..............................` H Z Z S Z Z Z S S S S S S S J ~ ~ ~ ~ ~ ~ ~ ~ ! = = = = = = = % O X X X X X X X X X X X % : u a Z H H H H H H H H H H H H H H H J D D D D S S ! ( ( ( ( ( ( ( ( ( ( ( ( ( ( ( ( ( ( ( ( ( _.qXqXu.' ' ! S ( c.x g g g g g g g g g g g x x x x C H J J J J J J J J J J ( ( ( ( ( ' S 7 7 7 7 7 7 7 7 7 7 7 u u x S X X X X X X X X X X X X X * , 7 u u u u u u u g x x x x g y 3 3 3 3 3 3 7 7 @ X X X X X X X X X X X X X @ > , > @ X X X X X X X X X X X X X X X @ * * * & * 8 8 8 8 8 8 8 8 8 8 = = X X X X X X o o o o o X X X X o , i a a a a a a i % X X o o o o X X o o X @ 9 Z ( [ { [ [ [ { { { { { { { ' J J J J J J J b b b b b c e e e e e e w 0 0 0 0 6 ; = = # # & & & & & = = = - 4 4 4 ; = ; ; 4 - = = & & & & & & % @ O O O O O O O O O O O O O O O % g Z Z Z v v Z Z Z Z Z A A A A A Z 7 7 7 7 7 7 [ f.f.f.f.",
"[ >.>.>.%.O O O O O O O O O O O O O O O O O O O O O O O O O O O O O O , 9 7 9 9 7 7 7 7 7 7 7 7 7 7 7 7 7 7 7 7 7 7 7 4 * * * % X X X X X X X X X X X X X X X X X X X X X X 9 a a g x C C C x a a Z { ......................( S S S S S S S Z Z Z Z S S S S S S S H ! ! ~ ~ ~ ~ i = = = = = = = & X X X X X @ @ X O X X X * , a a Z H H H H H H H H H H H H H H g 3 < < < < < < < y J ( ( ( ( ( ( ( ( ( ( ( ( ( ( ( ( ( ( ( %.d.v * X X X X O X X X X X X X @ @ @ @ X X X X o o o o @ , 9 d A H J J J Z 3 * * @ @ @ X X X X X X X X % % > 2 7 7 7 4 X X X X X X X X X X X X X X X X X X @ @ @ @ @ % * * X X X X X X X X X X X X X X X X X X X X X X X X X X X X X X X X X X X X X X X X X X X X X X X X * * * * 8 8 8 8 8 8 8 8 8 8 8 5 X X X X o o o o o o o o X X X X o o X @ > 2 2 > o o X X X X o o X X X X X X X X o o 9 U [ [ [ { { { [ { ( J J J J J J H A b b b b b l e e e e e e 0 6 6 6 6 5 ; = = = = & = & & = = = = - 4 ; ; ; - & = = = = = & & & & = = & & & & @ O O O O O O O O O O O O O @ g v v v v Z Z Z Z Z Z i u 7 > O > 7 7 9 g ,.5.5.5.5.d.",
"5 5 5 8 * O O O O O O O O O O O O O O O O O O O O O O O O O O O O O O X > 7 7 7 7 7 7 7 7 7 7 7 7 7 7 7 7 7 7 7 7 7 7 , * * * % X X X X X X X X X X X X X X X X X X X X X X X , i a a a a a a a a a g J ....{ ~ ` ` ( ~ C h C Z S S S S S S Z Z Z S S S S S S S S S S S S S S C , = = = = = = = = X X X O O @ @ @ @ X X X : 7 a a Z H H H H H H H H H H H H S 7 < < < < < < < < < < < J ( ( ( ( ( ( ( ( ( ( ( ( ( H C u > X X X X X X X X X O X X X X X X O @ @ @ @ X X X o o o o o o o o o X X o X X X X X X X X @ X X X X X X X X X X X X @ * 7 % X X X X X X X X X X X X X X X X X X X X X X X X X X X X X X X X X X X X X X X X X X X X X X X X X X X X X X X X X X X X X X X X X X X X X X X X X X X * * * 8 8 8 8 8 8 8 8 8 8 8 8 @ X X X o o o o X X X X X X X o o o o X X X X o o o X X X X X X X X X o o X X X X o o o & g _ { { [ [ U J J J J J A A b b b b b b b k e e l c l e 0 6 6 6 6 ; ; ; = = = = = = = = = = = 4 4 4 4 ; ; = = = = - ; 4 4 ; ; - = & & & & & @ O O O O O O O O O O O O O O 7 g v v Z g a 7 * + O O O O O O * x J U U U U U U U ",
"5 5 4 % @ O O O O O O O O O O O O O O O O @ @ O O O O O O O O O O O O O O , 7 7 7 7 7 7 7 7 7 7 7 7 7 7 7 7 7 7 7 7 , = = = , % X X X X X X X X X X X X X X X X X X X X X X X X X % * * * * % X X X X % 7 y u u u u u u u u u u u p a g C S S S S S S S S S S S Z Z S S S S S 7 = = = = = = = = = @ X X X X X X X X X X X > a a a Z H H H H H H S C a 7 > % X @ * > , < < < < < < < > @ X X X @ > , , , > X X X X X X X O @ X X X X X X o X X X X X @ @ O X X X X X X X X X X X X X X X X X X X X X X X X X X X X X X X X O X X X X @ @ X X X X X X X X X X X X X X X X X X X X X X X X X X X X X X X X X X X X X X X X X X X X X X X X X X X X X X X X X X X X X X X X X X X X X X X X X X X X X X X X o * * * 8 8 8 8 8 8 8 8 8 8 8 8 & X X X X X X o o o X X X X X X X X X X X X o o o X X X X X X o o o X X X X X X o o X X X X o > v ( J J J J A b b b b b b b b b b b l c b b b b k e w w 0 0 4 4 4 ; = & & & & & & & = ; 4 4 0 0 ; ; ; = - 4 ; ; ; ; 4 4 4 4 - = & = = & @ @ O O O O O O O O O O O O O O O O O O O O O O O O O O O O O O O O * , * O O > ",
"5 5 5 5 5 5 4 4 * @ O O O O O O O O O O O O @ O O O O O O O O O O O O O O 7 7 7 7 7 7 7 7 7 7 7 8 w r w 7 7 7 7 7 7 = = = = , % X X X X X X X X X X X X X X X X X X X X X X X X X X X X X X X X X X X X X X X X X X X % @ X X X X X X X X X X X X X X X X * * , u g C S S C 7 = = = = = = = = = = & O O X X X X X X X X O * a a u u u u > > * X o X X o X X X X X X X X X @ % @ @ @ X X X X @ @ @ @ X X X X @ o X X X X @ @ X X X X o X o o X X X X @ @ X X X X X X X X @ O X X X X X X X X X X X X O @ X X X X X X X X @ @ X X X X @ @ X X X X X X X X X X X X X X X X X X X X X X X X X X X X X X X X X X X X X X X X X X X X X X X X X X X X X X X X X X X X X X X X X o @ @ @ @ @ X X X X X X X X % * * * 4 8 8 8 8 8 8 8 8 8 6 0 k s X X X X X X X o o X X X X X X X X X X X X o o X X X X X X X o o o X X X X X X o o X X X X o o o o % i v b b b k 5 4 b b b b b b b b b b b b b b c l l b x s 0 6 4 4 ; = = & = = - 4 4 4 6 k k 0 4 ; ; 4 4 ; ; ; ; 4 4 4 4 ; ; - = = = & @ O O O O O O O O O O O O O O O O O O O O O O O O O O O O O O O O O O O O O O ",
"5 5 5 5 8 8 8 8 8 8 4 = @ O O O O O O O O * * = 7 6 6 6 6 4 * * * O O O * 7 7 7 7 7 7 7 7 7 6 r r r r r r 6 7 7 7 , * * * * * o X X X X X X X X X X X X X X X X X X X X X X X X X X X X X X X X X X X X X X X X X X X X X X X X X X X X X X X X X X X X X X X X X X X > 4 = = = = = = = = = = = = = @ O @ @ X X X X o o @ @ % @ X X X X X X @ O o o o o o @ X X O X @ @ X o X o o X o X X X O O @ O X X X X @ @ X X X o @ O O X @ @ @ @ @ @ @ o X X X @ X X X X X X o o @ @ @ X @ @ X @ o o @ o X @ @ @ @ @ X X X X X @ @ @ O X X X @ @ X X X X o X X X @ , @ X X X X X X X X X X X X X X X X X X X X X X X X @ @ % = = , 8 8 8 8 8 8 8 8 8 8 4 = = @ @ X X X @ = 5 8 6 0 0 0 0 w e e k l l l k e e = * * * * 7 k k k k k k k k k k k k K 4 X X X X X X o o o X o o X o o X o o X o o o X X X X X X X X o o o X o o o o o o o o X X X o X X X X X X X * * * * k b b b b b b b b b b b b b b b b b b k s k k 0 5 ; ; ; ; 4 4 4 8 0 k k k k 0 4 ; 4 4 4 4 ; ; 4 4 ; ; ; ; 4 4 = & & # O O O O O O O O + O O O O O O O O O O O O O O O O O O O O O O O O O O O O % ",
"0 0 6 5 5 8 8 8 8 8 8 8 5 4 % O * 7 k c c c c c c c c c c c c c c c c x d 7 7 7 7 7 7 0 i l r r r z z l r r r w 7 * * * * * & X X X X X X X X X X X X X X X X X X X X X X X X X X X X X X X X X X X X X X X X X X X X X X X X X X X X X X X X X X X X X X X X X X X X X X * = = = = = = = = = = = = & O @ o o X X o o o @ @ @ @ X X X X X O @ X @ @ o o @ X X X O O @ @ X X X X X X X X X X X X @ O X X X X O @ X X X o @ @ X X X @ @ @ @ @ @ o X X O @ X X X X X X o @ @ @ O X @ @ @ @ o @ @ @ X O @ @ @ X X X X X X O @ @ X X X X @ @ @ X X X @ X X * i i i i 7 * X X X X X X X X X X @ @ @ = , , 8 8 8 6 6 6 6 6 6 6 6 6 6 6 6 6 6 6 6 6 6 6 6 6 6 6 6 8 8 6 0 w k z m m K K K K K K K K K K K K K K c 7 8 8 8 0 k k k k k k k k k A K _ X o X X X X o o o X o o o o o o o o X o o o X X X X X X X X o o X X o o o o o o o o X X X X o X X X X X X o & * , G U G A b b b b b b b b b b b b b b b v s k k k k w 0 w 0 w k k k k k k k k k k 0 5 4 ; 4 ; ; 4 4 ; ; ; ; 4 4 ; - = & @ O O O O O O O + + O O O O O O O O O O O O O O O O O O O O O % & = ; 4 4 4 ",
"c c c c c c c l l l l l l l l c c c c c c c c c c c c c c c c c c c c c b K K P P P P I I I B K I I I I P m r r r w , * * = @ X X X X X X X X X X X X X X X X X X X X X X X X X X X X X X X X X X X X X X X X X X X X X X X X X @ # # # % = = = = = = = = = = = & # # # X @ = = = = = = = = = = = = = @ @ @ @ O o o o o o o o o X X @ @ o o X X @ @ O @ @ X O X O O O @ # # @ X X X X @ O X X X X X X @ X X X X o @ @ @ O @ & & % % % & % @ X X O @ O X @ @ @ @ @ @ @ @ O O O O @ X X X X O @ @ @ @ X X @ @ O X X @ @ @ @ @ @ o @ @ @ X @ @ @ @ X X X * i i i i u u i u 0 6 6 6 6 6 6 6 6 6 6 6 6 6 6 6 6 6 6 6 6 6 6 6 6 6 6 6 6 6 6 w l l b m m m m m m m K K K K K K K K K K K K K K K K K K K K K K K K c 0 8 8 8 k k k k k k k c K 5.E._ o X X X X X X X X o o X X X X o o o o X X o o o o o o X o X X X X o o X X X o @ % @ @ o X X o o o o o o X & * A / / / U A b b b b b b b b b b b b b b b l s s s s k k k s s s k k G G G b c k k k s 0 0 0 8 5 5 4 4 4 4 4 ; 4 ; ; 4 = & O O O O O O O O + O O O O O O O O O O O O O O O O O % * - 4 4 4 4 4 4 4 6 ",
"K c c c c c c c c c c c c c c b A A A b b c c c c c c c c c c c c b L P I I I I P P P P I I I I P T T T P P P l r r r 5 = = * % o X X X X X X X X X X @ @ o X X X X X X X X X X X X X X X X X X X X X # # # = = = 4 4 4 8 6 6 6 6 6 6 6 6 6 6 6 6 6 6 6 6 6 6 6 6 6 6 6 6 6 8 4 4 4 8 8 8 4 = = = = = * @ @ X X o X o o & & o o X X @ @ X X X X @ @ @ # & = ; ; 4 4 4 4 4 4 4 4 4 4 ; ; = * & @ X X X @ X X X X o o # 4 0 0 0 0 0 0 0 0 0 0 0 0 6 6 4 4 4 * & & @ o @ @ X O X X X X X @ % % & & & = 4 4 4 4 4 4 4 4 4 4 4 4 = % & % @ X @ @ X O X X X * u i i i u u i i i i i 0 6 6 6 6 6 6 6 6 6 6 6 6 6 6 6 6 6 6 6 6 6 6 6 6 6 w K K K K K K K K K L K K K K K K K K K K K K K K K K K K K K K K K K K K K K m 0 8 w k k k k k k K T E.E.z.6 - & # # # # # # @ o X X X X o o @ = = & = = & # @ o o o X X X X X o X X @ * * * * * * & % % % % o o X @ * Z / / / / / / A b b b b b b b b b b b b b b k s s s s k k k k s s k A G G G A G G b v k s k k k k k k k k w w 0 8 4 4 4 4 - % O O O O O O O + O O O O O O O O O O O % * 4 0 w 0 4 4 4 4 4 4 4 4 8 x J ",
"+.+.[ [ [ P Y G A A A A A A H H G G G ( [ [ _ Y P P B B K K P I I I I I I I I I P P P T +.#.,.4.9.9.9.9.5.#.P I m r r r w , * 1 4 1 @ X X X X X X X % , , , , , = = = = = = = = = - - - 4 4 4 8 6 6 6 6 6 6 6 6 6 6 6 6 6 6 6 6 6 6 6 6 6 6 6 6 6 6 6 6 6 6 6 6 6 6 6 6 6 6 6 6 6 6 6 6 6 6 8 - - 4 8 6 6 w l l l l l l l l l l e 6 % @ X X X X & ; 4 4 4 4 4 4 ; ; ; ; 4 4 4 5 6 0 e e e e e e e 0 8 * @ @ X X @ 8 0 0 0 0 0 0 0 0 0 0 0 0 0 0 0 0 0 0 0 0 0 0 0 0 0 0 0 0 0 0 0 0 0 0 0 0 0 0 0 0 0 0 0 0 0 0 0 0 0 0 0 0 0 0 0 0 0 & X X X X X X X % u i i i u i i i i i i i i 0 6 6 6 6 6 0 0 0 0 0 k l l l l l l l l l l l v P P P P P K K K P T T [ [ [ T P K K K K K K K K K K K K K K K K K K K K K K K K K K c k k k k k b K v.E.W.E.z q q q q q q q q q 6 5 = X X X o & = & & & & = = = = @ o o o X X X X X X & * * * 3 3 2 , , * * * & % % , J / / / / / / / / A b b b b b b b b b b b l k k k k s s k k k k s k b A G G G G G G G G A b l l l l v c c c b v v v v v i 0 0 0 7 * O O O O O O O O O O O O * * 4 0 w w w w w 0 4 4 4 4 4 4 4 6 0 k / / ",
"+.+.[ [ [ [ [ [ H H G G G G G G G G U [ [ [ [ [ [ [ [ [ P I I I I I I I I I I P +.*.4.9.9.9.9.9.9.9.9.9.9.9.5.T I B r r r r 6 6 6 6 6 @ X X X X X X * , , 8 6 6 6 6 6 6 6 6 8 8 6 6 6 6 6 6 6 6 6 6 6 6 6 6 6 6 0 0 0 0 6 6 6 6 6 6 6 6 6 6 6 6 6 6 6 6 6 6 6 6 6 6 6 6 6 6 6 6 6 6 6 6 6 6 6 6 6 6 6 6 w l l l l l l l l l l l l l z @ X X @ ; ; ; 4 4 4 4 4 4 4 4 4 5 6 e e e e e e e e e e e e e e e e 0 8 = 0 0 0 0 0 0 0 e e e e e e 0 0 0 0 0 w b b b c k 0 0 0 0 0 0 0 e l l l e 0 0 0 0 0 0 0 0 0 0 0 0 k c c w 0 0 0 0 0 0 0 0 @ X X X X X X @ i i i i u u i i i i i i i i d v v v v v v v v v U %.%.%.%.%.%.%.%.%.%.%.%.%.%.%.%.2.d.d.9.5.,.&.#.#.&.&.&.#.[ [ T _ [ [ } | | | | | [ } ,.>.&.T T T T T T T T T T K G l k Y d.E.E.E.E.l.e q q q q q q q q q q q 6 @ X @ = = & & & & = = = = = = @ @ @ @ X X X X % * * * 3 3 3 3 3 2 * * * * _ >._ / / / / / / / / / J b b b b b b b b v k k k s i u u i k k k k k b A A G G G P Y Y U G A A G G G G G G G G U Y Y Y [ [ [ [ [ [ [ [ [ [ [ [ [ [ [ [ { { [ [ K w w w w w w w 6 4 4 4 4 4 4 4 0 0 0 J / / ",
"+.[ [ [ [ +.[ +.J G G G G G G G G G _ [ [ [ [ [ [ [ [ [ [ _ P I I I I I P +.,.9.9.9.9.9.4.>.>.,.,.2.9.9.9.9.9.9.+.I K l r r r w 6 6 6 6 o X X X X o * , , 6 6 6 6 6 6 6 0 0 0 0 0 0 0 0 0 0 0 0 0 0 0 w k k k k k k k k k 0 6 6 6 6 6 6 6 6 6 6 6 6 6 6 6 6 6 6 6 6 6 6 6 6 6 6 6 6 6 6 6 6 6 6 6 6 6 0 l l l l l l l l l l l l l z l % X X = 4 ; ; 4 4 4 4 4 4 4 4 6 e e e e e e e e e e e e e e e e l z b b b l 0 0 0 0 l b b b b b b b b b b b K P P P P b b b l k e l c b b b M P P P G b c c l l l l l c b b b b c 0 0 0 0 0 0 0 0 * X X X X X O X i i i i i i i i i i i i i i v v v v v v v v v v [ %.%.%.%.%.%.%.%.%.%.%.%.%.%.%.%.9.d.d.d.d.d.d.d.d.d.d.5.,.%.| | | | | | | | | | | &.d.d.d.d.d.d.d.5.,.,.,.,.,.,.,.,.,.,.d.l.U.E.E.E.U.,.q q q q q q q q q q q q - # = = = & = = = = = = = = = - - - - - @ o o @ * * * 3 3 3 3 3 3 * * * >.&X&X&X[ / / / / / / / / / / J A b b b b v k s s u y y y 7 7 0 k l G G G G G G G G U Y Y Y Y U G G G G G G G G G U Y Y Y ( [ [ [ { { { { { { { { { [ [ [ { { [ [ f.0.b w w w w 0 4 4 4 4 4 4 4 6 0 0 G U U U ",
"+.[ [ [ [ [ +.[ U G G G G G G G G G [ [ [ _ ( [ [ [ [ [ [ ( S A P I T #.5.9.9.9.2.[ J A S S S A ( ' ' { ,.9.9.9.9.T I L z r r r w 6 6 6 4 X X X X o % , , 5 6 6 k k k k k k k k k k k k k k k k k k k k k k k k k k k k k k k 6 6 6 6 6 6 6 6 6 6 6 6 6 6 6 6 6 6 6 6 6 6 6 6 6 6 6 6 6 6 6 6 6 6 w k m *.*.+.z l l l l l l l l l l l = O # ; ; ; ; 4 4 4 4 ; ; 4 4 w e e e e e e e e e e e e e l z b b b b b b B P b l b b b b b b b b b b b b P P P P P P Y K b b b b b b b b P P P P Y P P P G b b b b b b b b P P P 0 0 0 0 0 0 0 0 8 X X X X X @ X 9 i i i i i i i i i i i i i a d x x v v v v v v [ %.%.%.%.%.%.%.[ Y Y G H H H U %.d.d.i.&.Y Y Y Y ( _ | | | | | | | | | | | | | | | | | >.} A A A A A A A A A S S A A A A A A G U.E.E.l.5.K q q q q q q q q q q q = & = = = & = = = = = = = = = - - - - - - @ o @ * * * 2 3 3 3 3 2 * * , n.&X&X,XR./ / / / / / / / / / / / U A b b k k i 7 y y y y 7 7 7 >.XXl.G G G G G G G U Y Y Y Y Y Y U G U U U U U U Y Y Y Y Y _ [ [ { { { { { { { [ [ [ [ [ { { [ [ f.f.q.k w w w 4 4 4 ; ; 4 4 4 0 0 k J J U / ",
"[ [ [ [ [ [ [ [ J G G G G G G G H G Y [ Y G G J [ [ [ [ [ A S S A %.9.9.9.4.%.J S S S S S S S S A ( ' ' ' [ 2.9.9.4.P I I m r r r 6 6 6 6 # X X X o % * , , 5 8 0 k k k k k k k k k k k k k k k k k v Z J J / / / / / / / G Z x 6 6 0 0 0 x Z D J J J J J H A Z Z A U U U U ( ( ( ( ( ( ( ( ( ( ( ( ( ( 4.H.z.L B z l l l l l l z l z 6 X = ; ; ; ; 5 5 6 6 6 e e e e e e e e e e e e e r l z b z z b b b b b m P P P P P P P K K b b m K K P P P P P T +.#.[ T P K P P P P P P P P P P Y Y P P P P P P P P P P P P P P b 0 0 0 0 0 0 0 6 X o @ @ @ X X > u i i i i i i i i i i i i i i i i i i i d x v [ %.%.%.%._ A C C C C C C C C J %.2.G u i i i i u u i i d x g x x x x x x x x x x x x x x x g x v Z Z A A A S S S S A A A A A A l.E.E.5.5.4.w q q q q q q q q q q & & & = & & & # = = = = = & - - - - - - - = o o * * * 2 3 3 3 3 , * * 7 m.&X&X,X}./ / / / / / / / / / / / / / A v k k 7 7 7 7 y 7 7 7 ' XXXXu.U G G G G G G U Y Y ( _ ( Y Y Y Y Y Y Y Y Y Y Y Y _ ( [ [ [ [ [ [ [ { { { [ { { [ { { { [ [ 0.z.f.L w w 4 4 4 4 ; ; ; ; 8 0 0 J J J J ! ",
"[ [ [ [ [ [ [ _ J G G G G G G G G G G G G G G G _ [ [ [ ( S S S S >.9.,.( A S S S S S S S S S S S A ( ' ' ' ' 4.9.9.#.I I I B r r w 6 6 6 - X X X X % % * , , , 4 i k k k k k k k k k U } ..:.:.....' ( ( ( ( ( ( ( ( ( ( ( / J D Z Z Z Z S J J J J D Z Z Z H J J ( ( ( ( ( ( ( ( ( ( ( ( ( ( ( ( ( ( ( ( f.H.T L L B l l l l l l l z e O 4 ; 4 6 e e e e e e e e e e e e e e e e e e z z z b b z z b b b b K P P P P P P P P P Y Y P P P P T T [ +.%.&.&.&.&.&.[ P P P P P P P T %.,.[ Y Y P P P P P P P P P P P P P [ 2.l 0 0 0 0 0 0 6 X o @ @ @ @ @ % 7 u i i i i i u 9 7 7 7 3 3 3 3 7 7 9 u i i i U %.%.Y C x C C C C C C Z C C ( %.d u u u i i u u u i i i i i i i a i i d d d d d d d d x x g g x x x x x x g g x x v A A A A A l.E.l.4.5.5.P q q q q q q q q q 6 & = = & & & & # & = = & & & = - - - - - - - o o & * * , 3 3 3 3 , * , 3 c.,X,X&X}./ / / / / / / / / / / / / / G b k k 9 7 7 7 7 y 7 Z }.XXR.u.>.G G G G G G U Y Y { [ [ Y Y Y Y Y Y Y Y Y Y _ [ [ [ { [ [ [ [ [ [ [ [ { { { { [ { [ { [ [ 9.f.f.+.w 6 4 4 4 4 ; ; ; 4 6 0 k J J J J ! ",
"[ [ _ _ [ [ U g g x A G H H G G G G G G G G G A C [ [ [ U S S S S ( J S S S S S S S S S S S S S S S A ( ( ( ' [ 2.9.5.P I I m r r r 6 6 6 6 X X X X % % % > , , , , 7 k k k k k k x >.:.....:.......' ( ( ( ( ( ( ( ( ( ( / J J J J Z Z Z D J J D Z Z Z Z Z Z J J J ( ( ( ( ( ( ( ( ( ( ( ( ( ( ( ( ( ( ( %.H.@.L L L K z l l l l l l r @ 4 5 e e e e e e e e e e e e e e e e e e e e e z b b b z z b b K P P P P P Y Y U.W.0.#.#.#.#.#.&.&.&.&.&.&.&.&.&.&.&.&.&.+.P P P P P [ z.c.c.c.9._ P P P P Y Y Y P P P Y Y [ 2.2.,.l 0 0 0 0 0 0 X @ @ O X X X % 7 7 u u u 9 7 3 3 3 3 3 3 3 3 3 3 3 3 3 u u i d [ v i i i i i i i i i i i C ( G i i i u 9 7 7 7 7 i i i u u u i i u u u u u u u i u i i i i d g g x x x x x g x x x x A A A A l.E...} >.>.[ w q q q q q q q q 5 = = = & & = = # & & & & & & - - - - - - - = X X % * * , 3 3 3 3 , , 3 3 h.&X&X&X}./ / / / / / / / / / / / / / J b l s u y 7 y 7 7 u (.XXXXu.u.u.>._ Y Y Y Y Y Y ( [ [ [ _ Y Y Y Y Y Y Y ( [ [ { ( ( { [ [ [ { [ [ [ [ { [ [ [ | | { { [ { 2.f.f.+.w ; ; ; 4 4 4 4 4 0 0 0 H J U U J ! ",
"J J J J ( [ [ x g g g C H G G G G G G G G G G x g A [ [ _ S S S S S S S S S S S S S S S S S S S S S S A ( ( ' ' [ 5.9.@.I I m r r r 6 6 6 6 @ X X X % % % * , , , , , 0 k k k k k %.h.h.............( ( ( ( ( ( ( ( ( ( ! J J J J J Z Z Z D S Z Z Z Z Z Z Z Z S J J J J J J J J J J J J J J J J J ( ( ( ( ( f.7.L L L L L B z m B L L z # 4 e e e e e e l v l e e e e e e e 0 6 6 8 4 4 4 b b b B P P Y Y Y P P P P Y Y #.W.E.0.*.*.*.*.&.*.2.0.0.9.*.&.&.&.&.&.&.&.#.T P P %.z.c.c.c.c.c.c.9.&.+.P T +.%.%.%.[ [ [ ,.2.2.2.*.l l l e 0 0 X @ @ X X X X % 7 3 7 9 3 3 3 3 3 3 3 3 3 3 3 3 3 3 3 7 i u i i i i i i i i i i i i i i i C J i i i i 9 7 7 7 7 7 u i i i u u i i u u u u u i u u i i i i i u u a g x x x x g x x x A A A A A U.x.} } } } } b q q q q q q q q - = = = & & & = # & & & & & & - - - - - - - & X X @ * * > 3 3 3 3 2 3 3 3 :.&X&X&X}./ / / / / / / / / / / / / / J b b s u y 7 y 7 i (.@XXXY.u.u.u.u.u.y.>.X.| } [ [ [ [ [ [ ( ( Y Y Y ( ( [ [ [ [ | >.>.>.>.>.>.>.>.>.&.>.>.,.2.2.2.2.| [ [ ,.f.f.+.5 ; ; ; 4 4 4 8 0 0 0 0 J J U U ! ! ",
"J J J J ! ! _ ! g g g g g A G G H H G G G G Z g g g ( [ [ g S S S S A S Z C g g g g g C S S S S S S S S A ( ' ' ' %.9.9.I I z r r r 6 6 6 6 # X X o % % % % * , , , , , k k k k A h.h.h.......:...' ( ( ( ( ( ( ! J J J J J J J D S Z Z Z Z Z Z Z Z Z Z Z Z Z Z H J J J J J J J J J J J J J J J H H J / ( ( %.z.L L L L L L L L L L L z % 0 k k l l l v v v v v l e e e e 4 4 4 4 4 4 4 4 G P P P P P P Y Y Y P P Y Y Y P 2.E.E.v.&.&.&.,.0.f.f.f.z.T.v.z.l.9.9.9.2.2.2.,.2.c.c.c.c.c.c.c.c.c.c.c.c.c.5.2.2.2.2.2.2.2.2.2.2.2.b z z z l 0 X X @ X X X X @ 3 3 3 3 3 3 3 3 3 3 3 3 3 3 3 3 3 3 3 9 i i i i i i i i i i i i i i i i i Z d i i i u 7 7 7 7 7 7 9 i i i i u i i i i i i i u i i i i i i i i u d x x x x x x x x x A A A A ( E.>.} } } } } ( q q q q q q q q = = = & & & - = = = = - - - - - - - - - - - o X X X % * * 2 3 3 3 3 3 3 3 Z &X&X&X}./ / / / / / / / / / / / / / J b b v i y 7 7 g (.@X@X'.u.u.u.y.u.u.u.y.>.>.>.X.{ { [ [ [ { { [ [ [ [ { { [ >.>.>.,.,.,.,.>.>.>.>.>.>.,.>.2.2.2.2.2.2.| { &.f.f.) 4 ; - ; ; 4 4 0 0 0 0 x J J U / / / ",
"J J J J ! ! ! ! J g g g g g Z G G G G G G G g g g g Z [ [ x g Z C g g g g g g g g g g g g g g g Z S S S S H ' ' ' ' 4.!.E T r r r e 6 6 6 6 # X X o % % % % % , , , , , i k k k d.h.h.u...:.:.:.' ( ( ( ( ! J J J J J J D S Z Z Z Z Z Z Z Z Z Z Z Z Z Z Z Z Z Z Z D D S S S Z Z Z Z Z Z Z Z Z Z Z Z Z J ( ( ( f.I L L L L L L L L L L w @ x v v v v v v v v v v v v l e e 8 4 4 4 8 k G P Y Y P P P P P P P G A A A A A G G [ I.W.U.2.2.f.f.f.f.I.E.W.W.T.v.c.c.c.c.c.c.c.c.l.4.| ,.c.c.c.v.c.c.c.c.c.c.2.2.2.2.2.2.2.2.2.2.2.+.z z z z l X X o X X X X @ 7 3 3 3 3 3 3 3 3 3 3 3 3 3 3 3 3 3 7 u i i i i i i i i i i i i i i i i g C i i i i 7 7 7 7 7 7 7 7 i i i i i i i i i i i i i i i i i i i i i i x x x x x x x x x x A S A A u.c.} } } } } } } k q q q q q q 6 = = = & & & - - = = - - - - - - - - - - * @ X X o o o @ % , 3 3 3 3 3 3 3 u 3.&X&X&X/ / / J A U / / / / / / / / U b b b b A _ c.XXXX@X}.a.u.u.u.y.y.y.y.u.<.>.>.X.[ [ | >.>.| } [ [ [ [ | >.>.>.>.>.>.,.,.,.>.>.>.>.>.>.,.2.2.2.2.2.2.2.2.[ [ f.f.P 4 & & & - ; 8 0 0 0 0 A J J / / / / ",
"! ! ! J J D C S J J g g g g g x G G G G G g g g g g g _ [ x g g g g g g g g g g g g g g g g g g g x S A S S J ( ' ( ,.{.#.@.r r r q 6 6 6 6 @ X X @ % % % % % , , , , , i k k _ h.h.h.:.....} ' ( ( ( ! J J J J J J S Z Z Z Z Z Z Z Z Z Z Z Z Z Z Z Z Z Z Z Z Z Z Z Z Z Z Z Z Z Z Z Z Z Z Z Z Z Z Z Z J J ( ( >.@.L L L L L L L L L L , X , v v v v v v v v v v v v v v l 0 4 4 4 K Y Y Y Y P P P P P P A A A A A A A A A A A G v.W.E.f.f.f.v.E.E.E.E.E.E.E.v.c.c.c.l.i.,.| [ [ { } ,.c.c.8X3XoXU.c.c.c.c.9.2.2.2.2.2.2.2.2.9.c.b z z z z = X X @ @ X X X 3 7 7 3 3 3 3 3 3 3 3 3 3 3 3 3 3 3 u i i i i i i i i i i i i i i i i i C x i i i 9 7 7 7 7 7 7 7 7 u i i u u i i i i u u u u u u i i i i i i g x x x x g g x x x x A A A J x.i.} } } } } } } U q q q q 5 = & = = = = = = - - - - - - - - - - - - - * * @ X o o o o o o > 3 3 3 3 3 3 3 9 / _ >.>./ / x g g g H / / / ( ( ( / [ 5.m.(.@X@XXXXXXXXX}.a.y.y.y.u.u.u.y.y.u.y.>.>.} { { ,.>.>.>.>.,.,.>.>.,.>.>.>.>.,.,.,.,.,.>.>.>.,.,.,.,.2.2.2.2.2.4.2.2.,.{ f.f.l = & & & & 4 6 0 0 0 0 J ! ! U U U U ",
"! ! ! J J C C Z C Z C g g g g g g S G A x g a u u a g g x g g g g g g g g g g g g g g g g g g g g g Z S S S S ( ' ' z.{.#.I r r r 6 6 6 6 6 X X X % % % % % % , , , , , i k l h.h.h.3...} ' ( ( ( ! J J J J J J S Z Z Z Z Z Z Z Z Z Z Z Z Z Z Z Z Z Z Z Z Z Z Z Z Z Z Z Z Z Z Z Z Z Z Z Z Z Z Z Z Z Z H J ( ( _ 9.L L L L L L L L L L @ X X d v v v v v v v v v v v v v v l 8 4 0 P Y Y P Y P P P K b k x v A A A A A A A A A A G v.E.E.W.W.W.E.E.E.E.E.E.U.d.,.| | [ [ [ [ { [ [ } } 5.c.3X8X8X(.R.R.v.c.c.c.l.0.0.0.0.z.c.c.c.*.z z z z O X X O O X X X 3 7 7 3 3 3 3 3 3 3 3 3 3 3 3 3 3 9 i i i i i i i i i i i i i i i i i g C g i i u 7 7 7 7 7 7 7 7 7 9 i i u u i i i i u i i u i u i i u i i i a g x x g x g g x x x A A A | x.3.} } } } } } } [ q q q - # @ o .     # = = = - - - - - - - - - - - - * * % % % % @ @ @ % * 2 3 3 3 3 3 3 9 / / / / / U g g g g g J / / ( <.m.}.XXXXXXXX@X@XXXXXXXR.u.y.y.y.y.y.y.y.y.y.y.3.>.>.{ { { ,.>.>.>.>.,.,.>.| | >.>.| [ [ [ [ [ | >.>.,.,.,.,.,.2.2.2.2.2.4.4.2.2.2.2.0.8 & & & & & - 0 0 0 0 0 ! ! ! U U U U ",
"J ! J J H C Z Z C C C g g g g g g g g g g u 9 9 9 9 9 a g g g g g g g g g g g g g g g g g g g g g g x A S S S H ' ' 9.{.#.B r r w 4 - - - = X X X % % % % % * , , , , , i k >.h.h.h...' ( ( ( ( J J J J J J J C Z Z Z Z Z Z Z Z Z Z Z Z Z Z Z Z Z Z Z Z Z Z Z Z Z Z Z Z Z Z Z Z Z Z Z Z Z Z Z Z Z Z Z S J ( ( ( d.L L L L L L L L L m X X X 7 k k x x x x x v v v v v v v v 0 4 k P P P P K v k d d d d d d d d x x x x v v A A A G v.E.W.W.E.W.E.E.v.,.[ _ ( ( U U U U J J J J J J [ } d.3X8X8XXXR.R.R.R.v.c.c.c.c.c.c.c.c.c.c.c.z z z z @ X X O X X X X 2 3 7 3 3 3 3 3 3 3 3 3 3 3 3 3 9 i i i i i i i u i i i i u u i i i a C C a i i 7 7 7 7 7 7 7 7 7 7 7 i i u u i i i i i i i i i i i i u u i i i i d g x x x x x x v A A A i.h.} } } } } } } } } l q 4               . = = & - - - - - - - - - - - = * * * * * * * * * * * , 3 3 3 3 3 3 u / / / / / D g g g g g x ( { >.}.XXXXXXXXW.R.x.d.3.>.>.>.>.>.X.X.X.X.>.>.>.>.>.>.X.X.} { [ [ | >.>.,.,.>.} { ( ( ( ( _ ( _ _ _ _ _ _ } >.,.,.,.,.1.2.2.2.2.4.2.2.2.2.&.& & & & & & = 0 0 0 0 k U ! ! J ! U U ",
"! ! J J S C Z Z C C x g g g g g g g g g u 9 9 9 9 9 9 9 u a g g g g g g g g g g g g g g g g g g g g g Z S S S S ( ' ,.{.#.m r r - - - - $ X X X @ % % % % % , , , , , , i b h.h.h.>.( ( ( ( / J J J J J J J S C Z Z Z Z Z Z Z Z Z Z Z Z Z Z Z Z Z Z Z Z Z Z Z Z Z Z Z Z Z Z Z Z Z Z Z Z Z Z Z Z Z Z Z Z D J ( ( ,.T L L L L L L L L k X o X 7 i d d d d i i i i i d x v v v v 7 v P P P k d d d d d d d d d d d d d d d d d d x A A G z.v.5.2.>._ U J J J J J J U U U U J J J J J J ( | | [.8X8X XR.R.R.R.R.I.c.c.c.c.c.c.c.c.c.c.T z z z @ X X @ @ X X X , 3 3 3 3 3 3 3 3 3 3 3 3 3 3 3 u i i i i i i u u i i i i u u i i i x C C i i 9 7 7 7 7 7 7 7 7 7 7 7 9 i i u i i i i i i i i i i i i u u i i i i i i x x x x x x Z A A A x.3.} } } } } } } } } n n 4                 # = & - - - - - - - - - - - = * * * * * * * * * * * * 2 3 3 3 3 3 g / / / / / x 7 7 3 7 a g J >.i.Y.h.3.>.>.>.>.>.>.>.>.>.>.[ [ [ } X.>.>.>.>.>.>.>.X.X.X.{ [ [ { { [ [ [ [ { ( ( Y Y Y ( ( ( ( ( ( ( _ | >.>.,.,.,.,.,.2.2.2.2.4.2.2.2.[ & & & & & & = 0 0 0 0 x U ! ! ! ! J J ",
"! J J J Z Z Z Z C C g g g g g g g g g u 9 9 9 9 9 9 9 9 9 9 u a g g g g g g g g g g g g g g g g g g g x S S S S J ' ,.{.@.r r - - - - # X X X X % % % % % & , , , , , , k ! h.h.>.( ( ( ! J J J J J J J J J J Z Z Z Z Z Z Z Z Z Z Z Z Z Z Z Z Z Z Z Z Z Z Z Z Z Z Z Z Z Z Z Z Z Z Z Z Z Z Z Z Z Z Z Z Z Z D / ( [ *.L L L L L L L L 6 X o X 9 0 9 0 0 0 0 0 0 0 0 i d d x v v v v G P k d d d d d d d d d d d d d d d d d d d d x v A G J J J U J J J J J J J J J J J U U U U U J J U } } 5.#X*XR.R.R.R.R.R.R.R.M.c.c.c.c.c.c.c.c.5.z z z X X X X X X X X , 3 3 3 3 3 3 3 3 3 3 3 3 3 3 3 3 9 u i i i i i i i i i i i i i i d C C g i u 7 7 7 7 7 7 7 7 7 7 7 7 7 u i i u u u u i i i i u i i i i i i i i i i i a x x x x v S S A J d.| } } } } } } } } } m n q .               @ & & = - - - - - - - - - - = * * * * * * * * * * * * > 3 3 3 3 3 h / / / / J 3 3 3 3 3 7 9 x X.>.X.X.X.X.X.X.X.>.>.>.>.>.>.[ [ [ [ [ } X.X.>.>.>.>.X.X.>.[ [ [ { [ [ [ { { ( ( ( ( Y Y Y Y ( ( ( ( _ [ >.>.>.>.>.>.,.>.,.,.2.2.4.2.2.2.U & & & & & & - 0 0 0 0 Z J J J ! ! ! J ",
"! ! J Z C C Z Z C C g g g g g g g g a 9 9 9 9 9 9 9 9 9 9 9 9 9 u a g g g g g g g g g g g g g g g g g g S S S S D ' ,.{.@.r q - - - & X X X X X % % % % % * , , , , , , Z J >.>.( ! J J J J J J J J J J J J J Z Z Z Z Z Z Z Z Z Z Z Z Z Z Z Z Z Z Z Z Z Z Z Z Z Z Z S S S D D Z Z Z Z Z Z Z Z Z Z Z Z Z Z Z Z S / f.L L L L L L L L , X X @ 7 0 9 9 0 0 0 0 0 0 0 0 i d d x v v v v P d d d d d d d d d d d d d d d d d d d d k x x A A A J J J J J J J J J J J J J U U U U U U J J U } [ | ,.<.5.R.R.R.R.R.R.R.R.R.v.c.c.c.c.c.c.9.z z z X X X X X X X X > 3 3 3 3 3 3 3 3 3 3 3 3 3 3 3 3 3 3 3 3 7 7 i i i i i i u u i i x C C i i 7 7 7 7 7 7 7 7 7 7 7 7 7 7 7 7 7 7 7 7 9 9 9 9 u u i i i i i i i i i i i i d x v A A S S A ( <.} } } } } } } } } } K n w ;               . & & = - - - - - - - - - - = * * * & % % % % & * * * * 2 3 3 3 7 C / / / / g 3 3 3 3 3 3 7 7 ( >.>.X.X.X.X.X.X.>.>.>.>.>.>.} { [ [ [ [ [ X.>.>.>.>.>.>.>.X.[ [ [ [ [ [ [ [ ( ( Y Y Y ( Y ( ( ( ( _ [ ,.>.| } >.>.>.>.>.,.>.>.>.,.,.>.2.K & & & & & & ; 0 0 0 0 C J J J ! ! ! ! ",
"J J C C C C C C C C g g g g g g g a 9 9 9 9 9 9 9 9 9 9 9 9 9 9 9 9 u g g g g g g g g g g g g g g g g g x S S S S ( ,.{.#.r 4 - - - = X X X X X % % % % % , , , , , , u D D D J J J J J J J J J J J J J J J J S Z Z Z Z Z Z Z Z Z Z S S D J J J J J J J J J J J J J J J J J J S Z Z Z Z Z Z Z Z Z Z Z Z Z Z Z Z D d.L L L L L L L L @ X X % 7 7 9 9 9 9 0 0 0 0 0 0 0 i d d b U U v b k d d d d d d d d d d d d d d d d d d d x x x v A A A J J J J U U U J U U J J J J U U J J J J J [ [ [ | ,.<.h.R.R.R.R.R.R.R.R.R.R.c.c.c.c.z.@.m z z @ @ @ X X X X X > 3 3 3 3 3 3 3 3 3 3 3 3 3 3 3 3 3 3 3 3 3 3 9 i i i i i i i i i C C g i 9 7 7 7 7 7 7 7 7 7 7 7 7 7 7 7 7 7 7 7 7 7 7 7 7 7 7 7 u i i i u i u u i i i d x x A A A A A J } } } } } } } >.3.X.} P n e q -               = & = - - - - 1 - 1 1 - - = & o o o o o o o o % * * * 2 3 3 3 u C / / / / u 3 3 3 3 3 3 3 3 ( X.>.>.X.X.X.X.>.>.>.X.>.X.X.X.{ [ [ { { { { | >.X.X.>.>.X.X.{ { { { [ [ [ [ ( Y ( ( ( ( Y Y Y ( _ _ >.&.[ _ _ _ | >.,.,.>.>.>.>.,.>.,.2.K & & & & & = ; 6 0 0 0 Z J J J ! ! U U ",
"S C C C C C C C C C x g g g g g a 9 9 9 9 9 9 9 9 9 9 9 9 9 9 9 9 9 9 g g g g g g g g g g g g g g g g g g x S S S H ,.{.@.r - - - - - X X X X X % % % % % , , , , , 7 Z Z Z Z Z Z S S D H J J J J J J J J J J J Z Z Z S D D D H J J J J J J J J J J J J J J J J J ! ! J J ! ! J S Z Z Z Z Z Z Z Z Z Z Z Z Z Z Z D 1.@.L L L L L L K X X X % 7 7 9 9 9 9 9 0 0 9 0 0 0 0 i d x Y Y A v x d d d d d d d d d d d d d d d d d d d x x x v A A A G J J J U U U U U U J J J J J U J J J J U _ [ [ [ [ <.<.d.M.R.R.R.R.R.R.R.R.c.c.c.f.W T m z w @ @ @ @ X X X X > 3 3 3 3 3 3 3 3 3 3 3 3 3 3 3 3 3 3 3 3 3 3 3 u i i i i i i u 7 i g i i 7 7 7 7 7 7 7 7 7 7 7 7 7 7 7 7 7 7 7 7 7 7 7 7 7 7 7 7 7 i i i u u u u u u i d x x A A A A A ( } } } } } } >.3.3.3.>.B n r q q -             # & = - - - - 1 - 1 - - 1 * % o o o o o o o o o * * * , 3 3 3 p h / / / / 7 3 3 3 3 3 3 3 3 ( _ [ [ [ [ [ ..X.>.>.X.X.X.X.X.{ [ [ { { { { [ [ X.X.X.X.X.X.[ { { { { [ [ [ ( Y Y ( ( ( Y Y ( _ _ [ [ _ _ _ _ _ _ [ ,.>.2.2.,.,.,.2.2.2.B & & % # & = ; 8 0 0 0 Z D J J ! ! J U ",
"C C C Z Z Z Z Z C C C g g g g a 9 9 9 9 9 9 9 9 9 9 9 9 9 9 9 9 9 9 9 a g g g g g g g g g g g g g g g g g g x S S S ,.{.+.r ; - - - - X X X X X % % % % % , , , , , Z Z Z Z Z Z Z Z Z Z Z S D J J J J J J J J J J J J J J J J J J J ! ! ! ! ! ! ! ! ! ! ! ! ! ! ! ! ! ( ( ( / ! J Z Z Z Z Z Z Z Z Z Z Z Z Z Z Z D } 6.L L L L L B k X X X > 7 7 7 9 0 0 9 9 9 9 9 0 0 0 0 i d U Y J v x d d d d d d d d d d d d d d d d d d d d x x x A A A G J J J U J J J J J U U U U U U J J J U J [ { { } } <.<.d.d.I.R.R.R.R.R.R.R.v.c.f.W T T z e w X X X X X X X X * 3 3 3 3 3 3 3 3 3 3 3 3 3 3 3 3 3 3 3 3 3 3 3 7 i i i i i i 9 7 i i i 9 7 7 7 7 7 7 7 7 7 7 7 7 7 7 7 7 7 7 7 7 7 7 7 7 7 7 7 7 9 i i u u u i i i i i g g g x A A A A { } } } } } X.3.3.3.3.3.L n z q q q =           # & - - - - - - - - - - = & o o o o o o o o o o & * * , 3 3 3 g h H / / J 7 3 3 3 3 3 3 3 9 ( Y ( ( ( [ [ [ [ | X.X.X.X.X.X.{ { { { { { { [ [ { [ { | | { [ { [ [ { { { { Y Y Y Y Y Y ( ( ( _ _ ( _ _ _ _ _ _ _ _ [ ,.,.2.2.2.2.2.2.2.m & X X   # = 4 4 6 0 0 Z Z ! ! ! ! U J ",
"C C C C Z Z Z Z C C C C g g a 9 9 9 9 9 9 9 9 9 9 9 9 9 9 9 9 9 9 9 9 p g g g u u a g g g g g g g g g g g g g Z S S _ {.E r - - - - # X X X X o % % % % * , , , , g Z Z Z Z Z Z Z Z Z Z Z Z Z Z Z D J J J J J J J J J J J J ! ! ! ! ! / / ( ( ( ( ( ( ( ( ( ( ( ( ( ( ( ( ( ( ! J J Z Z Z Z Z Z Z Z Z Z Z Z Z Z D / f.L L L L B l w X X X , 7 7 7 7 7 7 7 7 9 9 0 0 9 0 0 i d J Y Y v d d d d d d d d d d d d d d d d d d d d d k x x v A A A G U U U U J J J J J J U U U U J J J U J [ { } } { <.<.d.d.d.R.R.R.R.R.R.R.v.f.T T I z l w w @ X X X X X X X % 3 3 3 3 3 3 3 3 3 3 3 3 3 3 3 3 3 3 3 3 3 3 3 3 i i i i i u 7 7 i i u 7 7 7 7 7 7 7 7 7 7 7 7 7 7 7 7 7 7 7 7 7 7 7 7 7 7 7 7 7 i i i i u u i i i i x x g g x A A A H } } } } } X.3.3.3.3.u.v.T n n q q q - =         @ & - - - - - - - - - - * % o o o o o o o o o o & * * , 3 3 3 h h h H H h 3 7 3 3 3 3 3 3 a Y ( ( ( ( ( [ [ [ [ [ } X.>.>.} { { { [ { { { [ [ [ [ { [ { { { { [ [ { { { ( Y Y Y Y Y Y ( ( Y Y ( ( _ _ _ _ _ _ _ _ _ [ ,.,.2.2.2.2.2.2.m @ X X   X & ; 4 4 0 0 Z Z J ! ! ! J Z ",
"C C Z C C C C Z C C C C C a 9 9 9 9 9 9 9 9 9 9 9 9 9 9 9 9 9 9 9 9 9 9 p u 9 9 9 9 a g g g g g g g g g g g g g S S A #.L r - - - - o X X X X % % * , , > , , , 9 Z Z Z Z Z Z Z Z Z Z Z Z Z Z Z Z Z S D J J J J J J J ! ! ! ! ! ! ! / ( ( ( ( ( ( ( ( ( ( ( ( ( ( ( ( ' ' [ ( / J J J Z Z Z Z Z Z Z Z Z Z Z Z Z J J H.E L L L l l 8 X X X , 7 7 7 7 7 7 7 7 0 0 9 9 9 9 0 0 d v Y Y x d d d d d d d d d d d d d d d d d d d d d d x x v A A A A J U U U U U J J J J J J U J J J J J U [ [ [ { { <.<.5.d.d.R.R.R.R.R.R.R.2.z z z l z w w w & X X X X @ @ O % 7 3 3 3 3 3 3 3 3 3 3 3 3 3 3 3 3 3 3 3 3 3 3 7 i i i i i 7 7 7 9 9 7 7 7 7 7 7 7 7 7 7 7 7 7 7 7 7 7 7 7 7 7 7 7 7 7 7 7 7 7 9 i i i i i i i i a g x x g g x A S S J } } } } } 3.3.3.3.4.v.M.*.n n w q q - ; .         = - - - - - - - - - - & o o o o o o o o o o o % * * , 3 3 3 h h h h h f 3 3 3 3 3 3 3 3 Z ( Y Y ( ( Y ( [ [ { { { { [ [ [ [ [ [ [ [ { { { { [ [ [ [ [ [ { { [ [ [ _ ( ( ( Y Y Y ( ( ( ( Y Y ( ( _ _ _ _ _ _ _ _ _ _ [ ,.2.2.2.2.2.2.m X X X X X @ & = ; 4 i Z Z Z J J J Z Z ",
"C C C C C C C C C C g u u u 9 9 9 9 9 9 9 9 9 9 9 9 9 9 9 9 9 9 9 9 9 9 9 9 9 9 9 9 p g g g g g g g g g g g g g S S S *.L e - - - = X X X X o % % , , , , , , 7 Z Z Z Z Z Z Z Z Z Z Z Z Z Z Z Z Z Z Z Z S J J J J J ! ! ! ! ! ! ! ! ! ( ( ( ( ( ( ( ' ' ' ' [ [ [ [ [ [ { [ ( / ! J J J S Z Z C Z Z Z Z Z Z Z Z J J f.6.L L B l l , X X X 4 7 7 7 7 7 7 7 9 0 0 9 9 9 9 0 0 d d J v d d d d d d d d d d d d d d d d d d d d d d d k x x A A A A A U U U U J J J J J J J U J J J J J U } [ [ [ | <.<.2.d.d.I.R.(.(.R.R.R.B z z z z l w w w & X X X @ @ @ @ % 7 3 3 3 3 3 3 3 3 3 3 3 3 3 3 3 3 3 3 3 3 3 3 u i i i i 9 7 7 7 7 7 7 7 7 7 7 7 7 7 7 7 7 7 7 7 7 7 7 7 7 7 7 7 7 7 7 7 7 7 7 u i u i i i i i d x x x x x v v A S A ( } } } } X.3.3.3.3.c.v.M.9.n n e q q ; ; #       . = - - - - - - - - - - % o o o o o o o o o o o @ * * , 3 3 7 h h h h h u 3 3 3 3 3 3 3 3 U ( J J U Y Y Y ( [ { { { { [ [ [ [ [ [ [ [ { { { { [ { [ [ [ [ [ { [ [ [ ( ( ( ( ( Y Y ( ( ( ( Y Y ( _ _ _ _ _ _ _ _ _ _ _ _ [ ,.2.4.4.2.2.m # X X X X X @ & & = ; C Z Z D H Z Z Z ",
"C C C C C C C C g u 9 9 9 9 9 9 9 9 9 9 9 9 9 9 9 9 9 9 9 9 9 9 9 9 9 9 9 9 9 9 9 9 u g g g g g g g g g g g g g Z S J *.T - - - - @ X X X o % % * , , , , , , C Z Z Z Z Z Z Z Z Z Z Z Z Z Z Z Z Z Z Z Z Z J J J J J ! ! ! ! ! ! ! / / ( ( ( ( ' [ [ [ [ [ [ [ { { { { { [ ' ( ( ! J J J J S C C Z C Z Z Z Z Z S J J 4.f.L L b l l % X X X 4 7 7 7 7 7 7 7 9 0 0 0 9 0 0 9 9 i d d d d d d d d d d d d d d d d d d d d d d d d d d d x x A A A A A G J J U U U U U U J J J J J J J J U [ [ [ [ ,.<.<.4.d.d.m.oXoXoXoX(.f.l w l l z l w w w & o o @ O X @ X % 3 3 3 3 3 3 3 3 3 3 3 3 3 3 3 3 3 3 3 3 3 3 7 i i i i i 7 7 7 7 7 7 7 7 7 7 7 7 7 7 7 7 7 7 7 7 7 7 7 7 7 7 7 7 7 7 7 7 7 7 7 i u i i i u i g x x x x x v v v A A A ( } } } } 3.3.3.3.u.v.v.M.z.n n z q 6 - - =       . & - - - - - - - - - - o o o o o o o o o o o o o * * > 3 3 u h h h h h 7 3 3 3 3 3 3 3 a ( J J J J Y Y Y ( ( { [ [ [ { { [ [ [ [ { { { [ { { [ [ [ [ ( ( ( ( ( ( ( Y ( Y Y Y ( ( ( ( Y ( ( Y ( _ _ _ _ _ _ _ _ _ _ _ _ _ [ 2.4.4.4.4.m k X X X X     X @ # & & a Z Z Z Z Z Z ",
"C C C C C C g u 9 9 9 9 9 9 9 9 9 9 9 9 9 9 9 9 9 9 9 9 9 9 9 9 9 9 9 9 9 9 9 9 9 9 a g g g g g g g g g g g g g g S J #.T - - - - @ X X X % % * , , , , , , i Z Z Z Z Z Z Z Z Z Z Z Z Z Z Z Z Z Z Z Z Z Z J J J J J J ! ! ! ! ! ! ! / / ( ( ( { [ [ [ [ [ [ { { { { { { [ ' ( ( ! ! J J J J J S Z Z Z Z Z Z Z J J J [ H.T L l l l @ X X X 7 7 7 7 7 7 7 7 7 0 0 0 9 0 0 9 9 0 i d d d d d d d d d d d d d d d d d d d d d d d d d d x x v A A A A A J J U U U U U U J J J J J J J J ( [ [ [ | <.<.2.d.d.d.U.oXoXoXoXv.e q q q l z z e w w & X X X X X @ X % 3 3 3 3 3 3 3 3 3 3 3 3 3 3 3 3 3 3 3 3 3 7 i i i i i 9 7 7 7 7 7 7 7 7 7 7 7 7 7 7 7 7 7 7 7 7 7 7 7 7 7 7 7 7 7 7 7 7 7 7 7 i u i i i u d x x x x x x v v A A A S G ( } } } 3.3.3.3.l.v.v.M.l.n n n q 6 - - =       @ & - - - - - - - - - % o o o o o o o o o o o o o * * > 3 3 f h h h h g 3 3 3 3 3 3 3 3 J ( J J J J J Y Y ( ( ( [ [ [ [ { { { { [ { { [ [ [ [ [ [ ( ( Y ( ( Y Y Y Y Y ( Y Y Y ( ( ( ( ( ( Y Y ( _ _ _ _ _ _ _ _ _ _ _ _ _ _ [ 4.4.4.,.m m 6 X X X X X X X X @ & * Z Z Z Z Z Z ",
"C C C C x i u 9 9 9 9 9 9 9 9 9 9 9 9 9 9 9 9 9 9 9 9 9 9 9 9 9 9 9 9 9 9 9 9 9 9 9 u g g g g g g g g g g g g g g S J #.K - - - - # X X @ % % , , , , , , 7 Z Z Z Z Z Z Z Z Z Z Z Z Z Z Z Z Z Z Z Z Z Z Z J J J J J J J ! / ! ! ! / / / ( ( ( ( [ { { { { { { { ....{ { [ ( ( ( ! ! ! J J J J J J D S Z Z Z D J J J / H.,.L l l k X X X X 7 7 7 7 7 7 7 7 7 7 0 0 0 0 0 9 9 9 0 i i 0 0 0 i d d d d d d d d d d d d d d d d d d d d k x v A A A A A G J J J U J U U U U J J J J U U [ } [ [ ,.<.<.i.d.d.d.W.oXoXoXoXz w q w q q l l l w w % X X X X X X X % 3 3 3 3 3 3 3 3 3 3 3 3 3 3 3 3 3 3 3 3 7 i i i i i i 7 7 7 7 9 7 7 7 7 7 7 7 7 7 7 7 7 7 7 7 7 7 7 7 7 7 7 7 7 7 7 7 7 7 7 9 i i u i u i g x x x x x v v v A A A S Z u S } X.3.3.3.3.v.M.M.M.M.n n n w 6 - - #       @ & = - - - - - - - & o o o o o o o o o o o o o o * * > 3 7 h h h h h 7 3 3 3 3 3 3 3 J { U J J J J J U ( ( ( ( [ [ [ { { { { { { { { [ [ [ [ [ ( Y Y ( ( ( ( ( ( ( ( ( ( Y Y Y ( ( ( ( ( ( ( ( _ _ _ _ _ _ _ _ _ _ _ _ _ _ _ [ 2.4.&.m m B - X X       X X X & & Z Z Z Z Z Z ",
"C C C a 9 9 9 u 9 9 9 9 9 9 9 9 9 9 9 9 9 9 9 9 9 9 9 9 9 9 9 9 9 9 9 9 9 9 9 9 9 9 9 g g g g g g g g g g g g g g x J #.c - - - - # X o % % > , , , , , , x Z Z Z Z Z Z Z Z Z Z Z Z Z Z Z Z Z Z Z Z Z Z S J J J J J J H J U ! ! ! / / / ( ( ( ( ( { { { { { ........} } [ ( ( ( ! ! ! ! J J J J J J J J J J J J J ! ! d.f.K l l 8 o X X X 7 7 7 7 7 7 7 7 7 7 8 0 0 0 0 9 9 9 9 0 0 0 0 9 0 d d d d d d d d d d d d d d d d d d d d d x l A A A A A A J J J J J U U U U J J U U U ( } } [ >.<.<.5.d.d.d.d.[.oXoXoX6.w w w w w w w e l l w X X X X X X X X % 3 3 3 3 3 3 3 3 3 3 3 3 3 3 3 3 3 3 7 u i i i i d i u 7 7 9 i u 7 7 7 7 7 7 7 7 7 7 7 7 7 7 7 7 7 7 7 7 7 7 7 7 7 7 7 7 7 7 u i i i i i d g x x x x x v v v A A A A g u u g } 3.3.3.i.M.M.M.M.M.e e q q 6 - - .       @ = - - - - - - - % o o o @ % % * * & % % @ o o o * * > 3 u h h h h g 3 3 3 3 3 3 3 H | | U J J J J J J ( ( ( Y _ [ [ { { { { { { { { [ [ [ [ ( ( Y ( ( ( ( ( ( ( ( ( ( ( Y Y Y ( ( ( ( ( ( ( _ _ _ _ _ _ _ _ _ _ _ _ _ _ _ _ _ [ 2.&.m m m l ; X         X X # & Z Z Z Z Z Z ",
"C g 9 9 9 9 9 9 9 9 9 9 9 9 9 9 9 9 9 9 9 9 9 9 9 9 9 9 9 9 9 9 9 9 9 9 9 9 9 9 9 9 9 u g g g g g g g g g g g g g g c P c - - - - @ o % % * , , , , , , 9 Z Z Z Z Z Z Z Z Z Z Z Z Z Z Z Z Z Z Z Z Z Z Z J J J J J J J J ! ! ! ! / / / / ! ( ( ( ( ' [ [ [ { { ..........{ ( ( ( ! ! ! ! J J J J J J J J J J J J J ! ! :.H.P l l * X X X % 7 7 7 7 7 7 7 7 7 7 7 0 0 0 0 9 0 0 0 9 9 0 0 0 9 i d d d d d d d d d d d d d d d d d d d d x x v A A A A A A J J J J J J J J J J J J U [ [ { ..<.3.3.d.d.d.d.d.}.oXoX}.k w w w w w w w w w w w @ @ X X X @ @ @ * 7 7 3 3 3 3 3 3 3 3 3 3 3 3 3 3 7 9 i i i i d d d d i u i i i 9 7 7 7 7 7 7 7 7 7 7 7 7 7 7 7 7 7 7 7 7 7 7 7 7 7 7 7 7 7 7 u u i i i u d x x x g x x v v A A A J _ u u u u u ! 3.3.c.v.v.v.v.I.q q q q 6 - =           - ; ; - - - - % o o o % * * * * * * * * * & @ % * * * 3 a h h h h u 3 3 3 3 3 3 x | | ( S A H J J J J J Y ( Y Y ( [ { { { { { { { { [ [ [ ( ( ( ( ( Y ( ( ( ( Y Y ( ( ( Y Y ( ( ( ( ( ( Y ( ( _ _ _ _ _ _ _ _ _ _ _ _ _ _ _ _ _ [ &.z e q q q 4 X X X X     o & x Z Z Z Z Z ",
"9 9 9 9 9 9 9 9 9 9 9 9 9 9 9 9 9 9 9 9 9 9 9 9 9 9 9 9 9 9 9 9 9 9 9 9 9 9 9 9 9 9 9 9 a g g g g g g g g g g g g g c c c ; - - - X @ % * , , , , , , , x Z Z Z Z Z Z Z Z Z Z Z Z Z Z Z Z Z Z Z Z Z Z D J J J J J J J J ! ! ! ! / / / / ( ( ( ( ( ( ' { [ { { ..} } ..{ ' ( ( ( ! ! ! ! J J J J J J J J J J J J ! ! ! ( H.*.l l X X X X % 7 7 7 7 7 7 7 7 7 7 7 9 0 0 9 9 0 0 0 9 9 9 0 0 9 i d d d d d d d d d d d d d d d d d d d d k x x v A A A A A A J G A G J U U J J J J ( [ [ [ >.<.2.d.d.d.d.d.d.oXoXoX@.w w w w w w w w w w w w @ o X X X @ X @ > 3 3 3 3 3 3 3 3 3 7 7 7 7 3 7 u i u i i i d d d d d d i d i i u 7 7 7 7 7 7 7 7 7 7 7 7 7 7 7 7 7 7 7 7 7 7 7 7 7 7 7 7 7 7 u i i i i u d x x x x x v v v A A A M.M.( u u u u u C 3.m.M.v.I._. Xq q q q 5 - o           @ ; ; ; - - = o o o % * * * * * * * * * * * * * * * * 7 g h h h h 3 3 3 3 3 3 g | | } A S S S A J J J J Y ( Y Y ( [ { { { { [ { { { _ ( ( ( ( ( ( ( Y Y ( ( Y Y Y Y ( ( Y Y ( ( ( ( Y ( Y Y ( _ _ _ _ _ _ _ _ _ _ _ _ _ _ _ _ _ _ U q q q q q q 4 X X X       * a C Z Z Z C ",
"9 9 9 9 9 9 9 9 9 9 9 9 9 9 9 9 9 9 9 9 9 9 9 9 9 9 9 9 9 9 9 9 9 9 9 9 9 9 9 9 9 9 9 9 9 a g g g g g g g g g g g g c c c 4 - - @ X % & , , , , , , , 7 Z Z Z Z Z Z Z Z Z Z Z Z Z Z Z Z Z Z Z Z Z Z D J J J J J J J J ! ! ! ! ! ! ! / / ( ( ( ( ( ( ( { { { { ..} } { [ ' ( ( ( / ! ! ! J J J J J J J J J J J ! ! ! ! ! f.f.l 0 X X X X * 7 7 7 7 7 7 7 7 7 7 7 0 0 9 9 9 9 0 0 9 9 0 0 0 0 9 i d i 0 i d d d d d d d d d d d d d d d d x x x v A A A A A A A A A J U U J J U U ( [ [ [ >.<.i.d.d.d.d.d.d.oXoXoXe w w w w w q q w w w w w @ X o X X X X X , 3 3 3 3 3 3 3 3 9 i i i i i i i i i i i d d d d d d d d i i i i 7 7 7 7 7 7 7 7 7 7 7 7 7 7 7 7 7 7 7 7 7 7 7 7 7 7 7 7 7 7 u u i i i i x x x x g x v v v Z A A c.M.v.( u u u u u H M.E.[.XXXXXXq q q q 4 -               = - - - - @ o o o % * * * * * * * * * * * * * * * * 7 g h h h p 3 3 3 3 3 u } | | J S S S S S H J J J J Y ( ( ( Y ( ( [ [ [ [ ( _ Y Y ( ( Y Y ( ( ( Y ( Y Y ( ( Y Y ( ( ( ( ( Y Y Y Y Y Y ( ( _ _ _ _ _ _ _ _ _ _ _ _ _ _ _ _ _ U q q q q q q q ; X X X   X * u u a a u u ",
"9 9 9 9 9 9 9 9 9 9 9 9 9 9 9 9 9 9 9 9 9 9 9 9 9 9 9 9 9 9 9 9 9 9 9 9 9 9 9 9 9 9 9 9 9 9 a g g g g g g g g g g g c c c 4 - & X o % & , , , , , , , a Z Z Z Z Z Z Z Z Z Z Z Z Z Z Z S D J J J J J J J J J J J J J ! ! ! ! ! ! ! ! ! ( ( ( ( ( ' ' [ { { { ....} } { [ ' ( ( ( ( ! ! ! J J J J J J J J J ! ! ! ! ! ! ! ,.H.l 4 O X X X , 7 7 7 7 7 7 7 7 7 7 9 0 0 9 9 9 9 0 0 9 9 0 0 0 0 9 9 0 0 0 d d d d d d d d d d d d d d d d d k x x x v A A A A A A A A G U U J J J U ( [ [ [ >.3.d.d.d.d.d.l.H.}.oXE.w w w w w w q q q w w w w X X X X X X X X , 3 3 3 3 3 3 3 u i i i i i i i i i i i d d d k d d d d d i i i i 7 7 7 7 7 7 7 7 7 7 7 7 7 7 7 7 7 7 7 7 7 7 7 7 7 7 7 7 7 7 i i i i i i x x x x v v v v v v A A H d.M.M.>.d u u u | M.XXXXXXXXXXq q q q 4 - #             @ - - - = o o o o & * * * * * * * * * * * * * * * * u a h h h 7 3 3 3 3 7 { | | ( S S A A S S S J J J J Y Y Y ( ( ( ( Y ( ( ( Y Y Y Y ( ( Y Y ( ( ( ( ( Y ( ( ( Y Y ( ( ( ( Y Y Y Y Y Y Y Y ( ( _ _ _ _ _ _ _ _ _ _ _ _ _ ( _ _ U q q q q q q q q # X X   X @ u u u u u u ",
"9 9 9 9 9 9 9 9 9 9 9 9 9 9 9 9 9 9 9 9 9 9 9 9 9 9 9 9 9 9 9 9 9 9 9 9 9 9 9 9 9 9 9 9 9 9 9 a g g g g g g g g g x c c c 0 - o X X % % > , , , , , , C Z Z Z Z Z Z Z Z Z Z Z Z Z D J J J J J J J J J ! ! ! ! J ! ! ! ! ! ! ! ! ! ! / ( ( ( ( [ [ { { { { } } } ....{ [ ( ( ( ( ( / ! ! ! J J J J ! ! ! ! ! ! ! ! ! ! ! ' H.P % @ @ @ @ , 7 7 7 7 7 7 7 7 7 9 0 0 0 9 9 9 9 0 0 9 0 0 0 0 0 0 9 0 0 i d d d d d d d d d d d d d d d d d d x x x x v A A A A A A A A J J J J U U ( { [ [ | <.d.d.d.d.v.H.H.}.oXI.w w w q q w w w q q w w w X X X @ X X X X @ 3 3 3 3 3 3 9 i i i i i i i i i i i d x v v v x d d i i u i i i 9 7 7 7 7 7 7 7 7 7 7 7 7 7 7 7 7 7 7 7 7 7 7 7 7 7 7 7 7 7 i i i i i d x x v v v v v v v v A S S A _ l.M.v.>.( >.v.v.~.XXXXXXXXq q q 6 - - - .             - - - @ o o o o * * * * * * * * * * * * * * * * * p p g h a 3 3 3 3 7 ' } | ' S S S A A S S S G J J J J ( ( ( ( Y Y Y Y ( Y Y Y Y ( ( ( Y Y ( ( ( ( Y Y ( ( ( ( Y ( ( ( Y Y Y Y Y Y Y Y ( ( Y Y Y ( _ ( _ _ _ _ _ _ _ ( ( ( _ U q q q q q q q q 6   X X X X 9 u u u u u ",
"9 9 9 9 9 9 9 9 9 9 9 9 9 9 9 9 9 9 9 9 9 9 9 9 9 9 9 9 9 9 9 9 9 9 9 9 9 9 9 9 9 9 9 9 9 9 9 9 a g g g g g g g g x c c c 0 # X X X % % % , , , , , , Z Z Z Z Z Z Z Z Z Z Z Z S J J J J J J J J J J J ! ! ! ! ! / ( ( ( ( ! ! ! ! ! ( ( ( ( ( [ [ { { { } } | } ....{ [ [ ' ( ( ( ( / ! ! ! ! / ! ! ! / ( ( ( ( ( / / ( ( f.f.% @ @ o @ 4 7 7 7 7 7 7 7 7 9 0 0 0 0 9 9 9 9 0 0 9 9 0 0 0 0 0 9 0 0 d d d d d d d d d d d d d d d d d d d k x x x x b A A A A A A A J J J J U U / [ [ [ | 1.d.d.d.H.H.H.H.}.oXH.w w w w w w q q q q w w w X X X o o X X X X % 7 7 3 3 7 i i i i i i i i i i u i v v v v v v d d d i u i i i i i 9 7 7 7 7 7 7 7 7 7 7 7 7 7 7 7 7 7 7 7 7 7 7 7 7 7 7 9 i u i i i d x x v v v v v v v v A A A A A A | l.M.v.M.v.v.v._.XXXXXXq q q 6 - - - - @           = - % o o o o o * * * * * * * * * * * * * * * * 2 p p p p 7 3 3 3 3 J | } [ A S S S A A S A S A J J J J ( ( ( ( Y Y Y Y ( Y Y Y Y Y ( ( Y Y U U Y ( Y ( Y ( ( Y Y ( Y ( Y ( Y Y ( Y Y Y ( ( Y Y Y Y ( ( _ _ _ _ _ ( ( ( ( _ _ U q q q q q q q q q = X X X X , u u u u u ",
"9 9 9 9 9 9 9 9 9 9 9 9 9 9 9 9 9 9 9 9 9 9 9 9 9 9 9 9 9 9 9 9 9 9 9 9 9 9 9 9 9 9 9 9 9 9 9 9 9 u g g g g g g g v c c c w X X X X % % * & , , , , 4 Z Z Z Z Z Z Z Z Z Z D H J J J J J J J J J J J J ! ! ! ! / ( ( ( ( ( ( ( / ! ( ( ( ( ( ( [ [ [ { { ..} } } ......{ [ [ ' ( ( ( ( ( ! ! ! / ( ( ( ( ( ( ( ( ( ( ( ( ( ,.H.v X X o X 4 7 7 7 7 7 7 7 9 9 9 9 9 9 9 9 9 9 9 9 0 0 0 0 0 0 0 0 0 i d d d d d d d d d d d d d d d d d d d d x x x x v A A A A A A A A J J J U U J { [ [ | ,.d.d.d.H.H.I.U.oXoXH.q q q w w w q q q q q w q X X X o o X X O X X % u 9 7 u i i i i i u i i i i u x v v v v v x d d i i i i i i i i i u 7 7 7 7 7 7 7 7 7 7 7 7 7 7 7 7 7 7 7 7 7 7 7 7 7 9 u u u u i g x x v v v v v v v A A A A A A A A A _ d.v.v.v.v.M.U.[.XXq q q 4 - - - - - = # # # = - & o o o o o o * * * * * * * * * * * * * * * * u p p p u 3 3 3 3 H | | } A S S S S S S S S S A H J J J Y Y ( ( Y Y ( ( Y ( ( ( Y Y Y ( J J J J J Y ( ( Y Y Y Y ( ( Y Y ( ( ( ( ( ( Y Y ( ( Y Y ( ( ( ( ( _ _ _ _ ( ( ( ( _ _ U q q q q q q q q q 6 X X X X * u u u u u ",
"9 9 9 9 9 9 9 9 9 9 9 9 9 9 9 9 9 9 9 9 9 9 9 9 9 9 9 9 9 9 9 9 9 9 9 9 9 9 9 9 9 9 9 9 9 9 9 9 9 9 u g g g g g g c c c c k X X X X % % * * & , , , 9 Z Z Z Z S A D D D J J J J J J J J J J J J J J J J ! ! ! ( ( ( ( [ [ ( ( ( ( ( ( ( ( ( ( ' [ [ { ....} } } ......{ { { { ' ( ( ( ( ( ( ( ( ( ( ( ( ( ( ( ( ( ( ( ( ( ' H.v X X X X 7 7 7 7 7 7 7 9 9 9 9 0 9 9 9 9 9 9 9 0 0 0 0 0 0 0 0 0 0 i d d d d d d d d d d d d d d d d d d d d k x x x x v A A A A A A A A G J U U J [ [ [ | ,.d.d.d.v.H.oXoXOXoXH.q q w w w w q q q q w w 6 X X X @ o X X O O X X > i i i i i i i i i i i i i d v v v v v v k d d i i i i i i i i i i i 7 7 7 7 7 7 7 7 7 7 9 7 7 7 7 7 7 7 7 7 7 7 7 7 u u u u u u d g g x v v v v A S A A A A A A A A A A J U ,.v.v.M.M.M.I.q q 6 - - - - - - - - - - - - & o o o o o o * * * * * * * * * * * * * * * , i p p p 7 3 3 3 x | | | H S S S S S S S S Z x Z A J J J J Y Y ( ( ( ( ( ( ( ( ( Y Y Y J J J J J J Y ( ( ( Y Y ( ( ( Y Y ( ( ( ( ( ( Y Y ( ( Y Y ( ( ( ( ( ( _ _ ( ( ( ( ( _ [ P q q q q q q q q q q X X X X % u u u u u ",
"9 9 9 9 9 9 9 9 9 9 9 9 9 9 9 9 9 9 9 9 9 9 9 9 9 9 9 9 9 9 9 9 9 9 9 9 9 9 9 9 9 9 9 9 9 9 9 9 9 9 9 u g g g g x c c c c l X X X X @ % % % % * , , 7 Z Z Z D J J J J J J J J J J J J J J J J J J J J J ! ! ! ( ( ( ( [ { { ' ( ( ( ( ( ( ( ( ' [ [ { ....| | | ......{ [ [ { { ' ( ( ( ( ( ( ( ( ( ( ( ( ( ( ( ( ( ( ( ( ( f.x X X @ @ 7 7 7 7 7 9 9 9 9 9 0 0 0 0 0 9 9 9 9 0 0 0 0 0 0 0 9 9 0 d d d d d d d d d d d d d d d d d d d d d d x l x x x v A A A A A A A A G J J J ( [ [ | <.d.d.d.v.H.}.oXoX}.H.w w w w q q q w w w w w 6 X X X @ @ X X X @ @ @ X , 7 g d a i i i i i i i i v v v v v v x d d i i i i i i i i i i i i i 9 7 7 7 7 7 7 9 i i i u a x 7 7 7 7 7 7 7 7 7 u u i i i i g x x x v v Z A A A A A A A A A A A A J U J { 3.U.M.M.M.v.w q 4 - - - - - - - - - - - - @ o o o o o o * * * * * * * * * * * * * * * 9 p u u u 3 3 3 x | | | H S S S S S S S S C C C C S H J J J U ( ( Y Y ( ( ( ( ( ( ( Y J J J J J J J U Y Y ( ( Y Y Y ( ( ( Y Y Y Y Y ( ( Y ( ( ( ( Y Y Y Y Y Y Y Y ( ( ( ( ( ( _ b q q q q q q q q q q # X X X % u u u u u ",
"9 9 9 9 9 9 9 9 9 9 9 9 9 9 9 9 9 9 9 9 9 9 9 9 9 9 9 9 9 9 9 9 9 9 9 9 9 9 9 9 9 9 9 9 9 9 9 9 9 9 9 9 u g g g v c c c c c X X X X o % % % % % * , , Z Z D J J J J J J J J J J J J J J J J J J J J J ! ! ! ! ( ( ( ( ' { { { ' ( ( ( ( ( ( ( ( { [ { { ..} } } ......[ [ [ { { { [ ' ( ( ( ( ( ( ( ( ( ( ( ( ( ( ( ( ( ( ( ,.Z X X @ % 7 9 0 0 9 9 9 9 0 9 0 0 0 0 0 0 9 9 0 9 0 0 0 0 0 9 9 9 0 d d d d d d d d d d d d d d d d d d d d d d d l x x x x A A A A A A A A A A J J ( } } [ <.d.d.d.l.H.W.oXoX{.H.w w w w q q q w w w w w 6 X X X O @ X X X X @ @ X % * v v v x d i i i i a v v v v v v v d d d i i i u i i i i i i i i i i i 9 9 9 9 u i i i i i ( [ ' S 9 7 7 7 7 7 7 u i i i i i g x x x v v v A A A A A A A A A A J J U U ( 3.3.%X[.M.v.+.l q 4 - - - - - - - - - - - - & o o o o o o * * * * * * * * * * * * * * , a u u u 9 3 3 x | | | H S S S S S S S S C x x C C S A J J J J U ( ( Y Y Y ( ( ( ( Y J J J J J J J J J ( Y ( ( ( ( Y ( ( ( Y Y Y Y ( ( ( ( ( ( ( ( Y Y Y Y Y Y Y Y ( ( ( ( Y Y _ e q q q q q q q q q q # X X X % u u u u u ",
"9 9 9 9 9 9 9 9 9 9 9 9 9 9 9 9 9 9 9 9 9 9 9 9 9 9 9 9 9 9 9 9 9 9 9 9 9 9 9 9 9 9 9 9 9 9 9 9 9 9 9 9 9 g g g c c c c c c X X X X X % % % % % % , , Z Z J J / / ! J J J J J J J J J ! J J J J ! ! ! ! ! ! ! ( ( ( ( ' { { { { [ ' ' ' ' ( ( ' { { { { { } } } ..{ { { [ [ [ { [ [ [ ' ( ( ( ( ( ( ( ( ( ( ( ( ( ( ( ( ( ( [ U X O @ , 9 0 0 0 0 9 0 0 0 0 0 0 0 0 0 0 0 0 0 0 0 0 0 i i i i d d d d d d d d d d d d d d d d d d d d d d d d d d x x x x v A A A A A A A A A A G J } } { <.d.d.d.l.H.H.oXOXW.H.b w w w q q w w w w w w 6 o X X X X X X X X @ @ X % % d _ v v v x x i d v v v v v v v d d d i i i i i i u i i i i i i i i u i i u i i i i i i i g U [ [ ' A i u u i i i i i i i i d x x x x v v Z A A A A A A A A J U ( ( [ ..3.3.[.%X[.+.T m q - - - - - - - - - - - - - & o o o o o o * * * * * * * * * * * * * * 9 a u u u 7 3 x | | } H S S S A Z Z Z Z x x x x x x Z S A J J J J J Y ( ( ( ( ( Y Y J J J J J J J J J J Y Y Y Y Y ( ( ( Y Y Y Y ( ( ( ( ( ( ( Y ( ( Y Y ( Y ( ( Y Y ( ( ( ( Y ( #.l q q q q q q q q q q X X X X * u u u u u ",
"9 9 9 9 9 9 9 9 9 9 9 9 9 9 9 9 9 9 9 9 9 9 9 9 9 9 9 9 9 9 9 9 9 9 9 9 9 9 9 9 9 9 9 9 9 9 9 9 9 9 9 9 u g g x c c c c c c X X X X X @ % % % % % & , g D J J / / / ! ! J J J J J J J ! ! ! ! ! ! ! ! ! ! / ( ( ( ( ( ( { { { [ [ [ { { { { [ { { { { { { } } } { { { { [ [ [ { [ { { { ' ( ( ( ( ( ( ( ( ( ( ( ( ( ( ( ( ( | U X X @ 7 0 0 0 0 0 0 0 0 0 0 0 0 d l x x x x k d d d d d d d d d d d d d d d d d d d d d d d d d d d d d d d d d d k x x x x b A A A A A A A A A A A _ [ [ <.d.d.d.d.H.H.W.oXI.0.n r w q q q w w w w w w 4 o X X X X X X X X O O X % % i [ G v v v v v v v v v v v v x d d d i i i i i i u i i i i u u i u u i i i i i i i i i i i i a A _ [ [ J g i i i i i i i i d x x x x v v v A A A A A A A J U ( ( ( { ..3.3.m.%XoX+.T P q - - - - - - - - - - - - - - o o o o o o * * * * * * * * * * * * * , u a p p p 9 x | | [ A S S Z v x x x x x x x x x x x C S A A G J J J J Y ( ( Y Y U J J J J J J J J J J J J Y Y Y ( ( ( ( Y Y Y ( ( ( ( ( ( ( Y Y ( ( ( Y ( ( ( ( Y Y ( ( Y Y Y [ #.l q q q e z z l e q 6 X X X X , u u u u u ",
"9 9 9 9 9 9 9 9 9 9 9 9 9 9 9 9 9 9 9 9 9 9 9 9 9 9 9 9 9 9 9 9 9 9 9 9 9 9 9 9 9 9 9 9 9 9 9 9 9 9 9 u g g g c c c c c c c @ X X X X X % % % % % % , u J J J ! ! ! ! ! ! J J J J J ! ! ! ! ! ! ! ! / / ( ( ( ( ( ( ( ( { { { [ [ { { { [ { } } } } } } } ....{ [ [ [ { { { [ [ { { { { { ( ( ( ( ( ( ( ( ( ( ( ( ( ( ( ( ( %.U X X O 0 0 9 9 9 i l l x x v c b b b b x x k d d d d d d d d d d d d d d d d d d d d d d d d d d d d d d d d d d d d x x x x x A A A A A A A A A i 0 i U [ <.d.d.d.d.H.H.H.W.H.0.n n n r e w w w w w w w 4 X X X X X X X X X X X X % % i [ G v v v v v v v v v v v x d d d d d i i i i i u i i i i i i i i i i i i i i i i i i i i i i i i x ( [ [ ( Z i i i i i i d x x x x v v v A A A A A G U J ( ( ( ( { { 3.3.3.XX%X~.T T q ; - - - - - - - - - - - - - @ o o o o o * * * * * * * * * * * * , 1 4 u p p p u | | ' A S S Z x x x x x x x x x C C x v x C S S S G J J J J J Y U J J J J J J J J J J J J J J ( ( ( Y Y ( Y Y Y ( ( ( ( Y Y ( ( Y Y Y Y ( ( Y ( ( ( ( ( Y Y Y Y ( #.$.l q q q z n z z z z - X X X X 7 u u u u u ",
"9 9 9 9 9 9 9 9 9 9 9 9 9 9 9 9 9 9 9 9 9 9 9 9 9 9 9 9 9 9 9 9 9 9 9 9 9 9 9 9 9 9 9 9 9 9 9 9 9 9 u g g g v c K c c c c c * X X X X X % % % % % % , , J J ! ! / ( ( ( ! ! ! J J J ! ! ! ! ! ! ! ! ( ( ( ( ( ( ( ( ( ( ' { [ { { { { { } } } } } } } } } ....{ [ [ [ [ { { [ [ { { { { { ( ( ( ( ( ( ( ( ( ( ( ( ( ( ( ( ' %.%.X X @ 0 0 0 k c b b b b b b b b b b v x d d d d d d d d d d d d d d d d d d d d d d d d d d d d d d d d d d d d d d x x x x x v A A A A A A A A i 0 0 0 A <.l.v.v.z.H.H.H.H.H.-.n n n n n w w w w w q q 4 o X X X X X X X X X X @ % % v [ J v v v v v v v G v v v d d d d d d i i i i u u i i i i i i i i i i i i i i i i i i i i i i i i i i d U ' [ _ Z i i i i d x x x x v v v A A A A A J U ( ( ( ( ( { { X.3.3.h.%X%X0.T q 4 - - - - - - - - - - - - - & o o o o o * * * * * * * * & & > , , 1 1 7 a a p a ' ( S S Z C x x x x x C x x x x x g x x x x x C A S J J J J J J J J J J J J J J J J J J J J J U ( Y Y ( Y Y ( ( ( ( ( Y Y ( ( ( Y Y Y Y ( ( ( ( ( ( ( ( Y Y ( Y _ $.#.q q q e z z n z z z @ X X X X u u u u u u ",
"9 9 9 9 9 9 9 9 9 9 9 9 9 9 9 9 9 9 9 9 9 9 9 9 9 9 9 9 9 9 9 9 9 9 9 9 9 9 9 9 9 9 9 9 9 9 9 9 9 u g g g g c m K b c c c c & X X X X X @ % % % % % , , S J ! / ( ( ( ( ( ( ! ! / / / / ! ! ! ! ! ( ( ( ( ( ( ( ( ( ( ( ' { [ [ { { { ......} ....X.....| } ..{ { [ { { { { [ [ [ { { { ' ( ( ( ( ( ( ( ( ( ( ( ( ( ( ( ( } %.%.X X * d v b b b b b b b b b b b v x k d d d d d d d k x x d d d d d d d d d d d d d d d d d d d d d d d d d d d d d x x x x x v A A A A A A A A v i 0 0 0 x z.H.H.H.H.H.H.H.0.R n n n n n w q q q q q q - X X X X X X X @ @ X X % % % A [ J A v v v v A J A v v x d d d d d d i i i u u i i i i i i u u i i i i u u i i d d d i i i i i i i i i i a A ' ( v d d i d x x x x v v A A A A A J J J ( ( ( ( ' { { { <.3.3.I.%X%X#.q 4 - - - - - - - - - - - - - - @ o o o o & * * * * * * * * , , 1 , , , 1 7 p p g x x x x C x x x x x C C C C C x g g g g x x x x x S H J J J J J J J J J J J J J J J J J J J J J ( ( ( ( Y Y ( ( Y ( Y Y ( Y ( ( ( ( Y ( U U J J Y Y ( ( ( Y ( ( [ $.T q q q l z n n n z l   X X X @ u u u u u u ",
"9 9 9 9 9 9 9 9 9 9 9 9 9 9 9 9 9 9 9 9 9 9 9 9 9 9 9 9 9 9 9 9 9 9 9 9 9 9 9 9 9 9 9 9 9 9 9 9 a g g g g v m K K m c c c c & X X X X X o % % % % % > , a J ! ( ( ( ( ( ( ( ( ! / / / / ! ! ! / ( ( ( ( ( ( ( ( ( ( ( ( ' [ { [ { { ..........>.>.>.>.>.>.......{ { { { { { [ [ [ { { { ' ( ( ! / ( ( ( ( ( ( ( ( ( ( ( ( | %.%.X X , b b b b b b b b b b b v x x x d d d d d d k x x x x x d d d d d d d d d d d d d d d d d d d d d d d d d d d k x x x x x l v A A A A A A A A x 0 0 0 0 x z.H.H.H.H.H.H.W R n n n n r q q w q q q q & X X X X X O @ @ @ @ @ % % % Y [ J J A v A J J J G v x v d d d i d d d i i i i i i i i i i i u u i i i i i i i d d d d d d d i i i i i i i i d x x g g g g x x x x v v A A A A A J J ( ( ( ( ( ' { { { ..3.3.u.M.%XoX*.5 - - - - - - - - - - - - - - & o o o o & * * * * * * , , , , 1 , , , 1 1 7 p g x x x C C C x x x x C C C C x g g g g g g x x x x Z A J J J J J J J J J J J J J J J J J J J J J U Y ( ( ( Y Y ( Y Y Y ( ( ( Y J J J H J J J J J J Y Y Y Y ( ( ( #.$.z q q q z z n n n z -   X X X , u u u u u u ",
"9 9 9 9 9 9 9 9 9 9 9 9 9 9 9 9 9 9 9 9 9 9 9 9 9 9 9 9 9 9 9 9 9 9 9 9 9 9 9 9 9 9 9 9 9 9 9 a g g g x b K K K K K m b c c = X X X X X X % % % % % > , 7 J / ( ( ( ( ( ( ( ( ( / ! ! ! ! ! / ( ( ( ( ( ( ( ( ( ( ( ( ( ' { { { [ { } } } X.>.>.>.>.X.X.X.X...{ { { { { { { [ [ [ [ [ ' ( ( / J J J J ! ! ( ( ( ( ( ( ( ( %.%.%.X O * b b b b b b b b b v x x x x k d d d d d d x x x x x x x d d d d d d d d d d d d d d d d d d k x x k k k k x l l x x x l l v A A A A A A A A A v 0 0 0 0 x z.H.H.H.H.H.R R n n n n r w q q q w w w % X X X X X X X X @ O % % % % [ [ J J J J J J U U U v x v v d d d d d d i i i i i i i i i i i i i i i i i i i i i d d d d d d d d i i i i i i i i i d d x x x x x v v A A A A A G J U ( ( ( ( ( { { { { ..3.3.u.x.W.%X%XP - - - - - - - - - - - - - - - @ o o o % * * * * , 1 1 4 4 4 4 4 1 , , 1 1 7 x C C C C x x x x g g g x x x x x x x g g g x x x x Z S J J J J J J J J J J J J J J J J J J J J J U Y Y Y J J ( ( Y ( ( ( U J J J J J J J J J J J J J J Y ( ( ( ( #.#.q q q q z z z z z z @ X X X X u u u u u u u ",
"9 9 9 9 9 9 9 9 9 9 9 9 9 9 9 9 9 9 9 9 9 9 9 9 9 9 9 9 9 9 9 9 9 9 9 9 9 9 9 9 9 9 9 9 9 9 p g ! ! J U U P K K K K K K K K 6 X X X X X X % % % % % * , , D / ( ( ( ( ( ' { ( ( ( ( / ! / ( ( ( ( ( ( ( ( ( ( ( ( ( ( ( [ { { { { } } } ..X.>.>.>.>.X.X.X.X.>...} } } { { { [ [ [ [ ' ( ( ( J J J J J J J J J ! ( ( ( ( ( %.%.%.X X , v c b b b v v v x x x x x x d d d d d d x x x l x x x x x k k x x x x k d d d d d d d d d d x x x x l x x l x x x x x l x x v A A A A A A A A A A A G G G Y f.z.H.H.H.W R N n n n e w q q w w w w # X X X X X X X X o O % & % 2 [ [ J J J J J J J U U J v v v v d d d d d i i i i i d d i i i i i i i i u i i i i i d d d i i d d d d d i i i i i i i i i d d x x x v v A A A S A J J ( ( ( ( ( ( { { { { X.3.3.u.x.c.oX%X%Xs - - - - - - - - - - - - - - = o o o % * * * , 1 1 1 4 4 4 4 4 1 , , , 1 1 g C C C C x x x g g g g g g g x x g g g g x x x x x Z S H J J J J J J J J J J J J J J J J J J J J J Y Y J J J J ( Y Y U J J J J J J J J J J J J J J J J J J J U _ #.I q q q q z z n z n w X X X X % u u u u u u u ",
"9 9 9 9 9 9 9 9 9 9 9 9 9 9 9 9 9 9 9 9 9 9 9 9 9 9 9 9 9 9 9 9 9 9 9 9 9 9 9 9 9 9 9 9 9 9 g ! ~ ~ ~ ~ } >.>.>.>.:.K K K K b X X X X X X % % % % % * , , x / ( ( ( ( ( ' { { ( ( ( ( ( ( ( ( ( ( ( ( ( ( ( ( ( ( ( ( ' [ [ { { { } } } X.X.X.X.>.>.>.X.>.>.>.X.} } } } ....| { { ' ( ( ( ( J J J J J J J J J J ( ( ( ( ' %.%.%.O @ * v l x x x x x x x x x x x x d d d d d d x x x l l x x x x x x x x x x x d d d d d d d d d x x x x x x x x x x x x x x x x x v A A A A A A A A A A T.W.W.W.W.H.*.,.f.H.6.R I n n n n r w q w w w w % X X X X X X X X X X @ % % 9 [ _ J J J J J J J U U U G v v v v x d d d i i d d d d d d i i i i i i i i i i i i i d d d d d d d d d d d d d i i i i i i d d x x x v A A A A S A J J ( ( ( ( ( ( { { { ..3.3.3.u.x.x.I.%X[.w - - - - - - - - - - - - - - - % o o % * * , 1 1 1 1 , , , , 4 4 , , , , 1 g x x C C x x g g x x g g g g g g g g g g g g x x x Z S A H H J J J J J J J J J J J J J J J J J J J Y J J J J J J U J J J J J J J J J H H G G G G A G J J J J J U #.m q q q q z z n n n & X X X X 3 u u u u u u u ",
"9 9 9 9 9 9 9 9 9 9 9 9 9 9 9 9 9 9 9 9 9 9 9 9 9 9 9 9 9 9 9 9 9 9 9 9 9 9 9 9 9 9 9 9 9 9 J ~ ~ ~ ~ ~ :.>.>.>.>.>.[ K K K K o X X X X X @ % % % % * , , 9 / ( ( ( ( ( ( { [ [ ( ( ( ( ( ( ( ( ( ( ( ( ( ( ( ( ( ' [ [ [ [ { { ..} } ..X.X.X.X.>.>.>.>.>.>.>.>...} } } ....| | { ' ( ( ( / J J J J J J J J J J ( ( ( ( [ %.%.%.X @ @ v l l l x x x x x x x x x x d d d d d d x x x x x x x x l x x x x x x x d d d d d d d d x x x x x x x x x x x x x x x x x x x A A A A A A A A A A A [ &.>.f.U.E.2.*.,.2.+.R n n n n n n r w w w w X X X X X X X @ % % O @ % % G [ _ J J J J J J U U U U J G v v v v g d d d d d d d d d d i i i i i i i i d i i i i d d d d d d d d d d d d d d d d i i i d d g x x v A A A A A A J U ( ( ( ( ( ' { { ..3.3.3.3.d.x.x.x.oX,.0 4 - - - - - - - - - - - - - - - o o % * , , , 1 1 1 , , , , 4 4 , , , , 7 Z x x C x x x g x x x g g g g g g g g g g g g g x x Z S S S S S A G H H A A A J J J J J J J J J J J J J J J J J J J J J J J J J H A Z Z Z v v v v v v Z Z v Z Z Z W w 8 5 8 6 z z n n l X   X X @ u u u u u u u u ",
"9 9 9 9 9 9 9 9 9 9 9 9 9 9 9 9 9 9 9 9 9 9 9 9 9 9 9 9 9 9 9 9 9 9 9 9 9 9 9 9 9 9 9 9 u g ~ ~ ~ ~ ~ ~ } >.>.>.>.>.>.K K K K , X X X X X X % % % % * , , , ! ( ( ( ( ( ( ' { { [ ( ( ( ( ( ( ( ( ( ( ( ( ( ( ' { { { { { } { { ....} >.>.>.X.X.>.>.>.>.>.>.>.>.>.} } } ........{ ' ( ( ( ( J J J J J J J J J J ( ( ( ( [ %.%.%.X X @ x v v x x x x l l l l l x k d d d d d k x x x x x x x l l x x x x x x x x d d d d d d x l l l x x x x x x x x x x x x x x x x v A A A A A A A A A A A A Y Y Y %.*.*.*.*.,.R R n n n n n n n r w w X X X X X X O % & & % @ % 7 J _ ( U U U U U U U J J U U J v v v v x g d d d d d d d d d d i i i i i i d d d i i i d d d d d d d d d d d d d d d d d d d d d g x x Z A A A A A G J ( ( ( ( ( ( { { ..3.3.3.3.u.x.x.x.x._.k 0 8 - - - - - - - - - - - - - - - & o o % * , , , 1 1 1 1 , , 1 , , , , , i Z x x x x x x x g x x g g g g g g g g g g g g g x x Z S S S S S S A Z Z Z Z S Z A H J J J J J J J J J J J J J J J J J J J J J A v Z Z Z Z Z Z Z Z v v b b v v v v K 8 8 8 5 8 8 z z z - X       3 u u u u u u u u ",
"i i u u u u u u u u i u 9 9 9 9 9 9 9 9 9 9 9 9 9 9 9 9 9 9 9 9 9 9 9 9 9 9 9 9 9 9 9 9 u u ~ ~ ~ ~ ~ ~ ~ :.>.>.>.>.>.[ K K K k X X X X X X o % % % * , , , J ( ( ( ( ( ( ' { { [ ' ( ( ( ( ( ( ( ( ( ( ( ( ' { { { { ..} } } ......} >.>.>.>.>.>.>.>.>.>.>.X.X.>.X.} } ........{ { ( ( ( ( ( J J J J J J J J J / ( ( ( } %.%.%.X X X d x v x x x x l x l l x x k d d d d k x x x x l l x x x x x x x x x x x x x k d d k l l x l x x x x x l l x l x x x x x l x x x A A A A A A A A A A A A G Y Y Y #.*.*.*.q.;.R R n n n n n n n n r & X X X X X O & % & & % % 4 J _ U U U U U U U U J J J U J Z v v v v x g d d d d d d d d d d i i i i u d d d d i i d d d d d d d d d d d d d d d d d d d g x x x x Z A A A A A J J ( ( ( ( ( { { ..3.3.3.3.i.x.x.x.x.x.2.0 0 0 4 - - - - - - - - - - - - - - - o o o % * , , 1 , 1 1 , , 1 1 , , , , x Z Z x x x x x g g x x g g x g g g g g g g g g g g x C S S S Z Z x x x x x C C x x A J J J J J J J J J J J J J J J J J J J J A v v Z v Z Z Z Z Z Z v v v Z v v Z Z v 5 8 8 5 8 8 8 l z X X     o u u u u u u u u u ",
"a a a a a a a a a a a a i 9 9 9 9 9 9 9 9 9 9 9 9 9 9 9 9 9 9 9 9 9 9 9 9 9 9 9 9 9 9 9 u u u g C J ~ ~ ~ ~ } >.>.>.>.>.K K K m X X X X X X X % % % * , , , x ( ( ( ( ( ( ( ' [ [ { ' ( ( ( ( ( ( ( ( ( ( ' [ [ [ [ { ..} } } | ......>.>.>.>.>.>.>.>.>.X.X.X.X.>.>.>.......} { { ' ( ( ( ( ( J J J J J J J J J / ( ( ( } %.%.%.X X X 0 x x x x x x x x x x x x k d k x l x x x x x x l x x x x x l x x x x l l x x x x x x x x l x x x x x l x l l x x x x l l x x x v A A A A A A A A A A A A Y Y Y Y &.*.*.q.w.Q R R V n n n n n n n ; X X X X X O % % % & & * 2 J _ J J U U U U J J J J U U J J v v v v x x d d d d d d d d d d d i i i i d d d d d d d d d d d d d d x x x x x x x x x x x x x x x v v Z A A A A J J ( ( ( ( ' { { <.3.3.3.a.h.x.x.c.c.c.%.k 0 0 8 8 6 6 0 0 8 4 - - - - - - - - % o o o % > , , , 1 4 1 , , , , , , 7 H Z S C x v C x g g g g g g x x x g g g g g x x g x x x Z Z v x C x x x x x C C C x S A J J J J J J J J J J J J J J J J J J A Z v v b b b b Z Z Z Z v v Z Z A Z Z +.v 5 5 5 5 5 8 8 5 = X X X X , u u u u u u u u u ",
"a a a a a a a a a a a a a a u 9 9 9 9 9 9 9 9 9 9 9 9 9 9 9 9 9 9 9 9 9 9 9 9 9 9 9 9 9 7 3 , , , g g Z ! ~ ~ ' >.>.>.>._ K K K & X X X X X X o % % * , , , u ( ( ( ( ( ( ( ( [ [ { ' ( ( ( ( ( ( ( ( ( ( [ [ [ [ [ { ..} } } | ......>.>.>.>.>.X.>.>.>.X.X.X.X.>.>.>...} } } { { ' ( ( ( ( ( ( J J J J J J J J / ( ( ( | %.%.%.X X X 7 x x x x x x x x x x x x x x x x x x x x x x x l x x x x l l x x x l l l x x x x x x x x x x x x x x x x l x x x x x x x x x x x v A A A A A A A A A A A A Y Y ( _ *.*.q.w.q.R R R R V n n n n n 8 X X X X X @ % % % & & , 2 Z U J J J U U J J J J J U U J J J G A v v x x x d d d d d d d d d d d i i d d d d d d d d d d d d d d x x x x x x x x x x x x x v v v v v v A A A J U ( ( ( ( { { X.3.3.3.a.a.x.x.x.x.c.c.d.P P 0 0 0 0 0 0 0 0 0 4 - - - - - - - = o o o o * > , , 1 1 , , , , , , , i J D S Z C C C C x g g g g g x x x x x g g g x x x x g x x x x x C C x x x x C C C C S S G J J J J J J J J J J J J J J J J J A Z v v b b b Z Z Z v b Z v A A A Z G +.P 5 5 5 5 5 5 5 ;   X X X o u u u u u u u u u u ",
"a a a a a a a a a a a a a a a u 9 9 9 9 9 9 9 9 9 9 9 9 9 9 9 9 9 9 9 9 9 9 9 9 9 9 9 9 2 , , , , 3 g g g J ~ ~ ' >.>.>.:.K K K 8 X X X X X X X % % % , , , 9 J ( ( ( ( ( ( ( [ { { [ ( ( ( ( ( ( ( ( ( ' [ [ [ [ [ { ....{ { } } } } >.>.>.>.>.X.X.>.>.>.>.>.>.>.>.........{ [ ' ( ( ( ( ( ( ( J J J J J J J J ( ( ( ( %.%.%.%.o X X 4 x x x x x x x x x x x x x x x x x x x x l x x x x l x x x x x x l x x x x x x x x x x x x x x x x x x x x x x x x x x x x x x x x v v A A A A A A A A A A A Y Y Y [ *.6.F.F.q.R R R R R R R R R 6 X X X X X @ % % % % * 2 2 x J J J J J J J J J J U U U J J J J J v v v x x x x d d d d d d d d d d d d d d d d d d d d d d d d x g x x x x g g x v v v v v v v v v v v A A A J ( ( ( ( { { { <.3.3.u.a.x.c.c.c.x.x.x.x.P P e 6 0 0 0 0 0 0 0 0 ; - - - - - - - o o o o o & * , 1 1 1 1 , 4 , , , Z J J Z Z C x x x C x g g x x g g g g x x g g g g g g g x x x x x C C C C C C x x x Z S S S J J J J J J J J J J J J J J J J J b b v Z Z Z Z Z b b b b Z Z Z Z Z Z T +.l 8 8 4 5 5 5 5 @ X X X X , u u u u u u u u u a ",
"a a a a a a a a a a a a a a a a u 9 9 9 u u u 9 9 9 9 9 9 9 9 9 9 9 9 9 9 9 9 u p u 9 9 , , , , , , u g g x J ~ ~ >.>.>.>.P K K b X X X X X X X @ % % , , , 7 g ( ( ( ( ( ( ( { [ { [ ' ( ( ( ( ( ( ( ( ' [ { { [ [ [ [ { { { { } } } ..>.>.>.>.X.X.>.>.>.>.X...............[ ' ( ( ( ( ( ( ( ! J J J J J J J J ( ( ( ( %.%.%.%.% X X * x x l x x x x x x x x x x x x x x x x x l x x x x l l x x x x x l l x x x x x x x x x x x x x x x x x x x x l x x x x x x x l l x x x x v A A A A A A A A A A Y Y Y +.*.q.F.F.q.W R R R R R R R 6 X X X X X % % % % & , 2 2 9 J U U J J J J J J J J U U J J U J A v v v x x x x g g g g x x x d d d d d d d d d d d d d d d d k x g x x x x x v v v v v v v v v v v v A A A H J ( ( ( ( [ { { <.3.3.a.h.x.c.c.c.x.x.x.x.T P e 0 0 0 0 0 0 0 0 0 ; - - - - - - - @ o o o o @ * * , , 1 1 4 4 , , , S J J D Z Z x x x C C x x x x g g g g x x g g g g x x g g x x x x C C C C C x x x x S S S S G J J J J J J J J J J J J J J J A b b Z Z Z Z Z Z Z Z b b Z Z A A Z Z +.+.6 8 4 - - 4 4 =     X X @ u a g a u u u u u a g ",
"a a a a a a a a a a a a a a a a a 9 9 9 a a a u u u 9 9 9 9 9 9 9 9 9 9 9 9 9 9 a a a u , , , , , , , g C C x J ~ ' >.>.>._ K K K X X X X X X X X % % , , , 9 i ! ( ( ( ( ( ( { [ [ { { ( ( ( ( ( ( ( ' { { { [ [ [ { { { { { { ....} } ................} } } } } } } } | { [ ( ( ! ! J J J J J J J J J J J J J ( ( ( ( %.%.%.%.% X X * x x x x x x l x l l x x l l x x x x l l l l x x x x x x x x x x x l x x x l x x x x l x l l x x l x x x x x l l x x x l x x l l x x x l x v A A A A A A A A A A Y Y Y #.,.F.F.F.w.;.W R R R R R 6 @ X X X X % % % % % , 2 2 2 J U U U U U U U U J J J J U U G v v v v v v x x x x x x x x x x x d d d d d d d d d d d d d d d x x x x x x x v v v v v v v v A A A S A A A A J J ( ( ( ( [ { { <.3.3.a.a.a.h.a.a.a.x.x.x.#.P e 0 0 0 0 0 0 0 0 6 - - - - - - - - # o o o o o % * * * , 1 4 1 1 , 1 A J J J S Z Z x x x C x g g x x x x x x g g g g x x x x x x x x C C C C C x x x x Z S S S S A J J J J J J J J J J J J J A Z v b b Z Z b b Z Z Z Z Z Z b Z A A Z G +.P 8 8 - = - = - = @ @ & - = a a a g a u u a g a a ",
"a a a a a a a a a a a a a a a a a u 9 u a a a a a a a u u 9 9 9 9 9 9 9 9 9 9 9 u a a a a 3 , , , , , u C x x C ! ~ :.>.>.:.K K K = X X X X X X X @ % , , , u i S ( ( ( ( ( ' { [ { { { ( ( ( ( ' ' { { { { { { { { { { { { { { ....} } } } } ..{ { { { { { { { { { } } { [ ' ( ! J J J J J J J J J J J J J J J ( ( ( ( %.%.%.%.7 X X @ x x x x v x l l x l l x l x x x x x l l x x x x x x x x x x x x x x x x x l l x x l l x l x x x l l x x x x x l x x x l x x x l x x x l x v A A A A A A A A A A A U Y Y *.6.F.F.F.F.F.q.G.Q.w.R 6 # X X X X % % % % % , 2 2 2 A U U U U U U U U J J J J U A v v v v v v v v x x x x x x x x x x d d d d d d d d d d d d d x x x x x x x v v v v v v v v v Z A A S S A A A J J J ( ( ( ( [ { { <.3.3.a.a.a.a.a.a.a.a.x.x.2.P w 0 0 0 0 0 0 0 0 ; - - = = - - - - # @ o o o o o & * * * * , 4 1 , 1 A J J J D Z Z Z x x x x x x C C C x x x x g g g x x x x x x v x x C C C C x x x x S S S S S S H J J J J J J J J J H A v v v v Z A Z Z b b Z Z Z Z Z Z b Z A A Z P +.l 8 4 = = = = = - = = = = 7 g g a g g a a g g a a ",
"a a a a a a a a a a a a a a a x a u 9 u a a a a a a a a a u u 9 9 9 9 9 9 9 9 9 9 u a a a a 3 , , , , 7 g g g g C ~ ` >.>.>.K K K 7 X X X X X X X o % * , , u u g ( ( ( ( ( ' [ [ { { { ' ' ' { { { { { { { { [ { { { { { { { { { } } ..} } } ..{ { { { [ [ [ [ { { { [ [ { ' ( J J J J J J J J J J J J J J J ! ( ( ( ( %.%.%.%.u X X X 0 x x v A A v x x x x x x x x x x x x x x x x x x x x x l l x x x x x x x x l l l l x x x x x x l l x x x x x x x x l l x x x x x x l l x v A A A A A A A A A A A A U Y [ *.K.:X:XQ.F.G.eXeX,.R 6 # X X X X % % % % & * 2 2 2 x J J U U U U J J J J G A v v v v v v v v v v v x x x x x x x x x d d d d d d d d d d d d x x x x x x x v v v v v v v v v v A A A A A A A G U J J ( ( ( ( { { { 3.3.y.a.a.a.a.a.a.a.a.x.x.x.P 0 0 0 0 0 0 0 8 4 - - - # # @ - - - # @ o o o o o % * * * * * , , , , A J J J J A Z Z v x x x x x x x x x x x x x x g g g g g g x C x x x x C x x x x Z S S S S A A G J J J J J J J J J v v Z Z b b b b Z Z b b Z Z Z Z Z Z b v Z Z A T +.8 8 - = = & % & - - - - = g g a g g g a a g g g a ",
"d d a a a a a a a a a a a a x x a 3 9 9 a a a a a a a a a a a u 9 9 9 9 9 9 9 9 9 9 i a a a a 3 , , , y g g g g g S ~ ..>.>.P K K i X X X X X X X X % % , , u u a ( ( ( ( ( ' [ { { { { { { { { { { { { { { [ [ { { { { { { { { { { { ..} ..} { { [ ' ( ( ' [ [ { { [ [ [ ' ( ( ! J J J J J J J J J J J J J J / ( ( ( ( %.%.%.%.i X X X , x x v A b b b v x x x x x x x x x x x x x x x x x x x l l x x x x x x x x x x x x x x x x x x l l x x x x l l x x x x x x l l x x x x x v A A A A A A A A A A A A A Y Y #.G.:X:X:XG.Q.eXeX*.R 6 # X X X O % & & % & & , 2 2 9 J J J J U U J G A A v v v v v v v v v v v v v x x x x x x x x x x d d d d d d d d d x x x x x x x x v v v v v v v v v v Z A A A A A A G U U U ( ( ( ( ( { { } 3.3.u.a.a.h.h.a.a.a.a.x.l.c.T 0 0 0 0 0 8 4 - - - - - # # @ = - = # @ o o o o o o * * * * * * , , , v J J J J D Z Z Z C C x x x x x x x x x x x x g g g g g g x C x x x x v v x x Z S S S S S A A A J J J J J J J J J v v Z Z b Z b b Z Z v b Z Z b Z Z Z v v Z Z A P b 5 4 = = = = % & - = & @ % g g g g g g a a g g g g ",
"x x x x x g g a a a a a a g x x 7 > , 7 a a a a a a a a a i i a p u 9 9 9 9 9 9 9 9 9 u a a a a u 3 , g g g g g g g ! ` >.>._ K K b X X X X X X X X @ % > , u u u ( ( ( ( ( ' [ { { { { { { [ [ { { { { [ [ [ [ [ { [ [ { { { { [ [ [ [ { { { { { ' ( ( ( ( ' { { { { { [ ( ( ( ( J J J J J J J J J J J J J J ( ( ( ( ' %.%.%.%.Z X X X @ d x v A A b b b x x x x x l l x x x x l x x x l x x x x x x x l x x x x x x x x x x x x x x x x x x x x x x l x x x x x x x l x x x x x v A A A A A A A A A A A A A U Y _ *.=X:X:X.XQ.eXeX*.W 6 # X X X X & % & & % & = 2 2 2 J J J J J G v d x x x x x x x x x x x x x v v v x g x x x g g x x d d d d d d d d x x x g x x x g x v v v v v v v v v v A A A A A A A J J U ( ( ( ( ( ( { { ..3.3.u.a.a.h.h.h.h.a.a.l.l.x.0.0 0 8 4 - - - - - - - - # # # = - & # # o o o o o o % * * * * * , , , x J J J J J Z Z Z S C C C x C C C C C C C x x x x g g g g x C x x C v C Z Z S S S S S S S S A A J J J J J J J J J A v Z Z A Z v Z Z Z Z Z Z Z b b b Z v v Z Z A v 6 5 - = - = = @ & & @ @ @ % g g g g Z C g a g g g g ",
"x x x x x x x x x x g g g x x x > > > 3 u a a a a a a a i i i a a a u 9 9 9 9 9 9 9 9 9 a a a a a a a g g g g g g g C ~ >.>.| K K b X X X X X X X X X % % , 9 i u ( ( ( ( ( ' [ { { { { [ [ [ [ [ [ { { { [ [ [ [ [ [ [ [ { { { [ [ [ [ [ [ { ' ( ( ( ( ( ( ( ( { { { ' ( ( ( ( ! J J J J J J J J J J J J J J ( ( ( ( [ %.%.%.%.J X X X X , x v A A b b b v x x x l l x x x x l l x x x l l l x x x x x l l x x x x x x x x x x x x x x x x x x x x x x x x x x x x x x x x x x x x v A A A A A A A A A A A A G Y Y %.0.:X:X=XG.eXeX*.W 6 # X X X X & & & & & & * 2 2 2 G J J J A k d d x x x x k k x k g g g g d d v v v x x x x x g x x x d d d d d d k x x x x x x x g x v v v v Z A A A A S A A A A A A J J J ( ( ( ( ( ( ( { { X.3.3.u.a.a.h.h.h.h.h.h.x.x.x.x.,.4 - - - - - - - - - - & # # - - # # # @ o o o o o % * * * * * , , , u J J J J J A Z Z S S C C C C x x C C C C x x x x g g g g C x x x Z S S S S S S S S S S S S A A J J J J J J ( ( J A v Z Z A A v v Z Z Z Z Z Z b b b v v v Z Z Z 0 5 5 = = - = @ @ @ % @ @ % % g g a Z Z Z Z Z Z Z Z Z ",
"x x x x x x x x x x x x x x x x > > > > 9 a a a a a i i a a a a a a a u u 9 9 9 9 9 9 9 9 i a a a a a g g g g g x x x Z { >.%.K K K X X X X X X X X X @ % & 7 i u ( ( ( ( ( ' { { { { { { { { [ [ [ { { { { [ [ [ [ { { { { [ [ ' ' ' ' ' ' ' ( ( ( ( ( ( ( ( ( ( ( ( ( ( ( ( J J J J J J J J J J J J J J J ! ( ( ( ( | %.%.%.%.J X X X @ * i v A A b b b v x x x x x x x x x x x x x x x x x x x x x x x x x x x x l x x x x l x x x x x x x x l x x x x l l x x x x x l l x x x x x x v v A A A A A A A A A G Y Y ( *.U.:XL.F.K.Q.2.W 6 # X X X O & & % % % % * 2 2 2 Z J J G k k g g x x k k k x g g x k k x x x x v v v x x x x g g x x x x d d d x x x x x g g x x x v v v Z S A A A S S A A A A A A A J J J ( ( ( ( ( ( [ { { <.3.3.u.a.a.h.h.h.h.h.h.x.x.x.x.c.c - - - - - - - - - - & @ # - = # # # o o o o o o @ * * * * * , 1 1 7 J J J J J J Z Z Z Z Z Z x x x x C C C C x x x x g g g g x x x A S S S S S S S S S S S S A A J J J J J J ( ( ( J G A b Z Z Z v b b b b b Z Z Z v b b Z Z Z v v 5 5 4 - - = % @ @ @ % % % % % g a g Z Z Z Z Z Z Z Z Z ",
"x x x x x x x x x x x x x x x x > > > > 7 u a a a i i i a a a a i a a a a a u 9 9 9 9 9 9 u a a a a a g x g g g x x x g J >.>.K K l X X X X X X X X X X % % % 3 u ( ( ( ( ( ' [ { { { { { { [ [ [ [ { { { { [ [ [ [ { { { { ( ( ( ( ( ( ( ( ( ( ( ( ( ! ! ( ( ( ( ( ( ( ( ( ! J J J J J J J J J J J J J J J / ( ( ( ( %.%.%.%.%.J X X X @ * , v A A b b b v x x x x x x x x x x x x x x x x x x x x x x x x x x x l l x x x x l x x x x x x x x l x x x x x x x x x x x x x x x x x x x x x v v A A A A A A A G Y Y Y %.*.L.F.F.F.F.2.I 6 # X X X O & & % % % % * 2 2 2 g J G k k x g g x k k k d d d g x k k x x g x v v v x x x x x x x x x g x x x x x x x x g g x x x v v v v A A A A S A A A A A A A G J J J ( ( ( ( ( { { { ..3.3.3.i.a.a.h.a.h.h.h.h.x.x.x.x.c.[ - - = # # = = = & @ @ @ & - # # # # @ o o o o o o * * * * * , 1 1 1 H J J J J J A Z Z Z Z Z Z x x x C C C C x x x x g g g g g x v A S S S S S S A A S A H J J J J J J J ( ( ( ( J J J A b Z Z Z Z b b b b Z Z Z Z b b b v Z Z v k 5 5 - - = % % @ @ @ % % % % * g a x Z Z Z Z Z Z Z Z Z ",
"Z C x x x x x x x x x Z H Z x x X > > > 7 9 a a a a i i a a a a i i a a a a a a i u 9 9 9 u a a a a a g x x g g x x g g g } >.K K l X X X X X X X X X X @ % % % , H ( ( ( ( ' [ [ [ { { { { { { [ { { { { { [ [ { [ { { ' ( ( ( ( ( ( ( ( ( ( ( J J J J J / ( ( ( ( ( ( ( ! J J J J J J J J J J J J J J J J ( ( ( ( ' %.%.%.%.%.[ X X X @ * * v A A A b A v x x x x l x x l l x x x x l x x l l x x l l x x x x x x x x x x l l x x l l x x x x l l x x x x x x x x x x x x x x x x x x l l x x v v A A A A A G Y Y Y [ *.2Xw.F.F.F.2.L 6 @ X X X X % & % % % % * 2 2 2 i J x k x x g g x d i i i i i i i i d x x x x x v v v x x x x x x x x g x x x x g g x x x x x x v v v v v v A S A A A A A A A A A J J J U ( ( ( ( { { { { >.3.3.3.i.a.a.a.a.a.a.h.a.x.x.x.c.c.0.- - # # # # # # # # @ # = & @ @ # # @ o o o o o o * * * * * , 1 , , S J J J J J D Z Z Z Z Z Z Z x x x x C C C x C x g g g g g x v Z A S S S S S A J J J J J J J J J ( ( ( ( ( ( J J J A b b Z Z Z Z Z Z b b Z Z Z Z b b v v v v 8 8 5 = - % % % @ @ % % % % % , g g Z Z Z Z Z Z Z Z Z Z ",
"J J A C x x x x x x Z J J H x i X @ > > 7 9 a a a a a a a a i i a a a a a a a a a a a a u u a a a a a a g x g g g x g g g ( >.K K k % X X X X X X X X X X @ % % % % u ( ( ( ' { [ [ { { { { { { { { { { { { [ [ [ [ { ' ( ( ( ( ( ( ( ( ( ( J J J J J J J J ( ( ( ( ( ( ! J J J J J J J J J J J J J J J J J ( ( ( ( } %.%.%.%.%.%.X X X X * * 0 A A b b A b x x x l l x l l x x x x l l x x x l x x l l x x x x x x x x x x x x k d d d k k x x x l x x x x x x x x x x l x x x l x x x x l x x x x A A A A A G Y Y Y +.*.6XK.F.F.F.2.I 6 X X X X X % & & & % & * 2 2 2 a Z k k x x g d i i i i i i i i i i i i d k x x v v v v x x v v v v v x g x x x x g x x x x x v v v v v v v v A A A A A A A A A A J J J U ( ( ( { { { { } 3.3.3.3.a.a.a.a.a.a.a.h.a.x.x.x.c.c.4.- - # # # # # # # # # # & # # @ # # @ o o o o o o * * * * * * 1 , , x J J J J J J A Z Z Z Z Z Z Z x x x C C v x C x g g g g g x x Z S S S S A H J J J J J J J ( ( ( ( ( ( ( ( ( ( J J J A b Z Z Z Z v Z v b Z Z Z Z b Z Z v i 0 8 8 4 = = % % % @ @ % % % % % 7 g g Z Z Z Z Z Z Z Z Z Z ",
"J J J J Z x x x x A J J J J x 2 X X > , 7 9 u a a a a a a a a i a a a a i i i a a a a a a a a a a a a a a g g g g g g g g J >.K K w 4 X X X X X X X X X X X % % % % % * g ( [ [ [ [ { { { { { { { { { { { { { { { { ( ( ( ( ( ( ( ( ( ( J J J J J J J J J J J ! / / ! J J J J J J J J J J J J J D S Z H J J ( ( ( ( %.%.%.%.%.%.%.@ X X X * * 2 A A b b A b x x x x x x x x x x x x l l x x x x x x l l x x x l x x x x x x x x d d d d d d d d k x x x x x x d d k l l x x x x l x x x l l x x x x A A A A A G Y Y Y #.*.2X^.F.F.F.*.I 6 X X X X X % % & & & & * 2 2 2 a g g x x x x i i i i i i i i i i i i i i i k k x v v v v v v v v v v v x x x x g g x x x x v v v v v v v v v S A A A A A A A A G J J U J ( ( ( { { { { >.3.3.3.3.h.h.h.h.a.a.a.a.a.x.x.x.x._ k - - # # # # # # # # # # @ @ @ @ # # @ o o o o o @ * * * * * * , , 1 a J J J J J J D Z Z Z Z Z Z Z Z Z x C C C C C x x x x C C C x v S S S G J J J J J J ( ( ( ( ( ( ( ( ( ( ( ( ( ( J J J H A A Z Z Z b Z Z Z Z Z Z Z Z Z i 0 0 8 8 4 = @ X X @ % % % % % % @ u g g Z Z Z Z Z Z Z Z Z Z ",
"J J J J J A Z Z H J J J J J Z % X X * , 9 9 9 a a a a a a a a i a a a a i i i a a a a a a a a a a a a a a a g g g g g g g Z >.K m w w X X X X X X X X X X X X @ % % % % % 2 ' [ [ [ { { { { [ [ { { { { { { { { ' ( ( ( ( ( ( ( ( ( ( ! J J J J J J J J J J J J J J J J J J J J J J J H D S S Z Z Z Z H J / ( ( ( ' %.%.%.%.%.%.%.* X X X % * * A b b b b b x x x x x x l x x x x x l l x x x x x x x l x x l l x x x x x x x x d d d d d d d d d d k x x x d d d k x x x x d d d k x x x x x x x x v A A A A G Y Y ( #.*.2X:Xw.w.F.*.I 6 X X X X X % % & & & & = 2 2 2 g g g g k x d i i i i i i i i i i i i i i i d k x v v v v v v v v v v v v x x x g g x x x v v v v v v v v v v S A A A A A A G J J J J U ( ( ( [ { { { ..3.3.3.3.u.a.h.h.h.h.a.a.a.a.x.x.h.G v 4 - - & # # # # # # # # # @ @ # @ # @ o o o o o o @ * * * * * * > , , 9 J J J J J J J S Z Z Z Z Z Z Z Z Z C C C C C v x v C C C C x Z S S H J J J J J U ( ( ( ( ( ( ( ( ( ( ( ( ( ( ( ( J J J J J H A A Z Z Z Z Z Z Z Z Z k 0 0 8 8 8 - = X X X @ % % % % % % @ i g g Z Z Z Z Z Z Z Z Z Z ",
"J J J J J J J J J J J J J J Z X X X % , 9 9 9 a a a a i a a a a i a a a i i a a a a a a i i i a a a a a a a a g x h g g g x >.K b w w 1 X X X X X X X X X X X X X @ % * % % 2 [ [ { { { { [ [ [ { { [ [ [ [ { ' ( ( ( ( ( ( ( ( ( ( ! J J J J J J J J J J J J J J J H H S S S S S Z Z Z Z Z Z Z Z Z Z H J ( ( ( ( [ %.%.%.%.%.%.%., X X X @ * * b A A b b b x x x x x l x x x x x x x x x x x x x x x x x x x x x x x l x x x k d d d d d d d d d d d d d d d d d x x x k d d d d d d k x x x x x x v A A A A G ( ( ( %.*.!.5XF.F.F.*.T 6 X X X X O @ % & & % % , 2 2 2 x x k g k k i i i i i i i i i i i i i i i i i d x x v v v v v v v v v v v v x x x x x v v v v v v v v v v v A A A A A A G J J J J J J Y ( ( ( { { { { <.3.3.3.3.a.a.a.a.h.h.a.a.a.x.x.0.b v 0 - - - - # # # # # @ @ @ @ # # # # # @ o o o o o o % * * * * * * * 1 1 7 J J J J J J J A Z Z Z Z Z Z Z Z Z Z C C C x x x x x x x x x v S S J J J J U ( ( ( ( ( ( ( ( ( ( ( ( ( ( ( ( ( ( ( J J J J J J J J A Z Z Z Z Z Z v 0 0 0 8 8 8 - @ X X X @ @ % @ @ @ @ @ a g g Z Z Z Z Z Z Z Z Z Z ",
"J J J J J J J J J J J J J J a X X X % , 9 9 9 u a i i i a a a a i a a a a a a a a a a a i i i a a a a a a a a a a g h g g g >.K l w w w @ X X X X X X X X X X X X X X @ % % % a [ [ { { { [ [ [ ' ' ' ' [ ' ( ( ( ( ( ( ( ( ( ( ( ( ! J J J J J J J J J J H S S Z Z Z Z C C C A Z Z Z Z Z Z Z Z Z Z Z J J ( ( ( ( } %.%.%.%.%.%.%.i X X X X * * x A A A A b x x x x x l l x x x x x x x x x x x x x x x x x x x x l l l x x x k d d d d d d d d d d d d d d d d x x x d d d d d d d d d k x x x x x v A A A A A Y ( ( [ *.G.5XF.F.q.*.T 6 X X X X O @ % % & % % , 2 2 9 x x x g k k i i i i i i i i i i i i i i i i i d x x v v v v v v v v v v v v v v v v v v v v v v v v v v v v A A A A A G U J J J J J ( ( ( ( { { { { >.3.3.3.3.a.a.a.a.a.h.h.a.a.x.x.0.c v l 4 - - - - & # # @ @ @ @ @ @ # # # # @ o o o o o o o & * * * * * * * , 1 1 J J J J J J J J Z Z Z Z Z Z Z Z Z Z Z C x x x x x x x x x x v S H J J J ( ( ( ( ( ( ( ( ( ( ( ( ( ( ( ( ( ( ( ( ( ( ( ( ( ( ( U J J J A Z Z Z Z k 0 0 8 8 8 8 = X X X X @ @ @ @ @ @ @ % a g g C Z Z Z Z Z Z Z Z Z ",
"J J J J J J J J J J J J J J , X X X % , u u u u a a a a a a a a i i a a a a a i a a a i i i a a i a a a a a a a i a g g g g _ K k w w 0 1 X X X X X X X X X X X X X X X X @ % % H [ { { { [ [ [ ( ( ( ( ( ( ( ( ( ( ( ( ( ( ( ( ( ( / J J J J J J J D S Z Z Z Z C C C C C C A A Z Z Z Z Z Z Z Z Z Z Z J J ( ( ( ( %.%.%.%.%.%.%.%.i X X X X % * i A b b A A x x x x x x x x k d d k l l x x x x x x x x x x x x x x x x x x x d d d d d d d d d d d d d d d k x x k d d d d d d d d d d d k x x x x l A A A A A U Y Y [ *.7.5XF.F.q.*._ 0 X X X X X X X @ * % % , 2 2 x x x g g k d i i i i i i i i i i i i i i i i i i k k x v v v v v v v v v v v v v v v v v v v v v v v v v v A A A A A A J U U U U U ( ( ( ( ( { { { >.3.3.3.3.a.a.a.a.a.a.h.x.x.x.x.4.b v v 8 - - - - - - # @ # # # # # # # # # @ o o o o o o o @ * * * * * * * * , 1 1 D J J J J J J J A Z Z Z Z Z Z Z Z Z Z Z x x x x x C v v x x x S H J J ( ( ( ( ( ( ( ( ( ( ( ( ( ( ( ( ( ( ( ( ( ( ( ( ( ( ( ( ( ( ( ( J G A A v 0 0 8 8 8 8 5 & X X X X % % % @ @ % % & a a a g Z Z Z Z Z Z Z Z Z ",
"J J J J J J J J J J J J J J @ X X X % , u u 9 u a a a a a a i i i i a a a a i i a a i i a a a a i i a a a a a a i i a g g g _ K w w 0 4 4 & X X X X X X X X X X X X X X X X o % , ( ' { { { [ ( ( ( ( ( ( ( ( / ! ! J ! / / ( ( ( ( ( ! J J J J J Z Z Z Z Z Z Z Z Z C C C C A A Z Z Z Z Z Z Z Z Z Z Z J J ( ( ( ( %.%.%.%.%.%.%.%.x X X X X @ * 9 A b b A A x x x x x x x d d d d d k l x x x x x x x x x x x x x x x x l l x d d d d d d d d d d d d d d d d d d d d d d d d d d d d d d d x x x x l b A A A A G Y Y _ *.*.=XF.F.6.*.[ K X X X X X X X % & % & , 2 9 k g x x g k i i i i i i i i i i i i i i i i i i i d k x v v v v v v v v v v v v v v v v v v v v v v v v v v A A A A A A J U J U U J _ ( ( ( { { { >.3.3.3.3.i.a.a.h.x.x.x.x.x.x.x.,.v v v 8 - - - - - - - # @ # # # # # # # @ # o o o o o o o o % * * * * * * * * , 1 1 Z J J J J J J J J Z Z Z Z Z Z Z Z Z Z Z Z x x x x C C x x x x S J J ( ( ( ( ( ( ( ( ( ( ( ( ( ( ( ( ( ( ( ( ( ( ( ( ( ( ( ( ( ( ( ( ( ( J A A i 0 6 8 8 8 4 - # X X X @ % % % @ @ % % & g a a g Z Z Z Z Z Z Z Z Z ",
"J J J J J J J J J J J J J Z X X X X % , 9 9 9 9 a a a a a i i i i a a a a a i a a a a a a a a a i i a a a a i i i i a a a a U K w w 4 4 4 4 # X X X X X X X X X X X X X X X X o % a ( ' { { [ ( ( ( ( ( J J J J J J J J J J J ( ( ( ( ( J J J J S Z Z Z Z Z Z Z Z Z A A A A A A Z Z Z Z Z Z Z Z Z Z Z J J ( ( ( ( %.%.%.%.%.%.%.%.J X X X X @ * , A b b A A x x x x x k d d d i d d d d d d d k x l l x x x x x x x x l l x x d d d d d d d d d d d d d d d d d d d 0 0 9 9 9 9 0 i i d d d k x x x x v A A A A A U Y Y *.*.F.F.F.2.*.T K X X X X X X X % & % & 2 2 d d k k x g k i i i i i i i i i i i i i i i i i i i i d x x v v v v v v v v v v v v v v v v v v v v v v v v A A S A A A A A J J J J J J ( ( ( ' { { 3.3.3.3.3.a.h.x.c.M.x.x.x.x.x.,.v v v 8 - - - - - - - - = @ @ @ @ @ # # @ @ @ o o o o o o o o % * * * * * * * * , 1 1 x A J J J J J J J Z Z Z Z Z Z Z Z Z Z Z Z Z C x x C C C C x x A J J ( ( ( ( J ( ( ( ( ( ( ( ( ( ( ( ( ( ( ( ( ( ( ( ( ( ( ( ( ( ( ( ( ( ( J d 0 6 8 8 4 - = = @ X X X @ % % % % % % % * g g g g x Z Z Z Z Z Z Z Z ",
"J J J J J J J J J J J J J d X X X X % , 9 9 9 9 i a a a a i i i a a a a a a a a a a a a a a a a i i a a a i i i a a a a a a b K w 8 4 4 4 4 4 @ X X X X X X X X X X X X X X X X % % S ( ( ' ( ( ( ( ! J J J J J J J J J J J J J ( ( ( ( ( J J J Z Z Z Z Z Z Z Z Z A A Z A A A A Z Z Z Z Z Z Z Z Z Z S J J ( ( ( ( %.%.%.%.%.%.%.%.J X X X X @ * * A b b b A x x x x x d d d 6 6 0 d d d d d d d d k l x x l l l x x x l x x k d d d d d d d d d d d d d d d d d 0 8 8 8 8 8 8 8 9 9 9 9 0 i d x x x x x A A A A A G Y Y *.*.0.F.F.*.*.T K % X X X X X @ % % % * 2 7 k k k x x x d i i i i i i i i i i i i i i i i i i i i i x x x v v v v v v v v v v v v v v v v v v v v v v A A S S S A A A A G J J J J J J ( ( ( { { ..3.3.3.3.a.x.x.M. X[.I.x.x.,.v v l 4 - - - - - - - - - - @ @ @ @ @ @ # @ # o o o o o o o o o & * * * * * * * * , 1 1 i Z H J J J J J J Z Z Z Z Z Z Z Z Z Z Z Z S Z x x C C C C x x H J J J J J J U ( ( ( ( ( ( ( ( ( ( ( ( ( ( ( ( ( ( ( ( ( ( ( ( ( ( ( ( ( J i 0 0 8 8 - = = = = X X X X @ % % % % % % % , g g g g g Z Z Z Z Z Z Z Z ",
"J J J J J J J J J J J J J 3 X X X X % , 9 9 9 9 u a a a a a a a a a a a a a a a i i i a a a i i a a a a a a a a a a a a a a b K 0 4 4 4 4 4 4 - X X X X X X X X X X X X X X X X @ % Z Z ( ( ( ( ( J J J J J J J J D Z Z Z S J J J ( ( ( ( J J S Z Z Z Z Z Z Z Z Z Z Z Z Z Z Z Z Z Z Z Z Z Z Z Z Z Z S J J ( ( ( ( | %.%.%.%.%.%.%.J X X X X X * * b b b b b x x x x d d d i 6 6 0 d d d d d d d d d d x x x x x x x x l x x d d d d d d d d d d d d d d d d d i 8 8 8 8 8 8 8 9 8 8 8 9 9 9 0 k x x x x b A A A A A Y Y #.*.0.F.q.*.*.P K * X X X X @ @ @ % % , 2 i x k k k k x i i i i i i i i i i i i i i i i i i i i i i d g k x x v v v v v v v v v v v v v v v v v v v Z A A A A A A A A A A J J J J J J J ( ( ( [ { X.3.3.3.u.x.x.x.[. X X[.5.v v l 4 - - - - - - - - - - - & @ @ @ @ # # # # @ o o o o o o o o * * * * * * * * * * , , 7 Z S J J J J J A Z Z Z Z Z Z Z Z Z Z Z Z S S Z C x x x C x Z J J J J J J J ( ( ( ( ( ( ( ( ( ( ( ( ( ( ( ( ( ( ( ( ( ( ( ( ( ( ( ( ( J 0 0 0 8 8 5 4 = = = = X X X X X % @ @ % % % % 4 i g g g a g Z Z Z Z Z Z Z ",
"J J J J J J J J J J J J J * X X X X % , 9 9 9 9 9 a a a a a a a a a a a a a a a i i a a a a a i a a a a a a a a a a a a a a b K 4 4 4 4 4 4 4 4 & X X X X X X X X X X X X X X X @ % Z Z Z J J J J J J J J J J J S Z Z Z Z Z S J J J ( ( ( J J Z Z Z Z Z Z Z Z Z Z Z Z Z Z Z Z Z Z Z Z Z Z Z Z Z Z Z S J ! ( ( ( ( { %.%.%.%.%.%.%.J X X X X X * * x b b b b x x x x d d d 0 0 6 6 i d d d d d d d d d d x x x x l x x l x x d d d d d d d d d d d d d d d d d 8 8 8 8 9 8 8 9 9 8 9 8 8 9 8 8 8 i x x x v A A A A A U Y %.*.0.F.q.*.*.P K * X X X X O @ O % % , 2 d x x k k g d i i i i i i i i i i i i i i i i i i i i i i i x k x x x x v v v v v v v v v v v v v v v v v A A A A A A A A A A A G J J J J J J ( ( ( ( { { <.3.3.3.x.x.x.M. X X X_ v l 4 - - - - - - - - - - - - = @ @ @ @ # # # # @ o o o o o o o o * * * * * * * * * * * * * d Z A J J J A Z Z Z Z Z Z Z Z Z Z Z Z Z S S Z Z x x x x x H J J J J J J ( ( ( ( ( ( ( ( ( ( ( ( ( ( ( ( ( ( ( ( ( ( ( ( ( ( ( ( ( H 0 0 0 8 4 8 5 5 4 4 - = X X X X X % @ @ % % % % 4 u g g a a g x Z Z Z Z Z Z ",
"J J J J J J J J J J J J J X X X X X % , 9 9 9 9 9 u i i a a a a a a a a i i a i a i a a a a i i a a a a i i a a a a a a a a b K 4 4 4 4 4 4 4 4 4 @ X X X X X X X X X X X X X X X % g Z Z Z D H J J H H A S S Z Z Z Z Z Z Z Z S J J J J J J D Z Z Z Z x g x Z Z Z Z Z Z Z Z Z Z Z Z Z Z Z Z Z Z Z Z S J / ( ( ( ( } %.%.%.%.%.%.%.U X X X X X % * k A b A A x x x k d d i 9 6 6 0 0 d d d d d d d d d d d k x x x x x x x k d d d d d d d d d d d d d d d d d 8 9 9 9 9 9 9 9 9 9 9 9 9 9 9 8 8 8 7 d x x x v b A A U Y [ *.6.F.6.*.*.P K * X X X X X X X @ % , 2 x g x g g g i i i i i i i i i i i i i i i i i i i i i i i i d k k g x x g v v v v v v v v v v v v v v v A S A A A A A A A A A A J U U J J J ( ( ( ( ( { { { >.3.3.u.x.x.x.M. X9.v b z B l w w w w w 6 6 6 5 5 4 4 # @ # # # # # # @ o o o o o o o o * * * * * * * * * * * * * > Z Z A A Z Z Z Z Z Z Z Z Z Z Z Z Z Z Z Z Z Z Z Z x x x A J J J J J J J ( ( ( ( ( ( ( ( ( J J A Z ( ( ( U U ( ( ( ( ( ( ( ( ( ( Z 0 0 0 0 5 8 8 5 5 8 8 8 - X X X X X X @ @ % % % % 7 7 a a a g g g x Z Z Z Z Z ",
"g x Z A J J J J J J J J J X X X X X @ , 9 9 9 9 9 9 i i i a a a a a a a i i i i a a a a a a a a a a i i i a a u u u u a a a b c 4 4 4 4 4 4 4 4 4 4 o X X X X X X X X X X X X X X @ 7 Z Z Z Z Z Z Z Z Z Z Z Z Z Z Z Z Z Z Z Z Z S J J J J J Z Z Z Z C a a a a g x C Z Z Z Z Z Z Z Z Z Z Z Z Z Z Z Z H J / ( ( ( ( } %.%.%.%.%.%.%.v X X X X X % * i A A A A x x x d d d 0 9 0 0 0 6 0 i d d d d d d d d d d d x x x x x x d d d d d d d d d d d d d d d d d d 0 9 9 9 9 9 9 9 9 9 9 9 7 7 7 4 2 2 2 2 7 d x x x v A U Y [ *.,.q.*.*.*.P K * X X X X X X X X % * 7 k g g g g d i i i i i i i i i i i i i i i i i i i i i i i i i d k x x x g x v v v v v v v v v v v v v Z A A A A A A A A A A A G U U U U U J ( ( ( ( ' { { { { >.3.3.h.x.x.c.,.v K W I I I B r e e e e e e e e e e = # # # $ - - & # o o o o o o o o * * * * * * * * * * * * * * , Z Z Z Z Z Z Z Z Z Z Z Z Z Z Z Z Z Z Z Z Z Z Z x x x H J J J J J J J J J J J U / x i 0 0 0 0 0 x S A A Z Z Z Z Z S S S Z d 0 0 0 0 0 8 5 8 8 5 5 8 8 4 = X X X X X X o @ % % % % 7 7 9 a a a g g g g C Z Z Z ",
"g g g g x Z A J J J J J J X X X X X O , u u 9 9 9 9 u a a a a a i i a a a a a a i u u u u u i a a a a a a u 9 9 9 9 9 9 u a K c 4 4 4 4 4 4 4 4 4 4 = X X X X X X X X X X X X X X X @ 7 g Z Z Z Z Z Z Z Z Z Z Z Z Z Z Z Z Z Z Z Z S J J J S Z Z Z C d d d a a a a a d g x C Z Z Z Z Z Z Z Z Z Z Z Z H J ! ( ( ( ( } %.%.%.%.%.%.%.i X X X X X % * i v b b v x x k d d 0 6 6 0 0 9 9 9 9 0 i d d d d d d d d d d d k x x k d d d d d d d d d d d d d d d d d d i 9 9 9 9 9 9 9 9 9 8 9 2 2 2 2 2 2 2 2 2 2 7 d x x x U Y [ *.*.*.*.*.*.K K * X X X X X o o X @ % 7 x x k k x i i i i i i i i i i i i i i i i i i i i i i i i i i i k k k k k x v v v v v x v v v v v v v S S S A A A A A A A A G J J J U U U ( ( ( ( ( { { { { { { >.3.3.x.x.d.c v *.6.*.T I I I l e e e e e e l r e = # # - - - - - # o o o o o o o o * * * * * * * * * * * * * * & u Z Z Z Z Z Z Z Z Z Z Z Z Z Z Z Z Z Z Z Z Z Z x x S J J J J H H H H H H J J J J J J A i 0 0 0 0 u u u u a x Z Z Z x i 0 0 0 0 0 0 0 8 8 8 8 5 5 8 8 4 & X X X X X X X O % % % % 7 7 7 i a a a a a a g g g g ",
"g g g g g g g g S J J J Z @ X X X X X > u u 9 9 9 9 9 u a a a a i u u u u u 9 9 9 9 9 9 9 9 9 9 u u u 9 9 9 9 9 9 9 9 9 9 i K k 4 4 4 4 4 4 4 4 4 4 4 @ X X X X X X X X X X X X X X X X X X * 7 a g Z Z Z Z Z Z Z Z Z Z Z Z Z Z Z Z S H S Z Z Z Z g a a d a a a a a a a a a d g g v Z Z Z Z Z Z Z Z J J J ( ( ( ( ( [ } [ [ [ [ [ 4 X X X X X * * i x x x x x d d d d 6 6 6 9 0 9 9 9 9 0 0 d d d d d d d d d d d d d d d d d d d d d d d d d d d d d d d d d d 9 9 9 9 9 9 9 9 8 8 9 9 2 2 2 2 2 2 2 2 2 2 2 7 k x U Y [ *.*.*.*.*.#.K K * X X X X X o o X X % % d x x x d i i i i i i i i i i i i i i i i i i i i i i i i i i a g k k k k g x v v v v v v v v v v v Z S S A A A A A A A A A J J J J J U U ( ( ( ( ( { { { { { { { >.3.3.x.} v b 6.6.6.=.W I I I l e e e e m V l e = # # - - - - - # @ o o o o o o o % * * * * * * * * * * * * * @ o , C Z Z Z Z Z Z Z Z Z Z Z Z Z Z Z Z Z Z C x x x Z A A A A A A A x x x x x x x x x 0 0 0 0 0 0 0 0 0 0 0 0 Z C i 0 0 0 0 0 0 0 0 9 - - 4 8 5 5 8 8 - & X X X X X X X X X @ % % 7 7 7 7 a a a a a a g g a a ",
"g g g u 7 3 3 3 3 u a 7 2 , X X X X X @ 3 u u 9 9 9 9 9 u u u u 9 9 9 9 u u u u 9 9 9 9 9 9 9 9 u u u u 9 9 9 9 9 9 9 9 9 i K 8 4 4 4 4 4 4 4 4 4 4 4 4 X X X X X X X X X X X X X X X X X X X X X X X X * * , 9 9 g g g Z Z Z Z Z Z Z Z Z v v v g a a a a a a a a a a a a a u 9 u 9 9 9 9 9 * * * > 9 Z J J ( ( ( ( ( ( ( ( ( ( H * X X X X o * > 0 x x k d d d d d 0 6 9 0 9 9 0 9 0 0 0 0 d d d d d d d d d d d d d d d d d d d d d d d d d d d d d d d d d d 0 8 9 9 9 9 9 9 8 8 8 9 9 4 2 2 2 2 2 2 2 2 2 2 2 0 U Y [ *.*.*.*.*.+.K K * X X X X X o X X X @ % , x x x i i i i i i i i i i i i i i i i i i i i i i i i i i d x g x x x x g x v v v v v v v v v v v v v A A A A A A A A A A J J J J J J U ( ( ( ( { { { { { { { { { >.3.3.G v K =.6.6.6.6.*.W I I r e e m V V l e - # # - - - - - # @ o o o o o o o o o @ * * * * * * * * * * * @ o o o 2 x Z Z Z Z Z Z Z Z Z Z Z Z Z a a i 7 , , 4 4 4 4 4 4 4 4 0 0 0 0 0 0 0 0 0 0 0 0 0 0 0 0 0 0 0 0 0 0 u 0 0 0 0 0 0 0 0 0 0 * X X X X @ & - 5 = & X X X X X X X X X X X @ 7 7 7 7 7 7 a g g g g 7 u g ",
"* X X X X , 3 3 2 2 2 2 2 2 X X X X X X X X X X @ @ * > > 3 3 3 2 2 2 , > * @ @ @ @ @ @ @ % > > > 3 3 7 9 9 9 9 9 9 9 9 9 i 0 4 4 4 4 4 4 4 4 4 4 4 4 4 = X X X X X X X X X X X X X X X X X X X X X X X X X X X X X X X X X % * 2 9 7 u i u u u u u 9 u 9 2 2 2 > % % @ X X X X X X X X X X X X X X X X X X > * X X % , , , , @ X X X X X X @ * , 0 d d d d d d d d 6 6 9 9 9 9 0 0 9 0 0 0 i d d d d d d d d d d d d d d d d d d d d d d d d d d d d d d d d d i 8 8 9 9 9 7 4 4 7 8 9 9 7 2 2 2 2 2 2 2 2 2 2 2 2 i Y +.*.*.*.*.*.P K K * X X X X X X X X X X % % i x x i i i i i i i i i i i i i i i i i i i i i i i d k k k x x x x x x g g x v v v v v v v v v v v v v A A A A A A A A A J J J J U J ( ( ( ( ( { { { { { { { { { { >.H @ 4 P 6.6.;.=.;.6.6.6.$.B z m B V B e e - # # - - - - - # @ o o o o o o o o o o o @ % & * * * * * * * @ o o o o o > i Z Z g i 9 2 , @ @ X X X X X X X X X X X X X X X X X X X X X @ 0 0 0 0 0 0 0 0 0 0 0 0 0 0 0 0 0 0 0 0 0 0 i k 0 0 0 * X X X X X X X X @ # X X X X X X X X X X X X X X X X X X X X X X X X X X ",
"X X X X X X * 3 3 3 3 3 2 3 @ X X X X X X X X X X X X X X X X X X X X X X X X X X X X X X X X X X X X X X X X @ @ @ @ @ @ 4 4 4 4 4 4 4 4 4 4 4 4 4 4 4 4 @ X X X X X X X X X X X X X X X X X X X X X X X X X X X X X X X X X X X X X X X X X X X X X X X X X X X X X X X X X X X X X X X X X X X X X X X X X X X X X X X X X X X X X X X X % * , 9 0 d d d d d d i 9 9 9 0 0 0 6 0 6 6 9 0 0 d d d d d d d d d d d d d d d d d d d d d d d d d d 0 d d d d d d d 9 8 8 8 7 2 2 2 2 2 4 7 7 2 2 2 2 2 2 2 2 2 2 2 2 4 Y #.*.*.*.*.+.K b 7 @ X X X X X X X O X O @ % , x d i i i i i i i i i i i i i i i i i i i i i i x x x x x k x x x x x x x g x v v v v v v v v v v v v v A A A A A A A G J J J J J J ( ( ( ( ( ( { { { { { { { { ( 7 O O O @ P =.=.=.=.=.6.6.L B B V V V l e e = # # - - - - - & # o o o o o o o o o o o o o o @ % % % % % @ o o o o o o o o X X X X X X X X X X X X X X X X X X X X X X X X X X X X X X X 7 l k k k d d d k k k 0 0 0 0 0 0 0 0 0 i k l k 0 0 0 * X X X X X X X X X X X X X X X X X X X X X X X X X X X X X X X X X X X X ",
"X X X X X X X @ , 3 3 3 2 3 @ X X X X X X X X X X X X X X X X X X X X X X X X X X X X X X X X X X X X X X X X X X X X X X X % 4 4 4 4 4 4 4 4 4 4 4 4 4 4 - X X X X X X X X X X X X X X X X X X X X X X X X X X X X X X X X X X X X X X X X X X X X X X X X X X X X X X X X X X X X X X X X X X X X X X X X X X X X X X X X X X X X X X X X % * > 0 9 9 0 i d d d d 9 9 9 9 0 0 6 9 6 6 0 0 0 i d d d d d d d d d d d d d d d d d d d d d d d i 6 6 6 0 i d d d d i 9 9 8 2 2 2 2 2 2 2 2 2 2 2 2 2 2 4 2 2 2 2 2 , % 2 b #.*.*.#.v , % @ X X X X X X X X @ @ O X % % 0 d i i i i i i i i i i i i i i i i i i i i i x x x x x x k k x x x x x x x x x v v v v v v x x x x v v v Z A A A A A G J U J J J J ( ( ( ( ( ( ' { ( H S i 9 % @ @ @ O O @ @ l =.=.=.=.=.W B V V V V z e e e = # # = - - - - = # @ o o o o o o o o o o o o o o o o o o o o o o o o o o o X X X X X X X X X X X X X X X X X X X X X X X X X X X X X X X X , l l l l l l k k l l l k k i i i k k l l l l l l k k k X X X X X X X X X X X X X X X X X X X X X X X X X X X X X X X X X X X X ",
"X X X X X X X X X @ * > % @ X X X X X X X X X X X X X X X X X X X X X X X X X X X X X X X X X X X X X X X X X X X X X X X X X & 4 4 4 4 4 4 4 4 4 4 4 4 4 4 # X X X X X X X X X X X X X X X X X X X X X X X X X X X X X X X X X X X X X X X X X X X X X X X X X X X X X X X X X X X X X X X X X X X X X X X X X X X X X X X X X X X X X X X % * * 0 6 6 9 6 0 d d d 0 9 0 0 0 0 9 9 9 9 0 0 0 0 6 6 6 0 0 d d d d d d d d d d d d d d d d d 0 0 6 6 8 = @ * i d d d i 9 7 2 2 2 , * * * * * , , 2 2 2 2 2 2 4 2 * % % % % % % % % % % % X X X X X X X X X X o X X @ % * i i i i i i i i i i i i i i i i i i i i i i k k k k d d i i i i i i i d x x x x x x x x g g x x x x x v v v v Z v v A J U U J J ( ( ( ( ( G a , @ @ @ @ @ @ @ @ @ O @ @ @ @ @ * +.=.-.W B B B V B l e e e e = # @ = - - - - - # @ o o o o o o o o o o o o o o o X X X X X X X o o o X X X X X X X X X X X X X X X X X X X X X X X X X X X X X X X X X X % l l l l l l k k k k l l l k k l l l z m B B z l l l k * X X X X X X X X X X X X X X X X X X X X X X X X X X X X X X X X X X X ",
"X X X X X X X X X X X X X X @ X X X X X X X X X X X X X X X X X X X X X X X X X X X X X X X X X X X X X X X X X X X X X X X % 4 4 4 4 4 4 4 4 4 4 4 4 4 4 4 4 X X X X X X X X X X X X X X X X X X X X X X X X X X X X X X X X X X X X X X X X X X X X X X X X X X X X X X X X X X X X X X X X X X X X X X X X X X X X X X X X X X X X X X X @ * * 4 6 6 6 6 9 d d d d 0 0 0 0 0 9 0 0 9 9 9 0 0 6 6 6 6 9 i d d d d d d d d d d d d d i 0 0 0 0 8 & X X X X X % 0 d d d 8 , % % % % % % % % % % % % * , , , * % % % % % % % % % % % % @ X X X X X X X X X X o @ X X % % 7 i i i i i i i i i i i i i 0 7 2 2 2 2 2 2 9 0 0 i i i i i i i i i 7 , 7 d x x x k k x g g x 0 0 7 2 2 2 2 2 = % % O , x A J J J S u , @ @ @ @ @ @ @ @ @ @ @ @ @ @ @ @ @ @ @ @ @ 4 l B B B B z r e e e e e - # # & - - - - - # @ o o o o o o o o o o o o o o X X X X X X X X X X X X X X X X X X X X X X X X X X X X X X X X X X X X X X X X X X X X X X 4 0 0 0 0 4 = % 4 l l l l l b m B B B B B B B B l l l k O X X X X X X X X X X X X X X X X X X X X X X X X X X X X X X X X X X ",
"X X X X X X X X X X X X X X 4 1 O X X X X X X X X X X X X X X X X X X X X X X X X X X X X X X X X X X X X X X X X X X X @ = 4 4 4 4 4 4 4 4 4 4 4 4 4 4 4 4 4 # X X X X X X X X X X X X X X X X X X X X X X X X X X X X X X X X X X X X X X X X X X X X X X X X X X X X X X X X X X X X X X X X X X X X X X X X X X X X X X X X X X X X X X o * * * 0 0 0 0 0 d d d d i 0 0 0 0 0 0 0 9 0 0 7 4 9 9 9 0 6 0 d d d d d d d d d d i i 0 0 0 8 4 @ X X X X X X X X X % 7 7 * % % % % % % % % % % % % % % % % % @ @ @ @ @ @ @ @ @ @ % @ o X X X X X X X X X X X X o X X @ % * i i i i i i i i i 0 4 * @ X O o o X X X X X X @ o X @ * * , , @ X X X X X @ % @ # % % % @ @ @ @ O O O O @ @ @ X @ @ @ @ @ @ @ @ @ @ @ @ @ @ @ O @ O @ @ @ O O O O O X @ @ @ @ X O @ @ # ; 8 w e e e e e e - # # # - - - - - & # @ o o o o o o o o o o o X X X X X X X X X X X X X X X X X X X X X X X X X X X X X X X X X X X X X X X X X X X X X X X X X X X X X X X X X l l l m B B B B B B B B B B B B m l l w X X X X X X X X X X X X X X X X X X X X X X X X X X X X X X X X X X ",
"X X X X X X X X X X X X X X 4 4 = X X X X X X X X X X X X X X X X X X X X X X X X X X X X X X X X X X X X X X X X X X & 4 4 4 4 4 4 4 4 4 4 4 4 4 4 4 4 4 4 4 - X X X X X X X X X X X X X X X X X X X X X X X X X X X X X X X X X X X X X X X X X X X X X X X X X X X X X X X X X X X X X X X X X X X X X X X X X X X X X X X X X X X X X X X o * * 4 0 0 0 0 0 i d d d 0 0 0 0 0 0 7 , % X X X , 9 9 6 0 0 i d d d i 0 i 0 0 9 0 0 0 7 * o X X X X X X X X X X X X X X X X o X @ @ @ @ @ @ o X o X X X X X X X X X X X X X X X X X X X X X X X X X X X X X X X X X X @ % 2 i i i i 9 2 * @ o X o X X @ X o X X X X X X O X @ o X X X X X X X X X X X X X @ @ @ @ @ @ @ @ @ X O O O @ @ @ @ @ @ @ @ @ @ X O @ @ @ @ @ @ O @ @ @ @ @ @ @ O O @ @ @ @ @ @ O X @ @ @ @ @ @ @ & 4 e e 8 - = # # - - - - - = # @ o o o o o o o o o o o X X X X X X X X X X X X X X X X X X X X X X X X X X X X X X X X X X X X X X X X X X X X X X X X X X X X X X X X * l l B B B B B B B B B B B B B B B B z l w X X X X X X X X X X X X X X X X X X X X X X X X X X X X X X X X X ",
"X X X X X X X X X X X X X X = 4 - = @ X X X X X X X X X X X X X X X X X X X X X X X X X X X X X X X X X X X X X X & 4 4 4 4 4 4 4 4 4 5 6 6 w w 6 6 6 5 5 8 6 6 & X X X X X X X X X X X X X X X X X X X X X X X X X X X X X X X X X X X X X X X X X X @ @ @ @ @ @ @ X X X X X X X X X X X X X X X X X X X X X X X X X X X X X X X X X X X X X X X % * 8 0 0 0 0 6 6 0 0 0 0 8 , % X X X X X X X X 2 8 6 0 0 0 0 6 6 6 6 6 6 0 0 7 * @ X X X X X X X X X X X X X X X X X X X X X X X X X X X X X X X X X X X X X X X X X X X X X X X X X X X X X X X X X X X X X X X o o @ @ * % @ @ X X X X X X X X @ X X X X o X X X X X X X X X X X X X X X X X X X X X @ @ @ @ @ @ @ @ @ @ @ @ @ @ @ @ @ @ @ @ @ @ @ O @ O O X X @ @ @ @ @ @ @ @ @ @ @ @ @ @ @ @ @ @ O @ @ @ @ @ @ @ @ @ @ @ & - - - = # - - 8 w w w w 0 * & o o o o o o o o o X X X X X X X X X X X X X X X X X X X X X X X X X X X X X X X X X X X X X X X X X X X X X X X X X X X X X X @ * 4 l l B B B B B B B B B B B B B B B B B z l k % X X @ @ @ @ @ @ @ X X X X X X X X X X X X X X X X X X X X X X ",
"X X X X X X X X X X X X X X * 4 - - - ; 4 , = = * * % @ @ @ X X X X X X X X X X X X X X X X X X X X X X X X X X - 4 4 4 4 4 5 8 6 w w w w w w w w w w w w w w e 6 X X X X X X X X X X X X X X X X X X X X X X X X X X X X X X X X X X X X X @ & - ; 4 4 4 4 4 4 4 6 0 6 6 5 - - - - - - 4 6 6 6 6 6 w w 0 w w 0 6 6 @ X X X X X X X X X X X X X X X @ * 0 0 0 0 6 8 8 , % @ X X X X X X X X X X X X , 9 0 0 0 0 6 6 6 8 8 , % o X X X X X X X X X X X X X X X X X X X X X X X X X X X X X X X X X X X X X X X X X X X X X X X X X X X X X X X X X X X X X X X X X X X o o o X X X o O X X X X o X X o X X X X X X X X X X X X X X X X X X X X X X X X X X X @ O @ @ @ @ @ @ @ @ @ @ @ @ @ @ @ @ @ @ @ @ @ O O O @ @ = % O O @ @ @ @ @ @ @ @ @ @ @ @ @ @ O O @ @ @ @ @ @ @ @ @ @ @ @ - - - - 4 w k k k k k k c b b l 8 % o o o # % % % # # @ @ @ @ @ @ X X X X X X X X X X X X X X X X @ @ @ @ @ @ @ X X X X X X X X X X X X X X X X X X @ % = = * 8 l b B B B B B B B B B B B B B B B B B B l l k 8 8 8 8 8 8 8 8 8 8 8 8 8 4 4 4 = = # @ X X X X X X X X X X X ",
"X X @ % @ @ @ @ @ % & * = 4 4 4 4 4 4 ; ; ; ; ; 4 4 4 4 ; ; ; ; 4 4 4 = = = = = & & & & * & % % @ @ @ X X X % 4 8 6 6 w w w w w w w w w w w w w w w w w w w e e w & o X X X X X X X X X X X X X X X X X @ @ & = - - - ; 4 ; - = = = = - ; 4 4 4 4 4 4 4 4 5 6 6 6 6 6 0 0 0 6 6 0 0 w 0 q q 0 0 0 0 0 0 0 0 0 w w q 5 X X X X X X X X X X X X X X X X X X X X X X X X X X X X X X X X X X X X X X X X @ , 7 4 * X X X X X X X X X X X X X X X X X X X X X X X X X X X X X X X X X X X X X X X X X X X X X X X X X X X X X X X X X X X X X X X X X X X X X X X X X X X X X X X X X X X X X X X X X X X X X X X X X X X X X X X X X X X X X X X X X X X X X X O O @ O O O @ @ @ @ o o @ @ @ @ O O @ @ O @ @ @ O O @ 4 2 2 , % @ @ @ @ @ @ @ @ @ @ @ @ @ @ @ @ @ @ @ @ @ @ @ @ @ @ @ @ @ - - 4 w k k k k k e z m m b b b b w 6 6 6 6 6 6 6 6 6 6 6 6 6 6 6 6 6 6 6 6 5 4 4 4 4 4 4 4 4 8 6 6 6 6 6 6 6 6 8 4 - & @ X X X X X X X X X X X * , , , = * 4 l l l b B B B B B B B B B B B B B B B B m l l k 8 8 8 8 8 8 8 8 8 8 8 8 8 8 8 8 8 8 8 8 8 8 4 4 * * % @ @ X ",
"4 4 4 4 ; 4 - - 4 - - - 4 4 4 4 4 4 4 ; ; ; ; ; 4 4 4 4 ; ; ; ; 4 4 4 4 ; ; ; ; 4 1 1 - 4 4 4 4 4 4 ; ; 4 8 w w w w w w w w w w w w w w w w w w w w w w w w e e w w w w 0 6 6 5 4 4 4 4 4 ; 4 4 = = - 4 4 4 4 4 4 4 4 4 4 4 4 4 4 4 4 4 4 4 4 4 4 5 6 6 w w w w q q 6 0 0 6 6 6 0 0 0 w q q 0 0 0 0 0 0 0 0 q q w w q # X X X X X X X X X X X X X X X X X X X X X X X X X X X X X X X X X X X X X X X X X X X X X X X X X X X X X X X X X X X X X X X X X X X X X X X X X X X X X X X X X X X X X X X X X X X X X X X X X X X X X X X X X X X X X X X X X X X X X X X X X X X X X X X X X X X X X X X X X X X X X @ # % % % % % X X X X X X X X X X X X X X O # & 4 8 w e e l l l w 0 = @ @ @ @ @ @ O O @ @ @ % 4 4 4 4 2 , = # X @ @ @ @ @ X X @ @ @ @ # & & & # # # # & & & @ @ @ @ = - 0 k l k k k k z m m m K K b b b b k 6 6 6 6 6 6 6 6 6 6 6 6 6 6 6 6 6 6 6 6 6 6 6 6 6 6 6 6 6 6 6 6 6 6 6 6 6 6 6 6 6 6 6 8 4 & X X X X X X * , , , = * * 7 2 , a a a a x v v Z G [ P P B B B B B B l l l k 6 8 8 8 8 8 8 8 8 8 8 8 8 8 8 8 8 8 8 8 8 8 8 8 8 8 8 8 8 ",
"4 4 4 4 4 4 4 4 4 4 - - 4 4 4 4 4 4 4 4 ; ; ; 7 8 8 8 8 8 8 7 4 4 4 4 4 8 8 7 4 4 4 ; ; 4 4 4 4 4 4 4 4 6 w w w U A e w w w w w w w w w w e e e w w w w w w w e w w w w w w w w w w w w w w w w w 6 5 5 5 5 5 4 4 4 4 4 4 4 4 4 4 4 4 4 4 4 5 6 w w 6 6 6 0 w w w q w w 0 0 q 6 q q w 0 q q q q 0 0 6 6 q q q q w w 0 8 X X X X X X X X X X X X X X X X X X X X X X X X X X X X @ % & 4 4 4 4 1 & @ % & & & % X X X X X X X X X X X X X X X X X X X X X X X X X X X X X X X & X X X @ @ @ @ @ @ @ @ @ @ @ @ @ @ @ X X X X X X o % % % % % % o X X X X X X X X X X X X X X X X X X X X X X X X X X X X % = 4 6 0 0 0 0 0 0 0 0 0 0 k l l w w w w w w w w w e l l l l l l l l l l l l l l e % @ @ @ O O X @ @ = 4 4 4 4 4 4 , 2 2 = @ @ @ @ @ X X & - - - - - - - - - - - - - - - - - - - 4 k l b b b b b m m P _ _ _ _ T T P m b l 6 6 6 6 6 6 6 6 6 6 6 6 6 6 6 6 6 6 6 6 6 6 6 6 6 6 6 6 6 6 6 6 6 6 6 6 6 6 6 6 6 6 6 8 X X X X X X * * * * * S S S J ! ! ( ' { { { { ' <.d.d.d.d.u.>.........[ ( Y J l k k 0 8 8 8 8 8 8 8 8 8 8 8 8 8 8 8 8 8 8 8 8 8 8 8 8 ",
"4 4 4 4 4 4 4 4 4 4 - 4 4 4 4 4 4 4 4 7 0 i i i i i i i i i i i i i i i i i i i 0 7 ; ; 4 4 4 4 4 4 4 w e e w w G Y U v l k e w w w w w w e e e e v v v w w w e w e v v v v v v l k e w w w w w w w w w w w w 6 4 4 4 4 4 4 4 4 4 4 4 4 4 5 0 w w w 6 6 6 0 w w w w e l l l l l l e w w q q q w l e q q q q 6 q 0 0 0 0 = X X X X X X X X X X X X X X X X X X X X X X X X X = 8 8 8 8 8 8 8 8 6 e l l l l l l l l l l l e e 8 8 & & % % % % & & & = = = = = = = = = = = 4 8 8 8 - = = = = = = = = = = = = = = = = = = = = 0 0 0 0 0 0 0 0 0 0 0 0 0 0 6 6 5 1 & @ X X X X X X X X X X X X o % = 5 6 0 0 0 0 0 0 0 0 0 e e e k l l l l l l l l l l l l l l l l l l l l z N V I I B m z l l l % @ @ @ O @ & 4 4 4 4 4 4 4 k k 6 4 4 4 @ @ @ @ @ X = - - - - - - - - - - 4 0 0 w w w w w w w k k b b b b b m m _ _ _ _ _ _ _ _ _ T P P b l k 0 6 6 6 6 6 6 6 6 6 6 6 6 6 6 6 6 6 6 6 6 6 6 l l c P c e e e e l l e e w 6 6 6 @ X X X X X * * * * * S S S S ! ! ! ( { { { { { 3.d.d.d.d.d.d.d.<...............................} { ( ( U A A k k 0 8 8 8 8 8 8 8 0 0 ",
"x x d i 0 0 8 8 4 4 ; 4 4 4 4 4 4 0 i i i i i i i i i i i i i i i i i i i i i i i i 0 8 4 4 4 4 4 4 w w w w w w A Y ,.Y v v v v l e w w w w e l v v v v k w w e l v v v v v b A K G b l e w w w w w w 6 5 4 4 4 4 4 4 4 4 4 4 4 4 4 4 4 4 5 q q q q 0 0 0 6 w e l l l l l l l l l l l k 0 0 0 w l l l l w 0 0 0 0 0 0 0 0 @ X X X X X X X X X X X X X X X X X X X X X X X X 4 8 8 8 8 8 6 0 k l l l l l l l l l l l l l l l l l l k 8 8 4 = = = = = = = = = = - 4 4 8 8 8 8 8 8 8 = = = = = = = = = = = = = = = = = = = = 4 0 0 0 0 0 0 0 w c b l 0 0 0 0 0 0 0 0 6 8 1 1 = % = - 1 5 6 0 0 0 0 0 0 0 0 0 0 0 0 0 w l l l l l l l l l l l l l l l l l l l l l l l z I R R R R R R R R R V z w @ O O * , 4 4 4 0 k k 0 4 k k k k 7 4 @ O @ @ @ @ & - - - - - - 4 8 w e e k k k e e e k k k k k k m m m b b b _ _ _ _ _ T T T T _ _ _ T T T T U J G v l e 0 6 6 6 6 6 6 6 s k k l K [ ,.,.,.,.,.,.,.,.%._ K K m l l l l e 6 @ X X X X X * * * * * S H H H J ~ ! ! ( { { { { { 4.d.d.d.d.d.3...................................} { { { { { { { ' ( ( ( H A D D A A ",
"x x x x x x x x x x d 0 8 8 8 0 i i i i i i i i i i i i i i i i i i i i i i i i i i i i 0 0 0 0 0 l l w w w e c Y Y ,.2.Y v v v v v v l e k v v v v v v v k k v v v v v b G G G P P #.b v 0 0 6 8 4 4 4 4 4 4 4 4 4 4 - & & % & ; 4 4 4 4 4 q q w 6 0 0 w l l l l l l l l l l l l l l l l k 0 0 l l l l l l l k w w w 0 0 0 # X X X X X X X X X X X X X @ 8 l l 8 X X X X X & 8 8 8 8 0 l l l l l l l l l l l l l l l l l l l l l l 0 8 8 8 8 4 4 4 4 4 4 8 8 8 8 8 8 8 8 8 8 8 8 4 = = = = = = - 1 4 4 4 4 = = = = = = = = 4 0 0 0 0 0 w m m b b b b l 0 0 0 0 0 0 0 0 0 0 0 0 0 0 0 0 0 0 0 0 0 0 0 0 0 0 0 0 k l l l l l l l l l l c P P l l l l l l l l l l m R R R R R R R R R R R R R V = O @ , 2 4 4 4 k k k k i k k k k k 4 @ @ O @ @ @ @ - - - - 8 w k k e e e k k k e e e k k k k k k l m m m b b _ _ _ +.%.[ T T T T _ _ _ _ T T T J J J J J J J J J J U | | { | | | | ,.,.,.,.,.,.,.,.,.,.,.,.,.>.P P m l l l % X X X X X * * * * * C S H H S ~ ! ! ! ( { { { { { ..>.<.>.X.............} { [ [ { } ............{ { [ [ { { { ` ( ( ( H A A D D A G ",
"x x x x x x x x x x x i i i i i x &.,.,.,.,.,.,.>.%.%.[ Y Y G b v v i i i i i i i x b v G U Y Y Y Y U Y Y Y Y Y Y Y [ 2.2.} v v v v v v c c v v v v v v v v v v v v v G P P G G P [ {.9.v 6 4 4 4 4 4 4 4 4 4 4 4 4 # # # # # % & 4 4 4 4 4 5 0 w 0 w l l l l l l l l l l l l z l z l l l l e 0 e l l l l l l l l l l l l l l l l k k 6 8 8 & & * * 8 7 l l l l l & X X X X @ 8 8 6 k l l l l l l l l l l l l l l l l l l l l l l l l 0 8 8 8 8 8 8 8 8 8 8 8 8 8 8 8 8 6 0 0 0 8 8 4 = = = 4 8 8 8 8 8 8 8 4 = = = = = = = = - 0 0 0 0 b b m b b b b b m c k l l l l l k k 0 0 0 0 0 0 0 0 0 0 0 0 w w w e k l l l l l l l l l l K [ [ [ [ +.T K b l l l l l b R R R R R R R R R R R R R R R k = = 2 2 4 4 2 k k k k k k k k k 8 , @ @ @ @ @ @ @ - - 8 e k k k k k e e k k k k e e e k e e e e k b b m b P &.%.&.&.&.&._ T T _ _ _ [ %.>.+._ Y J J J J J J ( ( ( _ } | { { | | | | >.,.,.,.,.,.,.>.| | 2.9.4.I P P m l l 4 X X X X X * = * * * C S S S S ! ! ! ! ! ( ' { { { { { ................{ { { [ [ { { [ } ........{ { [ { { { ' ( ( ( A A A A D A A G ",
"x x x x x x x x x x d i i i i d d d Z Z v v v v A A A U Y Y } } %.,.,.,.,.,.,.,.,.,.,.,.%.%._ U U U J J U U U G A A v A ,.,.Y b v v v v c c v v v b P P K G A A b A K P P P G K T 2.!.{.K k 4 4 4 4 4 4 4 4 4 4 4 4 & # # # # % & - 4 4 4 4 4 4 6 i i d l l l l l l l l l l l l l z l l l l l 0 0 l l l l l l l l l l l l l l l l l l l l l l l l l l l l l l l l k X X X X X 8 6 l l c K P [ [ [ [ [ [ [ [ [ [ _ _ P P K b z l l l l l w 8 8 8 0 i d d i i 6 6 6 0 i k x x x d 0 8 8 8 4 8 8 8 8 8 8 i 6 8 8 4 = = = = = = = = = 6 0 l b b m b b b b b m m b b b m b m b [ 4.( A x k 0 0 0 0 0 0 0 c c c b A G G J J J J G b K [ [ [ [ [ +.+.+.+.+.,.,.,.,.%.[ +.*.6.*.*.*.*.*.6.6.9.q.z.J.U.v 4 4 2 2 2 4 2 0 k k k k k k k 0 , @ @ @ @ @ @ @ @ 4 e k k k k k k k k k k k k k e e e k e e e e k z b b b P >.>.&.&.&.&.&.%.[ [ %.&.>.>.>.%._ Y J J J J J J ( ( ( ( { { { { | | | | | :.,.,.,.>.| } | | | f.z.*.P P P z l w X X X X X * = = = = g S S S S J ! ! ! ! ! ( ' [ { { { { { { } } { { { { { { [ [ { { { { X.....} { { [ { { ' ( ( ! A A A A A D C g i ",
"x x x x x x x x x i i i i i i d d d v Z Z Z v v Z Z v v Z Z Z Z Z G G G J Y Y Y ( ( U G G A v v v v v v v v v v v v v v v } T T b v v v c v v v v c K P P P P P P P P P P P P K *.2.!.!.*.L 8 4 4 4 4 4 4 4 4 4 4 4 ; # % % % % % % 4 4 4 4 4 8 i i i i i k l l l l l l l l l l l l l l l l z e 0 l l l l l l l l c c b G G G G G G G P U U G b l l l l l l l l z b % X X X X 1 v A A _ [ [ [ [ [ [ } } [ [ [ [ } } } } [ [ [ } [ _ P P b b c J A A A A J J A x x x x x x x x x i i 6 8 8 8 8 8 8 8 0 i i 8 8 8 = = = = = = = = = = 6 b b b m K K K K b m m m P P T %.&.2.5.5.,.J J J J G G G G J J J J J J J J J J J J J J J _ +.+.+.+.+.+.+.[ l.M.M.M.M.v.M.M.v.f.0.0.0.0.0.0.0.0.U.U.U.U.U.v 4 4 4 4 , , , 4 k k i i 0 6 6 % @ @ @ O O O O # 0 k k b Z Z D H H H A v b b l k k k k e e k k k k z b b b P &.&.>.>.&.&.&.&.>.>.>.>.>.>.>.%.Y J J J J J J J ( ( ( ( ( [ { | | | { } } { >.>.| } } | | [ ( %.f.z.T P P K l l X X X X X * = , , , g S S S S S ! ! ! ! / / / ( ' { { { { { [ [ [ [ { { { { { { { { { { ......} { { { { { ( ( ! D D A S S S d u i i ",
"x x x x x x x d i i i i i i i d d d v Z Z Z Z Z Z Z v v Z Z Z Z Z Z A G G G Y Y ( Y G G A b v v x x x x x x x x x x x x x x U T P v v v c c v v v c v b G K P P P P P P P P P Y 2.2.~.H.*.P e 4 4 4 4 4 4 4 4 4 4 4 4 - % % % % # # = 4 4 4 4 i i i i i i i a i k l l l l l l l l l l l l l z l 0 w l l l l c G U P U P P P P P P P P P U P U U U b l l l l b P Y Y v X X X X 4 A A A A [ [ [ [ [ } } } [ [ [ [ } } } } [ } } } [ [ [ [ } [ U U U U U U U U J x g x x x x x x x x i i i 6 8 8 8 8 6 i i i 6 8 8 - = = = = = = = = = 1 b b G U ( ( ( ( ( ( ( _ &.2.2.4.5.5.5.4.2.>.J J J J J J J J J J J J J J J J J J D A Z x x Z J Y _ _ U H H U ,.v.M.M.M.M.M.c.d.2.5.9.0.0.0.0.0.U.U.U.U.U.b 4 4 4 4 , 4 , , 2 2 2 2 4 = @ @ @ @ @ @ @ % h J A ( ` ` ~ J J J J J J J ..,.,.,.>.[ P c e e k k k b b b b _ &.&.>.>.>.>.>.&.>.>.>.>.>.>.[ J J J J J J J J J J ( ( ( ( ( ( ( ( [ { | { { { { } } } [ ( ( U J ( z.7.P P P z l @ X X X X % = = , , g S S S S S ! ! ! ! ( ( ! ! ~ ( ( ' ' ' { ( ( ( ' { { { ' ( ( { { { ........{ [ { { ' ( ( A D S x x g i u i i i ",
"x x x x x g i i i i i i i i i d d d v Z Z Z Z v Z Z v v v Z Z Z Z Z Z G G J U Y ( U G A b v x x x x x x x x k k k k k k k d A T T A v v x 0 0 i v v v v v v A P K K P P P P P [ 6.E..Xz.*.@.e w w w w 8 4 4 4 4 4 4 4 4 = % % % # # & 4 4 4 8 i i i i i i i a i i i a x ' } _ U c l l l l l l l l w l l l c P P P U P U P P P P P P P P _ _ Y P P P b l l c Y Y Y Y Y @ X X X 9 A A A A G [ [ [ [ [ } } } } [ [ } } [ [ [ [ } } [ [ [ [ _ U U U U U U U J A v x x g x x x x x x x i i i i 0 6 8 6 i i i i i 8 8 4 = = = = = = = = = = 4 J U ( ( ( ( ( ( ( ( ( ( ( ( ( ( ( ( ( ( ( ( J J J J J J J J J J J S S S S S x x x x x x x x x x x x x x v A U 2.v.v.l.3.<.<.<.<.<.2.9.0.0.f.U.U.U.U.U.U , 2 4 4 4 4 4 4 4 4 2 2 4 @ @ @ @ @ @ @ y o.e.e.e.e.o.` ` ~ J J J J J J J ( [ >.>.,.,.,.>._ c k k b b b b %.&.&.>.>.2.i.h.>.>.&.&.>._ J J J J J J J J J J J J ( ( ( ( ( ( ( ( ' | | } } { { | | [ ( ( J J J J 2.z.@.P P m l * X X X X % * * , , 7 S S S S S J ! ! ! ~ ( ! ! ! ! ! ! ~ ~ ~ ~ ! ! ! ( ' ' ! ! ~ ( [ { } ....X.} [ { { ' ( H A S x x x a u u u i i ",
"x x x x i i i i i i i i i i i d d d v Z Z Z Z v Z Z v v v Z Z Z Z Z A G G U Y Y ( J G v v x x x v x x d d d d d d d d d d d d P T P c v 0 0 0 0 0 x v v v v v b G K K K P P P _ .X.X.X6.*.#.e e e e e e e 6 4 4 4 4 4 4 4 & # # # # & 4 4 4 0 i i i i i i i i i i i i a g / } } { G l l l l l l l l l l l U P P P P P U U P P P P _ *.-.-.-.-.*.+.P K l l @ , A Y Y Y 0 X X X * x x Z A A A _ [ [ [ } } } } [ _ [ } [ [ [ [ } } [ [ [ Y U U U U U U U A v v x x g x x x x x x x x d i i i i i i i i i i i 6 8 8 8 = = = = X & = = = 1 Z A A D J J U / ( ( ( ( ( ( ( ( ( ( ( ( / ( ( ( ( ( ( / / U J J J A S S S S C x x x x x x x x x x x x x x x A A J &.i.<.<.<.<.<.<.<.<.<.2.0.f.U.U.U.U.U.Y 4 2 2 4 4 4 4 4 4 4 2 2 * o @ @ o @ @ p e.e.e.e.e.e.e.o.` ` ^ J J J J J J J J J J J | ,.,.,.,.>.K K [ ,.d.h.d.d.h.h.h.h.d.>.>.>._ J J J H H A A A A Z A G J J J ( ( ( ( ( ( ( [ | } } } } | | | ( ( ( J J J J U f.f.T P P l 8 X X X X @ * * , , 7 S D S S S S ~ ! ! ~ / ! ! ! ~ ! ! ~ ~ ~ ~ ! ! ! ! ! ! ! ! ~ ~ ' { } ....X.X.{ { { ( J A D Z x x a i i i u i i ",
"x x d i i i i i i i k k d g d d d d v v Z Z Z Z Z Z v v Z Z A A G G G G U Y Y Y Y G A b v x x x v x d d d k k k d d d d k d d b T P v i 0 0 0 0 0 0 i v c c v v A G P P P P K K H..X.X6.*.*.z e e e e e e e w 4 4 4 4 4 4 - # # % % & 4 4 4 i i i i i i i i 0 0 9 0 0 0 i i x ( } } ( l l l l l l l l l c P P T *.2.2.,.*.&.%.%.&.0.U.q.-.-.-.0.v.9.P l 4 X X X % k P U X X X @ i x x x A A A Y [ [ [ [ ( G A A A ( [ [ [ } } } [ [ U U U U G G G G Z v v v x x k i i i i i i d i i i i i i i i i i i i 0 8 8 8 8 = = = @ X X & = = u C Z S S S S A J J J J J U J U J J J J J ( ( ( ( ( ( ( ( ( ( J J J S S S S Z x x x x x x x x x x x x x x x C S S A J >.<.<.<.<.<.<.<.<.<.<.<.0.U.U.U.U.U.Y i , 4 4 4 4 4 4 2 2 4 4 @ O O @ X @ * e.e.e.e.e.e.e.e.e.` ` { ~ J J J J J H C C S J ( ( J J ' >.,.h.h.h.x.x.h.h.h.h.h.h.i.>._ J H A A Z Z Z Z Z Z Z Z Z Z H J J J ( ( ( ( ( ( } | } { { { { | | ( ( ( J J J J H Y 7.2.I P z e X X X X @ * * * = 7 H D H H H H ! / / ! ! ! ! ~ ~ ! ! ~ ~ ~ ~ ! ! ! ! ! ! ! ! ~ ~ ( [ { X.........{ ' ( H A S x x d i i i i i d x ",
"x i i i i i i i i k k k d d g g d x v v Z Z Z Z Z Z v A G G G G G G G U Y ( Y ( U G b v v x x v x k d d d d k k d d d d k k d x T T v 0 0 0 0 0 0 i 0 0 x c v c v G P P P P G K _ {..Xz.*.*.+.l e e e e e e e w 4 4 4 4 4 4 # # % # % 4 4 8 i i i i i i i u 0 0 0 0 0 0 0 0 i i A [ } } K l l l l l l l K P P ,.2.2.2.2.2.2.2.2.2.J.T.T.J.2.+.5.v.v.z.P & X X X X X X * X X X * 7 x x x A A A A G Y Y A A A A A A A _ [ [ [ } } [ U U U U J A A A v v v v v x x i i i i i i i i i i i i i i i i i i i i 6 8 8 8 8 = = = X X X X = 7 x x C C Z S S S S J J J J J J J J J / ( ( ( ( ( ( ( ( ( ( ( ( J J J S S A Z x x x x x x x x x x x x x x x x Z S S S H [ <.<.<.<.<.<.<.<.<.<.<.<.v.U.U.U.U.Y > , 4 4 4 4 2 4 2 , 4 4 O O O O X X ] e.e.e.e.e.e.e.e.e.` ` { { J J J H Z d d d d a v C S S S S ! 3.h.h.x.h.h.x.h.h.u.X.' Z Z Z Z Z Z Z Z Z Z Z Z Z Z Z Z A J J J J ( ( ( ( ( | | | { { } { | | ( ( J J J J J A G 2.6.*.P L l X X X X X * * * * 7 H H H H H H J ~ / ! ! ! ! ! ! ! ! / / ~ ~ ! ! ! ! ! ! / ! ~ ~ ( [ [ ........} { ' ( A A Z x g i i i i i g x x ",
"i i i i i i i i d d k k d d d d d v v v Z Z Z Z Z G G G G G G G G J Y ( ( ( ( ( J G v v v x v v x d d d d d d d d d d d d d d d T T v 0 0 0 0 0 i i i i 0 c c v v b P P G G G G K H.{.H.*.*.*.@.L l e e e e w 4 4 4 4 4 4 4 & % % % % - 4 6 i i i i i i i 0 0 0 9 9 u u 0 u u u i i A h.f.f.>.K G b c b U U _ 2.2.2.2.0.f.z.v.J.T.T.T.H.[ A A A ( d.v.v.x X X X X X X X X X X 2 2 x x x A A A A A A A A v v v A A A A [ } } [ [ _ U U U U A A A v v v v v x x x i i i i i i i i i i i i d U U Y U v i i 6 8 8 8 8 - = & X X X X * x x x x x x C S S S A J J J J J J J ( ( ( ( ( ( ( ( ( ( ( ( ( ( ( J J S S A Z x x x C x x x x x x x x x x x x S S S S A / <.<.<.<.<.<.<.<.<.<.<.<.<.I.U.U.U.G > > , 4 , , 2 , 2 2 4 = @ @ @ O @ 3 e.e.e.e.e.e.e.e.e.e.` ` ` ` ! J H v v d d d d a a d d g C S S S >.h.x.x.x.i.<.....{ Z Z Z Z x x d d g x Z Z Z Z Z Z Z Z A J J J Y ( ( ( ( | | | | | } | | [ ( ( J J J J G A Z _ 6.6.@.P B X X X X X * * * * 7 D H H S S S S ! ~ ! ! ! J S S J ! ! ~ ! ! ! ! ! ! ~ ~ / ( / / ( { { { { { { { { ( ( A A x x i i i i a x x g x ",
"i i i i i i i i d d d k d d d k x Z v v v Z Z A G G G G G G G G U ( ( ( ( ( ( ( G G v v v x x x d d d d d d d d d d d d d d d d U T x 0 i 0 0 i i i i i 0 c v v v v G P K G G G G %.{.E.*.*.*.*.*.@.l e e e 4 4 4 4 4 4 4 4 & % # % & = 4 0 i i i i i i i 0 0 0 u u u u 0 u u u 0 i a g d.h.h.d._ P P P P P Y ,.*.,.H.I.T.T.T.T.T.H.2.A A A A A A A 4.v.v.x X X X X X X X X @ 2 2 d x A A A A A A A v v v v v v Z A A ( [ [ [ } U U U U J A A A v v v v v x x x i i i i i i i i i i i i d _ _ _ _ _ d i 6 8 8 8 8 - = # X X X X u x x x x x x x C S S S J J J U U J J ( ( ( ( ( ( ( ( ( ( ( ( ( ( ( J J D S S A x x x x x x x x x x x x x x x Z S S S S S J ..<.<.<.<.<.<.<.<.<.<.<.<.d.U.U.U.A > > , 4 2 , , , 4 4 4 & @ @ @ O @ ^ e.e.e.e.e.e.e.e.e.o.` ` ` ` ! J Z v v d d d i a i d d d d g C S S >.h.u.X.......{ H Z Z Z d d d d d d d d d x Z Z Z Z Z Z A J J J J ( ( ( [ | | | | } } | ' ( ( J J J J A A Z Z 2.6.6.T P 4 X X X X @ * * * 7 D H H S S S S J ! ~ ! ! S S H S S S J J ! ! J ! ! ~ ~ / ( / / ( { { { { { { { ' ( ( H S x g i u i g x g g g x ",
"i i i i i i i d g g d d d d k x Z Z Z Z Z Z A G G G G G G G U Y ( ( ( ( ( ( ( Y G A v v v x x x d d d d d d d d k k d d d d d d U T x i i i i i 0 0 0 0 i v v v v v G G K P P P P P ~..X*.*.*.*.*.*.P e e w 4 4 4 4 4 4 4 4 & & # % # & 4 i i i i i i i i u u u 0 0 0 u 0 0 9 9 9 9 u i i %.h.h.h.%.P P P P U P P P P U U U P P P P U A A A A A A A A ,.v.v.x X X X X X X X % 2 2 i x A A A A A A v v v v v v v v A A G [ [ [ [ J J J J A A A A v v v v v x x g d i i i i i i i i i i i i d x x i i i i 0 8 8 8 8 = = @ X X X X g x x x x x g x x S S S H J U U U U U ( ( ( ( ( ( ( ( ( ( ( ( ( ( ( J J J S S S Z x x x x x x x x x x x x C S S Z Z A A A J ( <.<.<.<.<.<.<.<.<.<.<.<.3.U.U.U.d > > > , 2 2 4 4 4 4 4 @ @ @ @ @ % e.e.e.e.e.e.e.e.e.e. .` ` ` ` J D v v x d d d d d d d d d d d d g Z J ........{ ( A A Z C d d d d d d d d d d d d d x Z Z Z Z A H J J J J ( ( ( } | | | | | ( ( ( J J J H Z Z Z Z +.6.6.*.P 0 X X X X X X @ & 9 S S S S H S S J / ~ ! J H H H S H H H S S D D S J ! ~ ! ! ! ! ' { { { { { { { ( ( ( ! x x a a g g x x x x x x ",
"i i i i d k d k g g d k d d k v Z Z Z Z Z A G G G G G G U Y ( ( Y Y ( ( ( ( ( Y G A v v x x x x k d d d d d d d d k d d k d d d U T k 0 i i 0 0 0 0 0 0 k v v v v A G G P P P P P P 0..Xz.*.*.*.*.*.#.e e e 4 4 4 4 4 4 4 - & # # # # & 4 i i i i i i i i u u u u 0 0 u 0 9 7 7 7 7 9 i i i A | h.h.5.Y P P P P P P U P P U P P P P P A A A A A A A A A ,.v.v.x X X X X X X , 2 2 i v A A A A A A v v v v v v v v A A A _ [ [ ( J J U J A A A A v v v v v x x x x d i i i i i i i i i i i i i i i i i i i 8 8 8 8 = = X X X X X d x x x x x g g x Z S S A J U U U U U ( ( ( ( ( ( ( ( ( ( ( ( ( ( ( ( J J D S S S x x x x x x x x x x x Z S S S Z Z A A A A J ..<.<.<.<.<.<.<.<.<.<.<.<.U.U.U.9 > > > > 2 2 4 4 4 4 , @ @ @ @ @ f e.e.e.e.e.e.e.e.e.e.` ` ` ` ! J v v v d d d d d d d d d d d d d d d S ! H H S Z Z Z A Z d d d d d d d d d d d d d d d d d Z Z Z Z A J J J J J ( ( ( [ [ { | ( ( ( J J J A Z Z Z Z U 6.6.6.P 0 X X X X X X X * C S S S H H S S D D J S S S H S S H H S S S S S D D S ! ! ! ! ( { { { { { { { ' ' ( ( ( x x x x g g x x x x x x ",
"i i i i d k k k g g g k d d x Z v v Z Z A G G G G G J Y ( ( ( ( Y Y Y Y Y ( ( U G A v v x x x k k k d d d d k d d d d d k k d d Y T k 0 0 0 0 0 0 0 0 0 l v c v v P G G K P P P P P _ H.~.*.*.*.*.*.*.z e e 5 4 4 4 4 4 4 = # # % % % - 8 i i i i i i i i u u 0 0 0 0 0 9 7 7 7 7 7 7 9 0 0 0 0 v 1.h.h.} P P U A A A P P P P U P P P A A A A A A A A A A ,.v.v.x X X X X @ 2 2 2 i v A A A A A Z v v v v v v v v A A A U [ [ U U U U A A A A A v v v v v x x x x x d i i i i i i i i i i i i i i i d [ A 8 8 8 8 = & X X X X @ i g x x x x x g x x S S S J J U J J U / ( ( ( ( ( ( ( ( ( ( ( ( ( ( ( J J J A S S Z x x x x x x x x x x S S S S Z Z S A S S H / <.<.<.<.<.<.<.<.<.<.<.<.U.U.U.7 > > > > , 4 4 4 2 2 & X @ @ @ @ ] e.e.e.e.e.e.e.e.e.{ ` ` ` ! J A v v g d d d d d d d d d d d d d d d d d x Z Z Z Z A Z g d d d d d d d d d d d d d d d d x Z Z Z Z A A J J J J J J ( ( ( ( ( ( ( J J J J A Z Z Z Z A 6.6.6.E 0 X X X X X X X g C C S S H H S S S S S S S S S S S S S S S S S S D D S J ! ! ! ' { { { { { { ' ( ' ( J S x x x x x x C x x x x x ",
"i i i i d k k k g g d d d d Z Z v Z Z Z G G G G G Y ( ( ( ( ( ( Y Y ( Y Y ( ( J G A v v x x x k k k d d d d k k d d d d k k d d T T 0 0 0 0 0 0 0 0 0 0 v v c c b P G G G P P P P P Y >.T.Q.2.*.*.*.*.L e e 6 4 4 4 4 4 ; # # # % % # ; 0 i i i i i i i i i 0 0 0 0 0 0 7 7 7 7 7 7 7 7 7 9 0 0 i i G d.h.d.Y A A A A U P P P U U P P G A A A A A A A A A A ,.v.v.v X X X , 2 2 2 i v Z A A A A v v v v v v v v A A A A A [ [ U U U U A A A A A v v v v v x x x x x x x d i i i i i i i i i i i i i G ,.A 8 8 8 4 = & X X X X @ a a g x x x x g x x S S S A J U J J J U ( ( ( ( ( ( ( ( ( ( ( ( ( ( ( J J J J S S S x x x x x x x x x x Z S S S S Z S A S S Z J [ <.<.<.<.<.<.<.<.<.<.<.U.U.U.> > > > > > , 2 4 2 , @ @ @ @ @ * e.e.e.e.e.e.e.e.o.{ ` ` ~ J J H v v x d d d d d d d d d d d d d d d d d d d d x Z Z Z x d d d d d d d d d d d d d d d d d x Z Z Z Z A A A A J J J J J J ( ( ( ( ( J J J A A Z Z Z Z Z 2.6.6.E & X X X X X X * C C C C Z S H S S S S S S S S C C Z S H S S S S S J S S J ! ! ' { { { { { { ' ( ( ( ! J S x x x Z Z S C x x x x x ",
"i i i i i g g x d d d d d x v v v v v v A G G G Y ( Y Y Y Y Y Y ( ( ( Y Y Y ( J J A b b x x x k d d d d d d d d d d k k d d d x T K 0 0 0 0 0 i i i 0 d c v v v b P P P P K G G K K Y >.,.!..XU.0.*.*.+.e e w 4 4 4 4 4 = % # # % % & 4 i i i i i i i i i i 0 0 0 0 0 0 9 7 7 7 7 7 7 7 7 7 9 0 0 i i i >.f.3.A A A A A U U P P U U U U A A A A A A A A A A A 2.v.v.x @ , 2 2 2 2 x v v A A A A Z v v v v v v A A A A A A U ( U U U U A A A A A v v v v v x x x x x x g g g k d i i i i i i i i i i Y ,.A 0 8 8 4 = @ X X X X @ i i g x x x x x x x Z A S S J J J J J J ( ( ( ( ( ( ( ( ( ! / ( / J J J J J J A A A Z x x x x x x x x x Z A A Z Z Z Z S S S S D J >.<.<.<.<.<.<.<.<.<.x.U.U.U.> > > > > > > > > > % @ @ @ @ @ H e.e.e.e.e.e.] ~ J J J J J J H v v x d d d d d d d d d d d d d d d d d d d d d d d d d d d d d d d d d d d d d d d d d d d g Z Z Z Z Z Z Z Z Z A H J J J J J J J J J J A Z Z Z Z Z Z Z _ +.*.P X X X X X % p p C C C C C C C C S S S S S S C C C C C J H H H H S S S J ! ! ' { { { { { ' ' ' ' ( ( J A A Z S S S S S C g x x x x ",
"d k k d d d g x d d d d x Z Z v v v Z v G G G J ( ( Y ( Y Y Y Y ( ( ( Y Y Y Y G G A v v x x x k d d d d d d d d d d k d d d d v T b 0 0 0 0 0 i i i 0 l c c v v c P P P P P G G K K U >.>.2.~..X.X.XU.6.z e e 4 4 4 4 4 - % % # % % & 8 i i i i i i i i i i 0 0 0 0 0 0 9 9 7 7 7 7 9 9 7 7 7 7 0 i i 0 0 A d.>.A A A A G U P P U U U U U A A A A A A A A A A A d.v.d.2 2 2 2 2 7 x x v A A A A v v v v v v A A A A A A A J U U U U J A A A A A v v v v v x x x x x g g x x x x x d i i i i i i i i Y ,.A 0 8 8 = = o X X X X X i a g g C x x x x x x A S S H J J J J J ( ( ( ( ( ( ( ( ( J J J J J J J J J J J A A A x x x x x Z Z Z Z A A A Z Z Z Z Z S S S S H ( <.<.<.<.<.<.<.<.<. X[.U.f.> > > > > > > > > > @ @ @ @ @ C o.e.e.e.o.] J J J J J J J J J v v x d d d d d d d d d d d d d d d d d d d d d d d d d d d d d d d d d d d d d d d d d d d d d x Z Z Z Z Z Z Z Z Z Z A A H J J J J J J A Z Z Z Z Z Z Z Z _ _ _ , X X X X X p p p C C C C C C C C C C S S S C C C C C C S J H H S S S S ! ! ' { { { { { { ( ' ( ( ( J J S A S S S S S S x g x x x x ",
"g g d d d d k x d d d d v Z v v Z Z Z Z G G G J ( ( ( ( ( ( Y ( ( ( ( ( Y Y Y G G v v v x x x k d d k k d d d d d d d d d d d A Y x 0 0 0 0 0 0 i 0 0 c v v v v v b P P P K G G P P P >.>.>.2.~..X.X.X.X@.e e 5 4 4 4 4 4 & & @ @ # # 0 i i i i i i i i i i 0 0 0 0 0 0 9 u u 9 9 0 0 0 9 7 7 7 9 9 0 0 0 0 d :.( A A A A U P P P P U U P A A A A A A A A A A A A d.v._ 4 2 2 2 k x x v v v v v v v v v v A A A A A A A A A J U U U J A A A A A v v v v x x x x x x x x x x x x x x i i i i i i i i G ,.K k 8 8 = = X X X X X X 7 i g g C C g x x x x A S S A J U U J U ( ( ( ( ( ( ( ( ( J J J J J J J J J J J A S A Z x C Z A S S S S A A Z Z A A S Z S S A A A J } <.<.<.<.<.<.<.4.XXXXE.9.> > > > > > > > > > @ @ @ @ C  .e.e.e.....( J J J J J J J J D v v d d d d d d d d d d d d d d d d d d d d d d d d d d d d d d d d d d d d d d d d d d d d d d d d x v Z Z Z Z Z Z Z Z Z Z A A H H A A Z Z Z Z A Z Z Z A _ _ 4 X X X X X % a a p C C C C C C C C C C C S C C C C C C C S J S S S S S J ! ( { { { { { { { ( ( ( ' ( J J A A S A S S S S x g x x g x ",
"d d d d d d k k d d d x Z Z v v Z Z Z G J G G U ( ( ( ( ( ( ( ( ( ( ( Y Y Y U G G v v v x x x k d d k k d d d d d d k d d d d K T i 0 0 0 0 0 0 0 0 x c v v v v v v v b P P K G P P P >.>.>.>.b e e e e e e e 0 4 4 4 4 4 - & X o # # i i i i i i i i i i i i i i i i u 9 u u u 0 0 0 0 0 9 7 7 7 7 7 0 0 0 i i J A A S A A P P P P P U P U A S A A A A A A A A A A d.v.v 2 4 d x x x x v v v v v v v v Z A A A A A A A A A A U U U J A A A A A v v v v x x x x x x x x x x x x x x d i i i i i i i v ,.U c 8 4 = = X X X X X X > i g x C C g g x x x Z S S A J U U U U ( ( ( ( ( ( ( ( ( / J J J J J J J J J J D S S S Z A A A S S S A A A Z Z A A S S S S A A S J J >.<.<.<.<.<.<.h.XXXXW.>.% % > > > > > > > > * @ @ u  .o.e.e.e.......{ ! J J J J J J Z v v d d d d d d d d d d d d d d d d d d d d d d d d d d d d d d d d d d d d d d d d d d d d d d d d d d d d d g v Z Z Z Z Z A A A A Z Z Z Z Z Z A A Z Z G _ v X X X X X X % a a p h C C C C C C C C C C C C C C C C C C S J S S S S J ! ( { { { { { { { { ( ' ' ' J J H A H J J J S S S x x x x g g ",
"d d d d d d d d d x x Z Z Z Z v Z Z A G G G G Y ( ( ( ( ( ( ( ( Y Y Y Y ( ( J G G v v v x x x k d d k k d d k k d d d d k d d P Y i 0 0 0 0 i 0 0 0 v v v c c c v v v v b K P P P P G | >.>.>.b e 0 8 4 6 e e e 4 4 4 4 4 4 & X X # % i i i i i i i i i i i a i i i i i i u u u 0 0 u u u 9 7 7 7 7 7 7 9 0 i i i x A A A A A G U P P P P P A S A A A A A A A A A A A [ A v x x x x x x x v v v v v v v v A A A A A A A A A A A U U U J A A A A v v v v x x x x g g g x x g g g x x d i i i i i i i v ,._ b 8 = = = X X X X X X * a g x C x x g x x x C A A A A J U J J ( ( ( ( ( ( ( ( ( ( J J J J J J J J J J D S S S S Z A A S S S S S S S Z A A A A S S S S S H J ( <.<.<.<.<.<.m._.XX}.* @ @ % > > > > > > > > > 7  . .e.r.t.y.>...........{ { J J J v v x d d d d d d d d d d d d d d d d d d d d d d d d d d d d d d d d d d d d d d d d d d d d d d d d d d d d d d d d v Z Z Z A Z Z Z Z Z Z Z Z Z Z Z Z Z Y _ % X X X X X X % g a p f C C C C C C C C C C C C C C C C C C C S S S S J ! ( { { { { { { { { { ( ( ( ( J J J J J J J J A S Z x x x x x x ",
"d d d d d d d d x x v Z Z Z v v Z A G G G G G Y ( ( ( ( ( ( Y ( Y Y Y ( ( ( G G A v v v x x x k d d k k d d k k d d d d d d d T G i 0 0 0 0 i i 0 d v v v c c c v v v v v v G P P P G | >.>.>.c 5 4 4 5 e e e e w w q 4 4 4 ; X X # % i i i i i i i i i i i i i i i i i a i u 0 0 0 u 9 9 7 7 7 7 7 7 7 7 0 i i i d A A A A A A A G U U P P G A A A A A A A A A A A A A A A Z A A A A x x x x x x v v v v A A A A A A A A A A A J U J J J A A A v v v v x x x x x x x x x g g x x x i i i i i i i i k ,._ b k 4 = & X X X X X X @ i g x x x x g x x x x Z S A A J U J J U ( ( ( ( ( ( ( ( ( J J J J J J J J J J A S S S S S A A S S S S S S S S A A S A A D H D A J J J 3.x.4.<.<.<.C.(.XXl.@ @ @ @ * > > > > > > > 7  . . .t.3.3.3.3.>.............! J J v v x d d d d d d d d d d d d d d d d d d d d d d d d d d d d d d d d d d d d d d d d d d d d d d d d d d d d d d d d d d x v A Z Z Z Z Z Z Z Z Z Z Z Z Z _ G X X X X X X X X g g p g C C C C C C C C C C C C C C C C C C C S S S S ! ( { { { { { { { { { ' ( ( ( J J J J J J J J J S S Z x x x x x x ",
"x k d k d d d d d x Z Z Z Z Z Z A G G G G G G Y ( ( Y ( Y Y Y Y Y Y ( ( ( J G G A b b x x x x k d d d d d d d d d d k k d d x Y v i 0 0 0 i i i 0 v v v v v k k k v v v v v v K P K K [ >.>.>.8 4 4 4 e e e e e e e e q 4 4 - o X @ = i i i i i i i i i i i i i i i i i a a 0 0 0 u 9 7 7 7 7 7 7 7 7 7 7 0 0 0 i i x x Z A A A A A A S A A A A A A A A A A A A A A A A A A A A A A A x x x x x x x v v v A A A A A A A A A A A J U U U U A A A v v v v x x x x x x x x x x x x x d i i i i i i i i v ,.%.b k s = & X X X X X X X i g g x x x x x g x x C S Z Z A J J J U ( ( ( ( ( ( ( ( ( ( J J J J J J J J J A S S S Z Z Z A Z Z Z Z S S S S Z Z S A J J J J J J J J ( Y.Y.i.<.3.Y.(.XX( @ @ @ @ % > > > > > > > `  . .3.3.3.3.3.3.3.............( J H v v x d d d d d d d d d d d d d d d d d d d d d d d d d d d d d d d d d d d d d d d d d d d d d d d d d d d d d d d d d d d d d d x v Z Z Z Z Z Z Z Z Z Z _ i X X X X X X X X p g g g C C C C C C C C C C C C C C C C C C C S S S J ~ ' { { { { { { { { { ' ( ( ' ( J J J J J J J J S A x x x x x x x ",
"g k k k d d d d x Z Z Z Z Z Z Z G G G G G G G Y ( ( Y Y Y Y Y Y Y ( ( ( J G G G v b v x x x x k d d d d d d d d d d k k d d v Y d i 0 0 0 0 i i k v v v v d d d d x v v v v c c P K K [ >.>.} 4 4 4 6 e e e e e e e e w 4 4 - o X @ = i i i i i i i i i i i i i i i i i i a 0 0 0 9 9 7 7 7 7 7 7 7 7 7 7 0 0 0 i i d x x x Z A A A A A A A A A A A A A A A A A A A A A A A A A A A A x x x x x x x v v v v A A A A A A A A A A J U U U U U A A v v v v x x x x x x x x x x x x x i i i i i i i i i A ,.%.A k k 0 & X X X X X X X i g x x x x x x x g g Z Z Z Z S H J J U ( ( ( ( ( ( ( ( ( ( J J J J J J J J J A S S S Z Z Z A Z Z Z Z S S S S S Z A J J J J J J J J J J <.Y.Y.x.i.Y._.XX4 @ @ @ @ @ > > > > > > u  . .<.3.3.3.3.3.3.3.<...........{ J S v v d d d d d d d d d d d d d d d d d d d d d d d d d d d d d d d d d d d d d d d d d d d d d d d d d d d d d d d d d d d d d d d d d d Z Z Z Z Z Z Z Z Z _ , X X X X X X X X 3 g g g g C C C C C C C C C C C C C C C C C S S S S ! ' { { { { { { { { { { ' ( ( ( ' ( ( J J J J J D A A x x x x x x x ",
"g g k k k d d d v Z Z Z Z Z Z Z G G G J G G G Y ( Y ( ( ( ( ( ( ( ( ( J G G G A v b v x x x x k d d d d d d d d d d d d k k A Y i i i i 0 0 0 0 v v v v k d d d d k v v v v c c b P P [ >.>.T 4 4 4 6 e e e e w q w e 6 4 4 - o X o = i i i i i i i i i i i i i i i i i i i 0 0 0 0 7 7 7 7 7 7 7 7 7 7 7 0 0 0 0 i i d x x x v A A A A A A A A A A A A A A A A A A A A A A A A A A A x k x x x x x v v v v v A A A A A A A A A J J U U U U J A v v v v x x x x x x x x x x x x d i i i i i i i i i A ,.,.A b k k 5 X X X X X X X i g x x x x x x x x x S S Z Z A A J J J ( ( ( ( ( ( ( ( ( ( ! J J J J J J J J S Z Z Z S S S A S A S S S S S S S D J J J ( ( ( J J J J J ( h.R.Y.Y.Y.[._.@ @ @ @ @ @ * > > > > > S  .X.y.y.y.y.3.3.3.3.3.............J v v v d d d d d d d d d d d d d d d d d d d d d d d d d d d d d d d d d d d d d d d d d d d d d d d d d d d d d d d d d d d d d d d d d d Z Z Z Z Z Z Z Z Z _ x X X X X X X X X * p a a p f h C C C C C C C C C C C C C C S S S S J ' { ' ' { { { { { { { { ' ' ( ( ( ( ' ( J J J J A S S x x x x x g g ",
"g g d d k k d x Z Z Z Z Z Z v v Z G G G G G G Y Y Y ( Y ( ( ( ( U ( J G G G G b v v x x x v x k d d d d d d d d d d d d k k A G 0 i i i 0 0 0 k v v v d k k d d d k v v v v c c v K P [ >.>.l 4 4 4 5 e w 5 4 4 4 4 4 4 4 4 = o X X = i i i i i i i i i i i i i i i i i i i 0 0 0 0 9 7 7 7 7 7 7 7 7 7 7 0 0 0 0 0 i i d x x x v A A A A A A A A A A A A A A A A A A A A A A A A A A x k x x x x x v v v v v v A A A A A A A A J J U U U U J A v v v v x x x x x x x x g g x x i i i i i i i i i i A ,.,.A A b k k X X X X X X X 9 g x x x x x x x x Z S S S S A A J J J ( ( ( ( ( ( ( ( ( ( ( J J J J J J J J S Z Z Z S S S A A A S A S S S S H J J J ( ( ( ( ( ( ( ( ( ( ' C.R.R.R.XXd.@ @ @ @ @ @ @ > > > > > !  .3.y.y.y.3.3.3.3.y.3.>.{ | ......A v v v d d d d d d d d d d d d d d d d d d d d d d d d d d d d d d d d d d d d d d d d d d d d d d d d d d d d d d d d d d d d d d d d d Z Z Z Z Z Z Z Z Z Z _ _ @ X X X X X X X X p a a p p a a g g C C C C C C C C C C S J S H S ( { { ' ' { { { { { { { { ' ' ( ( ( ( ' ' ( J J J A S S x x x x x g g ",
"g g g d g g x Z v v v v v v v v v v A G G G G U Y Y Y Y Y Y ( Y G U G G G G b b v v x x x x x k d d k k k k d d d d d d k d A v 0 0 0 0 0 0 0 v v v k d d d d d d k c v v v v v v G P %.>._ = 4 4 4 4 4 4 4 4 4 4 4 4 4 4 4 # o X X 4 i i i i i i i i i i i i i i i i i i u 0 0 0 u 0 0 9 7 7 7 7 7 7 7 7 0 0 0 0 0 i i i d x x x v A A A A A A A A A A A A A A A A A A A A A A v x x x k x x x x x v v v v v v A A A A A A A A J J U U U U J A v v v x x x x x x x x g g x x x i i i i i i i i i d A ,.,.G A A v k X X X X X X X 7 g x x x x x x x x S S S S S A A S J J J ( ( ( ( ( ( ( ( ( ( J J J J J J J J A S S S S S A A A A D D A Z A J J J J / ( ( ( ( ( ( ( ( ( ( ( ,._.XXXXXX5.@ @ @ @ @ @ @ > > > > > S ..3.3.3.3.3.y.y.y.y.3.{ U U ( [ ( v v v x d d d d d d d d d d d d d d d d d d d d d d d d d d d d d d d d d d d d d d d d d d d d d d d d d d d d d d d d d d d d d d d d g Z Z Z Z Z Z Z Z Z Z A _ U @ X X X X X X X 7 a a a p a g a p a C C C C C C C S H H H H H J { { { ' ' ' ( ` ( ' ' ' ' ' ' ( ( ( ( ' ( ( J J J A S S g x x x x x g ",
"g g g d g g g g d g d d d d d d d d d Z G G G G Y Y Y Y Y Y U G G J G G A b b b v v x x x k d d d d k k k k d d d d d d d d b i 0 0 i 0 0 0 l v v x d d d d d d k k c v v v v v v b P &.>.A = = 4 4 4 4 4 4 4 4 4 4 4 4 4 4 @ o X X 4 i i i i i i i i i i i i i i i i i i 0 0 0 u u 0 0 0 0 7 7 7 7 7 7 7 9 0 0 0 0 0 i i i d x x x v A A A A A A A A A A A A A A A A A A A v x x k x x x x x x x x v v v v v v A A A A A A A A J U U U U U A A v v v x g x x x x x x g x x x x i i i i i i i i i x A ,.,.K A A A s X X X X X X X 7 g x g x x x x x Z S S S S S A A A J J J U ( ( ( ( ( ( ( ( ( ( / J J J J J J J S S S S S A D J J J J J J J J J J J ( ( ( { { { { { { ' ' { { { x.[.XX>.@ @ @ @ @ @ @ > > > > > 7 X.3.3.3.3.3.y.y.y.y.3.} U U U U v v v v x d d d d d d d d d d d d d d d d d d d d d d d d d d d d d d d d d d d d d d d d d d d d d d d d d d d d d d d d d d d d d d d d Z Z Z Z Z Z Z Z Z Z Z Z Z Z > X X X X X X X X , 7 y 3 , * % % , C C C C C C C H H H J H H ( ' ' ' ' ( ( ( ( ` ( ( ( ( ' ' ( ( ' ' ' ( ( J J J S S Z x x x x x x x ",
"d d d d g k d d d d d d d d d d d d d x G G J G J Y Y Y U G G G G G G A v v v v v x x x d d d d d d d d d d d d d d d k k k x 0 0 0 0 0 0 i v v v k d d d k k k d d v v c c v v v v U >.>.4 = = 4 4 4 4 4 4 4 5 6 5 4 4 4 4 X X X o % i i i i i i i i i i i i i i i i i i u 0 u u 0 0 0 0 0 9 7 7 7 7 7 9 9 9 i 0 0 i i i i i k x x x A A A A A A A A A A A A A v Z A v v x x x x k k x x x x x x x x v v v v v A A A A A A A A G U U U U J A A v v v x g x x x x x x g x g x x d i d d g g g x x x A ,.5.P A A A k X X X X X X X 7 g x g x x x x x Z Z A A A A A A J J J J U U ( ( ( ( ( ( ( ( ( ( ( ! J J J J J J A A A A J J J J J J J J J J J J ( ( ( { { { { ........{ { ..{ ..u.XX[ @ @ @ @ @ @ @ * > > > > > ..3.3.3.3.3.3.3.3.3.3.>.U U U A v v v v d d d d d d d d d d d d d d d d d d d d d d d d d d d d d d d d d d d d d d d d d d d d d d d d d d d d d d d d d d d d d d d d g Z Z Z Z Z Z Z Z Z Z Z Z Z Z Z * X X X X X X X % % % % % % > u C C C C C C C C S S S S S ! ( ( ( ( ' ' ' ` ( ( ( ( ( ( ( ( ' ' ' ' ( ( J J J H S S A x x x x x x x ",
"d d d d d d d d d d x x Z A G G A Z A G G G G G G G G G G G G G G G A v b v v v x x x k d d d d d d d d d d d d d d d k k k d 0 0 0 0 0 0 x v v v k k d d d d k d d x v c v v v v v [ >.[ * = = 5 6 6 6 6 6 q q q 6 4 4 4 - X X X X o i i i i i i i i i i i i i i i i i i 0 0 u u 0 9 0 0 0 7 7 7 7 7 7 9 9 9 9 0 0 i i i i i i x x x x A A A A A A A A A A A x x x x x x x x x i i i i k x x x x x x v v v v v A A A A A A A A A A A G A A A A v v v x x x x x x x g g g x x x x x x x x x x x x x x ,.U._ A A A k X X X X X X X 7 g x g x x x x C Z Z A A A A S J J J J J U U ( ( ( ( ( ( ( ( ( ( ( ( ( U J J J J J J J J J J J J J J J J J J J ( ( ( { { { { { ......{ { { { { >.<.XX_ @ @ @ @ @ @ @ * > > > > > C 3.3.3.3.3.3.3.3.3.3.<.( / J v v v v v d d d d d d d d d d d d d d d d d d d d d d d d d d d d d d d d d d d d d d d d d d d d d d d d d d d d d d d d d d d d d d d d v Z Z Z Z Z Z Z Z Z Z Z Z Z Z Z v X X X X X X @ % % % , p g C C C C C C C C C C S S S S J ' ( ( ( ( ' ' ' ` ( ( ( ` ( ( ( ' ' ' ' ' ( ( J J J A S S Z x v Z S Z x x ",
"d d g d d k x x A G G G G G G G G G G G J G G G G G G G G G G G A v v b b v v x x x x d k k d d d d k k d d d d d d d d k k d 0 i i 0 0 i v v v k d d d d d d d d d d v c c v v v v &.>.x * * * q q q q q q q q q 6 4 4 4 & X X o o o , i i i i i i i i i i i i i i i i i 9 u u 0 0 u 9 0 9 7 7 7 7 7 7 7 7 7 7 9 0 0 0 0 i i i d x x x x A A A A A A A A A x x x x x x x x x k i i i i d x x x x x v v v v v Z A A A A A A A A A A A A A A A A v v v x x x x x x x x x g x x x x x x x x x x x x x x d.~._ A A b k X X X X X X X 7 g g C x x x x Z S S A S A A D J J J J J J J U ( ( ( ( ( ( ( ( ( ( ( ( ( ( J J J J J J J J J J J J J J J J / ( ( ( { ....{ { { { ....{ { { { X.<.<.XX_ @ @ @ @ @ @ @ % > > > > > > <.3.3.y.y.3.3.3.3.y.<.' / A v v v v x d d d d d d d d d d d d d d d d d d d d d d d d d d d d d d d d d d d d d d d d d d d d d d d d d d d d d d d d d d d d d d d d Z Z Z Z Z Z Z Z Z Z Z Z Z Z Z Z Z u X X X X X @ % * g C C C C C C C C C C C C C C S S S ( ' ' ' ( ' ' ' ( ( ( ( ' ' ' ' ( ( ' ' ( ( ( ( J J J S S A S A S S S S C g ",
"d k g d x v v b v b A A A A G G G G G G G G G G G G G G G G A b v v v b v v x x v x d k k k d d d d k k d d d d d d d d d d d i i i i i v v v k d d i i d d d d d d d k v c v v v A >.%.= * * * q q q q q q q q q q 4 4 4 @ X X o o o o i i i i i i i i i i i i i i i i u 0 u 0 0 0 0 9 9 7 7 7 7 7 7 7 7 7 7 7 7 9 0 0 0 0 i i i k x x x x A A A A A A A x x x x x x x x x x k i i i i d x x x x x v v v v v A A A A A A A A A A A A A A A A A v v v x x x x x x x x x x x x x x x x x x x x x x x x U.~.%.A A v k X X X X X X X 7 g x C C Z Z S S S S S S A D J J J J J J J J J ( ( ( ( ( ( ( ( ( ( ( ( ( ( ( ( / J J J J J J / ( ( ( ( ( ( ( ( ' ........{ { { { { ..{ { { ..<.<.3.XX[ @ @ @ @ @ @ @ % > > > > > > g y.y.y.y.y.y.3.3.3.>.{ / A v v v v g d d d d d d d d d d d d d d d d d d d d d d d d d d d d d d d d d d d d d d d d d d d d d d d d d d d d d d d d d d d d d d d d v Z Z Z Z Z Z Z Z Z Z Z Z Z Z Z Z Z + X X X X % % C } ' J S C C C C C C C C C C C S J ( ' ' ' ' ' ' ' ' ' ( ( ( ' ' ' ' ' ' ' ( ( ( ( J J J H S S S S S S S S S Z x ",
"k x x g g v v b b b v v v v b v b b b Z A A A A A A v v v v v v v v v b v v x x x x d d d d d k k k d d d d d d k k d d d d i 0 0 0 0 d v v x d d 0 0 i i d k k d d d d x c c v v _ ,.v = = = = w w q q q q q q q q 4 4 - X X X X X o o % i i i i i i i i i i i i i i i u u u u u u 9 7 7 7 7 7 7 7 7 7 7 7 7 7 7 7 9 0 0 0 i i i i x x x x x v A A A v x x x x x k x x x x x k i i d k x x x x x x v v v v v A A A A A A A A A A A A A A A A A v v v x x x x x g x x x x g g x x x x g g x x x g g x ~.~.%.A A k s X X X X X X X 7 g x x S Z S S S S Z Z Z A J U U U J J J U U U U ( ( ( ( ( ( ( ( ( ( ( ( ( ( ( ( ( ( ( ( ( ( ( ( ( ( ( ( ( ( { ..{ { { ......{ { } ......{ X.<.<.i.XX_ @ @ @ @ @ @ @ % > > > > > > > <.3.3.3.3.3.3.3.3...} U G v v v v d d d d d d d d d d d d d d d d d d d d d d d d d d d d d d d d d d d d d d d d d d d d d d d d d d d d d d d d d d d d d d d d d g Z Z Z Z Z Z Z Z Z Z Z Z Z Z Z Z Z % @ O X + % % { { { { { { ' ~ ~ ~ ! C C C J ' { { ( ( ( ( ( ' ' ' ' ' ( ( ' ( ' ' ' ( ( ( ( ( ( ' J J J A S S S A C x x Z S S x ",
"k k g g g g x x v b v v v v v v b b v v v v b v v b v v v v v b v v v v v x v x x d k k d d d d k k d d d d d d k k d d d d 0 0 i i 0 v c v d i 0 0 0 0 0 0 i d d d d d k x c c v } &.= * * * = w w q q q q q q q q 8 4 ; X X X X X o o o , i i i i i i i i i i i i i u 9 0 u u u 9 7 7 7 7 7 7 7 7 7 7 7 7 7 7 7 7 7 9 0 0 0 i i i k x x x x x x x x x x x x x k k x x x x d d i k x x x x x x x x v v v v v A A A A A A A A A A A A A A A A v v v v v x x x x g x x x x x g g x x x x g g x x g g x ~.~.%.A Z k k % X X X X X X 7 g x x S Z Z S S A A Z A J J U U U U J J U J U U ( ( ( ( ( ( ( ( ( ( ( ( ( ( ( ( ( ( ( ( ( ( ( ( ( ( ( ( ' { ....{ { { { ....{ { ........{ <.<.<.c.XX_ @ @ @ @ @ @ @ % > > > > > > u ..3.3.3.3.3.y.y.<.....U U v v v x d d d d d d d d d d d d d d d d d d d d d d d d d d d d d d d d d d d d d d d d d d d d d d d d d d d d d d d d d d d d d d d d d g Z Z Z Z Z Z Z Z Z Z Z Z Z Z Z Z Z % @ % % % % % { { { { { ............{ ' { { ......' ( ( ( ( ' ' ' ' ( ( ( ( ' ' ' ' ` ( ( ( ' ( ' J J J A S S S A v x x x x Z x ",
"d g g g g g d d d d v v v v v v v v v v v v v v v v v v v v v v b v v v v x v v x d d d d d d d d d d d d d d d k d d d d 0 0 0 i i k v k 0 0 0 0 0 0 0 0 0 0 0 i d d d d d v v v A i * = = * 1 q q q q q q q q q q 8 4 4 @ X X X X X X o o 9 i i i i i i i i i i i i 0 0 0 0 0 9 7 7 7 7 7 7 7 7 7 7 7 7 7 7 7 7 7 7 7 9 0 0 0 i i i x x x x x x x x x x x x x x x x k d i i i i k x x x x x x x x x v v v v Z A A A A A A A A A A A A A A A v v v v v x x x x x x x x x x x x x x x x x x x x g g x ~.~.2.A c k k % X X X X X X 9 g x C S S S S S S A A J J J U U J J J J J J J J U ( ( ( ( ( ( ( ( ( ( ( ( ( ( ( ( ( ( ( ( ( ( ( ( ( ( ( { { { { { { ........{ { ..{ ....} O.<.<.R.XX_ @ @ @ @ @ @ @ % > > > > > > u ..>.3.3.y.y.y.3.......( U J v v x d d d d d d d d d d d d d d d d d d d d d d d d d d d d d d d d d d d d d d d d d d d d d d d d d d d d d d d d d d d d d d d d d v Z Z Z Z Z Z Z Z Z Z Z Z Z Z Z Z Z @ @ % % % % 3 { ....{ ..} } { } { { { { } { ......{ ' ' ( ( ' ' ( ( ( ( ( ( ( ' { ..{ ` ' ' ' ' ' J J J A S S S A Z x x x x x x ",
"d g g g d d d d d d d v v v v v v v v v v v v v v v v x x x v v v b v v v v x v x k d d d d d d d d d d i d d d d d d d i 0 0 0 i i d 0 0 0 0 0 0 0 0 0 0 0 0 0 0 d d d d d d v v v 8 * = = * 4 q q q q q q q q q q 6 4 4 - X X X X X X o o % i i i i i i i i i i i i 0 0 0 0 9 7 7 7 7 7 7 7 7 7 7 7 7 7 7 7 7 7 7 7 7 7 7 0 0 i i i d x x x x x x x x x x x x x x k i i i i i i k x x x x x x x x x x v v v v Z A A A A A A A A A A A A A A v v v v v x x x x x x x x x x x x x x x x x x x x g g x ~.~.d.A l k k % X X X X X X i g x Z S S S S A S S A J J J U U U J J J J J J J J J ( ( ( ( ( ( ( ( ( ( ( ( ( ( ( ( ( ( ( ( ( ( ( ( ( ' { { ..{ { { { ......{ { { { ....{ X.<.<.W.XX_ @ @ @ @ @ @ @ % > > > > > > g ....>.3.y.y.y.>.......[ U U A v v d d d d d d d d d d d d d d d d d d d d d d d d d d d d d d d d d d d d d d d d d d d d d d d d d d d d d d d d d d d d d d d d x Z Z Z Z Z Z Z Z Z Z Z Z Z Z Z Z Z Z % @ % % % % g m.x.u.<...} { { } { { { { { { ........' ' ( ( ' ' ( ( ( ( ( ( ( { ....{ ' ' ' ( ( ' J J J J S S S S A v x x x x g ",
"d d g g g g d d k d g x b v v b v v v v v v v v x x x x x x x x x x v v v v v x v x k d d k d d d d d i 0 d k k d k k d 0 0 0 i 0 0 0 0 0 0 0 0 i i 0 0 0 0 i i 0 d d d d d d x c c 0 * * = = 8 q q q q q q q q q q 6 4 4 4 @ o o o o X X X % i i i i i i i i i i i i i 0 0 0 0 0 9 7 7 7 7 7 7 7 7 7 7 7 7 7 7 7 7 7 7 7 7 7 0 0 i i i d x x x x x x x x x x x x d i i i i i i i i x x x x x x x x x x x v v v v A A A A A A A A A A A A A A v v v v v x x x x x x x x x x x x g g x x x g g g x x x ~.~.0.A k k k % X X X X X X i a x Z S S S A A S S A U U U J J J J U J J J J J U U U ( ( ( ( ( ( ( ( ( ( ( ( ( ( ( ( ( ( ( ( ( ( ( ( ( ......{ { { { { { { ......{ { { { X.<.<.W.XX_ @ @ @ @ @ @ @ % > > > > > > 7 ( ....>.3.3.>...........U U U v v g d d d d d d d d d d d d d d d d d d d d d d d d d d d d d d d d d d d d d d d d d d d d d d d d d d d d d d d d d d d d d d Z Z Z Z Z Z Z Z Z Z Z Z Z Z Z Z Z Z Z Z % X X @ % % a x.m.m.m.m.a.{ } } { { } ..{ { { { { { { { { ' ' ' ' ' ' ( ( ( ' ........{ ' ' ` ( ( J J J J D S S S S Z x x x x g ",
"d d d d g g k k k g g v v v b b v v v v v v v v v x x x x x v v x x x x v v v v x x d d d k d d d d 0 0 0 0 k k d k k 0 0 0 i i 0 0 0 0 0 0 0 0 i i 0 0 0 0 i i d d d d d d d d v c c 8 * = = 6 q q q q q q q q q q q q 8 4 - o o o X X X X % i i i i i i i i i i i i i i 0 0 0 0 0 0 9 7 7 7 7 7 7 7 7 7 7 7 7 7 7 7 7 7 7 7 7 0 0 i i i k k k k x x x x k k d i i i i d d i i i i d x x x k k x x x x x x x v v v A A A A A A A A A A A A A v v v v v v x x x g g x x x x x x x g g x x x x g x x x ~.~.0.A k k k % X X X X X X i a x Z S S S A S S S D U U U J J J J U J J J J J U U U U ( ( ( ( ( ( ( ( ( ( ( ( ( ( ( ( ( ( ( ( ( ( ( ( ' ....{ { { { { ' ' ' { ..{ { { { X.<.<.I.XXG @ @ @ @ @ @ @ % > > > > > > 3 Z ......................( U U J v v d d d d d d d d d d d d d d d d d d d d d d d d d d d d d d d d d d d d d d d d d d d d d d d d d d d d d d d d d d d g Z Z Z Z Z Z Z Z Z Z Z Z Z Z Z Z Z Z Z Z Z g % X X O % % < C X.m.m.m.m.<.} } { { { X.{ { { { { { ..........} ..{ ..{ { { { ..........' ' ( ( ( J J J J J S S S S Z x x x x x ",
"k k k d g d d k d d g v v v b b b b v v v v v v v x x x x x x v v v x x x x v v x x k d d d d d i 0 0 0 i i i k d d d 0 0 0 i i 0 0 i i 0 i 0 0 i i i 0 0 0 i d k k d d d d k k d v v v 7 * 5 k c z e q q q q q q q q q q q 8 o o o o X X X 2 i i i i i i i i i i i i i i i u 0 u 9 0 0 0 9 7 7 7 7 7 7 7 7 7 7 7 7 7 7 7 7 7 7 7 0 0 i i i i i i i i i i i i i i i i i d d d i i i i d x x x x x x x x x x x v v v A A A A A A A A A A A A A v v v v v v x x x g g x x x x g x x x x x x x x x x x x W.~.d.A k k k % X X X X X @ i a x Z S J J D A S S H J U U J J U U U U J J J J U U J J / ( ( ( ( ( ( ( ( ( ( ( ( ( ( ( ( ( ( ( ( ( ( ( ( ' ......{ ' ( ( ( ( ( { ..{ { { X.<.<.M.XXG @ @ @ @ @ @ @ % > > > > > , y p ......................../ U U A v x d d d d d d d d d d d d d d d d d d d d d d d d d d d d d d d d d d d d d d d d d d d d d d d d d d d d d d d d d x Z Z Z Z Z Z Z Z Z Z Z Z Z Z Z Z Z Z Z Z Z Z g % X X X % % y C C ! h.m.m.n...} { X.m.n.....{ { { { { { ....} { ..X.X.X...{ ..{ ....{ ..{ ( ( ( ( / J J J J A S S Z Z x x x x g ",
"k k d d g g k k d d x v v v v v b b v b v v v x v v x x d d k k k x x x x x v x x x x d d d d 0 0 0 0 0 i i i 0 d d d 0 0 0 0 i 0 0 i i i i 0 0 0 i 0 0 0 i d d k k d d d d k k d k v v v x U P P P n n z l l e w q q q q q q & o o o X X X 4 i i v v v x k d d i i i i i i i i u u 0 0 0 0 9 7 7 7 7 7 7 7 7 7 7 7 7 7 7 7 7 7 7 0 0 0 i i i i i i i i i i i i i i i i d d i i i i i i x x x x x x x x x x x v v v v A A A A A A A A A A A A v v v v v v v x x g g x x x x g g x x x x x x x x x x J 5.~.9.A b k k % X X X X X % i a x Z S J J J J J A J J J J J U U U U U U J J J U U J J J ( ( ( ( ( ( ( ( ( ( ( ( ( ( ( ( ( ( ( ( ( ( ( ( ( ( ' ( ( ( ( ( ( ( ( ( { ..{ { X.<.<.h.XXG @ @ @ @ @ @ @ @ * > > > > 3 y y ........................' U U U v v x d d d d d d d d d d d d d d d d d d d d d d d d d d d d d d d d d d d d d d d d d d d d d d d d d d d d d d d d d Z Z Z Z Z Z Z Z Z Z Z Z Z Z Z Z Z Z Z Z Z Z g @ X X X % % p C C C C 3.m.m.x.<.3.m.m.m.........{ { { { <.u.a.a.a.y.<.<.<.<.O...{ ..{ { { ' ( ( ( ( J J J J H S S Z S x x x x x ",
"g g d d k d g g d d x v v v v b b b v v v v b v x x x d d d d d k d d k x x x x x x x d d d i 0 0 0 i i 0 0 0 0 0 i i 0 i i i 0 0 0 0 0 0 0 0 0 0 0 0 0 0 d d d d d d d k d d d d d x v c c b P P P n n m m n n n n n l w q q & o o o X X X 0 i k v v v x x x x x x x x i i i i a i 0 0 0 0 0 9 7 7 7 7 7 7 7 7 7 7 7 7 7 7 7 7 7 0 0 0 0 0 i i i i i i i i i i i i i i d d i i i i d d x x x x k k k x x x x v v v v v v v A A A A A A A A A v v v v v v v x x x x x x v v v v v v x x x x x x x x [ 3.H.,.A A k k % X X X X X * i a x Z S A J J J U U U U U U J J J U U J J J U U U U J J J ( ( ( ( ( ( ( ( ( ( ( ( ( ( ( ( ( ..u.x.n.n.a.( C ( ( ( ( ( ( ( ( ( ( ( ( { { ..X.<.<.h.W.G @ @ @ @ @ @ @ @ @ > > > > 3 t t ..........................( U Y U v v g d d d d d d d d d d d g x x x x v v d d d d d d d d d d d d d d d d d d d d d d d d d d d d d d d d d d d d d d d g Z Z Z Z Z Z Z Z Z Z Z Z Z Z Z Z Z Z Z Z g + X X X @ @ f C C C C S ! u.m.m.M./.C.m.a...{ { X.3.h.m.m.m.m.a.a.a.p.<.3.3.3.<...{ ......{ ' ' ' ( J J J J J S Z S S S Z x x x ",
"g g g d k d g g d k v b v v v v b v v v v b b v x x x k d d d d k d d d d k x x x x x d d d 0 0 0 i i i 0 0 0 0 0 0 0 0 0 i i i 0 0 0 0 0 0 i i 0 0 0 0 0 d d d d d d d k k k d d d d v c c v G P P n n m n n m n n m m n q q & o o X X X X i i x v v v x x x x x x x v i i i i i i i i 0 0 0 0 0 7 7 7 7 7 7 7 7 7 7 7 7 7 7 7 7 0 0 0 0 0 i i i i 0 0 0 0 0 0 0 0 0 i d d d i i i d k x x x x x x k x x x v v v v v v v v v A A A A A A A A Z v v v v v v v x x x v v v v v v v v v v v x x x x x >.3.d.,.A A v k % X X X X X 2 i a x Z S S J J J U U U U J J J J U J J J J J U U U U J J J ( ( ( ( ( ( ( ( ( ( ( ( ( ( ..3.x.x.x.x.n.n.n.X.x C ( ( ( ' ' ( ( ( ( ( ( ' { ..X.<.<.h.d.A @ @ @ @ @ @ @ @ @ @ > > > t t t ( ........................{ U U U J v v x d d d d d g x v v v v v v v v v x d d d d d d d d d d d d d d d d d d d d d d d d d d d d d d d d d d d d d d d d d d g g v Z Z Z Z Z Z Z Z Z Z Z Z Z Z Z d + X X X @ % f j C j C C H ! ^ i.m./.(.R.C.m.m.m.m.m.m.m.m.m.m.m.k.a.a.a.y.3.3.3.<.X.{ { ....' ' ' ' J J J J J H Z S S S A A S S ",
"x g d d k k g g x v v v b b v v v v v b v v v v v x v x d d d d d d d d d d d k x x x k k d 0 0 0 0 i i 0 0 i 0 0 0 0 0 0 0 i 0 i 0 i i 0 i i i 0 0 0 0 0 d d d d d d d d d d d k d k v v c v b P P N n m m n n n m m m n q q # o o o X X % i i x x x x x x v v x x v v i i i i i i i i i u 0 0 u 0 7 7 7 7 7 7 7 7 7 7 7 7 7 7 9 9 0 0 0 0 0 0 0 0 0 0 0 0 0 0 0 0 0 0 d d i i i i d d x x x x x x x x x x v v v v v v v v v A A A A A A A A A v v v v v v v v v v v v v v v v v v v v v v x x x x >.3.5.,.A A c k % X X X X X 7 i a x C S S A J J J U J J J J / ( ( J J U U U J J J U J J ( ( ( ( ( ( ( ( ( ( ( ( ( ( x.n.n.n.x.x.n.n.n.n.u.x C C ( ( { { { { ( ( ( ( ' ....X.<.<.i.u.i @ @ @ @ @ @ @ @ @ @ * > , t t t ( ..........................( U U U A v v v x x x v v v v v v v v v v v v x d d d d d d d d d d d d d d d d d d d d d d d d d d d d d d d d d d d d d d d d d d d d d d Z 2.5.5.>.( Z Z Z Z Z Z Z Z x + X X X + % h j C C j j C H ! ! { R.(./././.C.C.m.m.m.m.m.m.m.m.m.n.a.a.a.y.3.3.<.<.X.{ { { { ' ' ' ( J J J J J Z Z A A A A S S ",
"v x d d d k x v v v v v b v v v v v v v v v v v v x v v x k d d d d d d d d d d d k k k k k d 0 0 0 i 0 0 i d d i 0 0 0 i 0 0 0 i i i i 0 i i i 0 0 0 d d k d d d d d d d d d d d k v v v v v v G P L n m m n n n n m m n q q # o o o X X , i i k x x x x x v v x x v v k i i i i i i i a i 0 0 u u 9 7 7 7 7 7 7 7 7 7 7 7 7 7 7 9 0 i 0 0 0 0 0 0 0 0 0 0 0 i 0 0 0 0 i d i i i i d d x x x x x x x x x v v v v v v v v v Z A A A A A A A A A A v v v v v v v v v v v v v v v v v v v v v x x x x | 3.5.,.A A c k % X X X X X 7 i a x x S S S H J J U J U / ( ( ( ( J U U U U J J J J ( ( ( ( ( ( ( ( { ..{ ! ! ( ( ( { m.XX@XC.n.n.n.n.n.n.Z C x Z ' { { { { ' ( ( ( ' { ..X.<.<.i.h.a @ @ @ @ @ @ @ @ @ @ @ > , y t t ( ............................( / / / A v v v v v v v v v v v v v v v v v g d d d d d d d d d d d d d d d d d d d d d d d d d d d d d d d d d d d d d d d d d d d d d d d x Y 5.d.d.d.%.J Z Z Z Z Z Z @ X X X + % C j C C j j j j S ! J ..R././././././././././././.R.m.m.n.a.a.a.u.3.<.<.<...{ { { { ' ' ( J J J J J D Z A A A A S S ",
"b v v v v v v v v v v b b v v v v v v v b b v v v v x v x k d d d d d d d d d d d d k k k d d d i 0 0 0 0 d k d d k k d d 0 0 0 0 0 0 0 i i 0 0 i i d d k k k d k k d d d d d d x v v c c c v v b P P L F.V n n m n n n z q q % X X X X X 9 i i i x x x x x x x x x x v x i i i i i i i a u 9 9 0 9 u 9 7 7 7 7 7 7 7 7 7 7 7 7 7 9 0 0 0 0 0 0 0 0 0 0 0 0 i i i 0 0 0 0 i i i i i i i k x x x x x x x x v v v v v v v v v A A A A A A A A A A A A v v v v v v v v v v v v v v v v v v v v x x x x J 3.d.%.A A v k X X X X X X 3 i a x x S S S S J J J ( ( ( ( ( ( ( J J J J J J J U ( ( ( ( ( ( ( ' X.>.{ J J J J ! ( ( X.$X$X$XC.n.n.n.n.n.' x x x ! { ........{ ( ' { { { <.<.<.p.a., @ @ @ @ @ @ @ @ @ @ @ * , t t t ( ............................{ U U U / A v v v v v v v v v v v v v v v v x d d d d d d d d d d d d d d d d d d d d d d d d d d d d d d d d d d d d d d d d d d d d d d d d d d Z >.f.d.5.Z Z Z Z Z Z + X X X @ % C C C C C C C C C C H J ! u./././././././././././././.C.m.n.a.a.a.a.<.<.<.<...{ { { { ( ( ( J J J J J A A A S S S S ",
"b b v v b b v v v v v b v v v v v v v v b b b v v v v v x x k d d d d d d d d k d d k d d d d d k k d i 0 d d d d k k k k 0 0 0 0 0 0 0 i 0 0 0 i i i d k d d d k k d d d d d v v v v v c c v v v U P *.K.6.n n m n n n r q q @ X X X X X u i i i k x x x x x x x x v v x i i i i i i i u u 9 9 0 0 u u 9 7 7 7 7 7 7 7 7 7 7 7 9 9 0 0 0 0 i i i 0 0 0 0 0 i i 0 0 0 0 0 0 i i i i i i d x x x x x x x x v v v v v v v v A A A A A A A A A A A A A A v v v v v v v v v v v v v v v v v v v x x x x x >.I.[ A A v k X X X X X @ 2 i a x x Z S S A A J J / ( ( ( ( ( ( U J J J J J J ( ( ( ( ( ( ( ..>.>.X.J J J J J J J ! ( i.$X$X$Xn.n.n.n.n.a.x x x C { ............{ { { { <.<.<.p.h., @ @ @ @ @ @ @ @ @ @ @ % > 3 t t ( ..............................( U U U U J A v v v v v v v v v v v v v v v v x g d d d d d d d d d g x x x x g d d g x x x x v x d d d d d d d d d d d d d d d d d d d d d d d d d d Y Z v Z Z Z Z Z + X X X X % C C C C C C C C C C C S H ! ! <.R././././.XX*X<X3XXX/./.C.m.n.a.a.a.p.<.<.<.<.{ ....{ ' ( ( ( J J J J J J J J J J A ",
"v v v v b b v v v v b b v v v v v v v v b b v v v v v v x x v k d k d d d d k k d d d d d d d d d d d d d d d d d d k d d d 0 i 0 0 0 0 i i 0 0 0 0 i d d d d d d d d d k x v v v v v v c c v v v G U U K.K.m m m m n n w q q X X X o o X i i i i k x x x x x x x x v v x k i i i i i i i 0 9 0 0 0 0 0 0 7 7 7 7 7 7 7 7 7 7 7 9 9 0 0 0 i i i i i i 0 0 0 0 i i i 0 0 0 0 0 i i i i i i d x x x x x x x v v v v v v v A A A A A A A A A A A A A A A A v v v v v v v v v v v v v v v v v x x x x x x A _ A A A k 0 X X X X X % , i a x x C A A A A A J J ( ( ( ( ( ( ( / J J J U ( ( ( ( ( ( ( ..<.>.>.~ J J J J J J J J ! ( M.$X$X'.n.n.n.n.n.S C x x ! { ........{ { { { ..<.<.<.a.a.% @ @ @ @ @ @ @ @ @ @ @ @ * > > > 7 g S { ..........................U U U U U U U G v v v v v v v v v v v v v v v v v x g d d x x v v v v v v v v v v v v v v v v v v x d d d d d d d d d d d d d d d d d d d d d d d d d d d d x Z Z Z X X X X X % C C C C C C C C C C C C C S ! ! !  .m.'.*X3X<X<X<X<X_././.C.m.n.a.a.a.p.<.<.<.<.....{ { { ' ' ( J J J J J J J J J J ",
"b v v v v v v v v v b v A G G G G A A b v v v v v v v v v x v v k k d d d d k k d d d d d d d d d d d d d d d d d d d d d d i i 0 0 0 i i i 0 0 0 0 0 d d d d d d d d d k v v v v v v v c c v v v A U U F.K.I m m n n n q q 6 X X X o o o i i i i k x x x x x x x x x x x x i i i i i i i i 0 0 0 0 0 0 0 9 7 7 7 7 7 7 7 7 7 7 9 9 0 0 0 i i i i i i i 0 0 0 i i i i i 0 0 0 0 i d i i i i d x x x x x x v v v v v v v A A A A A A A A A A A A A A A A A v v v v v v v v v v v v v v v v x x x x x x x A A A A k 7 X X X X X > , i a x x C A A A A S H J J U ( ( ( ( ( ( ( J U U ( ( ( ( ( ( { <.<.>.X.J J J J J J J J J J ! (  X$X$X/.n.n.n.n.O.x x x C ........} { { { ..<.<.<.<.a.a.@ @ @ @ @ @ @ @ @ @ @ @ @ @ @ @ @ @ @ @ @ , x ( ....................[ U U U U U U U J Z v v v v v v v v v v v v v v v v v v v v v v v v v v v v v v v v v v A A v v v v x d d d d d d d d d d d d d d d d d d d d d d d d d d d d d v Z X X X X X % C C C C C C C C C C C j C C S J H H ! ..$X3X<X<X<X<X*X(././.C.m.n.a.a.a.p.<.<.3.<...{ { } { ' ' ( / J J ! / / ! J J ",
"G G A A A b b b b A A G G G G G G G G G G G G G b b b v v v v v x k d d d d d d d d d k d d d d d k k k d d d d k k d d d d d 0 i i i i 0 0 0 0 i i d d d d d d k d d d d k v v c v v v c c c c v b P P 6.K.=.m n n n e q q - @ X X o o o 7 i i i d x x x x v v x x v v x x d i i i i i i i u 0 0 0 9 u u 0 7 7 7 7 7 7 7 7 7 7 7 9 i i 0 0 0 0 0 0 0 0 0 0 0 0 0 i 0 0 0 0 0 0 i i i i i i i d k x x x x x x v v v v v A A A A A A A A A A A A A A A A A v v v v v v v v v v v v v v v x x x x x x x x b A A A k = X X X X X , , i a x x x Z S S S S Z J J U U U ( ( ( ( ( ( ( ( ( ( ( ( ( ( X.O.O.O.{ J J J J J J J J J J J ( | $X$XXX3.y.x.n.a.S x x x J ..<.<.<.>.X.O.<.<.<.<.u.h...@ @ @ @ @ @ @ @ @ @ @ @ @ @ @ @ @ @ @ @ @ @ @ @ % 7 Z { ..............{ ( U U U U U U U v v v v v v v v v v v v v v v v v v v v v v v v v v v v v v v v A A A A v v v v v v g d d d d d d d d d v x g d d d d d d d d d d d d d d d d g X X X X X @ h C C C C C C C C C C C C C C C H ! J J H M.$X3X3X3X<X*X(././.C.m.n.a.a.a.y.3.3.<.<.....{ { { ' ' ' ( ( ( { { ( ( J ",
"G G G G G G G G G G G G G G G G G G G G G G G G G b b v v v v v x x x k d d d d d d d k d d d d d d k k d d d d k k d d d d k 0 i i i i 0 0 i d d d d d d k d d k d d d d k k v c v v v v c c c v b P P z.K.F.m n n n q q 4 = # X X o X o @ i i i d x x x x v v x x v v x x x i i i i i i i u 0 0 0 0 0 9 9 9 7 7 7 7 7 7 7 7 7 7 9 0 i 0 0 0 0 0 0 0 0 0 0 0 0 i i 0 0 0 0 0 0 i i i i i i i i i d x x x x x x x v v v v v Z A A A A A A A A A A A A A v v v v v v v v v v v v v v v v x x x g i i i i v A A A k X X X X X X , , i a x x x C S S S S S A J U U J J U ( ( ( ( ( ( ( ( ( ( ( ( X.O.O.O.! J J J J J J J J J J J J ( i.$X$Xy.y.y.x.n.O.x x x C ..<.<.<.<.<.<.<.<.<.3.h.h.H @ @ @ @ @ @ @ @ @ @ @ @ @ @ @ @ @ @ @ @ @ @ @ @ @ @ @ @ * g ( ............[ ( U U U U U J v v v v v v v v v v v v v v v v v v v v v v v v v v v v v v A A A A A A v v v v v v x d d d d d d d d x v v v x d d d d d d d d d d d d d d d @ X X X X @ g j C C C C C C C C C C C j C C C ! J J J H C.3X3X3X<X<X*X(././.C.m.n.a.a.a.y.3.<.<.<.......{ ..{ { ' { <.y.y.3.{ ( ",
"P K G G G G G G G G G G G G G G G G G G G G G G G G A v v v v v v x v x d k d d d d d k d d k d d d k d d d d d d d d d d d k 0 0 i 0 0 0 0 k k d k d d k k d d k k d d d d d x c c v v v v c c v b P P K.K.K.m n n e q 6 = = # X X X X X X % i i d x x x x v v x x x v x x x k i i i i i i 0 0 0 u u 9 0 0 9 7 7 7 7 7 7 7 7 7 7 9 i i 0 0 0 0 0 0 i i 0 i 0 0 0 0 0 0 0 0 0 0 i i 0 0 i i i i i i i d k x x x x x x x v v v v v v Z A A A A A A A A A v v v v v v v v v v v v v x i i i i u 9 0 9 9 9 k A A A 0 X X X X X @ , , i a x x x x S S S S S S S H J J J J J U ( ( ( ( ( ( ( ( ( ( ( X.O.~ J J J J J J J J J J J J J J ( /.$XC.y.y.y.x.y.! x C C ! <.<.u.u.y.y.y.u.a.h.h.h.7 @ @ @ @ @ @ @ @ @ @ @ @ @ @ @ @ @ @ @ @ @ @ @ @ @ @ @ @ @ @ @ % 7 H ..........| ' / U U J v v v v v v v v v v v v v v v v v v v v v v v v v v v v v A A A A G G A v v v v v v v x d d d d d d d x v v v v v x d d d d d d d d d d d d d X X X X X @ f j C C C C C C C C C C j j C C C S J J H H n.$X<X$X#X<X<X#X/././.m.m.n.a.a.a.y.3.3.<.<.........{ { { <.y.y.y.y.3.{ ",
"Y P P G G G G G G G G G G G G G G G G G G G G G G G G G v v v v v v v v v k d d d d d d d d k k d d d d d d d d d d d d d d d d 0 0 0 0 0 i k k k k d d k d d d d k d d d d d d c c v v v v c v v b P +.K.K.K.E n n q q - = = # X X X X X X X % 0 d x x x x v v x x x v x x x x i i i i i 0 0 0 0 u u u 0 0 0 7 7 7 7 7 7 7 7 7 7 7 9 i i 0 0 0 0 0 i i i i 0 0 0 0 0 0 0 0 0 i i i 0 0 0 i i i i i i i i i d x x x x x x x v v v v v v v v v v Z Z A v v v v v v v v v v x x d i i i a u 9 9 9 0 9 9 9 i A A A , X X X X X % , 2 i a x x x x C Z S S S S Z S A J J J J J J ( ( ( ( ( ( ( ( ( ( ~ ! J J J J J J J J J J J J J J J ! { $X'.y.y.y.y.y.O.x C C C X.u.h.h.h.a.h.a.a.h.h.u.@ @ @ @ @ @ @ @ @ @ @ @ @ @ @ @ @ @ @ @ @ @ @ @ @ @ @ @ @ @ @ @ @ @ @ % 4 S ..........} / J v v v v v v v v v v v v v v v v v v v v v v v v v v v v A A A A A A G A v v v v v v v v v x d d d d d g v v v v v v v x g d d d d d d d d d 9 X X X X X @ f j C C C C C C C C C C j C C C C C ! ! H ` n.C.p.<.3.y._.3X%X(././.C.m.h.a.a.a.3.3.<.<.<.O...{ { { ..p.p.u.y.y.y.<.",
"_ Y U U U P K K G G G G G K K K G G G G G G G G G G G G G b v v v v v x x x k d d d d d d d d k d d d d d d k k d d d d d d d d 0 0 0 0 0 d d d k d d d d k d d d d d d d d d x c v v v v v v v v b U G.K.K.F.@.n e q 4 = = = @ X X X X X X X X X * x x x x x x v v v v v x x x k i i i 0 0 0 0 0 0 0 0 0 0 0 9 7 7 7 7 7 7 7 7 7 7 7 9 i i i i 0 i i i i i i 0 0 0 0 0 0 0 i i 0 0 0 0 0 0 d i d d d i i i i x x x x x x x x v v v v v v v v v v v v v v v v v v v v x d i i i i i u u 9 9 9 9 9 9 9 9 0 A A b X X X X X X > , 3 a a x x x x x x C S S S S S S S A J J J J ( ( ( ( ( ( ( ( ! ! J J J J J J J J J J J J J J J J J J ! u.n.y.y.y.y.y.y.! x x x J a.h.h.h.h.h.h.h.h.h.( @ @ @ @ @ @ @ @ @ @ @ @ @ @ * * * * , H J J S u % @ @ @ @ @ @ @ @ @ @ @ @ > 3 C { ..m.I.( H v v v v v v v v v v v v v v v v v v v v v v v v v v v v A A A A A A G A v v v v v v v v v v v x g d d d v v v v v v v v v A A Z v v v v G J 9 X X X X X % a C C C C C C C C C C C C C C C C C ! ! ! ..n.a.<.<.<.<.3.n.*X%X/././.m.m.a.a.a.a.3.<.<.<.<.<.<.O.<.u.C.C.C.m.u.y.y.",
"[ _ U U P P P P P P P P P P P P U U U P P P K G G G G G G G b v v v v v x x x x d d k k d d d k d d d d d d k k d d d d d d d d d 0 0 0 i d d d d d d d k k d d d d d d d d d x c v v v v v v v v b 0.q.+.P P K n w 6 = = = = o X X X o X X X X X X 2 x x x x x x v v v v v x x x d i i 0 0 0 0 0 0 0 0 0 0 0 9 7 7 7 7 7 7 7 7 7 7 7 7 9 0 i i 0 0 i i i i i 0 i 0 0 0 0 0 i i i 0 0 0 0 0 i d d d i i i i i k x x x x x x x x v v v v v v v v v v v v v v v v x d i d i i i i u 9 9 u u 9 9 9 0 9 9 9 0 b A 4 X X X X X X , , 7 a a x x x x x x x x C Z S S S S S A J J J ( ( ( ( ( ( ~ J J J J J J J J J J J J J J J J J J J J J J ! y.y.y.y.y.y.y.<.x x x x { a.h.h.x.h.h.h.h.h.7 @ @ @ @ @ @ @ @ @ @ @ @ @ , , , , , , x J J J J J x * @ @ @ @ @ @ @ @ @ @ > < < , a I.I.4.A v v v v v v v v v v v v v v v v v v v v v v v v v v v v A A A A A A G A v v v v v v v v v v v v v v v v v v v v v v v v v _ _ _ _ _ _ _ _ _ @ X X X X + % y C C C C C C C C C C C C C C C C C ! ! ! y.n.n.<.<.<.3.O.O.y.XX#X/./.R.m.m.a.a.a.u.<.<.<.<.<.<.3.3.p.C.C.C.C.C.a.y.",
"} [ _ U P P P P U Y U U Y U P P U U P P P P P U G G G G G G G b v v v v v x x x x k k k d d d d d d d k d d d d d d d d d k d k d d i 0 d d d d d d d d k d d d d d d d d d k k x v v v v v v c v K P P P P P P z q - $ = = @ X X X o o o o X o o X o i x x x x x x x v x x x x x x a a 9 u 0 0 0 0 0 0 u u 0 u 7 7 7 7 7 7 7 7 7 7 7 7 9 0 0 0 0 0 i i i i 0 0 i i i 0 0 0 0 i i i 0 0 0 0 0 d d d i d i i i i x x x x x k k x x x v v v v v v v v v v v v x d i i d d i i u 9 9 9 0 0 u u 9 9 9 9 9 9 9 v v X X X X X X X , , u a a x g g x x x x x x x x Z S S S S A J J ( ( ( ( ( ( J J J J J J J J J J J J J J J J J J J J J J J J  .y.y.y.y.y.y.y.` x x x ( ..h.Y.Y.Y.n.h.h.>.@ @ @ @ @ @ @ @ @ @ @ @ @ % , , , , , , 4 J J J J J J J x 3 @ @ @ @ @ @ @ @ % < , , , ,.I.H.v v v v v v v v v v v v v v v v v v v v v v v v v v v v v A A A A A A A A A v v v v v Z A v v v v v v v v v v v v v v v v v Z G H J Y ( _ _ J X X X X X @ % y C C C C C C C C C C C C C j j j j H H ! a.n.n.3.<.O.X. . . . .C.#X/./.C.m.m.a.a.a.y.<.<.<.<.<.3.<.n.C.C.C.C.C.C.n.",
"3.[ [ ( U P P P U U U U U U P P P U U P P P P P P U G G G G G G b v v v v v v x x x x k d d d d d d k k d d d d k k d d d k k k d d d k k k d d d d d d d d d d k d d d k k k d d d d v v v v c v v b P P P P P k 5 $ $ $ # X X X X o o o o o o o o o @ k x v v x x x x x x x x x x d a i u 0 0 0 0 9 u u u u u 7 7 7 7 7 7 7 7 7 7 7 7 8 0 0 0 0 0 0 i i 0 0 0 i i i 0 0 0 i i 0 i 0 0 i 0 0 i i i i i i i i d d k x x x x k k x x x v v v v v v v v x x d d d i i d i i 9 9 9 0 0 0 0 9 9 9 9 0 0 9 9 9 9 % X X X X X X X , , u a a x x g g x x x x x x x x x Z S A A J U ( ( ( ( / J J J J J J J J J J J J J J J J J J J J J J J J J J ^ O.y.y.y.y.y.y.! x x J ' a.Y.Y.Y.Y.M.( u @ @ @ @ @ @ @ @ @ @ @ @ @ # , , , , , , , G J J J J J J J S , , > > * % % % % < , , , 3 I.9.a x v v v v v v v v v v v v v v v v v v v v v v v v v v v A A A A A A A A A A A v A A A A v v v v v v v v v v v v v v v v v v v A A A A A A 9 X X X X X % % y C C C C C C C C C C C C C j j j j H H H n.n.n.3.3. . . . . . . .3.(././.C.m.n.a.a.a.<.<.<.<.<.<.<.m.C.C.C.C.C.C.C.",
"4.3.[ [ Y U U P P P P P U U U P P P P P P P P P P Y U G G G G G G b v v v b b v v v x x d d d d d d d d d d d d k d d d d d d d d d d d d d d d d d d d d d d d k k d d d k d d k k k v v v c c v v v P P P P P e $ # # # o X X X X o @ @ @ @ @ o o o o 4 x x v x x x x x v v x x x x i i i i 0 u u u u 0 0 0 9 7 7 7 7 7 9 9 9 0 0 0 0 i i i i 0 i i 0 0 i 0 0 0 0 0 0 i i 0 0 i i 0 0 0 0 i i i i i i i i d d i d x x x x x x x x x x x x v v x x x k d i i i i i i i u 0 0 0 0 9 9 9 u 9 9 0 0 9 9 9 9 2 X X X X X X X O , 2 i i i x x x x x C x C x x x x x C S A S A J ( ( / J J J J J J J J J J J J J J J J J J J J J J J J J J J J J !  .y.y.y.y.y.y.` x H ' <.Y.Y.Y.Y.>.u u @ @ @ @ @ @ @ @ @ @ @ @ @ @ % , , , , , , i J J J J J J J J C y < < < < < < < < , , , , >.9.a a d x v v v v v v v v v v v v v v v v v v v v v v v v v G G A A A A A A A A G A A A A A G v v v v v v v v v v v v v v v v v v A A A A A A X X X X X + @ % < C C C C C C C C C C C C C C C C C H H ! n.n.a.3.O. . . . . . . . . .a././.m.m.n.a.a.a.<.<.<.<.<.y.C.C.C.C.C.C.C.C.",
"4.4.3.[ [ Y P P P Y Y _ _ _ _ _ _ _ _ Y P P P P P P U U G G G G G G b v v b v v b v x x x d k k d d d d d d d d d d d d k k d d d d d d d d k k d d d k d d d d d d d d d k d d k k v v v v c v v v v b P P P P 6 # # # o o X X X X @ = = = = = & @ o o @ k x v x x x x x x v x v x x k i i i i u u u u 9 9 7 7 7 7 7 7 9 9 9 0 0 0 0 0 i i i i 0 0 0 0 i i 0 0 0 0 0 0 i i 0 0 i i 0 0 0 0 i i 0 i i i i i d d i k k x x x x x x x x x x x x x x k d d i i i i i i i i 0 9 0 0 0 0 9 9 u u 0 0 0 0 9 9 9 * X X X X X X X @ , 7 i i i x x g x x C C x x x x x x Z S S S S J U J J J J J J J J J J J J J J J J J J J J J J J J J J J J J J J J J ` 3.y.y.y.y.y.3.` ' { M.Y.Y.Y.g u u @ @ @ @ @ @ @ @ @ @ @ @ @ @ @ @ % , , , , 4 J J J J J J J J J h f < < > < < < < > > , , Z d.a a a a x v v v v v v v v v v v v v v v v v v v v v v v A A G A A A A A A A G G A A A A A G A v v v v v v v v v v v v Z A S v v v A G G A g X X X X X @ @ % , j C C C C C C C C C C C C C C C C H H { n.n.y.O. . . . . . . . . . . .<./.C.m.m.a.a.a.a.y.y.y.y.n.C.C.C.C.C.C.C.C.",
"u.4.4.4.} [ [ [ [ [ [ [ [ [ [ [ [ [ [ [ _ Y U U U U U U K G G G G G G v v v v v b b v x x x d d d d d d d d d d d d d d d d d d d k x d d d k k d i i 0 0 9 9 9 9 9 9 9 0 d d d k v v v v v v v v v v b P P P P 4 & # X o o o o o o = = = = = = = = @ o X , x x v v x x x x x x x x x x k i i i i 0 u 9 7 7 7 7 7 7 7 7 9 9 0 0 0 0 0 0 0 0 i 0 0 0 0 0 i 0 0 0 0 0 0 0 i i 0 0 i 0 0 0 0 0 i i i i i i i i d d d x x x x x x x x x x x x x x x k i i i i i i i d d i i i i u 9 u u u u 9 u 9 9 u u 9 u 9 * X X X X X X X % , 9 i u u x g g x x x x x g x x x Z S S S S S J J J J U U J J J J J J J J J J J J J J J J J J J J J J J J J J J J J J ! X.y.y.y.y.x.M.x.3.m.Y.Y.x.u u u @ @ @ @ @ @ @ @ @ @ @ @ @ @ @ @ @ @ * , , , H J J J J J J J J H h p > > > > > > > > , , g U.a a a a a g x v v v x g x x x v v x d d d x v v v v v v A A A A G A A A A A A A A A A A A A G A v v v A A A A A A U &._ A A A S v A A A A > X X X X X % @ @ , j C C C C C C C C C C C C C C C C H H ..n.n.3... . . . . . . . . . . . . .n.m.m.n.a.a.a.a.a.a.n.C.C.C.C.C.C.C.C.C.",
"u.4.4.4.3.[ [ [ [ [ [ [ [ _ [ [ [ [ [ [ [ [ Y U U U U U P G G G G G G G v v v v v v v v x x x k d d k k k k d d d d k x x x x x x x d d d i 0 0 9 9 6 9 8 8 9 0 9 9 0 d d d d d v v v v v v v v v v v v P P P P 4 & X X o o o X o o = = = = = = = = = o X X i x x v v x x x x x x x x x x k i i i 0 9 7 7 7 7 7 7 7 7 7 9 9 0 0 0 0 0 0 0 0 0 0 0 0 0 i i 0 0 0 d 0 0 0 i i 0 0 0 0 0 0 0 0 0 i i i i i i i d d i x x x x x x x x x x x x x k i i i i i i i i i d d d d i i i i u u u u 9 u u 9 u u u u 9 @ X X X X X X X * , u i u i x g x x x x x g g Z Z S S S S S S S D J J J J J J J J J J J J J J J J J J J J J J J J J J J J J J J J J J J J J ^ <.3.3.a.Y.Y.Y.Y.Y.Y.u.g g g 7 , @ @ @ @ @ @ @ @ @ @ @ @ @ @ @ @ * , , , g J J J J J J J J J H h < > > > > > > > < < 3 U.a a a a a a a g x d a a a a a i d a a a a d v v v v v Z A A A A G A A A A A A A A A A A A A A A A A A A A A A A U 5.5.5.5._ A A A A A A A X X X X X X % @ @ > j C C C C C C C C C C C C C C C C H H  .n.a.O. . . . . . . . . . . . . . . .a.m.n.a.a.a.a.a.C.C.C.C.C.C.C.C.C.C.C.",
"y.y.3.| [ [ [ [ [ [ [ [ [ [ [ [ [ [ [ [ [ [ [ Y Y P P Y U G G G G G G G A v v b v v v v v x x x x k k k d d d d k x v x x v v v x d 0 9 9 9 9 9 9 9 9 0 9 9 9 9 0 i d d d d k v v v v v v v v v v v c c K P P P 4 @ X o o X X X o o = = = = = = = = = & o o % x x x x v v v x x x x x x x x i i i 0 9 7 7 7 7 7 7 7 7 7 7 0 0 0 0 0 0 0 0 0 0 0 i 0 0 i 0 0 0 x Z i i i 0 0 0 0 0 0 0 0 0 0 0 0 0 i 0 i i i i i i k x x x x x x x x x x x d i i i i i i i i i i d d i i i i i i u 9 9 9 9 9 9 9 9 9 9 9 9 @ X X X X X X X > , i u u i x x x x x x C Z S S S S Z S Z A A A A S H J J J J J J J J J J J J J J J J J J J J J J J J J J J J J J J J J J J J !  .y.y.a.Y.Y.Y.Y.Y.Y.%.P P P P K , @ @ @ @ @ @ @ @ @ @ @ @ @ @ % , , , 7 J J J J J J J J J J S y < , > > < < , > > < U.a a i i i i d d a a a a a a i i a a a a a d v v v v v A A A A A G G A A A A A A A A A A A A A A A A A A A A A U 5.5.5.5.5.,.( C Z A A A 7 X X X X X + % % % % C C C C C C C C C j j j j C C C C H !  .n.3.X. . . . . . . . . . . . . . . . .O.a.a.a.a.n.C.C.C.C.C.C.C.C.C.C.C.C.",
"4.3.[ [ [ [ [ [ [ [ [ [ _ [ [ [ [ [ [ [ [ [ [ _ P P P P U G G G G G G G A v b b v v v v v x x x x v x x k x x x v v v x x x x v d 7 7 9 9 8 9 9 9 9 0 0 9 9 0 i d d d d d d k v v v v v v v v v v v c c b P P P 4 X o o X o X X o o = = = = = = = = = = @ o o 7 x x x x x v x x x x x x x x k i i 0 9 7 7 7 7 7 7 7 7 7 7 0 0 0 0 0 0 0 0 0 0 0 i i 0 0 0 0 d Z Z 9 0 i 0 i 0 0 0 0 0 0 0 0 0 0 0 0 0 0 0 i i i i i k k k k k k k x x x i i i i d d i i i i i i i i i i i i u 0 0 9 9 9 9 9 9 0 0 9 9 9 u @ X X X X X X X > 3 i i u i g g x x x x S S S S S S Z Z Z A A S A S Z A J J J J J J J J J J J J J J J J J J J J J J J J J J J J J J J J J J J H J ~ O.y.y.x.C.Y.Y.Y.Y.m.d.[ P P P 7 @ @ @ @ @ @ @ @ X X X @ @ % , , , , J J J J J J J J J J J g < , , < < < < > > < d.a a i i i i d d a a a a a a i i a a a a a x v v v v v Z A A A A G G A A A A A A g 9 9 i Z A A A A A A A A A G &.&.( J C g g g g g g S Z X X X X X X + % % % % C C C C C C C C C j j j j C C C C S ! { y.<. . . . . . . . . . . . . . . . . . . .y.y.a.C.C.C.C.C.C.C.C.C.C.C.C.C.",
"3.[ [ [ [ [ [ [ [ [ [ [ [ [ [ [ [ [ [ [ [ [ [ [ Y P P P K G G G G G G G A v b b v v v v i 0 0 0 0 0 0 0 0 0 0 0 0 0 7 7 7 7 7 , = , = = , , , 7 8 8 9 9 0 d d d k k d d d d x v c v c c v v v v v v v c v G P P , X X o o X X X o o & = = = = = = = = = # o o o d x x x x x x x x v v x x x x i i 0 0 7 7 7 7 7 7 7 7 7 9 0 0 0 0 0 0 0 i i i i i i 0 0 0 i v v Z 2 , 9 i i i i 0 0 0 0 i i 0 0 0 0 0 0 0 0 0 i i i i i i i i i i d d i i i i i d d i i i i i 9 7 , * 2 7 7 7 7 9 9 9 9 0 0 0 0 0 9 9 9 9 * X X X X X X X > 7 i i i i g g x x x x S S S S S Z Z Z Z A A S S Z Z A S S S D H J J J J J J J J J J J J J J J J J J J J J J J J J J J J J J J J J J ` <.y.y.n.Y.Y.Y.Y.Y.Y.m._ P P 7 @ @ @ @ @ @ @ @ X X X @ % , , , , x J J J J J J J J J J h < < < < < < < > > > J a a i i i d d d a a a a a a a i i 9 2 % O X % , 7 i d x v v v v v v x d u * @ X X X X X % g g x x v g g g g g g g g g g g g g g C S A * X X X X X X X X @ % % C C C C C C C C C C C j j j C S S ! !  . . . . . . . . . . . . . . . . . . . . . . . . . . . .O.....<.m.C.C.C.C.C.",
"[ [ [ [ [ [ [ [ [ [ [ [ [ [ [ [ [ [ [ [ [ [ [ [ ( P G v x x x x G G G G b i i 0 4 # @ X X X X X X X X X X X X X X X X % * * * * = = * , , , * = = , 7 i d d d d k k d 9 9 9 k v c c c c c c v v v v v c v v b c X X o o X X X X o o @ = = = = = = = = = = o o o % k x d 0 8 4 4 4 4 4 7 d x x i i 0 0 9 7 7 7 7 7 7 7 7 0 0 7 4 4 4 4 7 0 i i i 0 0 0 0 0 x v x 9 , , , 9 i i 0 0 0 i i i i i i 0 0 0 0 i i 0 0 0 i i i i i i i i i i i i i i i 7 * * * @ X X X X X X X X X X X X X @ * 2 9 9 0 0 9 9 9 9 * X X X X X X X > u i i i i g x x x x x Z S S S S Z Z Z Z A A S S Z Z A A S S S S S S S J J J J J J J J J J J J J J J J J J J J J J J J J J J J J J J J !  .3.y.x.Y.Y.Y.Y.U.R.I.T P P 8 @ @ @ @ @ @ @ X X X @ @ , , , , 9 J J J J J J J J J Z h < < < < < < < > < u a a a i i 9 u u u u 3 2 2 % % @ X X X X X X X X X X X X X X X X X X X X X X X X X X X X X % g g g g g g g g g g g g g g g g S A A A A , X X X X X X X X X X O @ > u h C C C C C C C C C S H ! ! ! H H  . . . . . . . . . .^ ^  . . . . . . . . . . . .` ! S j j j j j j ! x.C.C.C.",
"X X X X X o , , 7 9 u i i i i i i i i i i i u 7 % X X X X X X X X X X X X X X X X X X X X X X X X X X X X X X X X X X X X X o @ @ % & & & % @ @ @ @ o @ @ o X X X X X X X X X @ = 0 v v c v v v v v v c v v v , o o o X X X o o o o o = = = = = = = = = = X X X o % , , , , , , , , , , 0 i i i 0 0 7 @ @ @ % , , , %                                 X X % * * , , , , 2 0 0 0 0 0 0 0 0 0 0 0 0 0 0 0 0 0 0 i 0 0 0 0 i i i i i i i i 9 * X           X X X X X X X X X X X X X X X X X X @ , 9 9 9 9 9 * X X X X X X X > u i i i i g x x x x x x Z S S S S S S S S S S S S S S S S S S S S S S S D J J J J J J J J J J J J J J S S C C C C C S S J J J J J J J J J ! ` y.Y.W.[.{.{.{.}.&.P P b 0 @ @ @ @ @ @ X X X X @ , , , , , H J J J J J J J C y y > > , > % @ X X X X X X X X X X X X X X X X X X X X X X X X X X X X X X X X X X X X X X X X X X X X X X X X X X p a a g g g g g g a a a a a a g g g a p * X X X X X X X X X X X X X X @ @ > y a h j j j C H ! ! ! J H H !  . . . . . .^ j h f f f f p p f f 3 , , , X X X X X X % % 3 3 < % X X X X 7 ",
"X X X X X X X X X X X X o % % % % , % % % o X X X X X X X X X X X X X X X X X X X X X X X X X X X X X X X X X X X X X X X X X X X X X X X X X X X X X X X X X X X X X X X X X X X % , , = 2 4 4 7 6 6 k k v i X o o o X X X o o X o o = = = = = = = = = = X X X o o o X X X X X X X X X o o % % % X X X o                                                                 o 4 7 7 4 = % X           X @ * 4 9 0 0 0 0 0 0 0 i i 0 2 @                   X X X X X X X X X X X X X X X X X X X X X > 9 9 9 * X X X X X X X > i i i i i u u u u u u u u a g g x S S S S S S S S S S S g d g g g g g g g g Z J J J J J J J S C h h h g g g g g g g h h h h C S J J J J J J J J <.}.{.{.{.{.}.[ P P b b 6 @ @ @ @ @ @ X X X @ @ @ % @ % u , > > > * > > X X X X X X X X X X X X X X X X X X X X X X X X X X X X X X X X X X X X X X X X X X X X X X X X X X X X X X X X X X X @ p a g a g g g u 3 < < < 3 < 3 3 , @ X X X X X X X X X X X X X X X X X X X X @ @ @ @ @ @ % % % % % % @ @ @ @ % % @ + X @ % > % X X X X X X X X X X X X X X X X X X X X X X X X X X X ",
"X X X X X X X X X X X X X X X X X X X X X X X X X X X X X X X X X X X X X X X X X X X X X X X X X X X X X X X X X X X X X X X X X X X X X X X X X X X X X X X X X X X X X X X X X * = = = , , = , , , , = * X X o o X X X X o o X X o @ = = = = = = = = = o X X o o X X X X X X X o X X o o % & & & % % & % # & & X                                                                                             X * * 2 4 * % X                       X X X X X X X X X X X X X X X X X X X X X X X X 7 9 7 X X X X X X X X 7 i i 9 * X X X X X X X X X X X X X X X X X X X X X X X X X X X X X X X X X X 3 C J J S C g h h h h h h g g g g g g h h h h h g h H J C C g u y u U.}.{.{.~.,.P P P b b z % @ @ @ @ @ X X X X X X X X X X X X X X X X X X X X X X X X X X X X X X X X X X X X X X X X X X X X X X X X X X X X X X X X X X X X X X X X X X X X X X X X X X X X X X @ @ @ % O X X X X X X X X X X X X X X X X X X X X X X X X X X X X X X X X X X X X X X X X X X X X X X X X X X X X X X X X X X X X X X X X X X X X X X X X X X X X X X X X X X X X ",
"X X X X X X X X X X X X X X X X X X X X X X X X X X X X X X X X X X X X X X X X X X X X X X X X X X X X X X X X X X X X X X X X X X X X X X X X X X X X X X X X X X X X X X X X X @ % % @ @ @ @ @ % = % X X X X o o X X X X o o X X o o o # = = = = = = = o X X o o o X X X X , 0 v Z Z v 0 0 0 0 0 0 0 0 0 0 0 0 0 0 6 8 1 - * @ X                                                                                                                   X X X X X X X X X X X X X X X X X X X X X X X X @ 9 7 X X X X X X X X X @ @ X X X X X X X X X X X X X X X X X X X X X X X X X X X X X X X X X X X X X X X X X X X X X X X X X X % * * * * * * * O X X X X X X X X X X X , x P +.P P P P P b b b 8 @ @ @ @ @ X X X X X X X X X X X X X X X X X X X X X X X X X X X X X X X X X X X X X X X X X X X X X X X X X X X X X X X X X X X X X X X X X X X X X X X X X X X X X X X X X X X X X X X X X X X X X X X X X X X X X X X X X X X X X X X X X X X X X X X X X X X X X X X X X X X X X X X X X X X X X X X X X X X X X X X X X X X X X X X X X X X X X X X ",
"X X X X X X X X X X X X X X X X X X X X X X X X X X X X X X X X X X X X X X X X X X X X X X X X X X X X X X X X X X X X X X X X X X X X X X X X X X X X X X X X X X X X X X X X X X X X X X X X @ @ & = = = & # @ X X X X X X o X o o X X X X @ & = = = # X X X X X X % 7 v Z Z b Z v v v 0 0 0 w k v x k 0 0 0 0 0 0 0 0 0 0 0 0 0 0 8 = o                           @ & & & # @ X     X X X @ = @ X                                               X X X X X X X X X X X X X X X X X X X X X X X X X @ 9 7 X X X X X X X X X X X X X X X X X X X X X X X X X X X X X X X X X X X X X X X X X X X X X X X X X X X X X X X X X X X X X X X X X X X X X X X X X X X X X X X X * d d k P P P P P P K b b l @ @ @ @ @ @ X X X X X X X X X X X X X X X X X X X X X X X X X X X X X X X X X X X X X X X X X X X X X X X X X X X X X X X X X X X X X X X X X X X X X X X X X X X X X X X X X X X X X X X X X X X X X X X X X X X X X X X X X X X X X X X X X X X X X X X X X X X X X X X X X X X X X X X X X X X X X X X X X X X X X X X X X X X X X X X X X X X X X X ",
"X X X X X X X X X X X X X X X @ # = - - 1 1 4 4 4 - = # X X X X X X X X X X X X X X X X X X X X X X X X X X X X X X X X X X X X X X X X X X X X X X X X X X X X X X X X X X X X X X X o # & = = = = = = 4 6 - = = = & @ X X X o X o X X X X X X o o @ # # - = = = - = i J [ [ ( G Z Z v Z Z Z Z Z Z Z A A v Z v k k k v v k 0 0 0 0 0 0 0 0 8 @                   X & & & & & = & & & o X X X 4 0 0 0 0 0 7 7 7 7 7 7 7 7 7 7 7 8 0 0 0 0 0 0 0 k 1 * * X X X X X X X X X X X X X X X X X X X X X X X @ 9 7 X X X X X X X X X X X X X X X X X X X X X X X X X X X X X X X X X X X X X X X X X X X X X X X X X X X X X X X X X X X X X X X X X X X X X X X X X X X X X X X 8 d d d d A P P P P P K b b b % @ @ @ @ @ @ X X X X X X X X X X X X X X X X X X X X X X X X X X X X X X X X X X X X X X X X X X @ # # @ @ @ @ % % O X X X X X X X X X X X X X X X X X X X X X % % % % % % % % % % % % % = 4 4 4 6 w w e 8 % X X X X X X X X X X X X X X X X X X X X X X X X X X X X X X X X X X X X X X X X X X X X X X X X X X X X X X X X X X X X X X X X X X X X X ",
"X X X X X X X X X X X X @ = 4 4 4 4 4 4 1 4 4 4 4 4 4 4 4 & X X X X X X X X X X X X X X X X X X X X X X X X X X X X X X X X X X X X X X X X X X X X X X X X X X X X X X X X X o @ & = - - - = = - 5 0 e r r e 5 - = = = = & # X o o X X X X o @ = o o o o @ # - = = = d G [ [ [ [ [ Z Z Z Z b b Z Z A J J Y 5.2.} ( G Z v v v 0 0 0 0 0 0 0 0 0 4                 % & & & = = = & & & @ o o X 7 0 0 0 0 0 0 0 0 0 0 0 0 0 0 0 0 0 0 0 0 0 0 b b B B B B M b c 0 4 @ X X X X X X X X X X X X X X X X X X 9 7 X X X X X X X X X X X X X X X X X X X X X X X X X X X X X X X X X X X X X X X X X X X X X X X X X X X X X X X X X O @ @ @ @ @ X X X X X X X X X X X X X X @ 0 d d d d k l P P P P P K b b b 8 @ @ @ @ = 6 5 - @ X X X X X X X X X X X X X X X X X X X X X X X X X X X X X X @ @ @ @ X @ @ @ % % % % % % @ * , , , , > , 1 4 6 6 6 6 w w w w e e e e e e e e w w w w e e w w e e e e e w w e e e e w e e w 8 X X X X X X X X X X X X X X X X X X X X X X X X X X X X X X X X X X X X X X X X X X X X X X X X X X X X X X X X X X X X X X X X X X X X ",
"X X o @ = ; 5 6 6 q 6 6 0 6 8 4 4 4 4 8 5 8 6 6 8 4 4 4 4 4 1 @ X X X X X X X X X X X X X @ & & & & & & & & & & # @ @ X X X X X X X X X X X X X X X X X X X X X X X X X @ # = - = = - - - - 4 0 e r e e r r r r e 0 4 = = = = = = & # @ @ & = - - @ o o o o o @ - = = d v [ [ [ [ _ Z Z Z Z Z b Z Z Z J J J ,.5.5.5.5.5.,.[ ( U A l 0 0 0 0 0 0 0 4               o & & & = = = & & & @ o o o 7 0 0 0 0 i 0 0 0 0 0 0 0 0 0 0 0 0 0 0 0 k M M M B B B B M M B B B B b k , X X X X X X X X X X X X X X X > 7 X X X X X X X X X X X X X X X X X X X X X X X X X X X X X X X X X X X X X X X X X X X X X X X X X X @ % % & & & * * * * * * * * * * & % % @ X X X X X X , d k d k k d k P P P P P P B b b b l @ @ % 5 6 6 6 6 6 6 6 4 4 4 5 5 6 6 6 6 6 6 6 8 4 & % @ @ @ @ % % @ @ @ @ @ @ # % % % @ @ @ @ % % % % % % % > , , 7 0 w w w w e e e w w w w w e e e e e e e e e w w w w w w w w e e e e e w w e l l e e e w w 0 & X X X X X X @ = @ @ @ @ @ @ @ @ @ @ @ @ @ @ @ @ @ @ o X X X X X X X X X X X X X @ # # @ @ o X X X X X X X X X X X X X X X X X X X @ ",
"5 q 0 0 0 w q q 0 0 0 6 6 q w 0 0 0 q q q q w 0 q q 8 4 4 4 4 4 @ X X X X X X X X X X X X & & & & & & & & & & & & & & & & & # * @ X X X X X X X X X X X X X X X @ # = = = = = = = - - 4 6 e e e r r e z [ +.K e r r e e w 6 4 ; = = - - - - - - - = o o o o X X # - = 7 J [ [ [ [ A Z Z Z Z b b Z v Z Z A J J J _ >.4.5.5.5.5.5.5._ b v i 0 0 0 0 0 =               & = = = & & & = = @ o o o 4 0 0 0 0 g g g g i d 0 0 0 k k k x l l c K K K B B P P P B B B B B B M M M b k * X X X X X X X X X X X X X * X X X X X X X X X X X X X X X X X X X X X X X X X X X X X X X X X @ % * = 4 6 0 0 0 0 0 0 0 6 6 8 4 * * * * & * * * * * * * * * * * * * * * * & % @ @ 0 d d d d k k d A P P P P P P m b b b z 5 5 6 6 6 6 6 6 6 6 6 6 6 6 6 6 6 6 6 6 6 6 6 6 6 6 5 % @ % % % % % # % % % @ @ @ % % @ @ % % % # # # # % % , 7 w e e w w e e e e e e e e e e e e e e e e e w e e e e e e e e e e e e e e e e K L L B e e e e e 0 8 4 4 4 4 5 5 5 8 5 5 5 5 5 8 8 8 8 8 8 5 5 5 5 5 5 5 5 5 5 4 - # @ X X X X X # # # # # # # # # # # # # # # # @ @ X X X X X X # = 4 ",
"6 q w w w w q q 0 0 0 6 0 q w w 0 0 q q q q 0 w q q q 6 4 4 4 4 1 o X X X X X X X X X o & & & & & & & & & & & & & = , 7 0 i d d 0 = & # @ @ @ @ @ @ @ @ # & = = = = - = = = = = ; 8 e r e e e e r r b T _ &.&.[ l r r e e e r r e e w 6 4 - = - - = - # X o X X @ = = 0 [ [ [ ( A v Z Z Z Z b b v v Z Z Z Z A G J J J Y [ 2.5.5.5.5.U b v i 0 0 0 0 0 o             & = = = = & & & = @ o o o * 0 0 0 0 i g g g g S S A A A G B M M M M K K K _ 2.4.2.2.2.&.P B B B M M M M B B v * X X X X X X X X X X X X X X X X X X X X X X X X X X X X X X X X X X X X X X X @ @ % & * = = , , 4 0 0 0 0 0 0 0 0 0 0 0 0 0 0 4 * * & & * * * * * * * * * * * * * * * * * * 0 d d d d d k k v P P P P P P P b b b b b q 6 6 6 6 6 6 6 6 6 6 6 6 6 6 6 6 6 6 6 6 6 6 6 6 6 6 5 % % % % % # # # % % % @ @ % % % @ % % % # # # # # % , , 0 e e w k v b c k e e e e e e e e e e e e e w e e e e e e e e e e e e e e e B L L L L l e e e e e 0 8 8 8 5 5 5 5 8 8 5 5 5 5 8 8 8 8 8 8 5 5 5 5 5 5 5 5 5 5 8 8 5 4 # X X X # # # # # # # # # # # # # # # # # # # # # @ # # $ 4 4 4 ",
"6 0 0 0 6 6 q q 6 0 0 0 q q q q 0 6 6 q 0 0 0 0 0 q 0 0 q 5 4 4 4 & X X X X X X X o @ & & & & & & & & & & & & & & 4 d d d d k k d 0 4 = - = = = = = - - = - = = - - - - = 4 d A G G G G G G G G K P _ _ _ %.&.&.%.r e e e e e r e e e e e e w 5 - = = = = & & & - - 6 [ [ _ J G Z b b b Z Z Z b v b v Z Z b Z Z Z G J J J J J _ &.} [ b v v s 0 0 0 0 = & @ X     # = = = = = & & = = @ o o o @ 0 0 0 0 i g g g g S S S S S S J ( ( ( ( ( ( ( 2.4.4.2.2.4.4.4.,.T B M M B B B B B B l * X X X X X X X X X X X X X X X X X X X X X X X X X X X X X X X @ % & & , , , , , , , = = , , 0 0 0 0 0 0 0 0 0 0 0 0 0 0 0 0 0 = * & * * * & = x b A b 0 = * * * & & * * 0 d k k k k k x P P P P P P P P K b b b b l 6 6 6 6 6 6 6 6 6 6 6 6 6 6 6 6 6 6 6 6 6 6 6 6 6 6 6 4 % % @ # # # # # # # @ % % % % % % % @ @ # # # # # , , w e l b b A A b b l e e e e e e e e e e e e e e e e e e e e e e e e e e e z L L L L L L l e e e e e 0 8 8 8 8 5 5 5 8 8 6 6 5 5 5 8 8 5 5 5 5 8 8 8 8 5 5 8 8 8 8 5 5 # @ X @ # # # # # # # # # = = - = # # # # # # # # # # # ; ; ; 4 ",
"6 6 0 0 w e e e e e e e e e e w w 0 6 q 0 0 0 0 0 0 0 0 6 0 5 4 4 4 o o @ @ @ # & & & & & & & & & & & & & & & & & 0 d d d k k k d d d i 0 4 - = = = - - - - = = - - - 0 v J J J J J J J J U _ _ _ _ _ _ _ [ &.&.&.+.l e e e e e e e e e e e e l e 4 = = = = = = - 6 } %.Y J J A v Z v Z Z Z Z b v v b b Z b b Z v v A J J J J G v b b b v v v 0 0 0 0 = & & = = & & = = = = & & & = = @ o o o o , 0 0 0 i g g g g Z S S S S S ~ ( ( ( ( ` { ..<.3.2.2.2.4.4.4.4.4.2.[ P B B B B B B B B 0 @ X X X X X @ & = - - - = & & & & & & % % % % @ @ @ @ @ % & & & & & , , , , , , , , , , 4 0 0 0 0 0 0 0 0 0 0 0 0 0 0 0 0 0 0 8 * * * & 4 b A A A A b v * = = = = = 7 k k k k k k x P P P P P P P P P P b b b b b e 6 6 6 6 6 6 6 6 6 6 6 6 6 q e l z b b b b l e w 6 6 6 % % & & & # # # # # @ % % % % % % % @ @ @ @ # # # , , 6 v b b b A A b b b b v l e e e e e e e e e e e e e e e e e e e e e e e e L L L L L L L L b e e e e e 0 6 8 5 5 5 5 6 0 e e w 6 6 8 8 8 6 6 6 8 8 8 8 5 6 w 0 8 8 5 5 = # @ # # # # # # # = - 4 4 4 4 ; ; = & & # # # # # = ; 4 4 ; 4 ",
"l l l l l l l l l l l l l l l l l l l e w w q q q 6 0 0 0 0 0 4 4 4 & & & & & & & & & & & & & & & & & & & & & & , d k k d d d d d d k d x A A A A A A x x x x x i 0 A J J J J J J J J J J T _ _ _ T _ _ _ _ &.*.&.&.%.B l M z l l l b b b b b b b b l 8 = = 0 U 2.d.d.2.J J J A Z Z Z Z b b Z Z Z Z v v Z Z Z Z v A J J J J A b v v v v v v v v 0 0 0 & & & = = & & = = = = & & & & & @ o o o o @ 0 0 0 d g g g g C S S S S J ( ( ( ( ( { ..{ { ..>.,.,.[ | 2.4.4.4.4.4.,.#.+.+.+.T T T T P > X o & 4 4 4 4 4 4 4 4 4 4 4 4 4 4 4 - * & & & & & & & & & & & & = , , , , , , , , , 7 0 0 0 0 0 0 0 k k l l l x k k 0 0 0 0 0 8 = * c b A b b b b A k k k k k k k d k k k k v P P P P P P P P P P P b b b b b b z l l l e q q 6 6 w e l b b b T z.U.W.E.q.T b b b b b b z 5 5 5 5 5 ; = % # # # # # # # # @ @ % % % % % * , 7 A A b b b b b b b b b A b b v l k k k e e e e e e e e k k k e e e e l [ L L L L L L L L L L l e e e e e e w 0 w e e e e e e e e e e e e e e 0 8 8 8 0 e e 6 8 8 5 5 4 # # # # # # # ; ; ; 4 4 ; ; ; 4 4 4 4 4 4 ; - ; 4 4 4 4 4 4 4 ",
"l l b A b G G b G l l l l l l l l l l l l c P P e w w 0 0 0 0 0 4 4 1 & & & & & & & & & & @ @ @ & & & & & & & & 0 d d k d d i i d d k k v A A A A A A A A A A A A A A A G J J J J J J J J T _ T _ _ T _ _ _ [ &.&.&.&.&.&.&.&.+.P P P P P K P P P P [ %.2.5.d.d.d.d.9.[ ( J J G Z Z Z Z b b Z Z Z v v v Z Z Z A G J J J J G v b v v v v v v b b v 0 8 = & & = = & & = = = = & = & & & @ o o o o o , 0 0 g g g g g C S S S S ! ( ( ( ( ` ....{ { ....' D S S S ' 2.4.4.4.4.2.2.,.#.+.@.@.@.@.@.l 4 4 4 4 4 4 4 4 4 4 4 4 4 4 4 4 4 4 4 4 & & & & & & & & & & & = , , , , , , , , , 6 0 0 0 0 0 k c c c c c c v c c c k 0 0 0 0 k c b A A b b b b A k k v A U U [ [ ....U P P P P P P P P P P P P P B b b b b b b b b b b b b b b b b b b b 6.U.U.U..X;X;X;X.XK.#.I b b b z e l r e q 6 6 5 ; & # # # # # @ @ % % % % % % , , v b b b A G J J J J U G A A b b b b b b b b A A b b b b b b b A ( 5.M.M.M.M.c.x.f.2.2.+.[ [ +.P l e e e e e e e e e e e e e e e e e e e e e e 0 6 0 e e 6 8 8 8 5 5 8 & # # # # # # - 4 ; ; 4 ; ; ; 4 4 4 4 4 4 4 4 4 ; 4 4 4 8 i i ",
">.>.X.X.( ( ( ( 3.4.4.1.,.,.,.,.,.,.,.2.d.d.5.5.m b b z e 0 q q 6 4 4 1 * & & & & & & & & % @ @ @ & & & & & & = i i k k k k i i d d d d d d x v C C Z A A A A A A A A A A A A A G J J J J J U Y T _ T T T T T _ [ [ %.&.&.&.&.2.0.0.d.d.d.d.d.d.d.d.9.d.d.d.d.d.d.d.2.( ( J J J A Z Z Z b b Z Z Z Z b A G G J J J J J J J J A Z v v v v v b b b b v 0 = & & & = = = & & = = = 4 = & & @ o o o o o @ 0 i g g g g g C S S S S ( ( ( ( ( ` ..{ { { ..' S S S S S S D ' 2.4.3.3.2.2.4.3.,.f.2.@.@.@.l 4 4 4 4 4 4 4 4 4 4 4 4 4 4 4 4 4 4 4 4 1 & & & & & & & & & * , , = , = = , = , 7 0 v H J J A A c c c c c c c c b P P l x P Y Y Y Y Y Y Y Y Y _ X..................._ P P P P P P P P P P P P P K b b b b b b b b b b b b b b b b b B H.U.U.U.v.v.U.W..X;X-X-X;X.X=.W Q W W W m z z z e w 6 5 4 = & % % % % % % % % % , , 4 G | 3.>._ Y Y Y Y Y Y Y Y U U G A b b b b A A A b b b b G &.c.M.M.M.M.M.M.M.M.M.M.M.M.M.M.m.d.2.2.2.4.4.4.2.,.%.&.b e e e e e e e e e e e e e e e w 6 5 8 5 5 5 5 8 4 # # # # # # # ; 4 4 4 4 ; ; 4 4 ; 4 ; ; 4 6 k G [ { X.X.X.X.",
">.>.X.( ( ( ( ( ( 2.4.4.4.4.4.4.5.4.5.I._._.5.5.T m b c c l q w 6 5 4 4 4 - & & & & & & & & @ @ @ @ & & & & & 7 i i k k k d d d d d d d d d d d x C Z A A A Z C v v Z A A A A A A A A A G G J J J J J J J J J J J J J H _ %.,.0.0.0.d.d.d.d.d.d.d.9.9.i.5.2.,.,.| } [ ( ( U J J J A Z b b b Z Z Z A G J J J J J J J J J J J J J G A v v v v b b b b b # o o o & = = & & = = 1 4 4 = & @ o o o o o o , g g g g g g C S S S ! ( ( ( ( ( ` ....{ { { S S S S S S S S D D ( <.3.3.u.l.z.l.c.c.l.9.#.@.l 4 4 4 4 4 4 4 4 4 4 4 4 4 4 4 4 4 4 8 k 5 & & & & & & & & & = , = = = = = = , 4 v ( ( ( ( ( ( ( ( ' | >.,.2.2.2.4.4.>.[ <.i.d.d.d.d.i.i.i.i.i.>...................[ P P P P P P P P P P P P P P b b b b b b b b b b b b b b b b L H.U.v.<.X.......X.X.<.d.E..X;X;X~.F.@.W W W B z z z z l 6 6 6 6 6 % % % % % % % % , , , Z 3.u.u.u.3.| _ Y Y Y Y Y Y Y Y Y Y U G A A A b G ( 2.x.M.M.M.M.M.M.i.>.} { } ,.,.5.d.d.d.2.2.2.>.>.>.>.>.>.[ d.U.U.J.2.P e e e e e e e e e e e 0 5 5 8 8 5 5 5 5 8 8 # # # # # # # # ; 4 4 4 4 ; ; ; 6 v ( ( X.X.X.X.X.X.X.X.X...",
">.X.( ( ( ( ( ( ( ( 2.4.4.4.4.4.5.5.d._._._.l.5._ P c c c l q w w 0 4 4 1 1 1 - = & & & & & @ @ @ @ & & & & & i k k d d d d d d d d d i i i k k k C C A A Z C C C C v v C C C A A A A A A A A A A G G G G J J J J J J J J J J J _ &.,.2.0.9.d.2.[ _ ( _ [ } } } [ [ [ ( ( U J J J J A v v v v Z G J J J J J J J J J J J J J J J J J H A v v v v v v v o o o o # = = & = & & 4 4 4 1 & o o o o o o o @ g g g g g g C S S S ~ ( ( ( ( ( ' { { ....! S S S S S D D S S S S S ! | d.v.v.v.z.z.v.v.v.d.+.w w w 0 8 4 4 4 4 4 4 4 4 4 4 4 4 4 0 k 0 & & & & & & & & & & * = , , , = = = , Z ( ( ( ( ( ( ( ( ( ( ( ( ( ( ' ' ( ( ( ( 2.d.i.9.9.i.i.i.i.i.X...................| P P P P P P P P P P P P P P K b b b b b b b b b b b b b b +.I.U.f.X.X.X.X.X.X.X.X.X.X.X.X.3.H.{.;X;XG.W W W m z z z z z 6 5 5 5 4 @ @ % # # @ % , , , , g ' u.u.u.u.u.3.>.} _ ( Y Y Y Y Y Y ( } ,.d.c.M.M.M.M.M.M.M.m.i.{ ( ( ( ( ( ( ( ( ( ( ( ( H H H J J J J J J H J } f.U.J.E V m m m z z l l l k 8 8 8 5 8 6 w r q 8 5 & # # # # # # # # & ; 4 8 b | 3.u.u.u.X.X.X.X.X.X...} { ' ' ",
"{ ( ( ( ( ( ( ( ( ( [ 4.4.4.4.4.5.5.E._._._.M.5.[ T c c c w q q w 0 4 4 1 1 1 1 4 4 - & & & % @ @ @ % & & & & v [ k d d d d k d d k d d i i k k k C C Z Z C C C C v v v C C C A A A A A A A A A A A A A A A A A A A A A A A A A J J J J J J J J J Y ( ( ( [ } } [ [ ( ( ( U J J J J J A Z Z A J J J J J J U ( ( ( ( Y J J J J J J J J J G A v v v v v o o o o @ = = = = & & 4 4 4 4 = o o o o o o o o g g g g g g C S S D ( ( ( ( ( ( { { ......H S S S S D D Z Z S S S S D S ( z.v.v.v.z.v.v.v.v.f._ k w w k 0 4 4 4 4 4 4 4 4 4 4 4 4 k k k & & & & & % @ @ @ % & & & & , = , = = H ! ! ! ! ! ! ! ! ( ( ( ( ( ( ( ( ( ( ( ( | i.i.0.0.i.i.i.i.2.......................Y P P P P P P P P P P P P P P P B b b b b b b b b b T ,.i.i.i.i.>.X.X.X.X.X.X.....{ ..X.X.X.X.u.u.I..XQ.W Q E z z z z z r 5 5 5 5 @ % % % % @ * , , , , a g Z ( ' } >.3.u.u.u.u.u.3.3.3.i.v.M.M.M.M.M.M.M.M.M.m.d...' ' ( ( ( ( ( ( ( ( ( ( ( ( ( J H H J J J J J J H H J J ( f.U.*.V V V V V V V V V m w 5 5 6 r r r r 8 8 = # # # # # # # # & 7 U >.4.u.u.u.u.4.X.X.X...{ ' ' ' ' ' ' ",
"( ( ( ( ( ( ( ( ( ( ( >.5.5.4.5.5.d._._._._.E.5.%.T b c l 6 0 q 0 4 4 4 1 1 4 4 4 4 4 4 = & % @ @ @ @ & & & & A 2.A d d d d k k k k d d i d k k d C C C C C v v C C C v C C Z A A A A A A A A A A A A A A A A A A A A A A A A A A J J J J J J J J J U ( ( ( [ [ [ [ _ ( ( U J J J J J J J J J J J U ( ( ( ( ( ( ( ( ( ( ( J J J J J J J J J G b v v v o o o o o & & = = & & 4 4 4 4 4 o o o o o o o o g g g g g g C S S J ( ( ( ( ( { { { { ....S S S S S S Z Z C C S S D D A D H >.l.v.z.z.v.z.v.v.%.[ k k k k 0 4 4 4 4 4 4 4 4 4 4 4 k k w = & & & % @ @ @ @ @ & & & & , , , , , ! ! ! ! ! ! ! ! ! ( ( ( ( ( ( ( ( ( ( ( ( { 0.0.0.0.i.i.i.2...| | ..................[ P P P P P P P P P P P P P P P P P K K K K K Y [ X.<.u.d.d.i.i.<.X.X.X.X...' ' ' ' { ..X.X.X.3.u.u.h.;X*.Q W V z z z z z q 5 5 5 % % % % % % * , , , , 7 g g x J ( ( ( ( { >.3.u.u.u.x.v.M.M.M.M.M.M.M.m.h.<.' ' ' ' ( ( ( ( ( ( ( ( ( ( ( ( ( ( ( H H H H H H J H H H J J J J ( 9.6.V V V V V V V V V V r w w r e r r q 5 - # # # # # # , u f ( ( X.3.4.4.4.4.4.X...{ ' ' ' ' ' ' ' ' ",
"( ( ( ( ( ( ( ( ( ( ( ( >.5.5.5.5.E._._._._.W.5.%.T b c k 0 0 6 4 1 4 4 4 1 4 4 4 4 4 4 4 = @ @ @ @ @ & & & & U 2.>.d d d d d d k d d d i i k k x C C C C v v C C C Z A A A A A A A A A A A A A A A A A J J J G A A A A A A A A A J J J J J H H J J J U ( ( [ [ [ [ _ ( ( ( J J J J J J J J U ( ( ( ( ( ( _ [ [ [ [ _ ( ( ( Y J J J J J J J J J A v v o o o o o @ & & = & & 4 4 4 4 4 o o o o o o o % g g g g g g Z S S ~ ( ( ( ( ' { { { { ....H S S S S Z Z Z C C C S D A A D S S H 4.v.l.l.z.v.v.,.%.[ c k k k 8 4 4 4 4 4 4 4 4 4 4 e w w @ % % @ @ @ @ @ @ @ & & & * , , , , , ! ! ! ! ! ! ! ! ! ! ( ( ( ( ( ( ( ( ( ( ( ' >.3.4.4.2.<.X.....| | ....................P P P P P P P P P P P P P P P P P P P Y [ ..X.X.X.X.X.>.3.u.4.X.X.X.X.X.' ' ' ' ' ' { ..X.X.>.u.u.u.~.=.W W W z z z z z r 6 6 5 & % % % % % , , , , , , g g g x Z S J ( ( ( ( ( } >.3.u.u.u.u.u.5.<...' ' ' ' ' ' ' ( ( ( ( ( ( ( ( ( ( ( ( ( ( ( J H H H H H J J H H H J J J J J U T I V V V V V V V V V w w w w r r w 5 - # # # & * > p f f S ( X.>.4.4.4.4.4.>.' ' ' ' ' ' ' ' ' ' ",
"{ { ( ( ( ( ( ( ( ( ( ( ( [ 5.l.E._._._._._.W.5.%.T c c k 0 0 4 1 1 4 4 4 4 4 4 4 4 4 4 4 4 @ @ @ @ + % & & & G <.<.A k d i i i d d d d d d d k C C C C v C v C C A A A A A A A A A A A A A A A A A A J J J J J G A A A A A A A G J J J J J J J J J J Y ( ( [ [ [ [ [ ( ( ( J J J Y ( ( ( ( ( ( ( [ [ [ [ | >.3.1.,.} [ [ [ ( ( J J J J J J J J J G v o o o o o o & & & & & 4 4 4 4 4 o o o o o o o * g g g g g g S D D ( ( ( ( ` ......{ } } ..J S S S Z C C C C C C C Z Z S D D D D S J 4.z.z.z.z.9.%.%.K A k k w 4 4 4 4 4 4 4 4 4 4 k k e @ @ @ @ @ @ @ @ @ @ & & & , = = = , , ! ! ( ( ( ( ( ! ! ! ( ( ( ( ( ( ( ( ( ( ( { ..............} ..........................[ P P P P P P P P P P P P P P P P ( ( ' ......X.X.X.X.....X.X.X.X.X.X.X.{ { { ' { { { { ..X.X.u.u.u.I.7.Q Q W m z z z z z q 6 6 & # # % % % , , , , , , g g g g x Z Z D H J ! ( ( ( ( ( ( ( ( ( ( ( ( ( ( ( ' ' ' ' ' ' ' ( ( ( ( ( ( ( ( ( ( ( ( J J J J J H H H J J H H J J J J H J P.E.#.V V V V V V V n e w w w e w 5 - % * > > > > y f f g ( ..X.3.4.4.4.4.X.{ ' ' ' ' ' ' ' ' ' ",
"[ { [ ( ( ( ( ( ( ( ( ( ( ( ( 2.E._._._._._.I.5._ T c c k 0 6 4 1 1 4 4 4 4 4 4 4 4 4 4 4 4 @ @ @ @ + + & & & 0 <.<.,.k d i i i d d d d d d d x C A A Z C C C v C A A A A A A A A A A A A A A A A A J J J J J J J J A A A A A A J J J J J J J J J J J ( ( ( [ [ [ [ | [ ( ( ( ( ( ( ( ( ( _ [ [ [ [ [ [ | 2.2.3.3.1.3.,.| [ [ ( ( Y U U ( ( ( ( ( J J o o o o o o # & = & = 4 4 4 4 4 o o o o o o o * g g g g g C S D J ( ( ( ( { ......{ { } ..( S S Z C C C C Z C Z Z C C C C Z Z Z Z S S H %.f.z.d.[ Y K K b k k 6 4 4 4 4 4 4 4 4 4 k k e @ @ @ @ @ @ @ @ @ # & & = , = = = = 7 ! ! ( ( ( ( ( ( ( ( ( ( ( ( ( ( ( ( ( ( ( { ........{ ( ( ( ( { ........................_ P P P P P P P P P P P P P P ( ( ( ( ' ....X.X.X.....X.X.X.X.{ ..X.X.{ { { { { { { { { ..X.>.u.u.I.G.W W Q I z z z z z l 6 6 # # # % % * , , , , , , g g g g g x Z Z S H H H H J J H ( ( ( ( ( ( ( ( ( ( ' ' ' ' ' ' ' ' ' ' ( ( ( ( ( ( ( ( ( J J J J J J H H H J H H J J J J H H J W.W.f.V V V V V V V r w w w w e 5 # @ @ > > > > , f f f ( } X.>.3.4.4.<.X.X.{ ' ' ' ' ' ' ' ' ",
"X.[ { ( ( ( ( ( ( ( ( ( ( ( J J U d._._._._.x.,.T T c c l w 6 4 4 4 4 4 4 4 1 1 1 1 4 4 4 4 @ @ @ @ @ + % & & & J J ( J v k d d d d d d d d x v Z A A A Z C C C C A A A A A A A A A A A A A A A A J J J J J J J J J J G A A A J J J J J J Y U U J J ( ( ( _ [ [ [ [ [ | [ [ ' _ [ [ [ [ [ [ [ [ [ [ [ [ ,.3.3.3.3.3.3.3.3.| [ [ ( ( ( ( ( ( ( ( ( ( J o o o o o o @ & = & - 4 4 4 4 4 o o o o o o o * g g g g C S S S J ( ( ( { { { ....{ { { { J S D Z C C C C Z Z Z Z C C C C Z Z C C C C C C C A F F K K K K l k e w 0 8 4 4 4 4 4 8 k k k @ @ @ @ @ @ @ @ @ & & = , = = , , , Z ! / ( ( ( ( ( ( ( ( ( ( ( ( ( ( ( ( ( ( ( ' { { ' ( ( ( ( ( ( ' ..........................[ Y P P P P P P P P P P P ( ( ( ( ( ( ( ( ( ( ( ( ..X.X.X.X.' ' ..X...{ { { { { { { { { X.X.3.u.I.~.Q W Q W z z z z z z e 4 # # # % % > , , , , , , g g g g g g x Z Z Z D H H H H H H ( ( ( ( ( ( ( ( ( ( ' ' ' ' ' ' ' ' ' ' ( ( ( ( ( ( ( ( J H J J J J H H J J J J H J H J J H J } W.W.f.V V V V V V m w w e e e 5 @ @ @ @ > > > > g f f J [ X.X.X.>.>.X.X.X.X...........X.X.X.",
"X.| { { ( ( ( ( ( ( ( ( ( J J J J J ,._._.W.5._ T P c c l w w 4 4 4 4 4 4 1 1 1 1 1 1 4 4 4 @ @ @ @ @ @ @ & & 4 J J J J J S C x x x k k x x v v A A A A A Z C C C A A A A A A A A A A H G G G J J J J J J J J J J J J J J G J J J J J J ( ( ( ( ( ( ( ( ( _ [ [ [ [ [ [ [ [ [ [ [ } [ [ [ [ [ [ [ [ [ | 3.3.2.d.l.l.5.3.3.3.| [ [ _ ( ( ( ( ( ( ( ( w # o o o o o o & = = 4 4 4 4 4 4 o o o o o o o > C S D S S S S S ! ( ( ' { { { ....{ { { { S S Z Z C C C Z Z Z Z Z C C C C Z Z C C C C Z C x g v F F K F K A k e e k k k 0 4 4 4 6 k k w @ @ @ @ @ @ @ @ & & * , , , , , , , H H J ( ( ( ( ( ( ( ( ( ( ( ( ( ( ( ( ( ( ( ( ( ( ( ( ( ( ( ( ( ( ..............................[ { } } _ Y P P P P ( ( ( ( ( ( ( ( ( ( ( ( ( ..X.X.X.X.' ' ' ....{ { { { { { { { { X.X.>.y.E.-X8.W W W m z z z z z z = # # # % % , , , , , , 3 g g g g g g g x Z Z Z S H H H H H H J ( ( ( ( ( ( ( ( ( ' ' ' ' ' ' ' ' ' ( ( ( ( ( ( ( ( H H J J J J H H J J J J H J H H H H J H 2.W.W.=.V V V V V V r w e e e 4 @ @ @ @ @ > > > u f f C ' X.X.X.X.X.X.X.X.X.X.X.X.X.>.>.>.>.",
">.>.[ [ ( ( ( ( ( ( ( ( ( J H H J H J _ W.x.5.T T P b b l 6 0 4 4 4 4 4 4 4 4 4 1 1 4 4 4 - @ @ @ @ @ @ @ @ & 7 J J J J J C C C v v v C C C v A A A A A A A A Z A A A A A A A A A A J J J J J J J J J J J J J J J J J J J J J J J J J ( ( ( ( ( ( ( ( ( ( [ [ [ | | [ [ [ [ | | [ [ } | | | } } [ [ [ >.3.3.d.l.x.x.x.5.1.1.,.[ [ [ ( ( ( ( ( _ [ U w & o o o o o o # & & 4 4 4 4 4 4 X o o o o o o 7 S S S S S S S D ( ( ` { { { { { { { { { H S S Z C C C Z Z C C Z Z C C C C Z C C C Z Z Z g d g g x F K F F K K c k s s s s 8 4 4 0 e w 8 @ @ @ @ @ @ @ & & & , , = = = , , 0 H H H J ! ( ( ( ( ( ( ( ( ( ( ( ( ( ( ( ( ( ( ( ( ( ( ( ( ( ( ( ( ' { ....................................} Y P Y ( ( ( ( ( ( ( ( ( ( ( ( ( ( ' X.X.X.X.' ' ' ' { { { { { { { { { ..X.X.X.X.<..X~.6.W W I z z z z z w % % @ @ % % , , , , , , 9 g g g g g g g g Z Z Z Z S H H H H H H H J ( ( ( ( ( ( ( ( ' ' ' ' ' ' ' ( ( ( ( ( ( ( ( ( / J H H H H H H J J H H J J J J H H J J H 4.W.W.E V V V V V l e r r e 1 @ @ O O O @ > > 3 f f g ( X.X.X.X.X.X.X.X.>.<.3.3.3.3.3.3.3.",
">.>.| { ' ( ( ( ( ( ( ( ( J H H J A A H _ 5.5._ T K b b l 6 0 6 1 4 1 1 4 4 4 4 1 1 4 4 4 * @ @ @ @ @ @ @ @ % 7 J J J J Z C C C v v v C C C C Z A A A A A A A A A A A A A H G G G J J J J J J J J J J J J J J J J J J J J J J J J J ( ( ( ( ( ( ( ( ( ( _ [ [ [ | | | [ [ [ } | [ [ } [ | | [ [ [ [ [ ,.3.i.l.l.x.x.x.d.1.1.1.&.[ [ } ( ( ( [ } [ U w = o o o o o o @ & = 4 4 4 4 4 4 o o o o o o o C S S S S S S S D ( ( { { { ' ' ` ..{ ' H S S S C C C C Z Z C Z Z Z C C C Z C C C C Z Z Z d d d g g g A +.+.+.T K A k s s s 0 8 0 k k s 8 @ @ @ @ @ @ & & & = , , = = = , , d A H H H H J J ! ! ! ! ! ! ! ( ( ( ( ( ( ( ( ( ( ( ( ( ( ( ( ( ( ( ( ( ( ' ....................................( ( ( ( ( ( ( ( ( ( ( ( ( ( ( ( ( { X.X.{ ( ( ( ( ( ( ' { { { { { { ..X.X.X.X.X.<.U.I.0.W W z z z z z = % @ @ @ % % , , , , , , u g g g g g g g g Z Z Z Z Z H H H H H H H H H J ( ( ( ( ( ( ' ' ' ' ' ' ' ( ( ( ( ( ( ( ( ( ( ( ( ( J H H H J J H H J J J H H H J J H ( [ c.W.T V V V V m e r r e = @ @ O O O O * > > g f f J ..X.X.X.X.>.<.3.3.3.3.3.3.3.3.3.3.",
">.>.X.[ { ( ( ( ( ( ( ( ( J H H A A A A A _ 5.[ T P c b l 0 w w 5 1 1 1 1 1 4 4 1 1 1 1 4 % @ @ @ O @ @ @ @ > x H H A C C C C C C v C C C C C C Z A A A A A A A A A A A J J J J J J J J J J J J J J J J J J J J J J J J J J J J J ( ( ( ( ( ( ( ( ( ( ( [ [ [ [ } [ [ [ [ [ | | [ [ [ [ [ [ [ [ [ [ | 3.3.x.l.l.l.l.x.2.1.1.3.3.} [ [ [ [ [ } } [ J w 4 o o o o o o o & = 4 4 4 4 4 4 o o o o o o o S S S S S S S S J ( ' { ' D S S S J J D D D S S Z C C Z Z Z C C C C C C Z Z C C C C C C Z d d d d d d d T.!.!.T.,.P F c k k w w k k k k 8 @ @ @ @ @ & & & & , , , , = , , 4 g Z S H H H J J J J J J J J ! ! ! ! ( ( ( ( ( ( ( ( ! ! ! ( ( ( ( ( ( ( ( ( ' ....................................{ { { ........' ( ( ( ( ( ( ( ( ( ( ( ( ( ( ( ( ( ( ' { { { { { { ..X.X.X.X.X...h.I.I.f.W m z z z z % % % @ @ % * , , , , , , u g g g g g g g g Z Z Z Z A H H H H H H H H H H H J ( ( ( ( ( ' ' ' ' ' ' ( ( ( ( ( ( ( ( ( ( ( ( ( ( H H H J J H H J J J J H H J J J ( ( ( ( %X@.V V V V e e e e % @ @ O @ @ @ @ > , y g g Z } X.X.X.>.3.3.3.3.3.3.3.3.3.3.3.3.",
">.>.X.} { ( ( ( ( ( ( ( ( J H H A A A Z v x U %.T T c c c w w w 6 4 1 1 1 4 4 4 1 1 1 4 1 @ @ @ O O @ @ @ @ > C C C C C C C C C C C C C C C C C C C C Z A A A A A A A J J J J J J J J J J J J J J J J J J J J J J J J J J J J J ( ( ( ( ( ( ( ( ( ( ( [ | | [ [ [ [ [ [ [ [ | } [ [ [ [ [ [ [ [ [ [ >.3.4.l.l.l.l.l.d.1.1.1.3.3.,.[ [ [ [ } } [ ( G w 8 o o o o o o o & = 4 4 4 4 4 1 o o o o o o > S S S S S S S S ! ( { ( S S S S S S D D D D S A S S Z Z Z Z Z Z Z Z Z Z Z Z C C C C C C C x d d d d d d U !.!.0.,.,.P K F l w w k k k k 6 @ @ @ @ @ & & & & * , , , , , , 9 g C Z D H H H H J J J J H H H J ! ! ! ! ( ( ( ( ! ! ! ! ! ! ! ( ( ( ( ( ( ( ( ' ................................................{ ( ( ( ( ( ( ( ( ( ( ( ( ( ( ( ( ( ( ' { { { ' { { { X.X.X.X.X.....u.I.I...G z z z r % % % @ @ # * , , , , , 3 u i g g g g g g g Z Z Z Z D H H H H H H H H H H H H H ( ( ( ( ' ' ' ' ' ' ( ( ( ( ( ( ( ( ( ( ( ( ( ( J H H J J H H J J J J H H J J ( ( ( ( >.<X%XE V V V l e e e % @ @ @ @ @ @ @ * > , g f g [ X.X.X.<.3.3.3.3.3.3.3.3.3.3.3.3.",
">.X.X...{ ( ( ( ( ( ( ( ( U G G A A A v x x x J 4.9.T c b l w w 6 6 4 4 1 1 1 1 4 4 4 4 * + + + O + + @ @ @ > C v v v C C v v v C C C C C C C C C C C C C Z A A A A A J J J J J J J J J J J J J J J J J J J J J J J J J J J J ( ( ( ( ( ( _ ( ( ( ( _ [ | } | [ [ [ [ [ [ [ [ [ [ [ [ [ [ [ } } [ [ <.3.d.l.l.l.l.l.5.2.1.3.3.3.3.>.[ [ [ [ [ [ Y z w 6 o o o o o o o & & 4 4 4 4 4 = o o o o o o 9 S S S S S S S S ~ ( ( S S S S S S S D D S S S S S S S S S S S S S S S S A A S Z C C C C C C g d d d g d d U ,.,.,.,.,.K K K b k k k k k 1 @ @ @ @ @ & & & & & = = , , , , g g C Z D H H H H H H H H H H H H J ! ! ! ! ! ! ! ! ! ! ! ! ! ! ! ! ! ( ( ( ( ( ( { ................} { ' ' { { { { { { { { ' ' ( ( ( ( ( ( ( ( ( ( ( ( ( ( ( ( ( ( ( ( ' { { { { { { { ..X.X.X.X.{ { { { >.( U z z z r # # # # @ % , , , , , , 7 u i g g g g g g x Z Z Z Z H H H H H H H H H H H H H H / ( ( ( ( ' ' ' ' ' ( ( ( ( ( ( ( ( ( ( ( ( ( ( ( H H H H H J J J H J J J ! ( ( ( ( ( ..<X<X[.V V V n e e e % @ @ @ @ @ @ @ % > > u f f ( X.X.X.3.3.3.3.3.3.3.3.3.3.3.3.3.",
">.X.X.X.{ { ( ( ( ( ( ( ( U J G A A A v v x x x A ,.9._ b b z w 6 6 6 4 1 1 4 1 4 4 4 4 % + + O O O @ @ @ O 3 C v v v C C v C C C C C C C C C C C C C C C C C A A A A J J J J J J J J J J J J J J J J J J J J J J J Y J J U ( ( ( ( ( _ } } [ _ ( _ [ [ | } | [ [ [ [ [ } [ [ [ [ [ [ [ [ [ | | | >.3.3.x.l.l.l.l.l.d.2.1.1.3.3.3.3.,.>.| >.>.| P z w 0 o o o o o o o @ & 4 4 4 4 4 * o o o o o o g Z S S S S S S S ( ( S S S S S S S S D S S S S S S S S S S S S S S S S S A A S S S C C C C C C g d d g d d i g Y _ P K K K K K K b l b b 7 @ @ @ @ # & & & & & & = = , , 2 g g C Z H H H H H H H H H H H H H H J ! ! ! ! ! ! ! ! ! ! ! ! ! ! ! ! ! ! ! ! ( ( ( { ........{ ' ( ( ( ( ( ( ( ( ( ( ( ( ( ( ( ( ( ( ( ( ( ( ( ( ( ( ( ( ( ( ( ( ( ( ( ' { { { { { ' { { X.X...{ { { { { ` ( ( z z z e # # # # # % , , , , , , u u u a g g g g g C Z Z Z D H H H H H H H H H J H H H H / ( ( ( ( ' ' ' ' ' ( ( ( ( ( ( ( ( ( ( ( ( ( ( ( J H H H H J J J ( ( ( ( ( ( ( ( ( { { #X<X<X6.V V m e e e = @ @ @ @ @ @ @ @ > > 3 f f ! X.X.X.3.3.3.3.3.3.3.3.3.3.3.3.3.",
">.>.X.X.[ { { ( ( ( ( ( ( J J J H A A v v v x x x Z &.9.,.T c c l w w w 5 4 4 4 4 4 4 1 @ @ @ @ @ @ @ @ + O 7 C v C C C C C C C v C v C C C C C v v C C C C v A A A A J J J J J J J J J J J J J J J J J J J J J J ( ( Y Y ( ( ( ( ( ( [ } } [ [ [ [ [ [ [ [ [ [ | | [ [ [ [ [ [ [ [ [ | >.,.3.3.2.2.5.d.l.l.l.l.l.l.l.l.5.[ | | | >.3.3.3.3.| [ P z w w o o o o o o o @ & 1 4 4 4 4 % o o o o o % C C Z S S S S S J ( H S S S S S S S S S S S S S S S S S D D D S S S D S S S S S S D A Z Z C Z C C g g g g i i i i Y 4.[ _ P K K K K K K K i @ @ @ @ % & & & & & & = , , , 7 g g C Z H H H H J H H H H H H H H H J ! ! ! ! ! ! ! ! ! ! ! ! ! ! ! ! ! ! ! ! ! ( ( ( ' ' ' ( ( ( ( ( ( ! ! ! ! ( ( ( ( ( ( ( ( ( ( ( ( ( ( ( ( ( ( ( ( ( ( ( ( ( ( ( ( ' { { { { { { ..X.X...{ { { { { { ' ( ( b z z 6 # % # % % % , , , , , 2 u u u a g g g g x Z Z Z Z H H H / J J H H H H J J H H H ( ( ( ( ( ( ' ' ' ( ( ( ( ( ( ( ( ( ( ( ( ( ( ( ( ( J H H J J Y ( ( ( ( ( ( ( ( ( ( { { }.<X<X#XV V V r e e - @ @ @ @ @ @ @ @ > > > a f S ..>.>.3.3.3.3.3.3.3.3.3.3.3.3.3.",
">.X.X.X.[ { { ( ( ( ( ( ( U J J H A A v x v x v x x x U ,.9.,._ b l w w w 5 4 4 4 4 4 = @ @ @ @ @ @ @ @ @ @ 7 C C C C C C C C C v v v C C C v v v v v v C v v A A A A J J J J J J J J J J J J J J J J J J J J J Y ( ( ( ( ( ( ( ( ( ( [ [ [ [ [ [ [ [ [ [ [ [ [ | | [ [ [ [ [ | ,.2.4.5.d.d.d.x.l.l.l.l.l.l.l.l.i.5.,.U v v v v v v v C C ( [ [ b z w w o o o o o o o @ & = 4 4 4 = @ o o o o o u C C C Z S S S S D D S S S S S S S S S S S S S S H J J J J J J J J J J H H H H H S D D D S Z Z C C C x g g i i i i x d.9.[ _ _ _ T K K K K 0 @ @ @ @ % & & & & & & * , , , 7 g g C Z H H H H H J H H H H H H H H J ! ! ! ! ! ! ! ! ! ! ! ! ! ! ! ! ! ! ! ! ! ! ! ( ( ( ( ( ( ( ( ! ! ! ! ! ! ! ( ( ( ( ( ( ( ( ( ( ( ( ( ( ( ( ( ( ( ( ( ( ( ( ( ( ( ' { { { { { { X.X.{ { { { { { { { ( ( ( U z z 8 # % % % % % > , , , , 7 u u u u g g g g C Z Z Z D H H J ( ( ( ( J H H H H H H ! ( ( ( ( ( ( ' ' ( ( ( ( ( ( ( ( ( ( ( ( ( ( ( ( ( ( / H J J ( ( ( ( ( ( ( ( ( ( ( ( { { R.<X<X<X6.V V l e e - @ @ @ @ @ @ @ @ > > > 3 f C { >.>.3.3.3.3.3.3.3.3.3.3.3.3.3.",
">.>.X.X.[ ' ' ' ( ( ( ( ( ( H H H A A v v v v x x x d x Z _ 4.9.9.#.b 0 0 0 5 4 4 4 4 % O O @ @ @ @ + + + @ 7 C C C C C C C v v v C C C C v v v v C C C C v C Z A A A J J J J J J J J J J J J J J J J J J J J J U ( ( ( ( ( ( ( ( ( ( [ [ [ [ [ } [ [ [ [ | [ [ | } [ | ,.5.d.l.x.x.x.5.5.5.4.>.>.>.>.| ( ( ( J G G S v v v v v v v C v v _ [ [ b z e w @ o o o o o o o & = 4 4 = @ o o o o o * C C v v v Z S S S S S S S S S S Z S S S S S S D J J J J J J J J J J J J J J J J J J H S S S S C C C Z Z g d d d d d d Z d.d.%._ _ _ _ K K K 0 @ @ @ @ % & & & & & & & , , 2 7 g g C Z H H J J J J J H H H H J H H J ! ! ! ! ! ! ! ! ! ! ! ! ! ! ! ! ! ! ! ! ! ! ! ! ( ( ( ( ! ! ! ! ! ! ! ! ! ! ( ( ( ( ( ( ( ( ( ( ( ( ( ( ( ( ( ( ( ( ( ( ( ( ( ( ( ' { { { { { { ..{ { { { { { { { ' ( ( ( ( z z = # % % % % # * , , , g d u u u u g g g x Z Z Z Z D H H J ( ( ( ( ( ( ! J J J ( ( ( ( ( ( ( ( ( ( ( ( ( ( ( ( ( ( ( ( ( ( ( ( ( ( ( ( ( J J ( ( ( ( ( ( ( ( ( ( ( ( ' { { Y.<X<X<X[.V V m e e 5 @ @ @ @ @ @ @ @ > > > > a h ' X.X.3.3.3.3.3.3.3.3.3.3.3.3.3.",
">.>.X.X.[ ' ' ' ( ( ( ( ( ( J H H A A v v v v v x i i i i g v _ ,.9.9.b 0 0 6 4 4 4 4 @ O O @ @ @ @ + + O @ a C v v C C C C v v C C C C v v C C v v C C C v C C A A A G J J J J J J J J J J J J J J J J J J J J J ( ( ( ( Y ( ( ( ( ( [ [ [ [ [ [ [ [ [ | | [ [ %.2.d.x.l.5.>.[ ( ! ( ( Y Y ( ( ( ( Y Y ( ( J G G G C v v v v v v v C C v _ [ [ b z k w & o o o o o o o @ & & & & o o o o @ * g C C C C v v S S S S S S S S Z C C C S S S S H J J J J J J J J J ! ! ! ! ! ( ( ( ! J J J S S S S C C Z Z Z d d d d g d d U d.d.%._ _ _ F K K 0 @ @ @ @ # & & & & & & & * , 7 7 g g C Z H H H H J J H H H H H J J H H J J ! ! ! ! ! ! ! ! ! ! ! ! ! ! ! ! ! ! ! ! ! ! ! ! ! ! ! ! ! ! ! ! ! ! ! ! ( ( ( ( ( ( ( ( ( ( ( ( ( ( ( ( ( ( ( ( ( ( ( ( ( ( ( ` { { { { { { { { { { { { { { ` ( ( ( ( ( z e # # % % % % # % , 9 C S x u u u u g g g C Z Z Z Z D H H / ( ( ( ( ( ( ( ( ( ( ( ( ( ( ( ( ( ( ( ( ( ( ! J ! ( ( ( ( ( ( ( ( ( ( ( ( ( ( ( ( ( ( ( ( ( ( ( ( ( ( ( ( ' { { C.<X<X<X<XE V V r e 6 @ @ @ @ @ O @ * > > > > 3 f ( X.X.<.3.3.3.3.3.3.3.3.3.3.3.3.",
">.>.>.>.{ [ { [ [ ( ( ( ( ( J H J A A v v v x x x i i i i i i i d x U _ m 6 0 4 4 4 - @ O O @ @ @ @ @ @ @ @ g C v v C C C C C v C C C C C C C C C C C C C C C v A A A A J J H J J J J J J J J J J J J J J J J J J Y ( ( ( ( ( ( ( ( ( [ } [ [ [ [ [ [ [ | } ,.d.l.l.u.} ( ( Y ( ! ! Y Y Y ( ( Y Y Y ( ( ( ( H H H S v v v v v v v v v v v _ [ [ b z l w & o o o o o o o o & & & o o o * 9 u i C C C C C C C C S S S S S S S v C v C S S S H J J J J J J ! ( ( ( ( ( ( ( ( ( ( ( ( ( J J J S S S S Z C C C g d d g g d d d U d.&._ _ _ K F K 0 @ @ @ @ @ & & & & & & & & , y y g g g Z H H H H H H H H H H H H H H H H H H J J J J J J J J J J ! ! ! ! ! ! ! ! ! ! ! ! ! ! ! ! ! ! ! ! ! ! ! ! ! ! ( ( ( ( ( ( ( ( ( ( ( ( ( ( ( ( ( ( ( ( ( ( ( ( ( ( { { { { { { { { { { { { { { { ( ( ( ( ( ( b = @ # # % % % # # x S S S x u u u u g g g Z Z Z Z Z S H H / ( ( ( ( ( ( ( ( ( ( ( ( ( ( ( ( ( ( ( ( ( ! J J J ( ( ( ( ( ( ( ( ( ( ( ( ( ( ( ( ( ( ( ( ( ( ( ( ( ( ( ( ' { { C.<X<X<X<Xq.V V l e 6 @ @ @ @ @ O @ > > > > > , a ( ..X.>.3.3.3.3.3.3.3.3.3.3.3.3.",
">.>.>.>.{ [ [ [ [ ( ( ( ( ( ( H J A A Z v x x x x i i i i i i i d i i T _ m 0 4 1 4 * @ O O O X @ @ @ @ @ @ g C v C C C C C C v C C C C C C C C C C C v C C C C A A A A G J J J J J J J J J J J J J J J J J J J J U ( ( ( ( ( ( ( ( _ [ } [ } } [ [ [ | 4.x.l.l.d.( ( ( ( ( ( ( ! ( ( Y ( ( Y Y Y Y Y ( ( J H H G v v v C v v v v C C v C ( [ [ z z l w & o o o o o o o o @ @ o o * 9 u u u x C C C C C C C C C S S S S S v v v v C S S D J J J J J ( ( ( ( ( ( ( ( ( ( ( ( ( ( ( ( ( J J J S S S S C C C x d d g d d d i d U _ _ _ _ K F K , @ @ @ @ @ & & & & & & & * 7 y y g g g Z D H H H H H H H H H H H H J J H H H H H H H H H H H H J ! ! ! ! ! ! ! ! ! ! ! ! ! ! ! ! ! ! ! ! ! ! ! ! ! ! ( ( ( ( ( ( ( ( ( ( ( ( ( ( ( ( ( ( ( ( ( ( ( ( ( ' { { { { { { { { { { { { { { ' ( ( ( ( ( ( J X X @ @ % @ % # 2 S S S S a u u u u g g g Z Z Z Z Z Z H H J ( ( ( ( ( ( ( ( ( ( ( ( ( ( ( ( ( ( ( ( ( J J J J ! ( ( ( ( ( ( ( ( ( ( ( ( ( ( ( ( ( ( ( ( ( ( ( ( ( ( ( ' { ..C.<X<X<X<XoXV V l e 6 @ @ @ @ @ @ @ > > > , , , 3 ' { X.X.3.3.3.3.3.3.3.3.3.3.3.3.",
"X.X.>.>.{ [ { { ' ( ( ( ( ( ( J J A A Z x x x x x i i i i i i i i i i v _ _ w 8 1 1 & @ @ @ X X X @ @ @ @ @ g C C C C C C C C C C C C C C C C C C C C v C C C v A A A A A A J J J J J J J J J J J J J J J J J J J J ( ( ( ( ( ( ( ( ( [ } } } } [ [ ,.x.l.x.x.2.( ( ! ( ( ( ( ( Y Y Y Y ( ( Y Y Y Y ( ( ( H G G S C v v C C C C v v v v S J [ [ z z l 0 @ o o o o o o o o o o @ 7 u u u u g C C v v C C C C v v S S S S Z v v C v Z S S H J J J ! ( ( ( ( ( ( ( ( ( ' ' ' ' ' ' ' ( ( ( J J H S S S Z C C x d d d d d 9 9 i d x _ _ T K F K 1 @ @ @ @ @ % & & & & & & , 7 7 y g g g Z S H H H H H H H H H H J J ! ! J H H H H H H H H H H J ! ! ! ! ! ! ! ! ! ! ! ! ! ! ! ! ! ! ! ! ! ! ! ! ! ! ! ! ( ( ( ( ( ( ( ( ( ( ( ( ( ( ( ( ( ( ( ( ( ( ( ( ` { { { { { { { { { { { { { ' ( ( ( ( ( ( ( J X X @ # # # @ % d S S A Z u u u u u a g g Z Z Z Z Z Z H H J ( ( ( ( ( ( ( ( ( ( ( ( ( ( ( ( ( ( ( ( ( ! J ! ! J ( ( ( ( ( ( ( ( ( ( ( ( ( ( ( ( ( ( ( ( ( ( ( ( ( ( ( { { <.C.oX<X<X<X<XE V l e 6 @ @ @ @ @ @ % , > > > > , , ( ' X.X.<.3.3.3.3.3.3.3.3.3.3.3.",
"X.>.>.| { [ { { ' ( ( ( ( ( ( J J G A A x x x x x i i i i i i i i i i i T _ l 8 4 1 @ @ @ X X X X @ @ @ @ @ g C C C C C C C C C C C C C C C v v C C C C A Z Z v A A A A A A A G J J J J J J J J J J J J J J J J J J ( ( ( ( ( ( ( ( _ [ } } } } | d.l.l.l.4.| ( ( ! ! ( ( ( Y Y Y Y Y Y ( Y Y ( ( Y ( ( J G G G C C v v C C C C v v v v H H [ [ z z l w o o o o o o o o o % & 7 u u u u x C C C v v C C C C v v C C A C v v v C v S S S J J J ( ( ( ( ( ( ( ( ( ' ' ' ' ' ' ' ' ' ' ( ( ( J J D S S Z C C C d d d d i 9 9 9 9 a x U F K F K 1 @ @ @ @ @ @ & & & & & * , 7 7 7 g g g Z Z H H H H H J H H H H H J ! ! ! ! J H H H H H H H H ! ! ! ! ! ! ! ! ! ! ! ! ! ! ! ! ! ! ! ! ! ! ! ! ! ! ! ! ! ( ( ( ( ( ( ( ( ( ( ( ( ( ( ( ( ( ( ( ( ( ( ( ( ( ' ' { { { { { { { { { { ' ( ( ( ( ( ( ( ( J X X X # # % @ % a S S A g u u u u u i g g Z Z Z Z Z Z H H H ( ( ( ( ( ( ( ( ( ( ( ( ( ( ( ( ( ( ( ( ( ( J ! ! J ( ( ( ( ( ( ( ( ( ( ( ( ( ( ( ( ( ( ( ( ( ( ( ( ( ( ( { { <.C.#X<X<X<X<Xq.V n e 6 @ @ @ @ @ @ % , > > > > , , H ( X.>.>.3.3.3.3.3.3.3.3.3.3.3.",
"X.X.>.[ [ [ { { ' ' ( ( ( ( ( Y J H A A v x x x x g i i d d d d i i i i i K 0 6 4 4 @ @ X X X X X O @ @ @ @ g C C C v v C C C C C v C C C C v v v v C C A A A A A A A A A A A A A G J J J J J J J J J J J J J J J Y ( ( ( ( ( ( ( ( [ [ [ [ } >.d.l.l.0.%.[ [ ( ( ( ( ( Y Y Y Y ( Y ( ( ( ( Y Y ( ( ( ! H G G G C v v v v v v v v v C S H H [ [ z z z 0 o o o o o o o o % * * u u u u g C C C C v v C C C C C C C C C C v C C C C S S S J J ( ( ( ( ( ( ( ( ' ' ' ' ' ' ' ' ' ' ' ' ' ( ( ( J J D D S C C C d d d d u 9 9 9 9 9 a d i x A K s @ @ @ @ @ @ % & & & & * , 7 7 7 g g g Z Z S H H H H J H H H H H J ! ! ! ! ! J J H H H H J ! ! ! ! ! ! ! ! ! ! ! ! ! ! ! ! ! ! ! ! ! ! ! ! ! ! ! ! ! ! ! ( ( ( ( ( ( ( ( ( ( ( ( ( ( ( ( ( ( ( ( ( ( ( ( ( ` { { { { { { { { { { ( ( ( ( ( ( ( ( ( ( X X O % @ % % % 7 A A g u u u u u u a g g C Z Z Z Z Z H H H ( ( ( ( ( ( ( ( ( ( ( ( ( ( ( ( ( ( ( ( ( ( J ! ! J ! ( ( ( ( ( ( ( ( ( ( ( ( ( ( ( ( ( ( ( ( ( ( ( ( ( ' { { <.C.#X<X<X<X<X#XV m e 6 O O @ @ @ @ % , , , > > , , H ( ..>.>.3.3.3.3.3.3.3.3.3.3.>.",
"X.X.} [ [ [ { { ' ( ( ( ( ( ( ( J J A A v x x x v x i i i d d d i i i 9 9 0 0 6 4 4 @ X X X X X X O @ @ @ @ g C C v v v v v C C v v C C C v v v C C C C Z A A A A A A A A A A A A A A G G G G J J J J J J J J J J ( ( ( ( ( ( ( ( ( [ [ [ } &.l.l.d.>.[ [ [ ( ( ( ( Y Y Y Y Y Y ( ( ( ( ( ( Y Y ( ( ( U G G G G v v v v v v v v v v v G H H [ _ z z z 6 o o o o o o o % * * * u u u g v v C C C C v C C C C C C C C C C C C C C C S S S J J ( ( ( ( ( ' ' ' ' ' ' ' ' ' } X.X.X...{ ' ' ( ( ! J D D S C C C d d d a 9 9 9 9 9 9 9 d d d x K k = @ @ @ @ @ @ & & & & , 4 7 7 7 g g g Z Z Z H H H H H H H H H H H ! ! ! ! ! ! ! J J J J ! ! ! ! ! ! ! ! ! ! ! ! ! ! ! ! ! ! ! ! ! ! ! ! ! ! ! ! ! ! ! ! ( ( ( ( ( ( ( ( ( ( ( ( ( ( ( ( ( ( ( ( ( ( ( ( ' { { { { { { { { { { ' ( ( ( ( ( ( ( ( ( ( X X @ % @ % % % , Z g u u u u u u u a g g x Z Z Z Z Z D H H J ( ( ( ( ( ( ( ( ( ( ( ( ( ( ( ( ( ( ( ( ( ( ! ! J J / ( ! ( ( ( ( ( ( ( ( ( ( ( ( ( ( ( ( ( ( ( ( ( ' { { { <.C.#X<X<X<X<X<X*.m e 6 O O O O @ @ % , , , > > , , x ( { X.X.3.3.3.3.3.3.3.3.3.<.X.",
"X.} ' [ { { { { { ( ( ( ( ( ( ( J J A A Z x x x v x i i i i i i 9 9 9 9 9 6 0 6 1 1 % X X X X X X O O @ @ @ g C C C C C v v v C v C C C C C C v v v v C C A A A A A A A A A A A A A A A A A A A H J J J J J J J Y ( ( ( ( ( Y ( ( ( [ [ } | d.i.>.[ [ [ [ [ ! ( ( Y Y Y Y Y Y Y Y ( ( ( ( J H U Y ( ( J G G G G C v v v Z H H H D S S H H H [ _ z z z 8 o o o o o o @ * * * , u u g C C v v v C C C C C C v v v C C C C C C C C C S S S J J ( ( ( ( ' ' ' ' ' ' ' ' { X.X.X.X.X.X.X.{ ' ' ( ( J J S S Z C C d d d u 9 9 9 9 9 9 9 i i d A F k k % @ @ @ @ @ & & & * , 7 7 7 7 g g g C Z Z S J J H H H H H H H H J J J J ! ! ! ! ! ! ! ! ! ! ! ! ! ! ! ! ! ! ! ! ! ! ! ! ! ! ! ! ! ! ! ! ! ! ! ! ! ! ( ( ( ( ( ( ( ' ' ( ( ( ( ' ' ' ( ( ( ( ( ( ( ( ' { { { { { ' ' ' ' ` ' ( ( ( ( ( ( ( ( ( ( ( X X @ % % % % % , 9 u u u u u u u u i g g x Z Z Z Z Z D D D J ( ( ( ( ( ( ( ( ( ( ( ( ( ( ( ( ( ( ( ( ( ( ! J J J J J ! ( ( ( ( ( ( ( ( ( ( ( ( ( ( ( ( ( ( ' [ { { { { { <.C.(.#X<X<X<X<X*.m e 6 @ @ @ @ O @ % , , , > > > > g ( ' X.X.>.3.3.3.3.3.3.3.3.>.X.",
"{ ' [ [ ' ' { { ( ( ( ( ( ( ( ( J J A A Z x x x v d i i i i d 9 9 9 9 9 9 6 0 6 1 1 - X X X X X X O @ @ @ @ g C C C C C v C v C v C C C C C C v v v C C C C Z A A A A A A A A A A A A A A A A A A G J J J J J J ( ( Y ( ( ( ( ( ( ( [ [ } | | } } [ [ [ [ ( ( ( Y Y Y Y Y Y Y Y Y ( ( ! J H H H J ( ( J G G G G S v v v A H H H H H H H G H [ _ z z z * o o o o o o % * * * , u i C C C v v v v C C C C C C v v C C C C C C C C Z S S S J J ( ( ( ( ' ' ' ' ' ' ' ' ..X.X.X.X.X.X.X.X.' ' ( ( ! J S S Z C C d d d 9 9 9 9 9 9 9 9 d d d [ K k k 8 @ @ @ @ @ @ & & * , 7 7 7 7 g g g C Z Z Z H J H H H H J H H H H H H H J J ! ! ! ! ! ! ! ! ! ! ! ! ! ! ! ! ! ! ! ! ! ! ! ! ! ! ! ! ! ! ! ! ! ! ! ( ( ( ( ( ( ( ( { { ' ` ' { { { { ' ( ( ( ( ( ( ( ' { { { { { ' ( ( ( ( ( ( ( ( ( ( ( ( ( ( ( ( X X @ @ @ % % % , u u u u u u u u u u g g g Z Z Z Z Z D D D D ( ( ( ( ( ( ( ( ( ( ( ( ( ( J J J J ( ( ( ( ( ! J J J J / ( ( ( ( ( ( ( ( ( ( ( ( ( ( ( [ { { { { { { { { { { C.C.C.C.(.#X<X*.V e 6 @ @ @ @ O O % , , , > > > > g ( ( X.X.X.>.3.3.3.3.3.3.3.X.X.",
"[ [ [ [ ' ' [ ( ( ( ( ( ( ( ( ( J J A A A v x x v i i i i i i 9 9 9 9 9 9 i K w 1 1 1 X X X X X X @ @ @ @ @ g C v v C C C C C C C C C C C C C C C C C C C C C C Z A A A A A A A A A A A A A A A A A J J J J J J ( ( ( ( ( ( ( ( ( _ [ [ [ [ [ [ [ [ [ ( ( ! Y Y ( ( Y Y Y Y ( ( ( ( ( J H H H G G J U J H H G G G v v v G H H H H H G G G G [ _ z z l o o o o o o o % * * * , u i v C C C v C C C C C C C C C C C C C C C C v v S S S S J J ( ( ( ( ' ' ' ' ' ' ' ' X.X.X.X.X.X.X.X.X.{ ' ' ( ( J H S S C C d d a 9 9 9 9 9 9 9 u g d d [ K l k k & @ @ @ @ @ # & * , 7 7 7 y g g g C Z Z Z S J H H J J J H H H H H H H H H J ! ! ! ! ! ! ! ! ! ! ! ! ! ! ! ! ! ! ! ! ! ! ! ! ! ! ! ! ! ! ! ! ! ! ( ( ( ( ( ( ( ' { { { { { { { { { ' ( ( ( ( ( ( ' { { { { { { ` ( ( ( ( ( ( ( ( ( ( ( ( ( ( ( ( * X @ @ @ # # % , u u u u u u u u u u g g g C Z Z Z Z D H H H ( ( ( ( ( ( ( ( ( ( ( ( ( J ! J J J J ( ( ( ( ! ! ! J J / ( ( ( ( ( ( ( ( ( ( ( ( ' { { { { { { { { { { { { { n.C.C.C.C.C._.@.V e 6 @ @ @ @ @ @ @ , , , > > , , 3 ' ( ..X.X.X.>.3.3.3.3.3.3.X.X.",
"[ [ [ [ ' ' ( ( ( ( ( ( ( Y J J J J G S S Z x x v i i i i d 9 9 9 9 9 9 9 c P l 4 4 1 % X X X X X X @ @ @ @ a C v C C C C C C C C C C C C C C C C C C C C C C v C C Z A A A A A A A A A A A A A A A G J J J J J ( ( ( ( ( ( ( ( ( _ [ [ [ [ [ [ [ [ ( ( ( ( Y Y ( Y Y Y ( ( ( ( ( ( ( H G G H G G G H H H H G G H v v v G H H H G G G G G H [ _ z z 4 o o o o o o o % * * * , u i v C C C C C C v C C C C C C C C C C C v v v C S S S D J J ! ( ( ' ' ' ' ' ' ' ' [ X.X.X.X.X.X.X.X.X...' ' ( ( ! H S S C C d d u u 9 9 9 9 9 9 u d d d ,.K l k k 0 @ @ @ @ @ @ % * , y y y u g g g h Z Z Z S J H H H H J H H H H H H H H H J J ! ! ! ! ! ! ! ! ! ! ! ! ! ! ! ! ! ! ! ! ! ! ! ! ! ! ! ! ! ! ! ! ! ( ( ( ( ( ( ( { { { { { { { { { { { ( ( ( ( ( ' { { { { { { { ` ( ( ( ( ( ( ( ( ( ( ( ( ( ( ( ( , X X @ @ # # % , u u u u u u u u u u g g g C Z Z Z Z D H H H / ( ( ( ( ( ( ( ( ( ( / J J ! ! J J J / ( ( ( J ! J J J ! ( ( ( ( ( ( ( ( ( ( { { { { { { { { { { { { { { { { <.C.C.C.C.C.m.@.I r 6 @ @ @ @ @ @ O , , > > > , , 3 ( ( { X.X.X.X.X.3.3.3.3.3.>.X.",
"[ { { [ ' ( ( ( ( ( ( J J J J J J J A A A A x x x i i i i i 9 9 9 9 9 9 9 b P l 4 4 - # X X X X X X O O O @ 7 C v v C C C C C C C C C C C C C C C C C C C C v v C C C C C Z A A Z v C C C Z A A A A G J J J J J Y ( ( ( ( ( ( ( ( [ [ [ [ [ } [ [ [ ( ( ( ( Y Y ( ! Y Y Y Y ( ( Y Y ( J H H G G H H H G H H H G G v v Z G G G G G G G G H J [ _ z z # o o o o o o o @ * * * > u i v C Z C C C C v v C C C C C C v v C C C C v S S S S D J J ! ( ( ' ' ' ' ' ' ' ' { X.X.X.X.X.X.X.X.X...' ' ( ( ( J S S C C d d u 9 9 9 9 9 9 9 u g d d 2.K l k k k 4 @ @ @ @ @ @ & , 7 y y u g g g g Z Z Z S H H H H H H H H H H H H H H H H J J ! ! ! ! ! ! ! ! ! ! ! ! ! ! J J J J J J J J J J J ! ! ! ! ! ! ! ! ( ( ( ( ( ' { { { { { { { { { { { ( ( ( ( ( { { { { { { { { ` ( ( ( ( ( ( ( ( ( ( ( ( ( ( ( ( , X X @ % % # % , i i i i u u u u u u g g g C Z Z Z Z H H H H J / ( / / J J ! / / J J ! ! ! ! J ! ! ! ( ( J J ! ! J J J ( ( ( ( ( ( ( ' { { { { { { { { { { { { { { { { { { { u.C.C.Y.C.c.@.E z 6 @ @ @ @ @ @ O > > > , , , , 3 ( ( ' X.X.X.X.>.3.3.3.3.3.<.X.",
"{ { { { ( ( ( ( ( ( J H J J J J J A A A A A x x x i i i i 0 9 9 9 9 9 9 9 k P 0 4 4 & # X X X X X X O @ O O 7 C C C C C v v C C v v C C C C v v C C C C C C v v C C C C C C C C v v C C C C A A A A G J J J J J Y ( ( ( ( ( ( ( ( [ [ [ } } } } } [ ( ( ( ( Y Y ( ! Y Y Y Y ( ! Y Y ( ( U H G G H H G G H H H G G A v S G G G G G G G G H ( [ _ z l o o o o o o o o o % * * * u g v C S Z C C C v v C C C C C C v v C C C C S S S S H J J J ! ( ( ( ' ' ' ' ( ( ' { X.X.X.X.X.X.X.X.X.X...' ( ( ( J S S C C d d i 9 9 9 9 9 9 9 u a d d 2.P k k k k k @ @ @ @ @ @ @ , 9 y y u g g g g Z Z Z Z H H H H H H H H H H H H H H H J J H H J J J ! ! ! ! ! ! ! J J H H H H H H H H H H H H H H J J J ! ! ! ! ( ( ( ' { { { { { { { { { { { { ' ( ( ( ( ' { { { { { { { ' ( ( ( ( ( ( ( ( ( ( ( ( ( ( ( ( u X X X % % % * , i i i i u u u u u u g g g C Z Z Z Z H H H H ! ! J J J J J ! J J J J ! ! ! ! J J ! ! J ! J J ! ! J J J ! ( ( ( ( ( { { { { { { { { { { { { { { { { { { { ( ! J <.C._.Y.c.@.@.m 6 @ @ @ @ @ @ O % > > , , , , 3 ' ( ( X.X.X.X.<.3.3.3.3.3.3.X.",
"{ { { { ( ( ( ( ( J H H J J J J G A A A A A v v d i i i i 9 9 9 9 9 9 9 9 i P 0 1 1 # # X X X X X X O @ @ @ > C C C C C v v v C v v v C C C C v C v v C C C C v v v C C C C C C v v C C C C A A A A G J J J J J U ( ( ( ( ( ( ( ( [ [ [ } | | } [ [ ( ( ( ( Y Y ( ( ( Y Y ( ( ! Y Y Y Y ( ( U H G G G H H H H G G G A H H H G G H H H H ! ( [ P z 6 o o o o o o o o o o % * * x v C C S Z C C C C C C C v v v C v C C C C C S S S H J J J ! ( ( ( ( ( ( ( ( ( ( ( ' ' ' { X.X.X.X.X.X.X.X.' ' ( ( J S S C C d d a 9 9 9 9 9 9 9 u i d x 2.Y k k k k k 6 @ @ @ @ @ @ , 9 y y u g g g g C Z Z Z D H H H H H J H H H H H H H H H H H H H H H J J ! ! ! J H H H H H H H H H H H H H H H H H H H H H ! ! ( ( ( ( ' { { { { { { { { { { { { { ' ( ( ( ( ' { { { { { ' ( ( ( ( ( ( ( ( ( ( ( ( ( ( ( ( ( d X X X % % % * , u i i i u u u u u u g g g x Z Z Z A H H H H ! ! J J J J J J H H H J J ! J J J ! ! ! J J J J ! ! ! / ( ( ( ( ( { { { { { { { { { { { { { { { { { { { ' J J J J ! C._._.I.@.@.V q @ @ @ @ @ @ @ @ > > , , > > g ' ' ' ..X.X.X.3.3.3.3.<.>.>.X.",
"{ { { ' ( ( ( ( J H H H J J J J A A A A A Z v v d d i i i 9 9 9 9 9 9 9 9 v P 4 1 = # # X X X X X X X O @ @ @ C C C C C v v C C v v C C C C v v v v v C C C C v v v v v C C C v v v C C C C A A A A J J J J J J J ( ( ( Y Y ( ( [ } [ [ } } } } [ [ [ ( ( ( Y Y ( ( ( ( Y Y ! ! Y Y ( Y ( ( Y ( Y J H H H H H G G G H H H H G G H H H ! ( ( [ P z 4 o o o o o o o o o o o * * C C C C S C v C C C C C C v v v v v v C C C S S S J J J J J ( ( ( ( ( ( ( ( ( ( ( ( ( ' ' ' { X.X.X.X.X.X...' ' ( ( J S S C C d d d 9 9 9 9 9 9 9 9 9 i A 2.P k k k k k k = @ @ @ @ @ % 7 y y u g g g g C Z Z Z S H H H J J J H H H J H H H H H H H H H H H H H H ! H H H H H H H H H H H H H H H H H H H H H H H ! ( ( ( ( ( ' { { { { { { { { { { { { { ' ( ( ( ( ( ' { { ' ( ( ( ( ( ( ( ( ( ( ( ( ( ( ( ( ( ( ( x X X X @ % % * , u u i i u u u u u u a g g C Z Z Z H H H H H ! J J J H H H H H H J J J J J J J ! ! ! J J J J ! ( ( ( ( ( ( ' { { { { { { { { { { { { { { { { { { { ' J J J J J J C._._._.@.@.L n @ O O O @ @ @ @ > > > > > > Z ( ( ' { X.X.X.>.>.X.X.X.X.X.X.",
"{ { { ( ( ( ( ( J J J J J J J A A A A Z A v x x i i d d u 9 9 9 9 9 9 9 9 c P 4 4 = # @ X X X X X X X @ @ O O g C S S S S C C C v v C C C C v v C C C C C C C C v C C C v v v v v v C C C C Z A A A J J J J J J J ( ( ( ( ( ( ( _ [ } } } } } } } } [ [ [ Y ( ( Y Y Y Y ( ( ( ( ( ( Y Y ( ( ( ! Y H H H H H H H H H G G G H H H H J ( ( ( ( [ P z * X X o o o o o o o o o @ * g C C Z S C v C C C C v v C C C C C C C v C S S H J J J J ( ( ( ( ( ( ( ' ' ' ( ( ( ( ' ' ' ' { X.X.X.X.{ ' ' ' ' ( J S Z C C d d d 9 9 9 9 9 9 9 u u 9 x 2.P k k k k k k s @ @ @ @ @ @ , y y u g g g g g Z Z Z Z H J J H H H J J H H H H H H J H H H J H H H H J ! J H H H H H H H H H H H H H H H H H H H H H J ! ( ( ( ( ( ' { { { { { { { { { { { { ' ( ( ( ( ( ( ( ( ( ( ( ( ( ( ( ( ( ( ( ( ( ( ( ( ` ` ` ` ( x X X X X % % > , u u u u u u u u u u a g g C Z Z S H H H H H J J H H H H H H J J J ! J J J J J J ! ! J J J ! ( ( ( ( { { { { { { { { { { { { { { { { { { { { { { ' J J J J J J ! C._._.[.6.#.I V 4 @ @ @ O O O @ > > > > > > H J ( ( ' X.X.X.X.X.X.X.X.X.X.X.",
"{ { ' ( ( ( ( J J J J J J J J A A A Z Z Z x x x i i d i 9 9 9 9 9 9 9 9 9 c K 4 4 & # @ X X X X X X X @ @ O O , D D D D D D S C v v C C C C v v C C C C C C x x x g g g g g g g x v C C C C C A A A J J J J J J J ( ( ( ( ( ( ( ( [ } [ } [ [ } | [ [ [ [ [ ( ( ( Y Y Y ( ( ( ( ( Y Y Y ( ( ( ! Y G H H H H H H G H G G H H H H H ! ( ( ( [ [ P z # X X o o o o o o o o o o @ a C C S S S C C C C v v v C C C C C C C v Z S S H J J J / ( ( ( ( ( ' ' ' ' ' ( ( ( ( ( ' ' ' { X.X...{ ' ' ' ' ' ( / S Z C C d d d u 9 9 9 9 9 9 u 9 9 x 2.A k k k k k k k 4 @ @ @ @ @ % y 7 p g g g g g C Z Z Z H H H H H H J H H H H H H H H H H J J H H H H J ! ! J H H H H H H H D S Z D H H H H H H H H H J ( ( ( ( ( ( ' { { { { { { { { { { { ' ( ( ( ( ( ( ( ( ( ( ( ! ! ! ! ( ( ( ( ( ( ` [ [ [ [ ' ' { [ x % X X X % % , , u u u i u u i u u u g g g C Z Z H H H H H H H J H H H H J J J J ! ! J ! J J J ! ! J ! J / ( ( ( [ { { { { { { { { { { { { { { { { { { { { { { ' J J J J J J J <.R._.[.[.H.#.E V z @ @ @ @ O @ @ % > > > > 3 J H ( ( ( X.X.X.X.X.X.X.X.X.X.X.",
"{ [ ( ( ( ( ( J J J J J J J J J A A Z Z v x v x i i i u 9 9 9 9 9 9 9 9 9 K K 4 1 & # o X X X X X X X @ @ @ O * D D D D D D D D A v C C C C C v C C C C x g x x g g g g g g x x g x C C C v v A A A J J J J J J J ( ( ( ( ( ( ( ( ( [ [ } } } } | } [ [ [ [ [ ( ( ( Y Y ( ( ( ( ( ( Y Y ( Y ! ! J H G G G H G G G G G G G G H H J ( ( ( _ [ [ P z o X X o o o o o o o o o o o 2 C C S S S S C C C C v v C C C C C C v v S S S H J J J ( ( ( ( ' ' ' ' ' ' ' ( ( ( ( ( ' ' ' ' X.[ ' ' ' ' ' ' ' ' ( J S C C d d d i 9 9 9 9 9 9 9 9 9 x 2.A k k k k k k k k % @ @ @ @ @ 7 7 u g g g g g C Z Z Z H H H H H H H H H H H H H H H H H H H H H H H J ! ! ! J H H H H D Z Z Z Z H J J H H H H H H J ! ( ( ( ( ( ( ` { { { { { { { { { { ` ( ( ( ( ( ( ( ( ! ! ! ! ! ! ( ( ( ( ( ( ( ( ' { [ [ [ [ [ { [ x % X X X % % , , u u u u u u u u u i g g g x Z D H H H H H H H H H H J J J J J J ! J ! ! ! ! J J J J ! ( ( ( ' { { { { { { { { { { { { { { { { { { { { { { { ' J J J J J J ( i.m.(._._._._.*.E V V % @ @ @ @ @ @ @ > , > , g J J ( ( ( } X.X.X.X.X.X.X.X.X.X.",
"[ ( ( ( ( ( J J J J J J J J J J A A Z x v v v g i i i 9 9 9 9 9 9 9 9 9 9 K b 4 4 # # X X X X X X X X O @ @ O @ D D D D D D D D D S C C C C C C C v x g g g x g g g g g x x x x g g x C C v v A A A J J J J J J Y ( ( ( ( ( Y ( ( ( _ [ } } } } } } [ [ [ [ } [ ( ( Y Y ( ( { } ( ( Y Y Y Y ! ! H H H G G G G G G G G G G H H H ! ( ( ( [ [ [ P z X X X o o o o o o o o o o o @ g C A A S S S C C C C C C C v v C C v C S S S J J J ( ( ( ( ' ' ' ' ' ' ' ' ( ( ( ( ( ' ' ' ' ' ' ' ' ' ' ' ' ' ( ( ( H Z C g d d i 9 9 9 9 9 9 9 9 9 x ,.F k k k k k k k k 0 @ @ @ @ @ 3 7 7 g g g g g g Z Z Z H H H H H H H H H H H H H H H H H H H H H H H H ! ! ! ! J H H H H S Z Z Z H J J H H H H H H ! ! ( ( ( ( ( ( ( { { { { { { { { { { ( ( ( ( ! ! ! ! ! ! ! ! ! ! ( ( ( ( ( ( ( ( ( { { [ [ [ [ [ [ [ x % X X X @ % , , u u u u u u u u i g g g g x Z S H H H H H H H H H H J J J J J J J J ! ! ! ! ! ! J J ( ( ( ( { { { { { { { { { { { { { { { { { { { { { { { ' J J J J J J ' h.n.C._._._._._.I.I V V 5 @ @ @ @ @ @ @ > , , , H J J J ( ( [ X.X.X.X.X.X.X.X.X.{ ",
"( ( ( ( ( ( J J J J J J J J J J A A v x x x x g i i i 9 9 9 9 9 9 9 9 9 9 P l 1 4 # # X X X X X X X X X @ @ @ @ D D D D D D D D D D S C C v C C C x x x g g g g g g g g g g x x g g g x C C C Z A A J J J J J J ( ( ( ( ( ( ( ( ( ( ( [ } } } [ } } [ [ } } } } [ ( ! ( ( [ [ [ ( ( ( ( Y Y Y ( H G H H H H G G G G G G G G G J ( ( ( [ [ [ [ P z o o o o o o o o o o o o o o o @ x S S S S S S C C C C C C C v C C C C S S S J J J ( ( ( ( ' ' ' ' ' ' ' ' ( ( ( ( ' ' ' ' ' ' ' ' ' ' ' ' ( ( ( ( ( / S C x d d a 9 9 9 9 9 9 9 9 9 9 _ b k k k k k k k k k = @ @ @ @ , 7 7 g g g g g g Z Z Z H H H H H H H H J J H H H H H H D A H H H H H H J ! ! ! ! H H H H H Z Z Z D H J H H J J H J ! ! ( ( ( ( ( ( ( ` { { { { { { { { ' ( ( ( ! ! ! ! ! ! ! ! ! ! ( ( ( ( ( ( ( ( ( ' { [ [ [ [ [ [ [ [ x % X X X @ % , , y i u u u u u u a g g g g g Z Z S H H H H H H H H H J J U J ! ! J J J J ! ! ! J J J ( ( ( { { { { { { { { { { { { { { { { { { { { { { { ' J J J J J J >.x.x.C./._._._._._._.@.V V k O O O @ @ @ O * > > 7 J J J J ( ( X.X.X.X.X.X.X.X...' ' ",
"( ( ( ( ( J J J J J J J J J J J A A x x x x x g i i 9 9 9 9 9 9 9 9 9 9 i P l 1 4 # # @ X X X X X X X X @ @ @ @ D D D D D D D D D D D Z C C C C g x g d d d d d d x x x g g x g g g g g C C C Z A A J J J J J Y ( ( ( ( ( Y ( ( ( ( ( ( } } [ [ } } [ [ } } } } [ [ [ [ [ [ [ [ ( ( Y ( Y Y Y ( G G G G H H G G G G G G G G H ( ( ( ( [ [ [ [ P z o o o o o o o o o o o o o o o o * S S S S S S Z C C C C C v v C C v v S S S J J ! ( ( ( ' ' ' ' ' ' ' ' ( ( ( ( ( ' ' ' ' ' ' ( ( ( ( ( ( ( ( ( ( ( ( H S C d d a 9 9 9 9 9 9 9 9 9 9 _ b k k k k k k k k k k @ @ @ @ * 7 7 u g g g g g Z Z Z H H H H H H H H H J H H J H H H Z Z Z D H H H H H H J J J H H H H H H Z Z Z D H H H H J J ! ! ! ( ( ( ( ( ( ( ' { { { { { { { { ( ( ( ! ! ! ! ! ! ! ! ! ! ! ( ( ( ( ( ( ( ` ' [ [ [ [ [ [ [ [ [ [ x % X X X @ % , , y i u u u u i i g g g g g g Z Z Z S H H H H H H H H J J U J J ! ! ! J J ! ! ! ! J / ( ( ( { { { { { { { { { { { { { { { { { { { { { { ' J J J J J ! u.x.x.x.C._._._._._._._.*.V V m O O O @ @ @ O % > > C H H H J ( ..X.X.X.X.X.X.X.[ ' ' ' ",
"( ( ( ( ( J J J J J J J J J J G A Z x x x x x d i 9 9 9 9 9 9 9 9 9 9 9 k P l 1 4 # # # X X X X X X X X @ @ @ @ S D D D D D D D D D S S C C x d i i 9 9 u u u u u u g x g g g g g g g x v C C Z A A J J J J J ( ( ( ( ( ( ( ( ( ( ( ( ( [ } } } } } [ [ [ [ [ [ [ [ [ [ [ [ [ [ _ Y Y Y Y Y Y ( H G H G H H G G G G H H H H Y ( ( ( [ [ [ [ [ P z o o o o o o o o o o o o o o o o o @ C S S S S S C C v C C C C C C v v S S S J J ( ( ( ( ' ' ' ' ' ' ' ' ( ( ( ' ' ' ' ' ' ' ( ( ( ( ( ( ( J J J J J H A A C g d a 9 9 9 9 9 9 9 9 9 9 _ c k k k k k k k k k k 5 o @ @ % 9 9 y g g g g g Z Z Z H J H H H H H H H H H H J H H D Z Z Z Z S H H H H H H H J J J J H H H Z Z Z Z Z D H H H ! ! ! ! ( ( ( ( ( ( ( ( ' { { { { { { ' ( ( ( ! ! ! ! ! ! ! ! ! ! ! ! ( ( ( ( ( ` ` [ { [ [ [ [ [ [ { { [ x % X X X @ % , , 7 i u u u u i i g g g g g g Z Z Z Z Z H H H H H H H H J J J J J ! ! J J J J J J ! ( ( ( { { { { { { { { { { { { { { { { { { { { { { ' J J J J J ` h.x.x.x.m._.[._._._._.[.[.d.V V V % O @ @ @ @ @ @ > 3 H H H ! ( ' X.X.X.X.X.X.{ ( ' ' ( ( ",
"( ( ( ( J J J J J J J J H J J A A v x x x x x d i 9 9 9 9 9 9 9 9 9 9 9 b P l 1 4 & # # X X X X X X X X @ @ @ @ g D D D D D D D D D D S C C a u 9 u u 9 u u u i u u i x g g g g g g x v v C C C A A G J J J Y ( ( ( ( ( ( ( ( ( ( ( ( ( ( [ } } } [ [ [ [ [ [ } [ [ [ [ [ [ [ [ _ Y Y Y Y Y Y ( G G G G H H H H G G H H H J ( ( ( [ [ [ [ [ [ P z @ o o o o o o o o o o o o o o o o o o a S S S S S v v C C C C C v v v S S S J J ( ( ( ( ' ' ' ' ' ' ' ' ' ' ' ' ' ' ' ' ' ' ( ( ( ( ( ( ! H H H D C C C C C C d i 9 9 9 9 9 9 9 9 9 9 ( k k k k k k k k k k k s X X @ @ 7 9 9 g g g g g Z Z Z J H H H H H H H H H H H H H H Z Z Z Z Z Z Z H H H H H H J J J J H H H S Z Z Z Z Z H H J ! ! ! / ( ( ( ( ( ( ( ( ( ( ' { { { ' ( ( ( ! ! ! ! ! ! ! ! ! ! ! ! ! ! ( ( ( ( ` ' { { [ [ [ [ [ [ { { [ Z X X X X @ % , , 7 u u u u u i a g g g g g g x Z Z Z Z Z J H H H H H H H H H H J ! ! J J J J J J ! ( ( ( ' { { { { { { { { { { { { { { { { { { { { ( J J J J J ..x.x.x.x.x.R.[.[._._._._.[.[.U.V V V * O @ @ @ @ @ @ > g H H ( ( ( ' [ { } [ ' ( ( ( ' ' ( ( ",
"( ( ( ( J H J J J J J J J J G A A v x x x x v x i u 9 9 9 9 9 9 9 9 9 9 A P l 1 4 & # # X X X X X X X X O O O O C S H D D D D D D D D D C C i u u u 9 u u u 9 9 0 9 9 d g x x x g g x v v v v v A A G J J J ( ( ( ( ( ( ( ( ( ( ( ( ( ( ( ( ( _ [ [ [ [ [ [ } } [ } } } } [ [ [ ( ( Y Y Y Y ( ( H H G G H H H H G G H H J ( ( ( ( | | | | } %.K z & o o o o o o o o o o o o o o o o o o o 3 S S S S Z C C C C C C C v C S S S J J ( ( ( ' ' ' ' ' ' ' ' ' ' ' ' ' ' ' ' ' ' ' ( ( ( ( ( ( ( H H H Z Z Z Z x g d d u 9 9 9 9 9 9 9 9 9 9 _ k k k k k k k k k k k k X X @ @ 7 y 7 g g g g g Z Z Z J J J H H H H H J J J J J J Z Z Z Z Z Z Z Z Z Z S D H J J J J H H H H S Z Z Z Z S H J ! ! ! ! / ( ( ( ( ( ( ( ( ( ( ( ' ' ' ( ( ( / ! ! ! ! ! ! ! ! ! ! ! ! ! ! ! ( ( ( ( [ [ [ { { { [ [ [ { { [ Z X X X X @ % , , , u i i u u u g g g g g g g x Z Z Z Z Z Z D H H H H D H H H H H J J ! ! ! ! J J ! ( ( ( ( ' { { { { { { { { { { { { { { { { { { ! J J J J J 3.x.x.x.x.x.x._.[.[._.M.X.S ( u.I.V V V 5 @ @ @ @ @ @ @ 3 H H H ( ( ( ( ' ' ( ( ' ' ' ' ' ' ( ( ",
"( ( ( J H H J J J J J J J J A A A x x x x v v x i i 9 9 9 9 9 9 9 9 9 9 K P k 4 4 & # # @ X X X X X X X X O O O g C S D D D D D D D D D S C g u u u u u u u 9 i 0 9 9 a g x x x g x g x v v C Z A A A J J J ( ( ( ( ( ( ( ( ( ( ( ( ( ( ( ( ( ( ( J ( [ } } } } [ } } } [ [ [ [ [ ( Y ( Y Y ( ( H G G G G H H H H H H J ( ( ( ( [ [ | | | z.v.K z = o o o o o o o o o o o o o o o o o o o o 3 Z S S S C C C v v C C v S S S S J J ( ( ( ' ' ' ' ' ' ' ' ' ' ' ' ' ' ' ' ' ' ' ' ( ( ( ( ( ( J H H Z C C g d d d a 9 9 9 9 9 9 9 9 9 9 9 _ k k k k k k k c b k k k X X X @ 7 7 y g g g g C Z Z Z J J J J H H H H J J J J J Z Z Z Z Z Z Z Z Z Z Z Z Z Z Z Z S S S S S S Z Z Z Z Z D H ! ! ! H H J ( ( ( ( ( ! ! ( ( ( ( ( ( ( ( ( ( ! ! ! ! ! ! ! ! ! ! ! ! ! ! ! ! ( ( ( ( [ [ [ { { [ [ [ [ { { [ Z X X X X @ % , , , u i i u i g g g g g g g g x Z Z Z Z Z Z S H H H H H H H H H H J J ! ! ! ! ! ! ! / ( ( ( ( ( { { { { { { { { { { { { { { { ' J J J J J ( i.x.x.x.x.x.x.(._._.c.S a a a a a g m V V 8 @ @ @ @ @ @ @ Z H H H J ( ( ( ' ' ' ' ' ( ' ' ' ' ( ( ",
"( ( ( J J J J J J J J J J A A A Z x x x x x x d i i i 9 9 9 9 9 9 9 9 9 P K l 5 4 & # # @ X X X X X X X O @ O O p C C C S S Z C C S D D D D S D D Z g 9 u 9 9 0 u u 9 i g g x x x x x g x C Z A A A A J J J ( ( ( ( Y ( ( ( ( ( ( ( ( ( ( A x d i i i _ } } } } [ | } } } } [ } [ ( ! ! ( ( ( ( J H G G G G H H H H J ( ( ( ( _ [ [ [ [ 2.v.v.P z - o o o o o o o o o o o o o o o o o o o o o 7 S S S S C v v v C C S S S S S J J ( ( ( ' ' ' ' ' ' ' ' ' ' ' ' ' ' ' ' ' ' ' ' ( ( ( ( ( ( ( H H C Z C g d d d a 9 9 9 9 9 9 9 9 9 9 9 _ k k k k k k k b b b k k X X X @ , y a g g g g C Z Z Z S J J J H H H H J J J J Z Z Z Z Z Z Z Z Z Z Z Z Z Z Z Z Z Z Z Z Z Z Z Z Z Z Z Z H J ! ! J H H J ! ! ! ! ! ! ! ! ( ( ( ( ( ( ( ( ! ! ! ! ! ! ! ! ! ! ! ! ! ! ! ! ! ( ( ( ' [ [ [ { { [ [ [ [ [ [ [ J X X X X @ % , , , u i i g g g g g g g g g g C Z Z Z Z Z Z D H H J J J H H H H H J J ! ! J J ! J J ! ( ( ( ( ( ' { { { { { { { { { { { { { ( J J J J J ' h.x.x.x.x.x.x.R._.W.( a a a a a a a a a m V k @ @ @ @ @ @ , H H H H J ( ( ( ( ( ' ' ( ( ( ( ' ( ( ( ",
"( ( J H J J J J J J G A A A A A v x x x x x d d i i i 9 9 9 9 9 9 9 9 9 P b l k 4 - # # @ X X X X X X X O O O O 7 C C C C C C C C C D D D D S Z Z S D Z u 9 9 9 u u 9 i g g g g x x x x g x C Z A A A G J J U ( ( ( ( ( ( ( ( ( ( ( ( ( g i i i i i i d } } } } [ } } } } } } [ ( ( ( ! ( ( ( ( ( J H G G G H H H H J ( ( ( ( ( [ [ [ [ 9.H.v.[ z 8 o o o o o o o o o o o o o o o o o o o o o 3 7 S S S S Z C Z S S S S S S S J J ( ( ( ' ' ' ' ' ' ' ' ' ' ' ' ' ' ' ' ' ' ' ' ( ( ( ( ( ( ( H H C Z C g d d d a 9 9 9 9 9 9 9 9 9 9 9 Y k k k k k k c m m b b k X X X @ * u g g g g g C Z Z Z Z Z S J H H H H H J J S Z Z Z Z Z Z Z Z Z Z Z Z Z Z Z Z Z Z Z Z Z Z Z Z Z Z Z S H J ! ! H H H H ! ! ! ! ! ! ! ! ( ( ( ( ( ( ( ( ! ! ! ! ! ! ! ! ! ! ! ! ! ! ! ( ( ( ( ( ' [ [ [ { { { [ [ [ [ [ [ U X X X X @ % , , , u i a g g g g g g g g g g Z Z Z Z Z Z Z D H H J J J H H H H H H J ! ! J J J J J J ( ( ( ( ( ( { { { { { { { { { { { { ( J J J J ! >.3.x.x.x.x.x.x.m._.u.g a a a a a a a a a a a V l @ @ @ @ @ @ Z H H H H J J ( ( ( ' ' ' ( ( ( ( ' ( ( ( ",
"( ( J J J J J J J J G G A A A A x x x x x i i d i i i u 9 9 9 9 9 9 9 i P b l l k 4 = # @ X X X X X X X @ @ @ @ , C C C C C C C C C D D Z C C C C x C S Z u u u u u u i g g g g g g x g g g x C A A G J J J J J Y ( ( ( ( ( ( ( ( ( ( J i i i i i i i d [ | [ [ [ [ [ [ } } } ( Y Y ( ! ( ( ( ( ( ( ( U J J G H H H J ( ( ( ( ( [ [ [ [ 9.H.H.[ z 6 o o o o o o o o o o o o o o o o o o o o o < 3 x J J S S S S S S S S S S H J J ( ( ( ' ' ' ' ' ' ' ' ' ' ' ' ' ' ' ' ' ' ' ' ' ( ( ( ( ( ( H H Z C C x d d d d u 9 9 9 9 9 9 9 9 9 9 U k k k k k k c b b b b 0 X X X @ u g g g g g g C Z Z Z Z Z Z Z Z S S H H H S Z Z Z Z Z Z Z Z Z g g C C C Z Z Z Z Z Z Z Z Z Z Z Z Z Z H H J ! J H H H H J ! ! ! ! ! ! ! ( ( ( ( ( ( ( ( ! ! ! ! ! ! ! ! ! ! ! ! ! ! ( ( ` ` ( ( ' { { { [ [ [ [ { { [ [ [ ( X X X X @ # , , , y u a g g g g g g g g g x Z Z Z Z Z Z A H H H H H H H H H H H H J J J J J J J J J / ( ( ( ( ( { { { { { { { { { { { ( J J J J { <.3.i.x.x.x.x.x.h.i.A a a a a a a a a a a a a a m z @ @ @ @ @ @ H H H H H H H J ( ( ( ( ( ' ( ( ( ( ( ( ( ",
"( ( U J J J J J J J J J A A A Z x x x x i i i i i i 0 9 9 9 9 9 9 9 9 9 P b l l l k 4 = @ X X X X X X O @ @ @ @ @ C C C C C C C C S S C C x g g g g g g Z Z u u u u u d g g g g g g x g g g g C v A J J J J J J J U ( ( ( ( ( ( ( ( ( Z i i i i i i J 2.i.4.[ [ [ [ [ [ } } _ ( Y Y ! ! ( ( ( ( ( ( Y ( Y Y G G H H H J U ( ( ( ( [ [ [ 2.H.H.*.z 0 @ o o o o o o o o o o o o o o o o o o o o > 3 7 | ..! S S S S S S S S H J J ! ( ( ( ' ' ' ' ' ' ' ' ' ' ' ' ' ' ' ' ' ' ' ' ' ( ( ( ( ( ( H H S C C C g d d d a 9 9 9 9 9 9 9 9 9 9 A k k k k k k b b b b b * X X X u g g g g g g g C Z Z Z Z Z Z Z Z Z Z Z C C Z Z Z Z Z Z Z Z Z Z g g g g g g g h C C C Z Z Z Z Z Z Z Z H H ! J H H H H H H H J J ! ! ! ! ! ( ( ( ( ( ( ( ! ! ! ! ! ! ! ! ! ! ! ! ( ( ( ( ` ( ( ( { { { { [ [ [ [ [ { [ [ [ [ % X X X X # > , , 7 u a g g g g g g g g x Z Z Z Z Z Z Z D H H H H H H H H H H H H H J ! J J J J J J ! ( ( ( ( ( ( { { { { { { { { { ( J J J J ..3.3.y.x.x.x.x.x.x.J a a a a a a a a a a a a a a a m V @ O @ @ @ @ S H H H H H H H J ( ( ( ( ' ' ( ( ( ( ( ( ",
"( ( ( J J J J J H H J H A A S Z v v x d i i i i 9 9 9 9 9 9 9 9 9 9 9 9 i F l l l l 0 - @ X X X X X X O @ @ @ @ @ g C C C C C C C S C C C g g g g g g g g g g i 9 9 u i g g g x x x g g g g g x v C J J J J J J J J J Y ( ( ( ( ( ( ( A i i x G [ 4.i.i.i.,.[ [ [ [ [ [ [ _ ( ( Y Y Y Y ( ( ( ( Y Y Y Y Y Y G H H H G G G H J U ( ( [ [ &.H.H.2.z w - o o o o o o o o o o o o o o o o o o o o % 3 7 C ..{ J H S S S S S J J J ! ( ( ( ( ' ' ' ' ' ' ' ' ' ' ' ' ' ' ' ' ' ' ' ' ' ' ( ( ( ( ( J H D C C C x d d d d a 9 9 9 9 9 9 9 9 u l k k k k k k m b b b c X X X , g g g g g g g g x Z Z Z Z Z Z Z Z Z Z Z Z Z Z Z Z Z Z Z Z Z Z C g g g g g g g g g g g g g g C C Z Z Z D H H H H H S S H H H H H J ! ! ! ! ( ( ( ( ( ( ( ( ! ! ! ! ! ! ! ! ! / ( ( ( ( ( ` ( ( [ [ [ { [ [ [ { { [ [ [ [ [ [ i X X X X # * , , 7 u a g g g g g g g x Z Z Z Z Z Z Z Z H H H H H H H H H H H H H H H J ! ! J ( / ! J ( ( ( ( ( ( { { { { { { { { { J J J ! <.3.3.3.h.x.x.x.x.d.Z a a a a a a a a a a a a a a a a m B X X @ @ @ @ , H H H H H H J J ' ' ( ( ' ' ' ' ( ( ( ( ",
"( ( ( J J J J J H J J G A A A v v x x i i i i i 9 9 9 9 9 9 9 9 9 9 9 9 9 i l l l l k 1 & X X X X X X + @ @ @ @ @ u C C C C C C C C C C C g g g g g g g g g g g i 0 u u d g g x x x g g g x x C v v G J J J J J J J J J U ( ( ( ( ( ( ( &.5.5.5.u.u.u.i.2.[ [ [ [ [ [ [ _ Y Y ( Y Y Y Y ( ( Y Y Y Y Y Y Y Y G H H H G G G G G G J ( [ [ [ v.H.2.z l 8 @ o o o o o o o o o o o o o o o o o o o o 3 7 3 { ..( J J D S H J J J ! ( ( ( ( ( ' ' ' ' ' ' ' ' ' ' ' ' ' ' ' ' ' ' ' ' ' ' ( ( ( ( ( J H H Z C C C g d d d d i 9 9 9 9 9 9 9 k k k k k k k k m m b b , X X X y a g g g g g g g g Z Z Z Z Z Z Z Z Z Z Z Z Z Z Z Z Z Z Z Z Z Z C g g g g g g g g g g g g g g g g g g C Z H H H D Z Z Z Z S H H H J J J ! ! ! ( ( ( ( ( ( ( ( ! ! ! ! ! ! ! ! ( ( ( ( ( ( ( ' [ [ [ [ [ [ [ [ { { { [ [ [ [ [ J X X X X # & , , , u a g g g g g g C Z Z Z Z Z Z Z Z Z H H H H H H J J J J J J J J J ! ! ! ( ( ( ( ( ( ( ( ( ( ( ' { { { { { { { { J J ! <.3.3.3.d.x.x.x.x.i.x a a a a a a a a a a a a a a a a a m k X X X @ @ @ @ d H H H H H J J ' ' ' ' ' ' ' ' ' ' ( ( ",
"( ( ( ( J J J J J J J A A A Z x v v x i i i d d i 0 9 9 9 9 9 9 9 9 9 9 9 0 l l l l e 1 - X X X X X X O O O @ @ @ 2 C C C C C C C C C C g g g g g g g g g g g g g u u u i g g g g g g x x v v C C C A H J J J J J J J J J U ( ( ( ( ( ( ( _ ,.5.5.5.5.2.[ [ [ [ } | [ ( ( Y ( ( ( ( ( ( ! ! ! ! ( ( ( ( ( ( G G H H H H H H H H H ( [ [ [ 9.H.f.z l 8 = = # @ o o o o o o o o o o o o o o o o o , 3 3 a ..| J J J J J J J ( ( ( ( ( ( ( ' ' ' ' ' ' ' ' ' ' ' ' ' ' ' ' ' ' ' ' ' ' ' ( ( ( ( J H H A Z Z Z x i i i i i 9 9 9 9 9 9 9 k k k k k k k k b b b c X X X * y y g g g g g g g g C Z Z Z Z Z Z Z Z Z Z Z Z Z Z Z Z Z Z Z Z Z C g g g g g g g g g g g g g g g g g g g x Z S Z Z Z Z Z Z Z S J J J J H J ! ! ! ( ( ( ( ( ( ( / ! ! ! ! ! ! ! ( ( ( ( ( ( { { { [ [ [ { { { { { [ [ [ [ [ A 7 * X X X X % % , , , u a g g g g g C Z Z Z Z Z Z Z Z Z Z D D D Z H H J ! ! ! ! ! J J ! ! ! ! ( ( ( ( ( ( ( ( ( ( ( ( { { { { { { { { J J >.3.3.3.u.x.x.x.x.4.g a a a a a a a a a a a a a a a a a a m = X X X @ @ @ @ % S H H H H H J ( ( ' ' ' ' ' ' ' ' ' ' ",
"( ( ( ( Y J J J J J J A A A v x v v g i i i d i d i i i i i 0 9 9 9 9 9 9 k l l l l 1 4 1 X X X X X X O O O @ @ @ * C C C C C C C C C C g g g g g g g g g g g g g g u u u g g g x g x v v v v v C C H H J J J J J J J J J ( ( ( ( ( ( ( U J J J Y [ [ ( ( [ [ { ( ( ( ( ( ( ( ( Y Y Y Y ! ! ( ( ( ( ( ( ( J G G H H H H H H H H H ( [ [ [ &.H.f.z z 8 4 = = = # o o o o o o o o o o o o o o o o % 3 3 3 ' ..' J J J J J ( ( ( ( ( ( ( ( ' ' ' ' ' ' ' ' ' ' ' ' ' ' ' ' ' ' ' ' ' ' ' ( ( ( ( ! H H H Z Z Z C d i i d d i 9 9 9 9 9 9 i k k k k k k k b b b % X X X 7 y y y g g g g g g g g Z Z Z Z Z C g C Z Z Z Z Z Z Z Z Z Z Z Z Z C g g g g g g g g g g g g g g g g g g g g g Z Z Z Z Z Z Z Z Z D J J J H H H J ! ! ! ( ( ( ( ( ! ! ! ! ! ! ! ! ( ( ( ( ( [ { { { [ [ [ { [ { { [ [ [ U i > * * > X X X X % # , , , u a g g g g x Z Z Z Z Z Z Z Z Z Z Z D Z Z Z H H J ! ! ! J J J J ! ! ! ( ( ( ( ( ( ( ( ( ( ( ( ( [ { { { { { { { J ..3.3.3.3.x.x.x.x.>.g a a a a a a a a a a a a a a a a a a g m o X X X @ @ @ @ O 2 H H H H H J ( ( ( ( ' ' ' ' ' ' ' ' ",
"( ( ( ( ( J J J J J J A A A v x x x g i i i i i i i d g x v v v x x x x x l l l l l 4 4 4 X X X X X X X O O O @ @ @ C C C C C C C C C C g g g g g g g g g g g g g x g u i g g g g g x v v v v C S H H J J J J J J J J J ( ( ( ( ( ( ( J J J J J J ( Y Y Y Y Y Y ( ( ( ( ( ( ( Y Y Y Y Y Y ( ( ( ( ( [ 3.( J G G G G H H H H G G J ( Y ( ( ( v.z.z z 6 8 - - = = = @ o o o o o o o o o o o o o o o 3 3 3 C ....( J J J / ( ( ( ( ( ( ( ' ' ' ' ' ' ' ' ' ' ' ' ' ' ' ' ' ' ' ' ' ' ' ' ( ( ( ( ( H H H A Z Z Z x g g d d u 9 9 9 9 9 9 9 k k k k k k k l m 1 X X X + u u y u u g g g g g g g C Z Z Z Z g g g C Z Z Z Z Z Z Z Z Z Z Z C g g g g g g g g g g g g g g g g a a a a g g g Z Z Z Z Z Z Z Z Z J J J H H H H J J ! ! ! ! ! ! ! ! ! ! ! ! ! ! ( ( ( ( [ [ { { [ [ [ [ [ [ [ [ _ v , * > * > > * X X X X % # > , , 9 a g g g g Z Z Z Z Z Z Z Z Z Z Z Z Z Z Z Z H H J ! J J J J J J J J ! ( ( ( ( ( ( ( ( ( ( ( ( ( ' { { { { { { { { 3.3.3.3.i.h.x.x...a a a a a a a a a a a a a a a a a a a a g Z X X X X O @ @ @ @ @ C H H H H ! ( ( ( ( ( ( ' ' ' ' ( ( ",
"( ( ( ( ( J J J J J G A A Z x x x x x i i d d x x x x x v v x x x x x x x l l l l l e 4 4 X X X X X X X O O O @ @ @ g C C C C C C C C g g g g g g g g g g g g g g g C x d g g g g x v v C Z H J J J J J J J J J J J J ( ( ( ( ( ( Y J J J J J J J ( ( Y Y Y ( Y ( ( ( ( ( Y Y Y Y Y Y Y Y J J U Y [ 3.3.( H G G G G H H H G G G Y Y H J ( ( z.H.z z w 8 8 - = = = = = @ o o o o o o o o o o o o o > 3 3 3 { ..' ! J J ( ( ( ( ( ( ( ( ' ' ' ' ' ' ' ' ' ' ' ' ' ' ' ' ' ' ' ' ' ' ' ' ' ( ( ( ( J H H A Z Z Z Z g g g d 9 9 9 9 9 9 9 9 9 i k k k k k k 8 X X X X , u u y y y p g g g g g g g g C C h g g g g Z Z Z Z Z Z Z Z Z Z C g g g g g g g g g g g g g g g g a a a a a a g g g C Z Z Z Z Z Z Z D J J H H H H H H H J J J ! ! ! ! ! ! ! ! ! ! ( ( ( ( [ [ { [ [ [ [ [ [ [ U u > > * > > * > > X X X X X @ # * , , 9 u g g g g Z Z Z Z Z Z Z Z Z Z Z Z Z Z Z Z D H J J J J J J J J J ! ! ( ( ( ( ( ( ( ( ( ( ( ( ( ( { { { { { { { >.3.3.3.3.3.3.3.<.g a a a a a a g C C g a a a a a a a a a a C Z X X X X X @ @ @ @ @ * H H H H ( ( ( ( ( ( ( ( ( ' ' ' ( ",
"( ( ( ( ( J J J J J H S A Z x x x x x x x x x x x x x x k 0 w w 0 0 k v l l l l l l l 8 1 X X X X X X X @ @ @ @ @ @ f C C C C C C C C g g g g g g g g g g g g g g g C C C x g g x C C C H J J J J J J J J J J J J J ( ( ( ( ( ( U J J J J J J J J ( ( ( ( ( Y Y ( ( Y ( ( ( Y Y Y ( ( U H H G J ( 3.3.3.Y G G G G G H H H H G J ( J G G J ( 2.v.z z w 8 8 8 - - - - - - # o o o o o o o o o o o o @ 3 3 3 A ....( ! ! ( ( ( ( ( ( ( ( ( ( ( ( ( ' ' ' ' ' ' ' ' ' ' ' ' ' ' ' ' ' ' ' ' ( ( ( ( J H H H Z Z Z Z x g d i 9 9 9 9 9 9 9 9 9 9 9 9 u u u 2 X X X X X 7 u u u u u u g g g g g g g g g g g g g g g g C C C C C C C C g g g g g g g g g g g g g g g g g a a a a a a a a g g g C Z Z Z Z Z Z S H J J J H H H H H H H H H J J J ! ! ! ! ! ! ( ` ( ' [ [ [ [ [ [ [ [ J 7 * > * * * * > * * * X X X X X @ % % , , 7 u g g g g Z Z Z Z Z Z Z Z Z Z Z Z Z Z Z Z S H H J J J J J ! J J J J ! ( ( ( / ( ( ( ( ( ( ( ( ( { { { { { { { 3.3.3.3.3.3.3.<.C a a a a a a g Z Z Z Z Z g a a a a C g g C Z Z X X X X X @ @ @ @ @ @ u H H H ( ( ( ( ( ( ( ' ' ' ' ( ( ",
"( ( ( ( ( J J H H A A S A v x x x x x x x x x x x x x 0 0 0 w w 0 0 w e l l l l l l l k 4 X X X X X X X O @ @ @ @ @ p C C C C C C C x g g g g g g g g g g g g g g x C C C C C C C C v C G J J J J J J J J J J J J Y ( ( ( ( Y J J J J J J J J J J U Y Y Y ( Y Y Y Y Y Y ! ! ( ( Y Y Y H H H G J ( 3.3.} J G G H G G H H H H G Y J H G H G U >.v.z z k 8 8 8 5 - - - - - = = @ o o o o o o o o o o o , 3 3 u ....( ( ( ( ( ( ( ( ( ( ( ( ( ( ( ( ( ( ( ( ' ' ' ' ' ' ' ' ' ' ' ' ' ' ' ' ( ( ( ( J H H H S Z Z C C g d i 9 9 9 9 9 9 9 9 9 9 9 9 9 7 % X X X X X X u u u u u u u p g g g g g g g g g g g g g g g g g g g g g g g g g g g g g g g g g g g g g g g a a a a a a a a a g g g g h Z Z Z Z Z Z H J J J H H H H H H H H H H H H H H J ! ! ! ( ` ( ( [ [ [ [ [ [ J 7 * * > > > > * * * * * X X X X X X X % % > , 7 u g g g g g C Z Z Z Z Z Z Z Z Z Z Z Z Z Z Z H H J J J J J ! ! J J J J J J J J J / ( ( ( ( ( ( ( ' { { { { { { 3.3.3.3.3.3.<.C a a a a a a g Z Z Z Z Z Z Z C g a g Z Z Z Z Z Z X X X X X O @ @ @ @ @ % H J H ( ( ( ( ( ( ( ' ' ' ' ( ( ",
"( Y ( ( ( H H G A A A A Z x x x v v v v x x x x x x w w 0 0 0 w 0 0 0 w l l l l l l l l 8 X X X X X X X + + @ @ @ @ 7 C C C C C C C g g g g g g g g g g g g g g v v C C C C v v C C C C S J J J J J J J J J J J J ( ( ( Y U J J J J J J J J J J H J ( Y Y ( ( ( ( Y Y Y ( ( ( ( Y J H H H G H J ( ( ( J G G H H G G G H H G J J H H H G G G } v.z z l 8 8 8 8 4 - - = = = = $ o o o o o o o o o o o * 3 3 3 ( ..' ( ( ( ( ( ( ( ( ( ( ( ( ( ( ( ( ( ( ( ( ' ' ' ' ' ' ' ' ' ' ' ' ' ' ' ( ( ( ( ( H H H A Z C C C d d i 9 9 9 9 9 9 9 9 9 9 9 9 @ X X X X X X X O u y y u u u u u g g g g g g g g g g g g g g g g g g g g g g g g g g g g g g g g g g g g g g g a a a a a a a a a a g g g g g C C Z Z Z H H J J H H H H H H J H H H H H H H H H ! ! ( ( ( ( ( ' [ [ ( 9 * * * * > > * * * * * * % X X X X X X X % % % , 3 u a g g g g g x Z Z Z Z Z Z Z Z Z Z Z Z Z Z H H H J J J J ! ! ! ! J J J J J ! J J J / ( ( ( ( ( ( ( { { { { { X.3.3.3.3.<.C a a a a a a a C Z Z Z Z Z Z Z Z Z C Z Z Z Z Z Z Z X X X X X X X X X @ @ @ 9 J J ( ( ' ( ( ( ( ' ' ' ( ( ( ",
"( ( ( ( J H A Z A A A A v x x x v v v v x x x v v k w w 0 0 0 0 0 0 w w k l l l l l l l 5 X X X X X X X O + @ @ @ @ 7 C C C C C C g g g g g g g g g g g g g g v v v C C C C v v C C C C v G J J J J J J J J J J J J J J J J J J J J J J J J J J H J ( Y ( ( ( ( Y Y Y Y ! ! U J H H G G G H H Y ( ( J G G G H H G G G H H G H G H H G H G G J H.b z l 8 8 8 8 4 - - = = = = - $ o o o o o o o o o o @ 3 3 3 C ..{ ( ( ( ( ( ( ( ( ( ( ( ( ( ( ( ( ( ( ( ( ( ' ' ' ' ' ' ' ' ' ' ' ' ' ' ( ( ( ( ( H H H A Z C C C d d i 9 9 9 9 9 9 9 9 9 9 9 9 , X X X X X X X @ y y y u u u y u u g g g g g g g g g g g g g g g g g g g g g g g g g g g g g g g g g g g g g g a a a a a a a a a a a a g g g g g g C Z Z D J J H H H H H H J J H H H H H H H J ! ! ( ( ( ( ( ( ( g > * * > * * > > * * * * * * X X X X X X X X % % % > , u a g g g g g g C Z Z Z Z Z Z Z Z Z Z Z Z Z D H H J J J J ! ! ! ! ! J J J J ! ! ! J J J / ( ( ( ( ( ( ( { { { { { | ..( C a a a a a a a a g Z Z Z Z Z Z Z Z Z Z Z Z Z Z Z Z Z X X X X X X X X X X X @ @ H J J ( ' ( ( ( ( ' ' ( ( ( ( ",
"( ( ( ( J J S S Z v x x x v v v x x x x x x v v v w w 0 0 0 w w 0 0 0 0 w l l l l l l l = X X X X X X X O O @ @ @ @ 7 C C C C C v g g g g g g g g g g g g g C C v v v C C C C v v v C C C C A J J G A G J J J J J J J J J J J J J J J J J J J J H J ( ( Y Y Y ( ( ( Y Y ( U H H H G G G G G H Y J J H G G G H H G G G G H H H H H S G G G G H z.P z k 8 8 8 8 ; - - - = = = - - & @ o o o o o o o o o 3 3 3 7 ....( ( ( ( ( ( ( ( ( ( ( ( ( ( ( ( ( ( ( ( ( ( ' ' ' ' ' ' ' ' ' ' ' ' ( ( ( ( ( ( G G G A Z C C C d d a 9 9 9 9 u u 9 9 9 9 9 9 7 X X X X X X X @ u u u u u y y u u g g g g g g g g g g g g g g g g g g g g g g g g g g g g g g g g g g g g g g a a a a a a a a a a a a a g g g g g g g C Z S H H H H H H H H H H H H H H H H J ! ! ( ( ( ( ( A 8 * * * * * * * * @ @ @ * * * & X X X X X X X X @ % # % , u u g g g g g g g Z Z Z Z Z Z Z Z Z Z Z Z Z S H H H J J J ! ! ! J J J J ! J J J J J J J J J ! ( ( ( ( ( ( ( ( ' { { J a a a a a a a a a a g Z Z Z Z Z Z Z Z Z Z g 2 , , 4 g Z X X X X X X X X X X X X O 2 H H H ! ( ( ' ' ' ' ( ( ( ( ",
"( ( ( Y J A S Z x x x x x v v v v v x x x x v v v w w 0 0 0 w w 0 0 0 0 w l l l l l l l % X X X X X X O O O @ @ @ @ 7 C C C C C g g g g g g g g g g g g x v C C v v v v C C C C v v v C C C C Z v v v Z J J J J J J J J J J J J J J J J J J J J H H ( ( Y ( Y ( ( ( ( Y Y H H H G G G G G G G G H H H G G G H H G G G G H H G C g g g S G H H &.@.z w 8 8 8 8 - - - - - = = - = = = @ o o o o o o o o < 3 3 3 ( ..{ ( ( ( ( ( ( ( ( ( ( ( ( ( ( ( ( ( ( ( ( ( ' ' ' ' ' ' ' ' ' ' ' ' ( ( ( ( ( ( H G G A Z C C C d d d 9 9 9 9 u u u 9 9 9 9 9 9 X X X X X X X @ u u u u u y y u u g g g g g g g g g g g g g g g g g g g g g g g g g g g g g g g g g g g g g g a a a a a a a a a a a a a a a g g g g g g C Z Z S H H H H H H J H H H H H H J ! ! ! ! ! ! A 8 4 4 , * * * * @ X X X X X X X X X X X X X X X X X X % # # % u u a g g g g g g Z Z Z Z Z Z Z Z Z Z Z Z Z Z H H H J J J ! ! J J J J J H H H H H H H H J J J J J J J / ! J J J J Z a a a a a a a a a a a g Z Z Z Z Z C g 7 > X X = , , , , 9 * X X X X X X X X X X X X X C H H H J ( ( ' ' ' ( ( ( ( ",
"( ( ( J H A Z v x x x x x x v x x x v x x x x v v k 0 0 0 0 w w w w 0 0 w l l l l l l l % X X X X X X X O O O @ @ @ p C C C C g g g g g g g g g g g g g C C C C C C C C C C C C C C C C C C v C v C v Z J J J J J J J J J J J J J J J H J J J J H H J ( Y Y Y ( ( ( Y Y J G H H H H H H H H G G H H H H G G G H H H G G H G g g g g g g G H H } ,.b 0 8 8 8 8 - - - - = = = = = = = = # o o o o o o o 3 3 3 3 C ....( ( ( ( ( ( ( ( ( ( ( ( ( ( ( ( ( ( ( ( ( ' ' ' ' ' ' ' ' ' ' ' ' ( ( ( ( ( ( H H H A C C C x d d d i 9 9 9 u 9 x ,.2.9 9 9 9 O X X X X X X @ u y u u y u y u u p g g g g g g g g g g g g g g g g g g g g g g g g g g g g g g g g g g g g g a a a a a a a a a a a a a a a a a g g g g g g C Z Z S H H H J J H H H H H H H J J ! ! J k 4 5 4 4 4 * * * X X X X X X X X X X X X X X X X X X X X X # # % , u a g g g g g C Z Z Z Z Z Z Z Z Z Z Z Z Z Z Z H H H J ! ! ! J J J J H H H H Z Z H H H H H H H H H H J H H H H g a a a a a a a a a a u 3 * * * % X X X X X X X X @ , , , , , O X X X X X X X X X X X X X * H H H H H H J ! ( ( ( ( ( ",
"S ( J J A Z x x x x x x x x x x x v v x v x v v v v 0 0 0 0 w w w w 0 0 w l l l l l l l % X X X X X X X O O O O @ @ * g C C g g g g g g g g g g g g g g C C C C C C C C C C C C C C C C C C v v C C v A J J J J J J J J J J J J J J J J J J J J J H J ( ( Y ( Y ( ( Y Y H G H H H H H H H H H H H H H G G G H H H H G H H g g g g g g g Z H H [ ,.K 8 8 8 8 8 4 - - = = = = = = - - = = & o o o o o o 3 3 3 3 7 ....( ( ( ( ( ( ( ( ( ( ( ( ( ( ( ( ( ( ( ( ( ' ' ' ' ' ' ' ' ' ' ' ' ( ( ( ( ( ( H H H A C C C x d d d a 9 9 9 9 9 | 2.2.9 9 9 9 O X X X X X X O y y y u u u y u u u u g g g g g g g g g g g g g g g g g g g g g g g g g g g g > > 3 u g g g g a a a a a a a a a a a a a a a a a a a g g g g g C Z Z Z S H J H H H H H H H H H H v i 8 4 4 4 4 4 4 > * * X X X X X X X X X X X X X X X X X X X X X X # % % 7 u g g g g C Z Z Z Z Z Z Z Z Z Z Z Z Z Z Z Z S H H H H J ! ! J H H H C p u u u u u a g C Z H H H H H H H D g a a u u u 3 , , % @ X X X X X X X X X X X X X X X X , , , , , X X X X X X X X X X X X X X X % S H H H H H J Z Z x g S ",
"X X @ 7 g x v x x x x x x x x x x x x v x x x v v x k 0 0 w w w w w w w w l l l l l l l & X X X X X X X X O O O @ @ @ @ % 3 g g g g g g g g g g g g g g C v v v C C C C C C C C C C C C C v v v C C C A J J J J H H J J J J J J J J J J J J J H J J J Y ( ( ( ( ( ( ( J G G G H H H H H H H H H G G G G H H G G H H H H C g g g g g g g g S H [ ,.P 8 8 8 8 8 8 - = = = - = = = - = = = = $ o o o o o , 3 3 3 3 ( ..{ ( ( ( ( ( ( ( ( ( ( ( ( ( ( ( ( ( ( ( ( ( ' ' ' ' ' ' ' ' ' ' ' ( ( ( ( ( ( H H H A C C C x d d d d u 9 9 9 9 2.2.U 9 9 9 9 * X X X X X X X y y y y u u u u u u y y u a g g g g g g g g g g g g g g g g g g g g g g g g g , > > > 3 g g g a a a a a a a a a a a a a a a a a a a a a g g g g g Z Z Z Z S D H H H H H S a 8 4 5 4 4 4 4 4 4 5 5 4 * * @ X X X X X X @ X X X X X X X X X X X X X X X @ % % u a g g g g Z Z Z Z Z Z Z Z Z C Z Z Z Z Z Z Z Z C C C C Z J H H H p u u u u u u u u u u u u u u u * * * X X X X X X X X X X X X X X X X X X X X X X X X X X X X % , , , , @ X X X X X X X X X X X X X X X X @ > * > X X X X X X X ",
"X X X X X @ , 7 a x x x x x x x x x x v x x x x v v x 0 0 0 w w w w w w e l l l l l l l 4 X X X X X X X X X X X X X X X X X @ 3 a g g g g g g g g g g g C C v v C C C C C C C C C C C C C C v C C C C A J J H A S S S Z C C C C C v C A J J J J J J J Y Y U J H H H H G G G G H H H H H H H G G G G G G H H H G H H H S g g g g g g g g g g G Y ,.Y 8 8 8 8 8 8 4 = = = - = = = - = - - = = # o o o o @ 3 3 3 3 Z ....( ( ( ( ( ( ( ( ( ( ( ( ( ( ( ( ( ( ( ( ( ( ' ' ' ' ' ' ' ' ' ( ( ( ( ( ( J H H H H C C C x d g g d i 9 9 9 9 | J , * 7 9 9 * X X X X X X X 3 y y u u u u u u y y y y y y p g g g g g g g g g g g g g g g g g g g g g g g 3 > > > * g g g a a a a a a a a a a a a a a a a a a a a a a a a g g g g C C Z Z Z Z g 7 * % & % % 4 4 4 4 4 5 5 5 5 4 4 > * * * * * 1 4 4 4 & X X X X X X X X X X X X X X X X X X , a g g g C Z Z Z Z Z Z Z C Z Z Z Z x y 3 3 3 3 3 3 3 3 3 , * X X X X X O % % % % % % X X X X X X X X X X X X X X X X X X X X X X X X X X X X X X X X X X X X , , 2 , O X X X X X X X X X X X X X X X X X X X X X X X X X X X ",
"X X X X X X O O X X X + % % % , 2 2 2 7 a a x x x x x 0 0 0 0 0 0 0 w 0 k l l l l l l l 0 X X X X X X X X X X X X X X X X X X X X @ 3 a g g g g g g g g C C v v v v C C C C v C v v C C C C C C C v C C Z C v C C C v C v v v v v v v v J J J J J J Y Y J H H G G G G G G G G G H H G G G G G G G G H H H H G G G G G C g g g g g g g g g g g H %.G 8 8 5 5 8 8 8 - = - - - - - = = - - - = - @ o o o o @ > 3 3 7 ( ( ( ( ( ( ( ( ( ( ( ( ( ( ( ( ( ( ( ( ( ( ( ( ( ( ' ' ' ' ' ( ( ( ( ( ( ( ( H H H H H C C C g g g d d a 9 9 9 9 u * * * 9 9 9 * X X X X X X X % 3 3 y u u u y y y y y y y y u u u u u p a a g g g g g g g g g g g g g g g g 2 * > * * , p g a a a a a a a a a a a a a a a a a a a a a a a a a a a a a a u 7 , & % % % % % % 1 4 5 5 4 5 5 8 8 5 4 4 4 4 1 1 4 4 4 4 4 4 5 = X X X X X X X X X X X X X X X X X X X X X X * > > , 3 3 3 7 7 7 7 3 % X X X X X X X X X X X X X X X X X X X X X X X X X X X X X X X X X X X X X X X X X X X X X X X X X X X X X X X X X X X X X X @ @ O X X X X X X X X X X X X X X X X X X X X X X X X X X X X ",
"X X X X X O X X X X X O O O O O X X X X X X X X % , 9 0 0 0 0 0 0 0 0 0 e l l l l l l l 0 o X X X X X X X X X X X X X X X X X X X X X X @ , a g g g g g C C C v v v v C C C v v v v C C C C C C C C C C v v v C C C v v v v d v C Z A A J J J J J Y Y J G G H H G G G G G G G G H H G G G G G G G G G H H H G G G G S g g g g g g g g g g g g C G G 8 5 5 5 5 8 8 4 - - - - = = = = - - - - - # o o o o o o o o @ , , u a D J ( ( ( ( ( ( ( ( ( ( ( ( ( ( ( ( ( ( ( ( ( ( ( ( ( ( ( ( ( ( ( ( J H H H H H Z C C x g g d d a 9 9 9 9 2 * * 7 9 9 9 2 X X X X X X X X X X X X @ @ @ % , , , , , , , 7 7 7 7 7 7 u u u u u u u 7 > 3 a g g g g g g > * * * * * * * , a a a a a a a p u u y 7 7 7 7 7 7 7 7 y 7 7 7 7 7 7 7 3 3 * % % % % % % & % 4 4 6 e e e e e e e e w 4 5 4 4 4 4 4 4 4 4 4 5 5 = X X X X X X X X X X X X X X X X X X X X X X X X X X X X X X X X X X X X X X X X X X X X X X X X X X X X X X X X X X X X X X X X X X X X @ @ @ X X X X X X X X X X X X X X X X X X X X X X X X X X X X X X X X X X X X X X X X X X X X X X X X X X X X X X X X ",
"O O X X X X X X X O O O O O X X X X X X X X X X X O O O @ = 8 0 0 0 w w 0 l l l l l l l w = X X X X X X X X X X X X X X X X X X X X X X X X X X * 3 a g x C C C C C v v C C C C C C C C C C v C C C C C C C C a a 3 , * @ @ @ , A J J J J J Y ( ( Y H H G H G G G G H H H H H H H H H H G G G G H G H H H H H G H S g g g g g g g g g g g g g g S H 0 8 8 8 8 8 8 8 4 - = = = = = - - - - = = = o o o o o o o o o o o o o o o o , 7 g H A g g g g g g g x Z / ( ( ( ( ( ( ( ( ( ( ( H H H H A A H H H H H A Z Z x d d d d i 9 9 9 7 * * , 9 9 9 9 2 X X X X X X X X X X X X X X X X X X X X X X X X X X X X X X X @ @ @ @ X X X X X X X X O % % + X X X X X X X X X X @ % % , , 3 3 3 3 3 3 7 7 3 3 3 7 7 3 3 3 3 3 > > % O X X X X % & & * 4 4 8 w e e e e e e e e e 6 4 4 4 4 4 4 4 4 4 4 5 5 4 = X X X X X X X X X X X X X X X X X X X X X X X X X X X X X X X X X X X X X X X X X X X X X X X X X X X X X X X X X @ % & = = , , 1 1 1 1 , , 1 4 0 0 0 0 0 6 6 - - = = # @ o X X X X X X X X X X X X X X X X X X X X X X X X X X X X X X X X X X X X X X X X ",
"X X X O X X X X X X O O O O X X X X O O X X X X X X O X O O X @ 4 0 w w 0 w l l l l l k 0 6 X X X X X X X X X X X X X X X X X X X X X X X X X X X X X X > 7 g C C C C v C C C C C C g a a a a 3 3 3 * * % @ @ @ @ @ @ @ O O @ @ @ i J J J J Y ( Y H H H G G G G H G H H H H H H H H H H H H G G G G H H H H A A x g g g g g g g g g g g g g g g g H x 8 8 8 8 8 8 8 8 8 4 ; - - = = - - = = = # o o o o o o o o o o o o o o o o o o o o o o o o o o o o o o o @ , , 7 7 9 9 u u u u u u u 9 9 9 u u u a x x g x g d d d d 9 7 2 * * * * 9 9 9 9 9 9 X X X X X X X X X X X X X X X X X X X X X X X X X X X X X X X X X X X X X X X X X X X X X X X X X X X X X X X X X X X X X X X X X X X X + @ + + @ @ X X X X X X X X X X X X X % % & = 4 4 4 8 e e e e e k k e e e 6 4 4 4 4 5 5 4 4 4 4 5 5 4 4 & X X X X X X X X X X X X X X X X X X X X X X X X X X X X X X X X X X X X X X X X X X X X X X X X X X X X X X X , 1 , , 1 , , , 4 6 6 0 6 6 6 8 0 6 0 0 0 0 0 6 ; - = - - - = X X X X X X X X X @ , , , , , * % @ @ X X X X X X X X X X X X X X X X X X X X ",
"X O O O + + X X X X X X O X X X O + + O + O X X X X X X O X X X X @ 0 w 0 0 e l l l k 0 0 0 @ X X X X X X X X X X X X X X X X X X X X X X X X X X X X X X X X X * % % @ @ @ @ @ @ @ @ @ @ @ @ @ @ @ @ @ O X O @ @ @ @ O @ @ @ @ O O % u A J J Y H A Z Z A Z A C g g g g x x g g g g S H H G A x g g g g g g g g g g g g g g g g g g g g g g g g g S A d 0 6 8 8 8 8 8 8 8 8 8 8 6 5 ; = = = - # o o o o o o o o o o o o o o o o o o o o o o o o o o o o o o o o X X X X X X o o o o % * * * , , , * * * * * * * * * * * * * * * * 7 0 k l l d i 9 9 7 X X X X X X X X X X X X X X X X X X X X X X X X X X X X X X X X X X X X X X X X X X X X X X X X X X X X X X X X X X X X X X X X X X X X X X X X X X X X X X X X X X X X X % % & = 4 4 4 4 w e e e e e e e e e e 8 4 - 4 4 5 5 5 5 4 4 5 5 4 = = = @ X X X X X X X X X X X X X X X X X X X X X X X X X X X X X X X X X X X X X X X X X X X X X X X X X X X X X = , , , , , , 8 0 0 0 0 0 0 0 0 0 0 0 0 0 0 0 0 0 8 - = = = = @ X X X X X X X @ , , , , 1 1 1 , 1 1 , , , * & % @ @ X X X X X X X X X X X X ",
"X O O O + O X X X X X X X X X X + + O O + X X X X X @ , 7 9 0 k k l l l k 0 0 w e w w 0 w z b c 4 X X X X X X X X X @ 4 1 % X X X X X X X X X X X X X X X X X X X X X X X X X X X X X X X X X X X X X X X X X X @ @ @ O @ @ @ @ O O O @ @ % 7 u u p p p p p p p p p p p a u u 3 , @ @ @ , 2 9 a g g g g g g g g g g a a a u 7 7 7 7 7 u a g g u 3 , 3 x k k k i 0 6 8 8 8 0 0 k k 8 8 4 = = = # o o o o o o o o o o o o o o o o o o o o o o o o o o o o o o o o X X X X o o @ % % * * * * * * * * * * * * * * * * * * * * * * * k l l l l l l l l i 9 9 > X X X X X X X X X X X X X X X X X X X X X X X X X X X X X X X X X X X X X X X X X X X X X X X X X X X X X X X X X X X X X X X X X X X X X X X X X X X X X X X X X X % % % * 5 4 4 4 8 e e e e e e e e e 8 5 4 = = = = 4 5 5 5 4 4 5 4 = = = = = # @ @ % % & = & & & & & & % % # @ @ @ X X X X X X X X X X X X X X X X X @ % & & = = = @ X X X X X X X X X & , , , , , , 8 0 0 0 0 0 0 0 0 0 0 0 0 0 0 0 0 0 0 6 ; = = - # X X X X X X % , , , , , , , 1 1 1 1 , , , , 1 1 , , , , = , * % % @ @ @ @ X ",
", @ X X + O O O O O X X X X X X X X X X + O O O @ 9 v U [ [ [ [ [ [ [ [ [ [ [ [ K b b b m m b b B b 4 X X X X X X X = 4 4 4 4 4 % @ X X X X X X X X X X X X X X X X X X X X X X X X X X X X X X X X X X X X X X O O O O @ @ @ @ O @ @ @ @ O O O @ @ @ @ * * * * * * * % @ @ @ @ @ @ @ @ @ @ @ @ @ @ O @ @ @ @ O @ @ @ @ @ @ @ @ @ @ @ @ @ @ @ @ @ @ * x x x x x k k x x k k k k k 8 8 8 ; = = & @ @ @ o o o o o o o o o o @ @ @ @ o o o o o o o o o o o o o o o o @ @ % * * * * * * * * * * * * * * * * * * * * * * * * * * * i l l l l l l l l v v v k i 7 * % X X X X X X X X X X X X X X X X X X X X X X X X X X X X X X X X X X X X X X X X X X X X X X X X X X X X X X X X X X X X X X X X X X X X X X X X X X X X X X % % % % = 4 5 5 5 0 e e e e e e e e 0 5 4 = = = = = = = 4 5 5 5 4 = = = = = = = = = = = = = = = = = = = = = = = = = = = = & & & % @ @ @ @ @ # & & = = = = = = = = = = X X X X X X X X X % , , , , , 1 4 6 0 0 0 0 0 6 6 0 0 0 0 0 0 0 0 0 0 0 0 8 - = = X X X X X * , 1 1 1 , , , , 1 1 1 1 1 1 1 i ( 3.,.A , , , , , , , , , , , , ",
"{ { { ' ! ! g g 2 3 X X X X X X X X X X O O X , v v v A T [ [ [ [ [ [ [ [ [ [ [ T b b b m b b b B M b c * X X X X O 4 4 4 4 4 4 4 4 4 = @ X X X X X X X X X X X X X X X X X X X X X X X X X X X X X X X O O @ @ O @ O O @ @ @ @ O @ @ @ @ @ O O @ @ @ O O O @ @ O O O @ @ @ @ @ @ @ @ @ @ @ @ @ @ @ O @ @ @ @ @ @ @ @ @ @ @ @ @ @ @ @ @ @ @ * * * * , x x x x x k k x x k k k k k 8 8 8 4 = = & o @ @ o o @ = = = @ o o o , , , = = * @ o o o o @ , d g 7 , * * * * * * * * * * * * * * * * * * * * * * * * * * * * * * * * 4 l l l l l l l v v l v v v l l l l l k 7 , % % X X X X X X X X X X X X X X X X X X X X X X X X X X X X X X X X X X X X X X X X X X o @ # # # # # = 4 4 4 & % X X X X X X X X X X X X X X X X X % % % % % 4 5 5 5 e e k e e e e e e 0 5 = = = = = = = = = = 4 4 = = = = = = = = = = = = = = = = = = = = = = = = = = = = = = = = = = = = = = = = = = = = = = = = = = = # X X X X X X X X @ , , , , , 1 1 6 6 0 0 0 0 0 0 6 0 0 0 0 0 0 0 0 0 0 0 0 0 4 = X X X X * 4 , 1 i *.*.,.4.4.4.>.*.*.&.*.*.d.h.h.h.h.3.&.} [ [ [ [ [ [ [ [ [ ",
"{ { { { { { { { { { { { ! J g a < , X X X , v A A A A v v v A Y [ [ [ [ [ [ [ [ [ P K M m B b M B B b b b 0 X X % * * 4 4 4 4 4 4 4 4 4 4 4 4 , * % @ X X X X X X X X O O @ O O O O @ O @ O O O @ @ @ @ @ @ @ @ @ @ @ @ @ @ @ @ O @ @ @ O @ @ O @ @ @ @ O O @ @ O O @ @ @ @ @ @ O @ O O @ @ @ @ @ @ @ @ @ @ @ @ @ @ O O @ * 4 7 u i d x x x x x k k k k x x x x k k x x x x k x i 8 8 8 8 = = = o o o @ * = = = = & o o o , , , = = , , % o @ * 4 ( ( ( ' ' ( ( A 0 0 * * * * * * * * * * * * * * * * * * * * * * * * * * , l l l l l l v v v v v v l l l l K K K K K K K K K K K G A A A v v k 7 3 3 + X X X X X X X X X X X X X X X X X X X X X X X X X @ # # # # # # # # 4 4 8 e e e e e w 6 4 4 % % X X X X X X X X X % % % % & % % 4 4 6 e e k e e e e e e w 5 = = = = = = = = = = = = = = = = = = = = = = = = = = = = = = = = = = = = = = = = = = = = = = = = = = = = = = 1 4 4 4 7 4 4 1 = k % X X X X X X X @ * * * * , 1 4 6 0 0 0 0 0 0 0 0 0 0 0 0 0 0 0 0 0 0 0 0 0 0 6 @ X X > 4 4 , , 5 *.c.m.m.m.m.m.m.n.n.c.h.h.h.h.h.h.h.h.h.h.h.h.h.h.i.i.i.u.",
"{ { { { { { { { { { { { { { { { { { ' ( J ! ! ! ! ! ! ! ! [ [ [ +.,.*.+.[ [ [ [ [ [ [ [ T P B b B B b b b b c % * * * * 4 4 4 4 4 4 4 4 4 4 4 4 4 4 4 4 4 4 4 4 1 * * * * * * * * , 4 4 4 4 4 4 4 4 4 4 = * * % @ @ @ @ @ @ @ @ O @ @ @ @ @ @ @ @ @ @ @ O @ @ @ O O @ @ @ @ @ @ O O O O O @ @ @ @ k x i * @ @ % , 7 i d x x k k k k x x x x x x k k k x x x k k k k x x x x x x s 8 8 8 8 - = = # @ & = = = = = = & o o o , , , = = , , , * , , , ( ( :.>.>.>.>.>.>.>...Z Z Z Z Z Z A D D ( ' ' ( ( ( ( D D D D D D D D A l l l v l c K K [ &.,.5.5.9.9.9.9.9.4.4.4.4.4.4.4.,.>.>.>.>.>.,.,.4.4.4.4.4.2.I b 7 O X X X X X X X X X X X X X X X X X X @ # # # # # # # # # # - 4 4 e e e e e e e e e e e e e e e 6 0 0 6 8 8 , = = * & % % * 5 w e e e e e e e e e e 5 = = = = = = = = = = = = = = = = = = = = = = = = = = = = = = = = = = = = 1 4 5 5 7 7 7 4 5 1 1 1 , , 1 4 5 7 7 7 7 7 7 7 U P.,X,X].X X X X X X X @ * * * * , 1 8 0 0 0 0 0 0 0 0 0 0 0 0 0 0 0 0 6 6 0 0 0 0 0 0 & % , , , , , , 1 *.m.m.M.M.m.m.m.m.m.h.h.h.h.h.3.3.3.3.3.3.3.3.3.3.3.3.3.3.",
"{ { { { { { { { { { { { { { ' ! ~ ~ ! ! ! ! ! ! ! ! ! ! ! [ [ [ +.v.I.I.I.I.v.f.2.&.[ [ [ [ [ _ P P K K K P T A * * * * 6 0 0 w w w w w 0 0 8 8 4 4 4 4 4 4 4 4 4 4 4 4 4 4 4 4 4 4 4 4 4 4 4 4 4 4 4 4 5 5 5 4 0 l v v v v v v k i i i i 4 4 , % % @ @ @ @ @ @ @ @ @ @ @ @ @ @ @ @ @ @ @ O O @ i x x x x d k x x x x k x x k k k x x x x x x x x x x Z A A Z v x x x x x v U U U b 0 0 0 0 d v G v 0 1 = = = = = % X o o = = , = , , , , , , , , J ( ( >.>.>.>.>.>.>.>.U Z Z Z Z Z J ' ' ' ' ' ( ' >.>.X.X.X.X.X.X.X.X.X.X.X.>.X.X.X.4.4.4.9.f.z.v.v.H.H.H.H.H.v.5.4.2._ U J J J J J J } } } } 2.4.4.4.@.I I L l & X X X X X X X X X X X X @ # # # # # # # # # # # # # & 4 4 6 e e e e e e e e e e e e w e e e e e e e e e e e e e e e 8 8 e e e e e e e e e e l w 0 4 = = = = = = = = = = = = = = = = = = = = = = = = = = = = = = = = 4 7 7 7 7 7 7 7 7 7 7 7 7 7 7 7 7 7 7 7 7 8 0 i x Y #X,X,X,X,XJ X X X X X X * * % % % * 1 0 0 0 0 0 0 0 0 0 0 0 0 0 0 0 0 6 6 6 6 0 0 0 0 8 , 1 , , , , , , , %.h.c.m.m.m.m.m.m.h.h.h.h.h.h.3.3.3.3.3.3.3.3.3.3.3.3.3.3.",
"[ { { { { { { { { { { { { { { ! ! ! ! ! ! ! ! ! ! ! ! ! ! _ [ [ [ +.9.v.I.I.I.I.I.I.I.c.5.&.[ [ [ [ [ [ [ [ [ %.,.2 * * e e e e e e e e e e e e e 0 0 0 0 0 6 0 0 6 8 8 8 4 4 4 4 4 4 4 4 4 4 4 4 4 4 4 5 5 4 x v v v v v v v v v v v v v v v v v v v l i 6 4 % , 7 % @ @ O @ @ @ @ @ @ @ @ , d x x x x x x x x x x k x v v v v x x x x x x v v A J Y Y Y Y Y Y ( Y U G x J U U U U Y Y U Y Y Y Y Y Y Y A k k 6 = % o o o = = = , , , , , , , , = x ( ( >.>.>.>.>.>.>.>.:.A Z Z Z Z A ' ' ' ' ' ( ( ' ..X.X.X.X.X.X.X.X.X.X.X.X.X.X.>.4.4.4.4.4.4.4.9.0.f.f.f.0.4.4.,.J J J J J J J J J ( } } } >.4.4.4.,.Q I I I B ; ; ; = # # @ # # # # # # # # # # # # # # # # # # # - 4 4 w e e e e e e e e e e e e w w e e e e e e e e e e e e e z K b b z l e e e z P B L L L L L m 6 = = = = = = = = = = = = = = = = = = = = = = = = = = = = 4 7 5 5 7 7 7 7 7 7 7 7 7 7 7 7 7 7 0 u i s x x x Y d.,X,X,X,X,X]._ X X X X X X * * % % * * 4 0 0 0 6 8 8 8 8 5 4 4 4 1 , , 1 1 1 1 , 0 0 0 5 , , , , , , , , , 1 U h.h.x.m.m.m.m.c.h.h.h.h.h.h.h.3.3.3.3.3.3.3.3.3.3.3.3.3.",
"X.{ { { { { { { { { { { { { { ' ! ! ! ! ! ! ! ! ! ! ! ! ! ! _ [ [ [ _ Y _ %.&.>.d.d.I.I.I.I.I.v.9.,.%.[ +.>.2.2.&.* * * e e e e k e e e e e e e e e e e e e e e e e e e e e w 6 8 4 4 4 5 5 4 4 4 4 4 4 4 8 v v v v v v v v v v v v v v v v v v v v A G _ } >.,.,.,.,.[ v x d i i i 7 i i x k k x x x x x x b G U Y Y Y Y Y ( ( ( ( ( ( Y ( Y Y ( ( Y Y Y Y ( ( ( ( U x x x x G Y Y Y Y U Y Y Y Y Y Y Y Y A k k 8 = o o o = , , , , , , , , , = = 0 ( ( | >.>.>.>.>.>.>.>.( Z Z Z Z Z ( ' ' ( ( ' ' ( ( { ..X.X.X.X.X.X.X.X.....X.X.>.4.4.4.4.4.4.4.4.4.5.4.4.4.4.4.( J J J J J J J J J ( } } } >.4.4.4.4.$.Q I I I ; ; ; ; - # # # # # # # # # # # # # # # # # # # # # 4 4 4 w e m K K b l w w e e e e e w e e e e e e e w w e e e b K K K K K K K P %.&.&.#.+.W V V V L L V 6 = = = = = = = = = = = & @ @ & = = 5 5 4 1 1 4 4 5 5 7 7 5 5 7 7 8 i i s i i i s k k x x x x x x x D h.Y.,X,X,X,X,X,X]._ , X X X X X * * * * * * * * , , , , , , , , * * * * * * > , 1 1 , 0 0 8 , , , , , , 1 1 1 1 1 0 h.h.h.h.h.x.h.h.h.h.h.h.h.h.h.h.3.3.3.3.3.3.3.3.3.3.3.3.",
"X.X.X...} } } { { { { { { { { { ! ! ! ! ! ! ! ! ! ! ! ! ! ! ! S C C C C C C C C C x x Z J >.c.I.I.I.I.I.2.2.2.2.x * * * k c l k k e e e e e e e e e e e e e e e e e e e e e e e e 6 4 4 5 5 4 4 4 4 4 4 i ( _ _ _ ( U G K G G G G G P _ _ _ &.&.,.,.,.,.,.,.,.,.d.,.,.,.,.U x x x x x x x x x k k x x x G Y Y Y Y ( ( ( ( ( ( ( ( ( ( ( Y Y Y Y Y Y Y Y Y ( ( ( U v x x x x x x G Y Y Y Y Y Y Y Y Y Y Y Y Y v s w = @ o o = = , , , , , , , , = , 7 ( ( | >.>.>.>.>.>.>.>.>.S Z Z Z Z J ' ( ( ( ' ( ( ( ' ' ' ' [ { { { { { { { | ..X.4.4.2.,.>.} { [ [ { >.5.5.4.4.( J J J J J J J J J ( } } } 2.4.4.4.4.*.$.$.W @.8 ; ; ; ; - # # # # # # # # # # # # # # # # # # # = 4 4 4 0 b K K K K K b e e e e e e e e e e e e e e e e e z B K K K K K K K T &.&.&.2.f.f.f.f.9.W L L L z e 5 = = = = = = = = = @ @ @ @ & = 5 7 7 8 8 8 8 7 7 7 7 5 8 7 i x x x x x x x x x x x x x v Z A J y.B.].,X,X,X,X,X,X4._ Z X X X X X * * * * * * * * * * * * * * * * * * * * * % * , 1 1 , 6 0 4 , , , , , , 1 4 1 1 4 4 i.h.h.h.h.h.h.h.h.h.h.h.h.h.h.h.h.3.3.3.3.3.3.3.3.3.3.3.",
"X.X.X.X.X.X.X.X.X.X.X.X.} [ { { ( ! ! ! ! ! ! ! ! ! ! ! ! ! J C C C C C C C C C C x C C C C C D >.z.I.I.d.2.2.>.* * * % k A A A A A b c k e e e e e e e e e e e e e e e e e e e e k v 6 4 4 4 4 4 4 6 G _ _ _ _ _ _ _ _ >.,.,.,.,.,.,.,.,.,.,.,.,.,.,.,.,.,.,.5.!.{.{.W.I.5.U G v x x x x x k k k k v Y ( ( ( Y Y ( ( ( Y Y ( ( U U U J A Z v k x x k k x v x x k k x x x x x x x U Y Y Y Y Y Y Y Y U Y Y Y J s k = % o @ , , , = = , , , , = = , , ( ( | >.>.>.>.>.>.>.>.>.! Z Z Z Z A ' ' ( ( ( ( ( ' ' ' ( ( ( ( ' ' ' ' ( ( ( ( ( ' ' ' ( ( ( ( ( ( ( ( { 4.4.4.Y J J J J J J J ( } } } } :.4.4.4.4.4.2.$.$.$.$.l ; ; ; ; ; - & # # # # # # # # # # # # # # # # # - 4 4 4 8 B B K K K K B B z l z z z z z z z z z z c b B K B B K K K K B P %.&.#.,.d.f.f.f.f.f.f.f.7.I L V r r e 4 = = = = = = & @ @ @ @ @ = = 7 7 7 7 8 8 7 7 5 5 5 5 7 9 i i x x x x x x x x Z A J J / ' <.y.m.|.,X,X,X,X].B.[ _ ( X X X X X * * * * * * * * * * * * % * * * * * * * % % * * , , , 8 8 1 , , , , , , 4 4 1 , , 4 :.h.h.h.h.h.h.h.h.h.h.h.h.h.h.h.h.h.i.3.3.3.3.3.3.3.3.3.",
"X.X.X.X.X.X.X.X.X.X.X.X.X.X.{ { { ! ! ! ! ! ! ! ! ! ! ! ! ! C C x C C C C C x x C x C C C C C C C ( 2.2.2.2.2.9 * * * * v A A A A A A A A b k e k l l v c b b A A A A A A A A G ( _ ( _ U A d x A ( _ _ _ _ _ _ _ _ _ _ [ ,.,.,.,.,.,.,.,.,.,.,.,.,.,.,.,.,.,.,.9.!.{.{.{.{.I._ ( Y G x x x k k k b ( ( ( ( Y Y ( ( ( ( G v x k k k x k x x k x x x k k k k x x k x x x x x k k x Z Y Y U Y Y Y Y Y U U Y Y Y k k 8 = @ @ = , , = = , , , , = = , , J ( >.>.>.>.>.>.>.>.>.>.} Z Z Z Z Z / ' ( ( ( ( ( ( ( ' ` ' ( ( ( ( ' ' ( ( ( ( ( ( ' ' ( ( J J J J U U ( ( >.>._ J J J J J U [ } } } } } 4.4.4.4.4.4.4.*.$.$.$.L ; ; ; ; ; ; - = = = # # # # # # # # # # # # # # 4 4 4 4 0 B B K K K K B B B B K B K K K K B B K K K K K K B B K K P T %.#.&.,.0.f.f.f.J.2XrXwXz.f.f.0.I L N r r r q = = = = = @ @ @ @ @ @ @ = = 7 7 7 8 8 7 7 7 7 5 5 7 7 5 5 7 7 8 u i k A J J J J <.y.y.y.y.h.Y.|.|./.B.B.B.<._ _ * X X X X % * * * * * * * * * * * % % * * * * * * % * * * > , , 8 4 1 1 1 , 1 , , 4 4 , , , , A h.h.h.h.h.h.h.h.h.h.h.h.h.h.h.h.h.h.h.u.3.3.3.3.3.3.3.",
"X.X.X.X.X.X.X.X.X.X.X.X.X.X.X.[ { { ! ! ! ! ! ! ! ! ! ! ! C C C x C C C C C C x x C C h C x x C C C 2.2.2.2._ * * * * * A A A A A A A A A A A A A A A A A A A A A A A A A A ( _ _ _ _ _ _ _ _ _ _ _ _ _ ( _ _ _ _ _ _ _ _ >.,.,.,.,.,.,.,.,.,.,.,.,.,.,.,.,.,.,.,.,.H.{.{.{.{.~.5.Y Y Y Y U A G U Y Y ( ( ( Y Y ( ( U x k x x k k k k k x x x x x x x x k x x x k x x x k k k k x x U Y U Y Y Y Y Y Y Y Y Y Y v k 6 = % @ , , , = = = , , , , = , , x ( >.>.>.>.>.>.>.>.>.>.>.Z Z Z Z Z H ' ' ( ( ' ' ' ( ( ( ` ( ( ( ( ' ' ' ( ( ( ( ( ' ' J J J J J J J J J J J J J J J J J U [ | | | } } 1.4.4.4.4.4.4.4.4.*.$.$.W ; ; ; ; ; ; ; ; ; ; - & # # # # # # # # # # # # 4 4 4 4 z B B B K K B B B B B B B K K K K B B B K K K K B K P _ %.&.&.&.,.d.f.f.f.T.4XrXrXrXrX2Xf.f.f.0.L I z r r r e 4 = = = @ @ @ @ @ @ @ % = = 7 7 7 7 7 8 8 8 4 7 7 7 5 7 7 7 5 5 5 5 5 7 i v J <.y.y.y.y.y.m.B.B.B.B.B.B.h._ _ x X X X X @ * * * * * * * * * * * * % * * * * * * * % * * * , , 4 1 1 4 4 4 1 , , , 4 , , , , i h.h.h.h.h.h.h.h.h.h.h.h.h.h.h.h.h.h.h.h.h.y.3.3.3.3.3.",
"X.X.X.X.X.X.X.X.X.X.X.X.X.X.X.} { { { ! ! ! ! ! ! ! ! ! H C C C C C C x x x C C C C C C x x x C C x >.2.2.2.2 * * % * * A A A A A A A A A A A A A A A A A A A A A A A A G _ _ _ _ _ _ _ _ _ _ _ _ _ _ _ _ _ _ _ _ _ _ _ _ [ ,.,.,.,.,.,.,.,.,.,.,.,.,.,.,.,.,.,.,.,.,.5.T.{.{.{.{.T.[ Y ( ( ( ( Y Y ( ( ( ( Y Y ( U k k k x x x k k k k x x x x x x x x k x x x x x x x k k k k x x Z Y U Y Y Y Y Y Y Y Y Y Y A k k 1 = @ , , , = = = , , , = = , = 9 ( >.>.>.>.>.>.>.>.>.>.>.Z Z Z Z Z Z ( ( ( ( ' ' ' ( ( ( ( ( ( ( ( ' ' ' ' ( ( ( ( ' ( J J J J J J J J J J J J J J J J J ( | | | | } ,.4.4.4.4.4.4.4.4.4.2.$.$.$.; ; ; ; ; ; ; ; ; ; ; ; = # # # # # # # # # # & 4 4 4 4 B B B K K P [ #.*.2.2.2.2.*.#.[ P B B B K P _ %.#.%.%.#.%.&.9.f.f.f.J.;XwXrXrXrXrXrXrXrXJ.f.f.f.@.I V r r r r r w - & @ @ @ @ @ @ @ @ & = = 7 7 7 7 8 8 8 7 7 7 7 7 7 7 5 5 5 7 7 5 5 7 7 7 Z y.y.y.y.y.a.B.B.B.B.B.B.m._ _ ( X X X X X * * * * * * * * * * * * * * * * * * * * * * * * , , , 1 1 4 4 4 1 , , , , , , , , 4 h.h.h.h.h.h.h.h.h.h.h.h.h.h.h.h.h.h.h.h.h.h.i.3.3.3.3."
};
