/* XPM */
static char *Asset6[] = {
/* columns rows colors chars-per-pixel */
"512 512 232 2 ",
"   c #1E1510",
".  c #1F1914",
"X  c #201610",
"o  c #231B15",
"O  c #2B1E16",
"+  c #251E18",
"@  c #2B1F18",
"#  c #2E2017",
"$  c #27211B",
"%  c #2B221B",
"&  c #2F281F",
"*  c #322115",
"=  c #33251B",
"-  c #38271C",
";  c #33281E",
":  c #392A1F",
">  c #2E2720",
",  c #2F2821",
"<  c #332A23",
"1  c #342B22",
"2  c #3B2D22",
"3  c #373027",
"4  c #3D3126",
"5  c #373129",
"6  c #3C332A",
"7  c #3E382E",
"8  c #3D3730",
"9  c #3F3B30",
"0  c #412E1F",
"q  c #412F22",
"w  c #433225",
"e  c #493627",
"r  c #473826",
"t  c #44362A",
"y  c #4A3729",
"u  c #44392D",
"i  c #4B3A2C",
"p  c #523D2C",
"a  c #413730",
"s  c #443D32",
"d  c #4C3E31",
"f  c #523F30",
"g  c #4F402E",
"h  c #53402F",
"j  c #464136",
"k  c #4A4135",
"l  c #45423B",
"z  c #4E463A",
"x  c #4E493D",
"c  c #534434",
"v  c #594534",
"b  c #574836",
"n  c #5D4936",
"m  c #544739",
"M  c #58463A",
"N  c #544B3D",
"B  c #5C4D3C",
"V  c #5D503E",
"C  c #604A37",
"Z  c #624E3B",
"A  c #66523E",
"S  c #69523D",
"D  c #4D4841",
"F  c #544D41",
"G  c #594F42",
"H  c #514E48",
"J  c #565246",
"K  c #5C5344",
"L  c #555249",
"P  c #5D5749",
"I  c #5E584A",
"U  c #5E5A50",
"Y  c #614F41",
"T  c #635543",
"R  c #6B5642",
"E  c #655847",
"W  c #6C5945",
"Q  c #62574A",
"!  c #695748",
"~  c #645C4D",
"^  c #6A5D4B",
"/  c #705740",
"(  c #725C46",
")  c #725E49",
"_  c #655E50",
"`  c #625B56",
"'  c #6A5F51",
"]  c #67604F",
"[  c #6D604E",
"{  c #776047",
"}  c #74624D",
"|  c #7A644C",
" . c #7F684F",
".. c #666154",
"X. c #6B6454",
"o. c #6B6658",
"O. c #6C665A",
"+. c #6E695A",
"@. c #736653",
"#. c #7A6651",
"$. c #756956",
"%. c #7C6A55",
"&. c #726759",
"*. c #736B5B",
"=. c #7B6D5A",
"-. c #77705E",
";. c #7D715E",
":. c #6A6760",
">. c #6F6C61",
",. c #736E61",
"<. c #796D62",
"1. c #767162",
"2. c #7B7462",
"3. c #7E7866",
"4. c #767369",
"5. c #7C7669",
"6. c #7E7969",
"7. c #7F7F71",
"8. c #7F7D7B",
"9. c #80684F",
"0. c #806752",
"q. c #826B54",
"w. c #816E59",
"e. c #857055",
"r. c #887056",
"t. c #85725C",
"y. c #8A745C",
"u. c #87795E",
"i. c #8E785F",
"p. c #90795F",
"a. c #837663",
"s. c #897761",
"d. c #837966",
"f. c #8B7B65",
"g. c #817768",
"h. c #837C6B",
"j. c #8A7C69",
"k. c #937C63",
"l. c #907D68",
"z. c #847E71",
"x. c #887E70",
"c. c #8F8166",
"v. c #85806F",
"b. c #8A816D",
"n. c #968067",
"m. c #9B8366",
"M. c #93826B",
"N. c #9A836A",
"B. c #9C896E",
"V. c #858273",
"C. c #8B8473",
"Z. c #8D8877",
"A. c #86857A",
"S. c #8A8679",
"D. c #8D897A",
"F. c #938671",
"G. c #968674",
"H. c #938975",
"J. c #9D8B74",
"K. c #928D7C",
"L. c #9C8E7A",
"P. c #9C9174",
"I. c #96917E",
"U. c #9A917D",
"Y. c #A1896F",
"T. c #A28D73",
"R. c #A08F7A",
"E. c #A29274",
"W. c #A99374",
"Q. c #A49279",
"!. c #A9967B",
"~. c #AC9A7E",
"^. c #B39C7D",
"/. c #8F8781",
"(. c #8F8D81",
"). c #938E81",
"_. c #998F81",
"`. c #959182",
"'. c #9B9483",
"]. c #9A9688",
"[. c #9C9689",
"{. c #9C998B",
"}. c #9D9D90",
"|. c #999895",
" X c #A29682",
".X c #A39985",
"XX c #AC9A82",
"oX c #A49B8A",
"OX c #A99C8A",
"+X c #B29F82",
"@X c #A29D93",
"#X c #9FA18C",
"$X c #A8A18B",
"%X c #AAA28F",
"&X c #B2A387",
"*X c #B4A48B",
"=X c #B9AA8B",
"-X c #A3A293",
";X c #ACA593",
":X c #AFAA95",
">X c #A8A19B",
",X c #A7A89A",
"<X c #ADAA9B",
"1X c #BAAB94",
"2X c #B6AC99",
"3X c #B2AD9C",
"4X c #B9B19D",
"5X c #A9AAA3",
"6X c #A9AAA9",
"7X c #B5AEA1",
"8X c #BBAFA2",
"9X c #B3B2A4",
"0X c #BBB7A5",
"qX c #BFB7AA",
"wX c #B6B8A9",
"eX c #BCBAAC",
"rX c #BFBDB1",
"tX c #C2AB8B",
"yX c #C9B595",
"uX c #C3B299",
"iX c #C5B9A4",
"pX c #C0BBB2",
"aX c #BDC0AF",
"sX c #D4C3AA",
"dX c #C3C1B5",
"fX c #C8C6B9",
"gX c #CCCABD",
"hX c #D6C9B3",
"jX c #CCCCC1",
"kX c #CFD0C1",
"lX c #D8D7CB",
"zX c #E1DECF",
/* pixels */
"#.#.#.#.#.#.#.#.=.=.w.w.w.w.w.w.=.=.=.=.=.=.w.w.w.=.=.w.y.y.y.y.y.y.y.y.s.f.f.K 2 2 2 2 2 2 6 ...._ _ _ _ _ _ _ _ :XH.2.2.2.2.2.2.2.2.Q K K P P P P P P P P P P K P P P P P P P K P P K P P P P I I I I I I I I I I I I I I I I I I I J J J P P P P J J J J J P P P J J J J J J J J J J J P P P J J J J P P I I I I I I I ........*.1.1.1.1.-.-.3.C.h.F F F _ _ J < < < < < < < < < < < < < < < < s 3X;Xb.b.b.b.b.b.h.h.h.h.h.h.h.3.*.*.&.X.X.X.X.X.X.X.X.X.X.X.X.&.*.*.*.*.*.*.*.*.*.*.*.*.*.*.*.*.*.*.*.*.*.*.*.2.2.2.2.2.2.2.2.2.2.2.2.2.2.2.2.2.2.*.Q Q Q F & & & & & & & & ..o.I I I I I I I I I I I I I I I I I I I I I I I I I I I Q ~ _ _ _ _ _ ~ ~ ~ ~ ~ ~ _ _ 6.>X>X>X@Xh.@.$.X.[ ] [ [ [ [ [ [ [ [ [ [ [ [ [ [ X.$.$.$.$.$.;.;.;.;.;.;.;.;.d.d.$.2 2 2 2 2 2 2 2 q q 2 2 2 2 p.k.k.k.k.k.k.k.k.k.k.k.k.k.k.k.k.p.y.r.r.r.r.r.e.q.%.| | | | | | | | %.%.%.| | | | | | q.q.q.q.t.y.y.y.l.l.N.N.N.N.N.N.N.N.N.N.T.T.T.T.Q.l.y y w 2 2 2 2 2 2 2 2 ! T c c c m B B B B B B B B B n n B B B B B B n n B B B B T T T ! ! ! W ! ^ } #.#.#.#.#.#.#.@.} } } | ",
"#.#.#.#.#.#.#.%.=.=.w.=.w.w.w.w.=.=.=.=.=.=.w.w.=.=.=.=.w.y.y.y.y.y.y.s.f.f.l.K 2 2 2 2 2 2 s .._ _ _ _ _ _ _ _ &.:XH.2.2.2.2.2.2.2.2.X.K K P P P P P P J J P P K P P J P P J P K K P K P P P K I I I I I I I I I I I I I I I I I I I P J J P P P P J J J J J J P P P P J J J J J J J J P P P P J J J J P P I I I I I I I Q ......+.1.1.1.1.-.-.v.C.+.F F J _ _ Q < < < < < < < < < < < < < < 1 < +.3X;Xb.b.b.b.b.b.b.h.h.h.h.h.h.h.*.*.*.X.X.X.X.X.X.X.X.X.X.X.X.*.*.*.*.*.*.*.*.*.*.*.*.*.*.*.*.*.*.*.*.*.*.*.*.2.2.2.2.2.2.2.2.2.2.2.2.2.2.2.2.2.2.X.Q Q Q F & & & & & & & & _ o.I I I I I I I I I I I I I I I I I I I I I I I I I I I ~ ~ ~ _ _ _ _ ~ _ ~ ~ ~ ~ _ _ $.C.].C.$.X.@.@.$.[ ] ] [ [ [ [ ] ] [ [ [ [ [ ] [ [ $.$.$.$.$.=.;.;.;.;.;.=.;.s.d.d.w 2 2 2 2 2 2 2 2 q 2 q 2 2 W k.k.k.k.k.k.k.k.k.k.k.k.k.k.p.y.r.r.r.r.r.y.r.q.%.| | | | | | | | | | %.%.| %.| | | | q.q.q.q.y.y.y.i.l.l.k.N.N.N.N.N.N.N.N.N.T.T.T.T.Q.f.y y y 2 2 2 2 2 : : 2 T ! c c c c c n B B B B B B B n n B B B B B B n n B B B B T T T ! ! ! W W ^ #.#.#.#.#.#.#.@.@.} } } | ",
"#.#.#.#.#.#.#.=.=.=.=.=.=.=.w.w.w.=.w.w.w.w.w.w.=.=.=.=.=.t.y.y.y.y.y.f.l.l.l.K 2 2 2 2 2 2 s .._ _ _ _ _ _ _ _ 2.:XH.2.2.2.2.2.2.2.2.$.K K K K J J P P J J K K K P P J K K P P K K P J P P P I I I I I I I I I I I I I I I I I I I I I P J P P P J J J J J P P P P P P P P P P P J P P P P P P P P J J J P I I I I I I I I ......X.1.1.1.1.1.1.C.V.F F F I _ _ _ < < < < < < < 1 1 1 1 < 1 1 1 < @X3X'.b.b.b.b.b.b.b.b.h.h.h.h.h.h.2.*.*.X.X.X.X.X.X.X.X.X.X.X.X.*.*.*.*.*.*.*.*.*.*.*.*.*.*.*.*.2.2.*.*.*.*.*.*.2.2.2.2.2.2.3.2.2.2.2.2.2.2.2.2.2.2._ I Q U U & , & & & & & & J O.I I I I I I I I I I I I I I I I I I I I I I I I Q Q Q ~ ~ ~ ~ ~ _ ] ^ ] ] ^ ^ ] ] [ @.@.@.@.X.X.@.@.$.X.[ ] [ [ [ [ [ ] [ [ [ [ [ ] [ [ $.$.$.$.$.%.;.;.;.;.;.;.;.;.d.d.T 2 2 2 2 2 2 2 2 2 2 2 2 2 i k.k.k.k.k.k.k.k.k.k.k.k.k.p.r.r.r.r.r.r.r.r.q.%.%.%.%.%.%.| %.| | | %.%.%.%.%.%.%.| | q.q.q.q.y.y.y.i.l.k.l.N.N.N.N.N.N.N.N.N.T.Q.T.T.T.y.y y y 2 2 2 2 2 : : 2 M ! c c c c c c B B n B B B B n n n B n n B n n n B n B B T T A ! ! ! W W } | #.#.#.#.} @.@.@.} } @.@.",
"#.#.#.#.#.#.#.=.=.=.=.=.=.=.=.=.w.w.w.w.w.w.w.w.w.=.=.=.=.w.y.y.y.y.f.f.l.l.l.K 2 2 2 2 2 2 N .._ _ ~ ~ _ _ _ _ 2.:XH.2.2.2.2.2.2.2.2...K K K K J J J P J J K J K K P J K J P P P P P J P P K I I I I I I I I I I I I I I I I I I I I I I P P P P J J J J P P P P P P P P P P P P P P P P P P P P P P P J P I I I I I I I I ........*.1.1.1.1.2.C...F F F _ _ _ _ 6 < < < < < < 1 1 1 1 < < 1 1 z 3X3X'.C.b.b.b.b.b.b.b.b.h.h.h.h.h.d.*.*.$.X.X.X.X.X.X.X.X.X.X.X.*.*.*.*.*.*.*.*.*.*.*.*.*.*.-.2.2.2.2.2.-.*.*.*.2.2.2.2.2.3.h.h.h.d.3.2.2.2.2.2.2.2.I U U U U , , & & & & & & F O.Q I I I I I I I I I I I I K I I I I I I I I I I I Q ~ ~ ~ ~ ~ ^ [ [ [ [ [ [ [ [ [ X.@.@.@.@.X.@.@.@.$.$.X.] ] [ [ [ [ [ [ [ [ [ [ ] [ [ @.$.$.$.$.$.;.;.;.;.;.;.;.;.s.d.a.2 2 2 2 2 2 2 2 2 2 2 2 2 2 p.k.k.k.k.k.k.k.k.k.k.k.p.r.r.r.r.r.r.r.r.q.| %.%.%.%.%.%.%.%.| | | %.%.%.%.%.%.%.%.%.q.q.q.q.y.y.y.i.k.l.l.N.N.N.N.N.N.N.N.N.T.Q.T.T.Q.#.y y y 2 2 2 2 2 2 2 2 c ! c c c c c c c B n B B B n n n n B n n B c B B B n B B T T A R ! ! W W | | #.#.#.#.} @.@.@.} @.@.@.",
"#.#.#.#.#.#.%.=.=.=.=.=.=.=.=.=.w.w.w.w.w.w.w.w.w.w.=.=.=.t.y.y.y.f.l.l.l.l.N.E 2 2 2 2 2 4 N _ _ _ _ _ _ _ _ _ 2.;XH.2.2.2.*.X.X.X.$.I P J J J J J K K K P P P P P J J J J J P J J P J P P K I I I I I I I I I I I I I I I I I I I I I I I P P P P J J J J P P P P P P P P P P P P P P P P P P P P J J J P I I I I I I I I ~ ......*.1.1.1.1.h.h.F F F Q _ _ _ _ 6 < < < < < 1 < < < 1 < < < < S.7X3X'.L.b.b.b.b.b.b.b.b.b.h.h.h.h.h.*.*.&.X.X.X.X.X.X.X.X.X.X.X.*.*.*.*.*.*.*.*.*.*.*.*.-.2.2.2.2.2.2.2.2.2.-.2.2.2.2.2.2.3.h.h.h.h.h.h.h.3.2.2.2.-.I Q Q I I 2 & & & & & & & s o.~ I I I I I I I I I I K N N N P I I I I I I Q Q Q ~ _ _ _ _ ~ ^ [ [ [ X.[ [ X.X.X.@.@.@.@.@.$.$.$.$.@.@.$.X.[ [ [ [ [ [ [ [ [ [ ] ] [ [ [ $.$.$.$.$.;.;.;.;.;.;.;.;.s.d.d.c 2 2 2 2 2 2 2 2 2 2 2 q 2 | k.k.k.k.k.k.k.k.k.k.k.y.r.r.e.e.e.e.r.r.%.| | | | | %.%.| | | | %.%.%.%.%.%.%.%.%.%.q.q.q.q.w.y.y.y.k.k.l.N.N.N.N.N.N.N.N.N.T.Q.Q.Q.T.#.y y y 2 : : 2 2 : : : t ! c c c c c c c c B n n n n B n n n n B c c c B B n B n A A A T W W ! ! } | #.#.#.#.} } #.#.#.#.@.@.",
"#.#.#.#.#.#.=.=.=.=.=.=.=.=.w.=.=.=.w.w.w.w.w.w.w.w.=.=.w.y.y.y.s.l.l.l.l.M.B.y.2 2 2 2 2 u N _ _ _ _ _ _ _ _ _ 2.;XH.2.2.*.X.X.X.X.X.K P J J J J J K K P P P P P J J J J J P P J J P J P P I I I I I I I I I I I I I I I I I I I I I I I I P P P P J P J J P P P P P P P P J P P P P P P P P P P P J J P J I I I I I I I I Q ......+.1.1.1.1.Z.&.K P ~ _ _ _ _ _ 6 < < < < 1 1 < < < < < < < 6 3X7X3XU.U.H.b.b.b.b.b.b.b.b.h.h.h.h.h.2.*.*.X.X.X.X.X.X.X.X.X.X.X.*.*.*.*.*.*.*.*.*.*.-.2.2.2.2.2.2.2.2.2.2.2.2.2.2.2.2.2.2.3.h.h.h.h.h.h.h.h.h.h.h.2.I Q Q I Q s & & & & & & & 7 o._ I I I I Q I I I I I N N N N N I I I I I I Q Q ~ _ _ _ _ _ ~ ^ [ [ X.$.@.@.@.@.@.@.@.@.@.@.$.@.$.$.@.$.$.@.X.[ [ [ [ [ [ [ [ [ [ [ [ [ [ #.$.$.$.$.%.;.=.;.;.;.;.t.d.d.d.;.2 2 2 2 2 2 q 2 2 2 2 2 2 R k.k.k.k.k.k.k.k.k.k.i.r.r.y.e.e.e.e.r.q.| | | | | | %.%.| | | | %.%.%.%.%.%.%.%.%.q.q.q.q.q.w.y.y.y.k.k.N.N.N.N.N.N.N.N.N.N.J.Q.T.T.T.} y y y w : : 2 2 : : 2 t E c c c c c c c c c B B n n B n n n n c c c c c B B B n B T A T ! W ! ! ) | @.#.#.#.} } #.#.#.#.@.@.",
"#.#.#.#.#.$.=.=.=.=.w.w.w.w.w.w.=.=.=.=.w.=.w.w.w.w.w.w.y.y.y.y.f.l.l.l.l.B.B.n.2 2 2 2 2 z N _ _ _ _ _ _ _ _ _ H.;Xb.2.2.X.X.X.X.X.X.K P P J J P P P K P P P P P P P P P P P P P J P P P K I I I I I I I I I Q Q I I I I I I I I I I I I I I P P P P P J P P P P P P P J J J J J J J J P P P P P P P J P P I I I I I I I I Q ......X.1.1.1.2.K.1.+._ _ _ _ _ _ _ k < < < 1 1 1 < < < < < < < _ 7X3X3XU.U.U.C.b.b.b.b.b.b.b.b.h.h.h.h.3.*.*.*.*.*.$.X.X.X.X.X.X.$.*.*.*.*.*.*.*.*.*.-.2.2.2.2.2.2.2.2.2.2.2.2.2.2.2.2.2.2.2.3.h.h.h.h.h.h.C.C.C.C.C.C.I Q Q Q Q x % & & & & & & 6 o...I I I Q Q I Q ~ Q I N N N N N I I I I I I Q ~ ~ ~ _ _ ~ _ ~ ^ [ [ X.@.@.@.@.@.@.@.@.@.$.$.@.@.@.@.@.@.@.@.@.@.[ [ ] [ [ [ [ [ [ [ ] ] [ #.$.$.$.$.%.;.;.;.;.=.;.a.d.d.d.d.f q 2 2 2 2 q q 2 2 2 2 2 c k.k.k.k.k.k.k.k.k.k.e.e.y.y.r.e.e.e.q.%.%.%.| | | | %.| | | %.%.%.%.%.%.| | | | | q.q.q.w.w.w.t.i.i.f.k.M.N.N.N.N.N.N.N.N.N.B.T.T.T.T.} y y y w 2 2 2 2 2 : 2 t T c c c c c c c c c c b B B B B n n B c c c c c m B B n n T T T T ! ! ! ^ @.@.@.#.#.} | | #.#.#.#.@.",
"#.#.#.#.#.%.=.=.=.=.w.w.w.w.w.w.=.=.=.=.=.=.w.w.w.w.w.w.y.y.y.f.l.l.l.l.N.B.B.B.2 2 2 2 2 N F _ _ _ _ .._ _ _ _ H.;Xb.2.2.X.X.X.X.X.X.K K K K K P P K K P P P P P P K K K K P P P P P P P I I I I I I I Q Q Q Q Q Q I I I I I I I I I I I I I I P P P P P J P P P P P J J J J J J J J J J J P P P P J J P P I I I I I I I I Q ......X.1.1.1.h.K.1.+._ _ _ _ _ _ _ k < < < 1 1 1 < < < < < < < ;X7X3X3XU.U.U.U.C.b.b.b.b.b.b.b.h.h.h.h.h.*.*.*.*.*.*.*.$.X.X.X.X.$.*.*.*.*.*.*.*.*.*.2.2.2.2.2.2.2.2.2.2.2.2.2.2.2.2.2.2.2.2.3.h.h.h.h.h.C.C.C.C.C.K.I.1.Q Q Q Q J & & & & & & % & o.o.Q I I Q Q ~ ~ ~ ~ K N N N N N K I I I I I ~ ~ ~ ~ ~ _ ~ ~ ~ ~ [ [ [ X.@.@.@.@.@.$.$.@.@.@.@.@.@.@.@.@.@.@.@.@.@.X.] ] [ [ [ [ [ [ [ ] ] #.$.$.$.$.$.;.;.;.;.;.;.t.d.d.d.d.@.2 2 2 2 2 q q 2 2 2 2 2 c k.k.k.k.k.k.k.k.k.y.q.q.q.q.r.e.e.e.q.%.%.%.%.%.| %.%.%.| | %.%.%.%.%.%.| | | | | | q.q.w.w.w.w.y.y.i.l.l.l.n.N.N.N.N.N.N.N.N.T.T.T.T.} y y y 2 2 2 2 2 : : 2 t T c c c c c c c c c c c c B B B n B c c c c c c c B n n n V T T T T T ! ! } @.@.#.#.} } #.#.#.#.@.@.",
"#.#.#.#.#.=.=.=.=.w.=.=.=.=.=.=.w.w.w.w.w.w.=.=.=.=.=.t.y.y.f.l.l.l.l.M.B.B.B.B.2 2 2 2 6 N J _ _ _ _ _ _ .._ _ L.%Xh.2.2.X.X.X.X.X.X.K P P P J P P P J P P P P P K K K P P P P P P P K I I I I I I ~ ~ Q Q Q Q Q Q Q I I I I I I I I I I I I I I J J J P P P P J J J J P P P P P P P J J J J P P P P P J J P I I I I I I I ~ ........-.1.1.K.K.<.X._ _ _ _ _ _ _ 7 < < < < < < < < < < < < _ 7X3X3X3XU.U.U.U.U.C.b.b.b.b.b.b.h.h.h.h.h.-.*.*.*.*.*.*.*.$.X.X.X.$.*.*.*.*.*.*.*.*.2.2.2.2.2.2.2.2.2.2.2.2.2.2.2.2.2.2.2.2.2.d.h.h.h.h.C.C.C.C.C.I.I.I.K.Q Q I I I < & & & & & % & o.o.~ I I Q ~ ~ ~ ~ ~ N N N N N N I ~ ~ ~ ~ ~ _ _ _ _ _ _ ~ ~ ~ ~ ] [ [ [ X.@.@.@.@.@.@.@.@.@.@.@.@.@.@.@.@.@.@.@.@.@.X.[ [ [ [ [ [ [ [ [ [ #.$.$.$.$.$.;.;.;.;.;.;.;.d.d.d.d.d.w 2 2 q q q 2 2 2 2 2 2 c k.k.k.p.y.y.q.| | | | | %.%.q.q.r.q.| | | | | | %.%.| | %.%.%.| | | %.| | | | | %.%.%.q.q.q.q.q.t.y.y.i.i.k.l.l.l.k.N.N.N.N.N.T.T.T.T.} y y y 2 2 2 2 2 2 2 2 t T c c c c c c c c c c c c c c c c c c c c c c c c c n B B B T T T T A ! ! W | | #.#.#.#.#.#.} } @.@.",
"#.#.#.#.#.w.=.=.w.w.w.w.=.=.=.=.w.w.w.w.=.w.=.=.=.=.=.y.y.y.f.l.l.l.M.B.B.B.B.T.2 2 2 2 6 N J _ _ _ _ _ _ _ _ _ U.U.2.2.2.*.X.X.X.X.X.Q P P P P K P P J P P P P P P P P P P P P K K I I I I I I Q ~ ~ Q Q Q Q ~ Q Q Q I I I I I I I I I I I I I I P J J P P P P J J J J P P P J P P J J J J J J P P P P J P P I I I I I I I ~ ........-.1.1.K.K.1.X._ _ _ _ _ _ _ 2 % < < < < < < < < < < 7 o.6.;X3X3XU.U.U.U.U.L.b.b.b.b.b.b.b.h.h.h.h.3.*.*.*.*.*.*.*.*.X.X.X.&.*.*.*.*.*.*.*.*.2.2.2.2.2.2.2.2.2.2.2.2.2.2.2.3.3.2.2.2.2.h.h.h.h.C.C.C.C.C.I.I.I.I.'.h.Q I I I s & & & & & & & o.o.~ ~ Q ~ ~ ~ ~ ~ K N N N N Q ..~ ~ ~ ~ _ ~ _ ~ _ _ _ _ ~ ~ ~ ~ ^ [ [ [ [ X.X.$.@.@.@.@.@.@.@.@.$.$.@.@.@.@.@.@.@.@.@.[ [ [ [ [ [ [ [ [ [ #.$.$.$.$.$.;.;.;.;.;.;.;.;.d.d.d.d.d 2 2 q 2 q 2 2 2 2 2 2 c k.y.{ W W W / W W W W ( | %.%.%.q.%.| | | | %.| %.%.| | %.%.%.| | | %.| | | | | | %.%.%.q.q.q.q.q.y.y.y.y.i.i.k.l.l.l.N.N.N.N.T.T.T.T.} y y w 2 2 2 2 2 2 2 2 t T c c f c c c c c c c c d f f f f f c c c c c c c c b B B B B T T T A A ! ! } | #.#.#.#.#.#.} @.@.@.",
"#.#.#.#.#.w.=.=.w.w.w.w.w.w.=.=.w.w.=.=.=.=.=.=.=.=.t.y.y.y.l.l.l.l.B.B.B.J.~.+Xs 2 2 2 s N J _ _ _ _ _ _ _ _ _ U.U.2.2.2.-.X.X.X.X.X.^ P P P P K K J J J K P P P J J J J P J K I I I I I I Q Q Q Q Q Q Q Q ~ Q Q Q Q Q I I I I I I P F F J P I I I P J P P P P P P J J P P J P P P J J J J P P P P P P J J P I I I I I I I ..........1.1.6.K.K.6.X._ _ _ _ _ _ _ & $ % < < < < 1 1 < < 7 o.*.o...6.oX'.U.U.U.U.U.L.b.b.b.b.b.b.h.h.h.h.h.*.*.*.*.*.*.*.*.$.X.X.&.*.*.*.*.*.*.*.2.2.2.2.2.2.2.2.2.2.2.2.2.2.2.2.2.d.2.2.2.3.h.h.h.v.C.C.C.Z.I.I.I.I.'.;X;X,.I I Q k , & & & & & & o.o.~ ~ ~ ~ ~ _ _ K N N N N 6.oX'.~ ~ ~ ~ _ _ ~ ~ ~ ~ _ ~ ~ ~ ~ ~ ~ [ [ [ [ [ ] X.@.@.@.@.@.@.@.@.$.@.@.@.@.@.@.@.@.@.@.X.] [ [ ] [ [ ] ] ] @.$.$.$.$.%.;.;.;.;.;.;.;.;.;.s.d.d.B 2 2 2 2 2 2 q 2 2 2 w c q.W W W / W / / W W W W { | | | %.%.| | %.%.%.%.%.%.| | %.%.%.%.| | | | | | | | | | | | %.q.q.q.w.y.y.y.i.i.y.i.k.k.l.M.N.N.N.T.T.T.T.} i w 2 2 2 2 2 2 2 2 2 t T c c d f f d c d d d d f f f f d d d d f c c c c c c B B n n B T T T A T ! ^ } #.#.#.#.| | } } @.@.",
"#.#.#.#.#.w.=.=.w.w.w.w.w.w.w.=.=.=.=.=.=.=.=.=.=.=.y.y.y.f.l.l.l.N.B.B.J.XX+X+XK 2 2 2 s x J _ _ _ _ _ _ _ _ _ U.U.2.2.2.2.X.X.X.X.X.X.P P P P K K J J J J P P P J J J J J P I I I Q Q Q Q Q Q Q Q Q Q Q Q Q Q Q Q Q Q I I I I I P F F F F F P I I I P P P J J P P P P J J J P J J J J J P P P P P J J J J P P I I I I I I ..........1.1.6.K.K.6.+._ _ _ _ _ _ _ $ $ % % < < < 1 1 1 s o.' F m m m K C.U.U.U.U.U.U.H.b.b.b.b.b.j.h.h.h.h.-.*.*.*.*.*.*.*.*.X.X.&.*.*.*.*.*.*.*.2.2.2.2.2.2.3.2.2.2.2.2.2.2.2.2.2.h.2.2.3.h.h.h.C.C.C.C.Z.I.I.I.I.I.;X;X;X{.I I Q z 2 & & & & & & o.o.~ ~ _ .._ _ ~ N N N Q _.oX[.h.~ ~ _ _ _ _ ~ ~ ~ ~ ~ ~ ~ ~ ~ ~ ~ ] [ [ [ [ ] ] ] X.@.@.@.@.X.X.X.X.X.[ [ [ [ X.X.@.@.@.[ [ [ [ [ [ ] ] ] @.$.$.$.%.;.;.;.;.;.;.;.;.;.;.;.s.d.T 2 2 2 2 2 2 q 2 2 t i A { { ( W / / / / W W W W ) { | | | %.%.%.%.%.%.%.%.%.| | %.%.%.%.| | %.| | | | | | %.| | q.q.w.w.w.y.y.y.y.y.y.y.k.k.l.n.N.N.N.B.T.T.T.y 2 2 2 2 2 2 : 2 2 2 2 t T c c f f f d d d d d d f f f d d d d d f f c c c c c b n n n n A T T T T T ! ^ #.#.#.#.} } } } @.@.",
"#.#.#.#.#.=.=.=.w.w.w.w.w.w.w.w.=.=.=.=.=.=.=.=.=.w.y.y.y.f.l.l.M.B.B.B.~.+X+X+Xs.2 2 2 k N I _ _ _ _ _ _ _ _ _ L.U.2.2.2.2.X.X.X.X.X.X.X.K J J K K P P K K K P P P J J J J K I I I I Q Q Q Q Q Q Q Q Q Q Q Q Q Q Q Q Q I I I I I J F F F F F F P I I I P J J J P P P P P J P P P P J J J J P P P J J J J P P P I I I I I _ ..........1.1.6.K.K.<.*._ _ _ _ _ _ _ % % % % % < < 1 1 k +.~ m N m m m N N h.U.U.U.U.U.U.H.b.b.b.b.b.h.h.h.h.3.*.*.*.*.*.*.*.*.X.X.*.*.*.*.*.*.*.2.2.2.2.2.2.d.h.3.2.2.2.2.2.2.2.2.3.h.2.d.h.h.h.C.C.C.C.Z.I.I.I.I.I.[.;X;X;X;XQ I Q z 6 & & & & & & O.o.o.o.O..._ _ J N N 6.oXoX].X._ _ _ _ ~ ~ ~ _ ~ ~ ~ ~ ~ ~ ~ ~ ~ ~ [ [ [ [ [ ] [ [ [ [ [ [ [ ] ] [ [ [ [ [ [ ] ] ] ] [ X.[ [ [ [ [ [ ] [ [ @.$.$.$.;.=.;.;.;.;.;.;.;.;.;.;.a.d.B 2 2 2 2 2 2 2 2 w i i A { { { ) / / / / W W W W W { ) { | | %.%.%.%.| | | | | | | %.%.%.%.| %.%.| | | | %.%.| %.q.q.q.q.q.i.y.y.y.y.i.i.k.k.l.M.N.N.N.B.Q.Q.M.2 2 2 : : 2 2 : : : : 2 d T c d d d f f f d d d d f f f f d d d f f f d c c c c B n n n B B V T T T A T ! ^ | #.#.@.@.#.#.#.#.",
"#.#.#.#.#.=.=.=.w.w.w.=.w.w.w.w.=.w.=.=.=.=.=.=.=.t.y.y.y.f.l.l.B.B.B.E.+X+X+X+X~.2 2 2 z N Q _ _ _ _ _ ~ _ _ X.4XH.2.2.2.2.*.X.X.X.X.X.X.X.Q K K K P P K K P P P P J P P P K K P I I I Q Q Q Q Q Q Q Q Q Q Q Q Q Q Q Q Q I I I I F F F F F F F J I I I I P J J P P I I I P J J P P J P J J P P J J J J P J P P I I I I I ............1.1.1.K.K.1.*._ _ _ _ _ _ _ $ + + % % % < 1 z +.I d k m N m m N N m -.U.U.U.U.U.U.C.b.b.b.b.h.h.h.h.h.*.*.*.*.*.*.*.*.*.&.*.*.*.*.*.*.*.2.2.2.2.2.d.h.h.3.2.2.2.2.2.2.2.2.3.h.h.h.h.v.C.C.C.C.K.I.I.I.I.I.I.-X;X;X;X;X+.I I k 7 & & & & & & O.o.O.O..._ _ K N ~ '.oXoXS...~ _ _ _ _ _ ~ ~ _ _ ~ ~ ~ ~ ~ ~ ~ ~ ..[ [ [ [ [ ] ] [ [ [ [ [ [ ] ] [ [ [ [ [ [ ] ] ] ] [ [ [ [ [ [ [ [ ] [ [ @.$.$.=.;.=.;.;.;.;.;.=.;.;.;.;.d.d.c 2 2 2 2 2 2 2 2 i i i A { { { { ) / / / W W W W W ( ) { { { %.%.%.%.| | | | | | %.%.%.%.| | %.%.%.%.%.%.%.| %.%.q.q.q.q.t.i.y.y.y.y.i.i.l.k.l.N.N.N.N.N.T.Q.s.2 : 2 : : : 2 : : 2 : 2 c T c d d f d f f d d d d f f f f d d d d d f c c c c b n n n n n B B A A T A T ! ! ^ #.#.@.@.#.#.#.#.",
"#.#.#.#.#.#.=.w.w.w.=.=.=.=.=.=.w.w.w.w.w.w.=.=.=.y.y.y.y.l.l.M.B.B.B.~.+X+X+X+X+Xs 2 2 z N Q _ _ _ X.*.X._ ^ U.0XH.2.2.2.2.;.X.X.X.X.X.X.X.] J P P P P K K P P P K K P P P P P P P P I I Q Q Q Q Q Q Q Q Q Q Q Q Q Q Q Q Q I I I J J F F F F F F J I I I I P P P K I I I I I P P P P P J P P P P P J J P J P P I I I I ..............1.1.1.h.K.1.1._ _ _ _ _ _ _ % % % % $ $ % k *._ 7 7 7 7 z N m N N m m ] U.U.U.U.U.L.b.b.b.b.b.h.h.h.h.h.2.*.*.*.*.*.*.*.*.*.*.*.*.*.*.2.2.2.2.2.2.h.h.h.h.2.2.2.2.2.2.2.2.h.h.h.b.C.C.C.C.C.K.I.I.I.I.I.I.I.;X;X;X;X;X*.Q F k 7 & & & & & 7 O.O.O.o._ _ ~ K Q '.oXK.*.~ ~ ~ ~ _ _ ~ _ ~ ~ _ _ _ _ ~ ~ ~ ~ _ _ ] [ [ [ [ [ [ [ [ [ [ [ [ [ ] ] ^ ~ ~ ~ ] [ [ [ [ [ [ [ [ ] [ [ [ [ [ [ [ X.$.$.;.;.=.;.;.;.;.;.;.=.;.;.a.d.;.q 2 2 2 2 q 2 2 2 i i i A { { { { { ) / / / / W W W W ) { { { { | | %.| | %.| %.%.%.%.%.%.%.%.q.q.q.q.%.%.%.%.%.q.q.q.q.q.i.i.y.y.y.y.f.k.l.l.n.N.N.N.N.N.B.T.M.2 2 2 : 2 2 2 2 2 2 2 2 c T c d d d d f f d d d d d f f d d d f f d f c c c b B B n n B B B B n A T T A A ! ! ^ @.@.@.#.#.#.#.",
"#.#.#.#.#.#.#.w.w.w.=.=.=.=.=.=.w.w.w.w.w.w.=.=.=.y.y.y.f.l.l.N.B.B.J.+X+X+X+X+X+XE 2 2 N N Q _ _ &.*.*.*...X.iX0XH.2.2.2.2.2.$.X.X.X.X.X.X.] P P P P P K K K P P P K K P P P P P P P P I I Q Q Q Q Q Q Q Q Q Q Q Q Q Q Q I I I I J J F F F F F F F P I I I I I I I I I I I I I P P P P P J P P P P P J P P K I I I I ~ ............X.1.1.1.1.2.1.1._ _ _ _ _ _ _ < % + % $ % 6 *._ 7 7 7 7 7 u N m N N m m m K H.U.U.U.U.H.b.b.b.b.h.h.h.h.h.h.h.2.*.*.*.*.*.*.*.*.*.*.*.2.2.2.2.2.2.2.h.h.h.h.3.2.2.2.2.2.2.3.h.C.C.C.C.C.C.Z.I.I.I.I.I.I.I.I.'.;X;X;X;X<.k k k k 7 & & & & & s O.O.o._ _ _ _ ~ ~ ~ ~ ~ ~ ~ ~ ~ ~ _ ~ ~ ~ ~ ~ _ _ _ _ _ ~ ~ _ _ _ ] [ [ ] _ ..[ [ [ [ [ [ [ [ ] ~ ~ ~ ~ ~ ~ ] [ [ [ [ [ [ [ ] ] [ [ [ [ [ [ X.$.$.;.;.;.;.;.;.;.;.;.;.;.;.d.a.m i 2 2 2 2 2 2 2 2 w i i Z { { { { { { / / / / W / ( ) { { { { { { { | | | %.%.%.%.%.%.q.w.w.q.q.q.q.q.q.q.q.q.q.q.q.q.q.q.i.i.y.y.y.i.l.l.l.l.N.N.N.N.N.N.N.N.N.t w 2 2 2 2 2 2 2 2 2 2 B ! c d d d d f f d d d d d d f d d d d f d d c c c B B B n n B B B B n n T T T A T ! ! ^ } @.#.#.#.#.",
"#.#.#.#.#.#.#.%.=.w.w.w.w.=.w.w.w.w.=.=.=.=.=.=.=.y.y.y.f.f.l.B.B.B.E.+X+X+X+X+X+X^ 2 2 N N Q _ X.*.*.*.*.&.U.iX2XC.2.2.2.2.2.;.X.X.X.X.X.X.Q P P P P P J J J P P P P P I Q I K P P P P I I Q Q Q Q Q Q Q Q Q Q Q Q Q Q Q I I I I J F F F F F F F F P I I I I I I I I I I I I I I P P P J J J J P P P P P I I I I I Q ..............X.1.1.1.-.-.-.-..._ _ _ _ _ _ < % + % % % 7 s 7 7 7 6 6 6 7 z m m m m m m m m h.U.U.U.U.b.b.b.b.b.h.h.h.h.h.h.h.h.h.2.-.*.*.*.*.*.-.2.2.2.2.2.2.2.3.h.h.h.h.h.3.2.2.2.2.d.h.C.C.C.C.C.K.I.I.I.I.I.I.I.I.I.I.'.;X;X;XI k k k k k 7 & & & & & J O.o.Q Q Q Q I I I ~ _ ~ ~ _ _ ~ ~ ~ ~ ~ ~ _ ~ ~ ~ _ _ _ _ _ _ ~ ~ ^ [ ^ ~ _ _ ~ [ [ [ [ [ [ ^ ~ ~ ~ ~ _ _ ~ ^ [ [ [ [ [ [ [ [ ] ] [ [ [ ] ] X.$.$.=.;.;.;.;.;.;.;.=.;.;.;.a.c i d t 2 2 2 2 2 2 2 2 i i c { { { { { { ) ( ( ( ( ) { { { { { { { { { { { | %.%.%.%.q.w.w.w.q.q.q.q.q.q.q.q.q.q.q.q.w.w.q.q.i.i.y.y.y.k.l.l.l.M.N.N.N.N.N.N.N.N.N.t t w 2 2 2 2 2 2 2 2 2 T ! c f f c f d d i f f f f f d d d d d d f c c c c B n n B B B B n n n n A T T T T ! W W W } #.#.#.#.",
"#.#.#.#.#.#.#.#.%.=.w.w.=.=.=.=.w.w.=.=.=.=.=.=.=.y.y.y.f.f.M.B.B.B.!.+X+X+X+X+X+XB 2 6 N N Q ..*.*.*.*.*.*.2XiX'.C.2.2.2.2.2.2.$.X.X.X.X.X.K K P P P P J J J J P P P P Q Q Q Q Q I I I I Q Q Q Q Q Q Q Q Q Q Q Q Q Q Q I I I I I P F F F F F F F F J I I I I I I I I I I I I I I I P P J J J P P I I I I I I I I _ ..............+.1.1.1.1.-.1.-.-.+.~ _ _ _ _ _ 7 % + % % % 7 6 7 7 7 7 6 6 7 u s s s s u u 7 7 7 h.U.U.U.H.b.b.b.b.b.h.h.h.h.h.h.h...+.h.h.2.-.2.2.2.2.2.2.2.2.2.2.h.h.h.h.h.h.h.h.3.h.h.h.C.C.C.C.C.I.I.I.I.I.I.I.I.I.I.I.I.oX;X;XQ k k k k k k < & & & & & o.O.I I I I I I I I I ~ ~ ~ _ _ ~ ~ ~ ~ _ ~ _ _ ~ ~ _ ~ _ _ _ _ _ _ ~ ~ ~ ~ _ _ _ _ ..] ^ ^ ~ ~ ~ ~ ~ ~ _ _ ~ ^ [ [ [ [ [ [ [ ] [ [ [ [ [ ] [ X.$.$.$.=.;.;.;.;.;.;.;.;.;.=.c i i d i 2 2 2 2 2 2 2 2 i i c { { { { { { { { { { { { { { { { { { { { } } { { { | %.w.w.w.w.w.q.q.q.q.q.q.q.q.q.q.q.q.q.q.q.q.y.i.y.y.y.l.l.l.k.N.N.N.N.N.N.N.N.N.N.t t t 2 2 2 2 2 2 : 2 2 T ! c f f f f d d i f d f f f d d d f d d d c c c c c c c c B B B n n n n B T T T T T ! ! W W ^ } #.#.",
"#.#.#.#.#.#.#.#.#.=.w.=.=.w.=.=.w.w.w.=.w.w.w.w.t.y.y.f.f.l.N.B.B.B.~.+X+X+X+X+X+XB 2 u N N Q &.*.*.*.*.*.oXiX$XU.b.2.2.2.2.2.2.;.X.X.X.X.~ P K J P P P J J P P P P P K Q ~ Q Q Q Q Q Q Q Q Q Q Q Q ~ ~ Q ~ Q Q Q Q Q Q I I I I I I F F F F F F F F F P I I I I I I I I I I I I I I I I I I I I I I I I I I Q X.+.*.*.*.+.+.*.*.1.1.*.*.1.1.1.1.1.1.*._ _ _ _ _ _ s + + + + & 7 6 6 7 7 7 7 7 7 7 7 7 7 7 6 2 2 5 7 7 *.U.U.U.b.b.b.b.b.b.b.b.2.G u 4 4 4 k 3.h.h.3.2.2.2.2.2.2.2.2.3.h.h.h.h.h.h.h.h.h.h.h.C.C.C.C.C.C.I.I.I.I.I.I.I.I.I.I.I.I.-X;Xz.k k k k k k k < & & & & 9 O.o.I I I I I I I I I Q ~ ~ _ _ ~ ~ _ _ _ _ _ _ ~ ~ ~ ~ ~ ~ _ ~ _ _ _ _ ~ ~ _ _ ~ ~ _ _ ~ ~ ~ ~ ~ ~ _ _ _ _ ~ ^ [ [ [ [ [ [ [ [ [ [ [ [ [ [ [ @.$.$.$.%.;.;.;.;.;.;.;.;.#.f i i i i d 2 q q 2 2 2 2 2 t i c { { { { { { { { { { { { { { { { { { { { { } { { { { { | q.w.w.q.q.q.q.q.q.q.q.q.q.q.q.q.w.q.q.q.q.i.y.y.i.l.l.l.N.N.N.N.N.N.N.N.N.N.N.t t t t 2 2 2 : : : : 2 ! ! B f d d d d d f f d d d d d d f f d f d c c c c c c c c c c B B n B n B T A T T T T ! ! ! W W ^ [ ",
"#.#.#.#.#.#.#.#.#.%.=.=.=.=.=.=.w.w.w.w.w.w.w.w.t.y.y.f.l.l.B.B.B.B.~.+X+X+X+X+X+XB 4 s N N X.*.*.*.*.h.:XiX$XU.U.h.2.2.2.2.2.2.2.X.X.X.X.P P K K P P P J P P P P P P I Q Q Q Q Q Q Q Q Q Q Q Q Q Q ~ I I I I Q Q Q Q Q I I I I I I J F J F J J F F F J I I I I I I I I I I I I I I I I I I I I I I I I ~ +.<.*.1.1.1.1.1.1.1.1.1.-.<.<.-.1.1.1.1.1.1._ _ _ _ _ _ z + + + + & 7 7 7 7 6 6 7 7 7 7 7 6 6 < 2 2 2 < 6 7 7 *.U.L.b.b.b.b.b.b...6 4 4 4 4 4 4 4 6 *.h.h.d.3.2.2.2.2.2.3.h.h.h.h.h.h.h.h.h.h.h.C.C.C.C.C.C.C.I.I.I.I.I.I.I.I.I.I.I.I.;X;XN k k k k k k k & & & & & U O._ I I I I I I I I I I ~ _ _ _ ~ _ _ _ _ _ _ _ ~ ~ ~ ~ ~ ~ ~ ~ _ _ _ _ ~ ~ _ _ ~ ~ _ _ ~ ~ Q F z F _ _ _ _ ~ ^ [ [ [ [ [ [ [ [ [ [ [ [ [ [ [ $.$.$.%.;.;.;.;.;.;.;.;.^ i i i d i i d w 2 2 2 2 2 2 2 w i i { { { { { { { { { { { { { { { { { { { { { { { { { { { { { | q.q.q.q.q.q.q.q.q.q.q.q.q.q.w.w.w.q.q.w.y.y.i.l.l.k.N.N.N.N.N.N.N.N.N.N.N.t t t t 2 2 2 2 : : : 2 ! ! T d d d d i w 2 = = = = 1 4 i f f d d d f f c c c c c c c c c c B B B B V A A A A A ! ! ! W W W W ",
"#.#.#.#.#.#.#.#.#.#.=.=.w.w.w.w.=.=.=.=.w.w.w.w.y.y.s.l.l.n.B.B.B.B.+X+X+X+X+X+X+XB t 4 N N *.3.C.oX4XiX4X.XU.U.U.d.2.2.2.2.2.2.2.*.X.X.X.~ K K K K K P K K P P P P P Q ~ ~ ~ Q Q Q Q Q ~ Q Q Q Q Q I I I I I I Q Q Q Q I I I I I I J F F F F F F J J F J K I I I I I I I I I I I I I I I I I I I I ~ &.1.1.1.-.-.*.*.*.1.1.1.1.1.1.1.1.1.1.1.1.1.1.-.+._ _ _ _ _ F % % + + & 7 6 6 6 7 7 7 7 7 7 6 < 2 < < < < 2 2 7 7 7 *.H.b.b.b.b.X.6 4 4 4 4 4 4 4 4 4 4 4 ~ h.h.h.h.d.3.3.d.h.h.h.h.h.h.h.h.h.h.h.C.C.C.C.C.C.C.C.K.I.I.I.I.I.I.I.I.I.I.[.;XS.k k k k k k k s & & & & & ..O._ I I I I I I I I I I Q ~ ~ ~ _ _ _ _ _ _ _ _ ~ ~ ~ ~ ~ ~ ~ ~ ~ ~ ~ _ _ _ _ _ ~ ~ ~ ~ ~ N % + + % & F ~ ~ ~ ^ [ [ [ [ [ [ [ [ @.$.%.=.=.=.;.;.;.;.;.;.;.;.;.;.;.%.K i i i i d i d i w q q 2 2 2 2 2 w i f { { { { { { { ) p = # # = p { { { { { { { { { ) ) { { { { { { | q.w.q.q.q.q.q.q.q.q.q.q.q.q.w.q.q.q.y.y.i.l.l.N.N.N.N.N.N.N.N.N.N.N.N.t t t t w 2 2 2 2 2 : : E ! T d d i 1 % % % % % % % % % % = w d d d d f f d c c c c c c c c c c B B B A A A A T T ! ! W W W ! ",
"#.#.#.#.#.#.#.#.#.#.=.=.w.w.w.=.w.=.=.=.w.w.=.t.y.y.f.l.l.N.B.B.B.B.+X+X+X+X+X+X+XB 2 2 d x :XiX2X;XoX.XU.U.U.U.U.d.2.2.2.2.2.2.2.-.X.X.X.X.K K J J P P K K P P P P I Q ~ Q Q Q Q Q Q Q ~ ~ Q Q Q Q I I I I I I I Q Q Q I I I I I I P J F F F F J J J J F F J P I I I I I I I I I I I I I I I I I I I I I P N z 7 & + $ % % % % , < s z _ ..1.1.1.1.-.*._ _ _ _ _ F % + + + % 6 6 6 7 7 7 7 7 5 2 < < 2 < < < < 2 2 5 7 7 7 2.b.b.b.Q $ % 2 4 4 4 4 4 4 4 4 4 4 4 ~ h.h.h.h.h.h.h.h.h.h.h.h.h.h.h.h.h.h.h.C.C.C.C.C.C.C.C.I.I.I.I.I.I.I.I.I.I.-X;XP k k k k k k k s & & & & & x O.Q I I I I I I I I I I I ~ ~ ~ _ ~ _ _ ~ _ _ _ ~ ~ ~ ~ ~ ~ _ ~ ~ ~ ~ _ _ _ _ _ ~ ~ ~ ~ z + + + + % % & 2 x Q ~ [ [ [ [ [ [ X.;.;.;.;.;.;.;.;.;.;.;.;.;.s.j.M.b.$.d i i i i i i i i s w q q 2 2 2 2 2 2 i c { { { { { { B = # # # # # # - R { { { { { { { ) { { { { { { { { { | q.q.q.q.q.q.q.q.q.q.q.q.w.w.q.q.q.y.i.l.k.N.N.N.N.N.N.N.N.N.N.N.N.t t t t t 2 2 2 2 2 2 2 E ! T d w % % % % % % % % % % % % % % 4 t t u i f d d f c c c c c c c c B B B A A T A T T ! ! W W W ! ",
"#.#.#.#.#.#.#.#.#.%.=.w.w.w.=.=.w.w.=.=.=.=.t.y.y.s.l.l.l.B.B.B.B.B.+X+X+X+X+X+X+XB 2 2 6 x I z.z.z.z.h.3.L.U.U.U.d.2.2.2.2.2.2.2.-.X.X.X.X.^ K J J J P K P P P P K Q Q Q Q Q Q Q Q Q Q Q ~ Q Q Q Q I I I I I I I I I Q Q I I I I I P J F J F F F F F F F F F F F I I I I I I I I I I I I I J N 7 7 , & % % % $ % % $ $ % % % % % % % & s s j o.1.1.1.-.+._ _ _ _ I % % + + % 7 7 7 7 7 7 7 2 < < < 2 2 2 2 < < 2 2 s s u 7 ~ b.b.&.$ $ % 4 4 4 4 4 4 4 4 4 4 4 4 4 ..h.h.h.h.h.h.h.h.h.h.h.h.h.h.h.h.h.h.h.C.C.C.C.C.C.C.K.I.I.I.I.I.I.I.I.I.;X@Xk k k k k k k k 6 & & & & & < o.Q I I I I I I I I I I I Q ~ ~ ~ ~ ~ ~ ~ ~ _ _ ~ ~ _ ~ _ _ _ _ ~ ~ ~ ~ _ _ ~ ~ _ _ ~ J + + + + + % & & & & & 7 ^ ] ] [ [ [ =.;.;.;.;.;.;.;.;.;.;.;.t.b.F.F.F.M.B i i i i s s s s s s w q q 2 2 2 2 2 2 i Z { { { { { v # # # # # # # # # * A { { { { { { { { { { { { { { { { { { | q.q.q.q.q.q.q.q.q.q.q.w.q.q.w.t.i.l.k.N.N.N.N.N.N.N.N.N.N.N.N.t t t t t 2 2 2 2 2 2 w ! ! T 2 % % % % % + + + % % % @ @ + + % 2 4 t t t i d f f c c c c c c c n B B V T T T T T T W W W ! ! ",
"#.#.#.#.#.#.#.#.%.=.=.w.w.w.=.=.w.w.=.=.=.t.y.y.y.f.l.l.l.B.B.B.B.B.+X+X+X+X+X+X+XB 2 2 2 z x Q z.z.z.Q P &.U.U.U.L.a.2.2.a.2.2.2.*.X.X.X.X.X.K J J P P K P J P K Q Q Q Q Q Q Q Q Q Q Q Q Q Q Q Q Q Q I I I I I I I I I I I I I I I P J F J F F F F F F F F J F F J I I I I I I I I F s 2 % % % + + + + % % % % % % $ $ $ % % % % % & s s s s s o.1.1.1.1.1.*.2.V.D.s % + + % 6 7 7 7 7 5 2 < < < < 2 2 2 < < < 2 z Q Q I 7 k b.b.& $ $ 2 4 4 4 4 4 4 4 4 4 4 4 4 4 6 *.h.h.h.h.h.h.h.h.h.h.h.h.h.h.h.h.h.h.v.C.C.C.C.C.C.C.K.I.I.K.K.I.I.I.I.;XD.k k k k k k k k < & & & & & & s I I I I I I I I I I I I I ~ ~ ~ ~ ~ ~ ~ ~ _ _ ~ ~ _ _ _ _ _ _ ~ ~ ~ ~ _ _ ~ ~ _ _ Q & + + + + % & & & & & & & < m ] ] [ [ E T ~ ^ ^ ^ ^ ^ ^ ^ ^ @.F.F.F.F.F.B i i i i s s s s s s s w 2 2 2 2 2 2 2 2 t ( { { { { v # # # # # # # # # # # # v { { { { { { { { { { { { { { { { { { { q.q.q.q.q.q.q.q.q.q.q.q.w.w.q.k.l.k.k.N.N.N.N.N.N.N.N.N.N.N.w - w t t w 2 2 2 2 ; 2 i T T % % % % + + + + + % % % @ + + + % % = t t t t t i f c c c c c c B n B B V T T T T T T E W W ! ! ",
"#.#.#.#.#.#.#.%.=.=.=.=.=.=.=.=.t.t.t.t.y.y.y.y.s.f.f.f.M.B.B.B.B.B.+X+X+X+X+X+X+XB 2 2 2 s x x <.h.h.*.P P 2.U.U.U.U.d.2.2.2.2.2.$.X.X.X.X.X.] P P P P P P P K Q Q Q Q Q Q Q Q Q Q Q Q Q Q Q Q Q Q Q Q Q I I I I I I I I I I I I I J F J F F F F F F F F J J F F F I I I I I I N < % % % + % % + + % % $ $ + + % % + + + $ % % % & s s s s s s z 1.1.1.2.V.D.(.).).s % % % % 6 7 7 6 4 2 2 < < < < < < 2 2 2 < s I Q Q I s 7 h.~ % % % 4 4 4 4 4 4 4 4 4 4 < $ & 4 4 6 3.h.h.h.h.h.h.h.h.h.h.h.h.h.h.h.h.h.h.C.C.C.C.C.C.C.C.K.C.C.C.C.C.I.I.;X*.k k k k k k k k & & & & & & & & F I I I I I I I I I I I I Q ~ ~ ~ ~ ~ ~ ~ ~ _ ~ _ _ _ ~ ~ ~ ~ ~ ~ ~ _ ~ ~ ~ ~ _ _ 2 + + + + + & & & & & & & & & & 6 B 4 % O O O O O O O O O O % + =.F.F.M.Q i i s s s i i i i s i i w 2 2 2 2 2 q q 2 i { { { { R = # # # # # # # # # # # # # p { } { { { { { { { { { { { { { { { %.w.w.q.q.y.y.y.y.y.y.y.y.y.y.y.k.l.k.k.l.N.N.N.N.N.N.N.N.N.N.1 = = t t t 2 : 2 - % % - 2 2 % % % % % % % % + + @ @ % % % + % % = ; t t t t t i c c c c c c B n n n A A A T T T T T ! ! ! ! ",
"#.#.#.#.#.#.#.=.=.=.=.=.=.=.=.=.y.y.y.y.y.y.y.y.f.f.f.f.B.B.B.B.B.B.+X+X+X+X+X+X+XB 2 2 2 2 2 6 u h.h.6.P P P b.U.U.U.U.C.a.2.2.2.*.X.X.X.X.X.X.P P P P P P K Q Q Q Q Q Q Q Q Q Q Q Q Q Q Q Q Q Q Q Q Q Q Q I I I I I I I I I I P J F F J J F F F F F F F F J J F F J I I I F < % % % % + + % % + % % % $ + + + % % + + $ $ % % % s s s s s s s s o.6.S.).(.(.(.).).2 + % % % 2 7 5 2 2 2 2 < < < < 2 2 < < < 6 I Q U Q I s 7 X.& % % & 4 4 4 4 4 4 4 4 4 4 $ + $ % < 2 k h.h.h.h.h.h.h.h.h.h.h.h.h.h.h.h.h.h.h.C.C.C.v.b.C.C.C.C.C.C.C.C.C.K.;XF k k k k k k k s & & & & & & & & 2 I I I I I I I I I I I I I ~ ~ ~ ~ ~ ~ ~ ~ ~ _ _ _ _ ~ ~ ~ ~ _ ~ _ _ ~ ~ ~ ~ _ k + + + + + % & = = & & & & & & & & O O O O O O O O O O O O O + O = F.d.B i i i s s s i i i t t t i q 2 2 2 2 2 2 q 2 i { { { { - # # # # # # * = # # # # # # # t { { { { { { { { { { { { { { | q.w.w.w.q.q.y.y.y.y.y.y.y.y.y.y.i.k.k.k.l.l.l.M.N.N.N.N.N.N.N.f.= = = 2 t t 4 : 2 % % % % % = % % % % % % % % + + @ @ % % % % % % % = 4 t t t t d c c c c c c n n n n A A A T T T T T T ! ! ! ",
"#.#.^ T T T T T E E ! ^ ^ ^ ^ ^ ^ %.y.y.y.y.y.f.l.l.f.n.B.B.B.B.B.B.+X+X+X+X+X+X+XB 2 2 2 2 2 2 2 Q h.h.I P P I H.U.U.U.U.L.d.2.2.*.X.X.X.X.X.X.] P P P P K Q Q Q Q Q Q Q Q Q Q Q Q Q Q Q Q Q Q Q Q Q Q Q Q Q I I I I I I I P J F F F F J J F F J J F F F F F F F F F J I k % % % % $ $ + + $ % + + % % % % + + % % $ + % % % % % s s s s s s s s J ....1.1.*.*.+.< + + + + % 2 2 < 1 1 2 2 2 < 2 2 < < < < 1 F _ _ U U I 6 7 z % % % % $ % % & 4 4 4 4 4 4 $ $ $ $ $ $ $ J h.h.h.h.h.h.h.h.h.h.h.h.h.h.h.h.h.h.h.h.h.h.h.C.C.C.C.C.C.C.C.C.C.*.k k k k k k k s % & & & & & & & & & 2 J I I I I I I I I I I I Q _ _ ~ _ ~ ~ ~ ~ ~ ~ _ _ ~ ~ ~ ~ _ _ _ _ ~ ~ I F k + + + + + + & = 1 1 1 & & & & & & % O O O O O O O O O O O O O O O O 2 u i i i i i i t w 2 2 2 2 q 2 q 2 2 2 2 2 2 2 2 2 ) { { p # # # # # # = : : : = * # # # # # 2 ) { { { { { { { { { { | q.w.w.w.w.q.q.q.q.y.y.y.y.y.y.y.y.y.k.k.k.k.k.l.l.l.k.N.N.N.N.N.N.c = = = = t t t : : % % % % @ @ % + + + + + % % % @ % % % % % % % % % = ; t t t t i c c c c c c B B n V A A A A A A T T A T ! W ",
"& & & & = = = = = = = = = = = = = = w T y.y.y.f.l.l.l.M.B.B.B.B.B.B.t.T u = = = = 4 2 2 2 2 2 2 ; = Q h.X.P P x K U.U.U.U.U.U.d.2.*.X.X.X.X.X.X...P P P P Q Q Q Q Q Q Q ~ Q Q Q Q Q Q Q ~ ~ Q Q Q Q Q I Q Q Q I I I I I I J F F F F F F J J F F F J J F F F F F F F F F F % % % % % % + + + $ $ + + % % % % + % % % $ + % % % % % 3 s s s s s s s s s s s s s 7 % + + + + $ $ 2 < < < & & % % & < 2 < < 1 1 6 I _ U U I s 6 7 6 $ % % % $ $ $ % 4 4 4 4 4 4 $ $ $ $ $ $ $ $ &.h.h.h.h.h.h.h.h.h.h.h.h.h.2.-.2.2.3.h.*.P z K +.3.C.C.C.C.C.C.C.F k k k k k k 7 % + & & & & & & & & & & , s I I I I I I I I I J J I I _ _ ~ ~ ~ ~ ~ _ _ _ I F F z s s < < % + + + % + + + + + % & 1 1 1 1 1 , & & & & % O O O O O O O O O O O O O O O O O O O % 1 ; - = = = - = = - : 2 q 2 2 2 2 2 2 2 2 2 y ) W # # # # # # # - : : : : : * # # # # # = R { { { { { { { | w.w.w.w.%.A c B ( | | %.%.%.%.%.%.%.q.w.t.t.t.y.k.l.l.l.l.l.l.l.l.l.W = = = = = t t t 2 - % % % % @ @ + + + + + + @ % % % % % % % % % % = = = = 4 t t t i c c c c c c B B B T A A A A A A A T A A A T ",
"= = = = = = = = = = = = = = = = = = = = 2 } f.y.y.y.y.f.B.B.y.! u = = = = = = = = ; 2 2 2 1 = = = = u z.1.P u = = 2 @.U.U.U.U.H.2.$.X.X...........& 7 K P Q Q Q Q Q Q Q ~ Q Q Q Q Q Q Q Q Q Q Q Q Q I I I Q Q I I I I I I F F F F F J J J J F F F F F J J J F F F F F F 6 $ $ $ + $ + + % % + + + $ % % % % % % + + % % % + + + + + + $ % % & & , , , , , % % % + + % % + $ $ % % % % + + + + $ % % , < 2 1 < 2 s z x s 7 7 6 & + + % % % % + ; 4 4 4 4 4 4 & $ $ $ $ $ $ $ < 2.h.h.h.h.h.h.*.&.+.X.Q P P P P P P P j s s s s u s s s s s s u , , 2 2 2 < % $ $ + % & & & & & % & & & & & % + + + + % 6 6 u s s s s s s s s s 7 1 % % + + + + + % + + + + + + + + + + + + + % & 1 1 1 1 1 1 , & & & & % O O O O O O O O O O O O O O O O + + + O O O O O + + + O O O O % ; 2 2 2 q 2 2 2 2 2 2 w # # # # # # = : : : : : : : * # # # # # # p ( { { { { { { %.q.W t = = = = 2 4 y c v b b n n n n n n n n b n b b n n n n b v i ; = = = = = 4 t t 2 = % % % + + + @ @ + + + @ % % % % % % % % % % % = = = = = 2 2 2 t t u c c i i i 4 4 = % + + + + + + + + + O O ",
"= = = = = = = = = = = = = = = = = = = = = ; B T R R R R T 2 = = = = = = = = = = = = = = = = = = = = = 6.2.F = = = = = 1 Q H.U.U.2.$.X.X.X...X...z + + % 6 x Q Q Q Q Q Q ~ Q Q Q Q Q Q Q Q Q Q Q I I I I I I I I I I I I P F F F F F J J J J F F F F F F J J F F F F N 6 $ $ $ $ + + + + + $ + + $ $ % % % % % % + % % % + + + + + + + $ % $ + + % % % % % % % % + + + % $ $ $ $ % % + + + + + $ $ % $ $ % % $ $ % % + + % & % % + + % % % % + ; 4 4 4 4 4 4 2 $ $ $ $ $ $ $ $ & 2 6 6 6 6 6 6 6 6 < $ $ + + $ $ $ $ $ $ $ $ & , , , , , % $ $ $ $ $ $ $ $ $ $ $ + + % & & & & % & & & & & % + + + + + + + + + + % & & & & % + + + + % % + + + + + + + + + + + + + + + + % % & , 1 1 1 1 1 1 1 1 < < & & % % O O O O O O O O O O O O O O + + + O O O O O + + + + O O O O % % 2 2 q q 2 2 2 2 2 2 # # # # # # : : : : : : : : = # # # # # # # * p R { { { ( v 2 # # = = = = = = = = = = = - 2 2 4 2 t y y y y 2 2 2 2 = = = = = = = = = = = 2 t t 2 % % % % % + + @ @ + + @ @ % % % % % % % % % % = = = = = % + + + + + + + O + + + + + + O + + + + + + + + + O O ",
"= = = = = = = = = = = = = = = = = = = = = = = 2 c b c i ; = = = = = = = = = = = = = = = = = = = = = = k 6.6 = = = = = = = = m b.2.=.X.X.X.X.^ s % % % % $ $ $ < 6 u N N N I Q Q Q Q N N N N N N x N P I I I I I I I I I N z z z z z F J J F F N F F F F J F F F F k & % % % $ $ % % % % % % + + % % % % % % $ $ + + % % % % + $ + $ % % % % + + $ % % % % % % $ + + % % % % $ $ % % % % + $ % $ $ $ % $ % % % $ $ % % $ % % % % + + + % % % % ; 4 4 4 4 4 4 4 < $ $ $ $ $ $ $ $ $ $ % & < < < & % $ $ $ $ $ $ $ $ $ $ $ $ $ $ $ $ $ $ $ $ $ $ $ $ $ $ $ $ $ + + + $ & & & & & & & & & & & % + + + + + + + + + + + + + + + + + + + + + + + + + + + + + + + % % % % & & & & & & 1 1 1 1 1 1 1 1 1 1 1 1 1 < & & % & 1 1 1 < % O O O O O O O O O O O + O + O O O O O O O O O O % 2 q q 2 2 2 2 2 2 * # # # # = : : : : : : : : : = # # # # # # # # # # - # # # # # # # = = = = = = = = = = = = = = = = = = = = = = = = = = = = = = = = = = = ; : 2 2 % % % % % % % % % % + % % % % + + + + % % % % % = = = = + + + + + + + + + + + + + + + + + + + + + + + + + + + ",
"= = = = = = = = = = = = = = = = = = = = = = = = = = = = = = = = = = = = = = = = = = = = = = = = = = = = = = = = = = = = = = = ; $.u 1 < < & + % % % % % $ $ $ % % % $ $ $ $ $ $ $ $ $ % % % + + % % % % $ $ $ % < 3 3 3 5 5 5 5 5 5 5 5 5 5 5 5 5 5 5 7 7 u s 6 & $ % % % % $ $ % % % % % % + % % & & % % % $ + + + % % % % $ $ + % % % % % + + $ % % $ % % % + + + % % % % % % % % % % % $ % % $ $ $ $ % % % % % % $ $ $ $ % % $ + $ $ % % + ; 4 4 4 4 4 4 4 4 1 & & & & $ $ $ $ $ $ $ $ $ $ $ $ $ $ $ $ $ $ $ $ $ $ $ $ $ $ $ $ $ $ $ $ $ $ $ $ $ $ $ $ + + + + $ & & & & & & & & & & & & + + + + + + + + + + + + + + + + + + + + + + + + + + + + % % & & & & & & & & & & & 2 2 2 2 1 1 1 1 1 1 1 1 1 1 1 1 & & 1 1 1 1 1 O O O O O O O O % = = = = = = = = % O = = = % ; 2 2 2 2 2 2 2 2 2 2 = # # # # - 2 y 2 : : : : : : : - : : : : * # # # # # # # # # # # # # = = = = = = = = = = = = = = = = = = = = = = = = = = = = = = = = = = = = = = % % % % % % % % % % % % % % % + % % % % % & = = = = = = + + + + + + + + + + + + + + + + + + + + + + + + + + + ",
"= = = = = = = = = = = = = = = = = = = = = = = = = = = = = = = = = = = = = = = = = = = = = = = = = = = = = = = = = = = = = = = = $ % % % % % + + + % % % % % % + + + % % % % % + $ $ $ % % % + + % $ + + % % % % % % % % + + % & & % % % & & & % % % % $ $ $ % % $ $ % % % $ $ + + + % % % % & & & & & & & & % % $ $ $ + $ + + % % % % % $ $ $ % % % + + + % % % $ $ + + + + % % % % + $ % % % % + + % % % + + + % $ + + $ % % % % % % + % % % & 4 4 4 4 4 4 4 4 4 4 4 4 4 2 < $ $ $ $ $ $ $ $ $ $ % % % % % $ $ $ $ $ $ $ $ $ $ % % % % $ $ + + $ + $ $ + + + + % & & & & & & & & & & & & & % + + + + + + + + + + + + + + + + + + + + + + + + % % & & & & , 2 2 2 1 & & & , u u u u u u t 2 1 1 1 1 1 1 1 1 1 1 1 1 1 1 1 1 = O O = d c c c c c c c d d d c c c c c c c t 2 2 2 2 2 2 2 2 2 2 2 : # # # # q y y w : : : : : : : : : : : - # * # # # # # * # # # # # # = = = = = = = = = = = = = = = = = = = = = = = = = = = = = = = = = = % % % % % % % % % % % % % % % % % % % % = = = = = = = = = = = = + + + + + + + + + + + + + + + + + + + + + + + + + + + ",
"= = = = = = = = = = = = = = = = = = = = = = = = = = = = = = = = = = = = = = = ; 2 ; = = = = = = = = = = = = = = = = = = = = = % $ $ % % % % + + $ % % % % % + + + + % % % % + + $ $ $ $ % % + + % $ + + % % % % % % % % + % % % % + + + % % % % % % % + $ % % % $ % % % % % $ $ + + % % & ; & & & & & & & & % % + $ + + $ $ $ % % % % % $ $ % % % % + + $ % % % $ $ + + + + % % % % $ $ % % % % + % % % % + + + % $ + + $ % % % % % % + % % % % 2 4 4 4 4 4 4 4 4 4 4 4 4 4 4 4 < % $ $ $ $ $ $ $ $ $ % % + $ + + + $ $ $ $ $ , 2 6 6 6 & $ + + $ + $ $ + + + % & & & & & & & & & & & & & & & & % + + + + + + + + + + + + + + + + + + + + % & & & & & 2 t u u u u u t 1 < u u u u u u u d s t 1 1 1 1 1 1 1 1 1 1 1 1 1 1 1 1 O = T T E E E E E E E E ! ) ) ) ) ) ) } } } f 2 2 2 2 2 2 2 2 2 2 2 * # # = y y y y 2 : : : : : : : : : : * # * * # # # # * # # # # # # # = = = = = = = = = = = = = = = = = = = = = = = = = = = = = = = = = % % % = = = & & & % % % % % % % % % % = = = = = = = = = = = = = % O + + + + + + + + + + + + + + + + + + + + + + + + + ",
"t t t t ; = = = = = = = = = = = = = = ; u u u u u u k t = = = = = = = = = = ; w w w w w w t c 2 = = = = = = = = = = = = = = & $ $ $ $ $ % + + + % % % % % % % % + $ % % $ $ + + $ $ % $ % % % % % % + + % % % % % % $ $ + + % % % % + + % % % % % % + + $ $ % % + $ % % % % % % + $ % & & & & & & & ; ; ; % % % % % + + $ $ $ % + + % % $ $ % $ % % + + % % % % $ $ % % % % % % + + $ $ % % + + % % & & & & % ; ; < < < < < 2 2 2 2 2 s s 4 4 4 4 4 4 4 4 4 2 4 4 4 4 4 4 4 4 4 4 4 4 2 F *.*.*.*.*.*.*.=.=.*.&.^ ^ ^ ^ ^ ^ ^ z s d s s s s 7 2 2 $ $ $ $ % & & & & & & & & & & & & & & & & & & & % + + + + + + + + + + + + + % % % & & & & & & & 1 t u u u u u u u u d B m m m m c m m m m m d 2 1 1 1 1 1 1 1 1 1 1 1 1 1 = O B T T T T E T T E E E ) ) ) ) ) ) =.t.t.t.t.w.} B i 2 2 2 2 2 2 2 2 = = 2 y y y y y 2 : : : : : : : : = # # * * ; # # # # # # # # # # # = = = = = = = = = = = = = = = = = = = = = = = = = = = = = = = = = = = = = = = = = = = = = = % % + + % = = = = = = = = = = = = = = = = % O O + O O O % % % % O O O O O O O O O O O + + + ",
"} } } } } #.#.#.} } } } } } } } %.=.=.=.=.s.f.n.f.s.N.N.N.N.N.N.s.} c = ; 2 w w w w w w t T T T 4 = = = = = = = = = = = = = % $ $ $ $ $ % % + + % % % % % % % % < < < < & + + + $ % % $ % % % % % % % + + % $ $ % % + + + + % % % % + + + $ % % % % + + + $ % % + % % % % % % $ % & ; ; & & & & ; ; ; & % % % % % % $ + $ + + % + + % % % $ $ $ + % + + % % % % % & & & < < < 2 2 2 2 4 2 2 2 4 4 4 4 4 4 6 6 6 6 6 4 4 4 4 4 4 4 4 2 X.X.X.X.X...K s 4 4 4 2 2 4 4 4 4 4 4 4 4 4 4 4 4 J *.*.*.*.*.*.*.=.*.*.' ^ ^ ^ ^ ^ ^ ^ ^ Q F F F G ~ ^ ^ ^ ^ _ ~ z < & & & & & & , < < & & & & & & & & & & & % + + + + + + + % % % & & & & & & & & & & < t u u u u u u u u u b T T T N m m m m m N B B m c 2 1 1 1 1 1 1 1 1 1 1 1 1 1 = T T T T T T T T E E W ) ) ) ) ) ) ) #.t.t.t.t.t.t.t.s.s.=.=.Y 2 2 2 2 2 w y y y y y y w q : : : : : - # # # = v b c * # # # # # i w # # # = = = = = = = = 4 k k k k k t 4 2 = = = = = ; 1 ; ; = = = = = = = = = = 2 2 2 2 2 4 4 4 ; = = = = = = = = = = = = = = = = ; 2 2 = = = = = = = = = = = = = = = = = = = 2 2 ; = = = = u ",
"} } } #.%.%.t.t.t.t.#.^ A T W =.=.=.t.N.J.J.J.J.J.J.J.J.J.J.J.J.N.N.N.t.i w w w w w w w c T T T A 4 = = = = = = = = = = = = $ $ % % 2 $ % % % % % < 6 u k z z z z z z z z z z k u 2 , , < 3 2 2 2 2 2 & + + + $ % + + + % % % % % % & , , s z N N N z u 4 < % % $ $ % < 2 2 2 4 4 6 s s k m m m u ; ; % % % % % % % + + + + % % + + % % % % $ $ % & & < 2 2 2 2 4 4 4 4 4 4 4 4 4 4 4 4 6 6 6 u u u s s s s s s s s s u t 4 4 4 4 4 4 ~ X.X.X.X.X.X.X.~ 4 2 2 2 4 4 4 4 4 4 4 4 4 4 4 4 s *.*.*.*.*.*.*.*.*.@.^ ^ ^ ^ ^ ^ ^ ^ _ _ _ _ _ _ _ _ _ ^ ^ _ _ _ ^ s < 2 4 6 6 6 6 6 6 6 6 6 4 4 4 2 2 = & & % + + + % % & & & & & & & & , 4 t t u z s u u u u u u u u s T T T T T T T m m m ^ @.@.@.#.K k 1 1 1 1 1 1 1 1 1 1 1 1 1 B T E E R R R T T T T ) ) ) ) ) ) ) ) ) } w.t.t.t.t.t.XXXXXXXXXXJ.t 2 2 2 y y y y i n n n p y y w w 2 - - 2 : 2 v b Z c d u c t.k.y.} # # # # = = = = ; d T T T T Q Q T T T Q E E E Q Q E k 6 4 4 4 2 2 2 2 2 2 2 4 4 4 4 4 4 4 4 4 4 = = = = = = = = = = = = = 2 u s s s s s u = = = = = = = = = = = = = = = 1 4 4 4 4 4 ; = K E ",
"} } } #.%.%.w.t.t.t.y.t.A A A A #.s.J.J.J.J.J.J.J.J.J.J.J.J.J.J.N.N.N.N.M.c w w w w w w c T T T c c 4 = = = = = = = = = & % % % % % K Q Q Q Q Q B z z z z z z z z z z z z z z z z z 2 2 3 3 2 2 2 2 2 2 % % + + % + + + + + % % % , , , , N N N N N N N N N N m z z N N N N N N N N N N N N N N N m 4 & & % % % % % + + $ + % % + + % % & < 2 4 4 4 4 4 2 2 4 2 4 4 4 4 4 4 4 4 4 u s s s s s s u u s s s s s s s u u s s s 6 4 4 4 4 J X.X.X.X.X.X.X.X.1 1 1 2 4 4 4 4 4 4 4 4 4 4 4 4 4 X.*.*.*.*.*.*.*.&.^ _ ^ ^ ^ ^ ^ ^ _ _ _ _ _ _ ^ _ _ _ ^ ^ _ _ _ _ ^ t 6 6 6 6 6 6 6 6 6 6 6 6 6 6 6 6 6 1 & & % & & & & & & & & & & , 6 u u u Q =.<.=.u u u u u u u b T T T T T T T T T G ^ $.=.s.f.f.f.@.2 1 1 1 1 1 1 1 1 1 1 1 t E E E E E R R T T T ! ) ) ) ) ) ) ) ) ) ) ) #.w.t.t.t.Q.XXXXXXXXXXF.2 2 q y y y y w v n n n v i y y y y y y y 2 p b N.XXXX!.n.l.l.y.} # # # % = = = ; K T T T T T T Q T T E ^ ^ ^ ^ ~ Q ~ ^ ^ Q u 4 4 4 4 4 4 4 4 4 4 4 4 4 4 4 4 4 4 1 = = = = = = = = = 1 t s s s s s s s s s u = = = = = 2 4 1 = = = = = = 4 4 4 4 4 4 6 t E E ",
"} ) } #.%.%.%.t.t.t.f.f.=.A A A A N.J.J.J.J.J.J.J.J.J.J.J.J.J.J.J.N.N.N.N.N.T w w w w w y T T T c c c 2 = = = = = = % % $ $ % % % % k Q Q Q Q Q Q Q N z z z z z z z z z z z z z z z 3 3 3 3 2 2 5 3 2 2 % % % % % % + + + + + & , , , , , N N N N N N N N N N N N N N N N N N N N N N N N N N N N N N d < & & % % % % + % % % % % & 2 4 4 4 4 4 4 4 4 4 4 4 6 6 6 6 6 4 4 4 4 4 s s s s k m k k k s s s s s s s s u u u s s s t 4 4 4 z @.@.@.@.&.=.2.2.Q = 1 1 2 4 4 4 4 4 4 4 4 4 4 4 4 d *.*.*.*.*.*.*._ _ _ ^ ^ _ ^ _ _ _ _ ^ ^ ^ ^ ^ ^ _ _ ^ ^ _ _ _ ^ ^ N 6 6 6 6 6 6 6 6 6 6 6 6 6 6 6 6 6 6 2 & & & & u u t t 6 2 2 2 u u u u *.=.=.=.=.m u u u u s T T T T T T T T T T T ^ f.f.f.f.f.f.f.f.s.N 1 1 1 1 1 1 1 1 1 t T E E E E E R R R T T ) ) ) ) ) ) ) ) ) ) ) ) ) ) } %.t.t.n.Q.XXXXXXXX^ 2 w y y y w 2 w n n n n n y y y y y y w 2 2 Z XXXX!.n.l.l.k.y.} # # # = = = - 2 Q Q T T T T T T T T ^ ^ ^ ^ ^ ^ ^ ^ ^ ^ ^ ^ k 4 4 4 4 4 4 4 s s s 5 4 4 4 4 4 4 2 = = = = = = = u z m N m m z z z z z N N J k = = = = 2 4 4 2 = = = = = 2 w 4 4 4 4 4 i E E ",
"} ) } #.%.%.%.t.t.t.f.f.l.N.=.) %.J.J.J.J.J.J.J.J.J.J.J.J.J.J.J.J.G.N.N.N.N.N.B w w w w w A T T B c c c 1 = = = = % + % $ $ $ % % % < Q Q ^ 2.2.X.Q Q -.X.X.X.X.X.X.X.X.X.X.[ ] ~ K 5 5 3 3 2 2 5 3 2 2 , % % % % % , , % % , , , , , & , N N N N N N N N N N N N N N N N N N N N N N N N N N N N N N N N u ; ; & % & % ; < 2 4 2 4 4 4 6 u u u u u s s s s s s s s s 4 4 4 4 s X.s s k m m m m m m m m m m m m N K K N N k k k 6 4 4 s @.@.*.a.j.h.h.h.h.N 1 1 = 1 2 4 4 4 4 4 4 4 4 4 4 4 &.*.*.*.*.*.' _ _ _ ^ ^ _ _ _ _ _ _ ^ ^ ^ ^ ^ ^ _ _ ^ ^ _ _ _ ^ @.@.k s s s s d u t 6 6 6 6 6 6 6 6 6 6 6 2 & & & u u u u u u u u u u u m =.=.=.=.=.k u u u m T T T T T T T T T T T ^ f.f.f.f.f.f.f.f.f.f.f.f.@.u 1 1 1 1 t B E E E E E E E R R T T ! ) ) ) ) ) ) ) ) ) ) ) ) ) ) ) ) ) } #.w.f.Q.XXXXN.2 w y y w 2 2 2 i v n n p y y y y y y 2 2 2 ! XX~.n.l.l.l.k.k.} # # = = = = 2 2 Q Q Q Q T T T T T T Q E ^ ^ ^ ^ ^ ^ ^ ^ ^ ^ ^ m 4 4 4 4 4 6 s s s s 6 4 4 4 4 4 4 = = = = ; s K K K K K K K K K K K K K K K K t = = = 1 4 4 4 2 = = = = 1 w w 4 4 4 4 i E E ",
"} } ) #.%.%.%.=.t.y.l.l.l.N.J.J.J.J.J.J.J.J.J.J.J.J.J.J.J.J.J.J.J.J.N.N.N.N.N.N.c w w w w i T T T c c c d = = = = % % $ $ % % % % % % K @.2.2.2.2.2.&.2.2.@.X.X.X.X.X.X.X.X.X.X.X.X.N 3 2 3 7 s s s s 6 , $ $ $ % , , , , , , , , , , , , N N N N N N N N N N N N N N N N N N N N N N N N N N N N N N N N N N s 2 2 4 4 4 4 4 4 4 4 4 u s s i i s s u u i i i i s s t 4 4 4 4 J g.k m m m m m m m m G G G G G Q E E E Q K K Q Q F 4 4 4 *.h.h.h.j.h.h.h.h.j.2 1 = = = 2 4 4 4 4 4 4 2 < 2 4 Q *.*.*.*.@._ _ _ _ _ _ _ ^ ^ ^ ^ _ _ _ _ _ ^ ^ _ _ ^ ^ ^ _ _ ' @.@.G k k k k k k k s t 6 6 6 6 6 6 6 6 6 k 4 & < u u u u u u u u u u u u &.=.=.=.*.u u u T T T T T T T T T ! ^ =.s.f.f.f.f.f.f.f.f.f.f.f.f.s.f.w.) E T E R E E E E T T T T R R R R T T E E ! ! ! W W ^ ) ) ) ) ) ) ) ) ) ) ) } | B.XXXX2 w y w 2 2 2 2 q y y y y w w y y y y y 2 2 G.XXM.l.l.l.k.k.l.} # # = = = 2 2 2 T T Q Q Q Q Q Q T T T Q Q Q E ^ ^ ^ ^ ^ ^ ^ ^ ^ V 4 4 4 4 s j j s s j u u t 6 6 6 ; = 4 m K K K K K K K K K K K K K K K K K K K t = = 1 4 4 4 4 = = = = ; 4 6 w w w w i E E ",
"} } } #.%.%.%.%.t.t.f.l.l.l.G.J.J.J.J.J.J.J.J.J.J.J.J.J.J.J.J.J.J.J.G.N.N.N.N.N.M.c w w w w k T A c c c c t = = t % % % $ $ % % % % % N 2.2.2.2.2.2.2.2.2.2.$.X.X.X.X.X.X.X.X.X.X.X.[ 3 6 s s s s s s s 5 $ $ $ , , , , , , , , , , , , , N N N N N N N N N N N N N N N N N N N N N N N N N N N N N N N N N K E E k 4 4 4 4 4 4 4 4 u s s i i i s s s s i i s s s u 4 4 4 4 4 *.g.g.2.*.X.^ Q ^ @.@.@.@.&.&.&.@.&.&.&.&.Q K Q K K u 4 X.h.h.h.h.h.j.h.h.h.h.&.1 = = = = 1 2 4 4 4 2 < , 2 4 z *.*.*.*.^ _ _ _ _ _ _ _ _ ^ ^ ^ ^ _ ^ _ _ ^ ^ _ ^ ^ ^ ^ _ _ X.@.@.X.k k k k k k k d d s t 6 6 6 6 6 t Q ^ K & 6 u u u u u u u u u u u u u ^ =.*.k u N $.W T T T T T @.f.j.f.f.f.f.f.f.f.f.f.f.f.s.t.w.%.%.%.#.) ) ) ) ^ R E E E E E T T T R R R E T T T E E E R R T T T E E E W ) ) ) ) ) ) { } | N.uXs.i T } } T d 2 2 2 2 2 2 2 2 t y y y w 2 ) XXT.l.l.l.l.k.k.l.} # # # = = : 2 2 B T Q Q Q Q Q Q T T T Q Q Q T T ~ ^ ^ ^ ^ ^ ^ ^ ^ K 6 5 s s j s s s j j j j s j z N K Q Q Q K K K K K K K K K K K K K K K K K K K 4 ; 2 4 4 4 4 2 = = = = 4 4 4 w w w i E E ",
"} } } #.%.%.%.%.w.t.t.y.f.l.l.B.J.J.J.J.J.J.J.J.J.J.J.J.J.J.J.J.J.J.G.N.N.N.N.N.N.f.u w w w w i c c c c c c 1 i L.$ $ % % + + + % % $ < 2.2.2.2.2.2.2.2.2.2.2.*.X.X.X.$.*.$.X.X.X.X.@.s s s s s s s s s < % $ $ , , , , , , , , , , , , , N N N N N N N N N N N N N N N N N N N N N N N N N N N N N N N N N E E E E k 4 4 4 4 4 4 6 s s s s s i s s s s s s s s s 6 4 4 4 4 6 g.g.g.g.g.g.g.a.=.*.=.=.2.<.@.@.@.&.&.&.@.Q K K K K G <.0X0XoXh.h.j.j.j.j.h.h.j.z , , = , - - 1 2 2 < = = ; 4 d *.*.*.' ^ _ _ _ _ _ _ _ _ _ _ _ _ _ _ _ ^ ^ ^ ^ ^ ^ ^ _ _ _ X.@.@.@.m k k k k k k k k k k s u 6 6 k @.@.^ ^ d u u u u u u u u u u u u u d s s u G a.b.b.j.T T T T =.L.L.L.L.L.G.F.l.s.s.t.w.w.w.w.w.w.%.%.%.%.} ) ) ) E R R R E E R E T T E E E E T E E E R R R R T T T T E E W ) ) ) ) ) ) ) | | w.uXuXG.F.F.F.F.F.j.^ m 2 2 2 2 2 w w w 2 i l.XXQ.l.k.k.k.k.k.k.l.} # # # = = : 2 2 B T E Q Q T Q Q T T T T Q Q T T T ~ ^ ^ ^ ^ ^ ^ ^ ^ K j j s j j s s z m N K K K K K Q Q P P K K K K K K K K K K K K K K K K E Q K z 4 4 4 4 4 4 2 = = = = 4 4 4 6 6 6 6 E E ",
"} } } @.%.%.%.%.%.t.t.t.t.f.l.l.l.N.J.J.J.J.J.J.J.J.J.J.J.J.J.J.J.J.B.N.N.N.N.N.N.N.f.u w w w w d c c c c c i L.OX2 $ $ % + + + % $ $ $ &.*...~ Q Q Q Q X.X.*.2.2.;.2.2.2.2.2.-.$.-.2.s s s s s s s s s & % % $ % , , , , , , , , , , , , N N m m N N N N N N N N N N N N N N N N N N N N N N N N N N N N Q E E E E E b 4 4 4 4 4 u s s s s s s s s u s s s s s u 4 4 4 4 4 m g.g.g.g.g.g.g.g.g.g.g.g.g.g.2.@.@.&.&.&.@.Q K K K K h.0X0X0X0X9XC.j.h.j.j.h.h.j.j.2 , , , - 1 1 , = = = = , 2 d *.*.&.^ ^ ^ ^ ^ ^ ^ ^ ^ ^ _ _ ^ _ _ _ _ ^ ^ ^ ^ ^ ^ ^ _ _ _ X.@.@.@.Q k k k k k d k k k k k k s Q x.x.x.h.' Q u u u u u u u u u u d m B B N N B j.j.j.j.d.T T T j.L.L.L.L.L.L.L.L.l.w.w.w.w.w.w.w.w.w.w.%.%.%.%.) ) ^ R R R R E E E E T T E E E E T T E E R R R R T T T T W ) ) ) ) ) ) ) ) ) { | | T.uXuX1XXXXXXXXX1XuX1XXXJ.t.=.=.=.=.=.T.XXXX~.n.k.k.k.k.k.k.k.l.@.# # # = = : 2 2 B T ^ E Q T Q Q T T T T Q Q T T T E ^ ^ ^ ^ ^ ^ ^ ^ ^ K z s J X.X.X.Q K P P P K K &.h.*.Q K K K K K K K K K K K K K K K K K ~ X.K N 4 4 4 4 4 4 4 = = = = 4 4 6 6 6 6 6 E E ",
"} } } } #.%.%.%.%.t.t.t.t.t.t.f.l.l.l.l.l.N.N.G.J.J.J.J.J.J.J.J.J.J.N.N.N.N.N.N.N.N.N.%.w w w w t c c c c c f.OXOX=.+ + % $ % % + + $ $ k K K K K K K K K K K K Q ] *.2.2.2.2.2.2.2.2.s s s s s s s s s & % % + + & , , , , , , , , , , , N m m m m N N N N N N N N N N N N N N N N N N N N N N N N N N Q E E E E E E E K 4 4 4 4 u s s s s s s s s s s s s s s 6 4 4 4 4 4 X.g.g.g.g.g.g.g.g.g.h.h.g.g.g.2.&.&.@.^ Q K K K K K K.0XqXqX0X0XqX;XoXoXoXoX.X.XL.C.&., = = = = < , = , , 1 - 1 d *.*.X._ E Q E E E E E E E E E ^ ^ _ _ ^ ^ ^ ^ ^ ^ ^ _ _ _ _ X.@.@.@.' k k k k d d k k d d d G 2.x.x.h.*.^ ^ ^ c u u u u u u u u c b b m b N N B ^ =.a.=.^ T ^ F.L.L.L.L.L.L.L.B.t.w.w.w.w.w.w.w.w.w.w.w.%.%.%.%.} ) ) E T T T T E E E E E E E E T T T T T T T T T T ! ^ ) ) ) ) ) ) ) ) ) ) ) ) ) { w.uXuXuXuXuXuXuXuX&XXXXXXXXXXX~.~.~.~.~.E.N.l.k.k.k.k.k.k.k.k.l.@.* * # = = : 2 2 B E ^ ^ T T Q Q T T T T T Q Q Q Q Q ~ ~ ~ ^ ^ ^ ^ ^ ^ ^ ^ ^ K.{.{.{.[.~ K P P P Q h.h.h.K K K K K K K K K K K K K K K K K K ....u 6 4 4 4 4 4 4 4 = = = = 2 w 4 4 w 6 6 E E ",
"} } } } } %.%.%.%.w.t.t.t.t.t.t.t.f.l.l.l.l.l.l.l.l.N.J.J.J.J.J.J.J.N.N.N.N.N.N.N.N.N.N.%.w w w w d c c c #.OXOXOXOX, + % % % % $ % + + < K K K K K K K K K K K K K K K Q X.=.2.2.2.2.K s s s s s s s s & % + + + & , , , , , , , , , , , &.K m m m m N N N N N N N N N N N N N N N N N N N N N K K Q E E E E E E E E E E K u 4 4 t s s s s s s i s s s s s i i 6 4 4 4 4 4 j.g.g.g.g.g.g.g.g.g.g.h.g.a.=.@.&.&.@.~ K K Q K h.9X0X0XqX0X0X0X0X0X2X.XoXoXoXoXoX.X.XN - - = = , , = , = , 1 1 d *.*._ ^ E E Q E E E E E E E E E E ^ _ ^ ^ ^ ^ ^ ^ ^ _ _ _ _ @.@.@.@.@.z d k k d d k k d m &.x.x.z.=.^ ^ ^ ^ ^ W T m u u u u u m N b b m b N N B B B G T T [ F.L.L.L.L.L.G.l.t.w.w.w.w.w.w.w.w.w.w.w.w.w.w.%.%.%.| ) ) ^ R T T T E E E E E E E T T T T T T T E ! ^ ) ) ) ) ) ) ) ) ) ) ) ) ) ) ) ) { | !.uXuXuXuXuX*XXXXXXXXXXXXXXX~.~.!.N.l.l.l.l.k.l.k.k.k.k.k.k.l.%.* * # * = 2 2 2 B ^ ^ ^ T T Q Q T T T T T Q Q Q Q T T T T E ^ ^ ^ ^ ^ ^ ^ ^ `.{.{.{.[.Q P P P P ..h.h.h.K K K P K K K K K K K K K J K K K K ....4 4 4 4 4 4 4 4 4 ; = = = 2 w w 6 4 6 s E E ",
"} } } } } #.%.%.%.%.t.t.t.t.t.t.t.t.t.s.f.l.l.l.l.l.l.l.N.J.J.J.J.N.N.N.N.N.N.N.N.N.N.N.N.s.u w w t c c #.OXOXOXOXOXX.+ + + % % % % % % % N K K K K K K K K K K K K K K K K K K Q X.@.K F s s s s s s s % % + + + , , , , , , , , , , , 2 &.~ m m m m m N N N N N N N N N N N N N N N N N N N N E E E E E E E E E E E E E ^ [ E m 6 u s s s i i i i s s s s i i u 4 4 u *.oXoXoXoXoXoXoX'.K.K.C.C.C.j.a.2.@.&.&.$.=.j.C.oX0X0X0X0X0XqX0XqXqX0X0X0X:XoXoXoXoX.X.XoXoXQ - = = , , = , , , - 1 d *.*._ ^ E Q Q E E E E E E E E E E E ^ _ _ ^ _ ^ ^ _ _ _ _ X.@.@.@.@.@.G d k k k k k d G h.x.z.<.^ ^ ^ ^ ^ ^ ^ ^ ) } } ) G d m N N b b B B B B B B B G T [ J.L.L.L.L.J.f.=.%.%.%.%.w.w.w.w.w.w.w.w.w.w.w.w.w.%.%.%.) ) ) W E T T T R R E E E E E E T E ! W ) ) ) ) ) ) ) ) ) ) ) ) ) ) ) ) ) ) { | | | %.XX1X*X+XXX~.XX~.~.XX~.XXXX~.B.k.k.l.l.l.l.l.l.l.l.k.k.k.k.l.w.# * # * = 2 2 2 N ^ ^ ^ T T T T T T T T T T Q Q T T T T E ^ ^ ^ ^ ^ ^ ^ ^ ^ X.@.X.~ ~ K Q Q P Q ~ h.*...K K K K K K K K K K K K K K P K K K ....u 4 4 4 4 4 4 4 4 ; = # = ; w w 4 4 6 B E E ",
") ) } } } } %.%.%.%.w.t.t.t.t.t.t.t.t.t.t.y.f.l.l.l.l.l.l.l.M.N.N.N.N.N.N.N.N.N.N.N.N.N.N.N.l.c w i B ) s.t.t.t.t.f.j.6 + % % % % % % % % 6 K K K K K K K K K K K K K K K K K K K K K K K K F N N N N K % + + + + , , , , , , , , , , , k &.~ m m m m m N N N N N N N N N N N N N N N N N N N N Q E E E E E Q Q Q Q Q Q E E ^ [ [ [ Q N k s s i i i s s s s i i k ~ x.oXoXoXoXL.j.a.d.d.j.C.U.oXoXoXoXoXoXoXoXoX0X0X0XqXqXqX0X0X0X;X;XL.L.L.;X2X4X2XoXoXoXoX.X.XoXoXoX@.= = , , = = , , - 1 u *.*._ ^ E E E E E E E E E E E E E E E _ _ _ _ ^ ^ _ _ _ _ X.@.@.@.@.@._ m k k k k N *.x.h.<.^ ^ ^ ^ ^ ^ ^ ^ ^ ^ ^ } } @.%.=.) G b b b B B B B B B B G #.L.L.L.L.L.M.=.%.%.%.%.%.%.w.w.w.w.w.w.w.w.w.w.w.w.w.%.%.%.| { ) ) ) ) W W W W E ! W W W ) ) ) ) ) ) ) ) ) ) ) ) ) ) ) ) ) ) ) ) ) { } | | | | | | | | | w.n.Q.~.~.XX~.XXXXN.l.k.i.y.f.l.l.l.l.l.l.l.l.k.k.l.k.# * # * = 2 2 2 B ^ ^ ^ T T T T T T T T T T Q Q Q T T E ^ ^ ^ ^ ^ ^ ^ ^ ~ E E E Q K K K K Q P P Q Q K K K K K K K K K K K K K K K Q P K K K ....G 4 4 4 4 4 4 4 4 ; % O % = 4 4 4 4 k E E E ",
"^ } } } } } #.%.%.%.%.t.t.t.t.t.t.t.t.t.t.t.t.t.f.l.l.l.l.l.l.l.l.N.N.N.N.M.f.f.l.M.N.N.N.N.N.f.%.%.%.%.%.%.%.%.%.%.%.} & % % % + + + + + $ K K K K K K K K K K K K K K K K K K K K K K K K K K K K K K % % % + + % & & % & & & , , , , X.&.~ m m m m m m N N N N N N N N N N N N N N N N N N N G ^ E E E Q Q Q Q Q T T K Q E E ^ ^ [ [ [ [ [ [ [ [ =.a.a.a.a.a.K.oXoX'.H.a.=.=.=.=.=.;.;.;.;.;.a.j.H.'.oXoXoX3X0X0X0X3X;XU.b.a.;.;.;.t.;.;.2.a. XoXoXoXoXoXoX.XoXoXoXoXa.- - = 1 - - - , , , ~ *.*.^ E E E E E E E E E E E E E E E ~ _ _ _ ^ ^ ^ ^ ^ ^ @.@.@.@.@.=.x.h.,.O.O.2.x.h.&.^ ^ ^ ^ ^ ^ ^ ^ ^ ^ ^ ^ ^ ^ } } #.%.%.%.^ G G T T ^ ^ T N B @.L.L.L.L.L.a.%.%.=.=.=.=.=.=.y.y.t.t.t.t.y.y.y.t.t.t.w.w.%.%.%.| { { { { ) ) ) ) ) ) ) ) ) ) ) ) ) ) ) ) ) ) ) ) ) ) ) ) ) ) ) ) ) } } } | | | | | | | | | | | { ) f.Q.~.~.Q.k.l.k.y.y.y.k.k.k.l.l.l.l.l.l.l.l.l.# # # * = 2 2 2 K ^ ^ ^ T T T Q Q Q Q Q Q Q Q Q T T T ^ ^ ^ ^ ^ ^ ^ ^ ^ E E E Q P P P Q Q Q Q Q P K K K K K K K K K K K K K K K K K P P P Q ~ X.X.u 4 4 4 4 4 4 4 ; # O % = 4 4 4 i E E E E ",
"! ! ^ } } } } %.%.%.%.=.t.t.t.t.t.t.t.t.t.t.t.t.t.t.f.l.l.l.l.l.l.l.N.N.M.f.f.k.k.f.f.l.l.f.f.f.w.%.%.%.%.%.%.%.%.%.%.%.^ % % % $ $ + + $ $ 6 K K K K K K K K K K K K K K K K K K K K K K K N F F G K K % % $ + $ + % % % , , & , , , F &.&.K m m m m m m N N N N N N N N N N N N N N N N N N N G =.=.@.E Q Q Q Q T T T K K Q E E E E ^ ] [ [ [ [ [ 2.a.a.a.a.2.*.$.@.@.@.$.=.=.=.=.%.%.=.;.;.;.2.;.;.;.;.;.;.;.;.;.;.2.;.;.;.;.;.;.;.;.;.;.2.2.t.H.oXoXoXoXoX.X.XoXoXoXoXa.- = , - - - , , , N *.*.&.E E E E E E E E E E E E E E E E _ _ _ ^ ^ ^ ^ _ _ @.@.@.@.@.h.x.x.x.x.x.g.@.^ ^ ^ ^ ^ ^ ^ ^ ^ ^ ^ ^ ^ ^ ^ ^ ) } #.%.%.=.=.^ ^ ^ ^ ^ ^ ^ W B F.L.L.L.M.=.=.%.%.=.%.=.=.%.w.y.y.t.t.t.t.y.y.t.t.t.t.t.w.w.%.%.%.| | | { | | { { { } ) ) ) ) ) ) ) ) ) ) ) ) ) ) ) ) ) ) ) ) ) ) } } } } | | | | } } | | | | } | W W W %.T.N.k.k.f.y.y.y.i.k.k.k.l.l.l.l.l.l.l.l.# # # * = : 2 2 ~ ^ ^ ^ E T T Q Q Q T T T T Q Q T T ^ ^ ^ ^ ^ ^ ^ ^ ^ ^ ~ E E E P P P P Q Q Q Q P K K K K K K K K K K K K K P K K K P K P Q Q X.X.~ 6 4 4 4 4 4 4 = O O % = 4 4 4 Q E E E E ",
"W W ! W } } } #.%.%.%.%.=.t.t.t.t.t.t.t.t.t.t.t.t.t.t.t.f.l.l.l.l.l.l.N.N.M.M.l.k.k.k.k.f.f.f.f.f.t.%.%.%.%.%.%.%.%.%.%.%.T % % % % % % % % % K K K K K K K K K K K K K K K K K K K K K K K N N m m m m % % % % % + $ % % , & & , , k &.&.&.m m m m m m m m m N N N N N N N N N N N N N N N N N X.=.=.$.T K Q Q T T Q Q K K T T E E E E E E ^ [ [ [ X.@.@.@.@.@.@.@.@.@.@.@.@.$.=.=.=.=.%.=.=.;.a.2.;.;.;.;.;.;.;.=.=.=.=.=.=.=.=.;.;.;.;.;.t.2.;.;.j..XoXoXoXoX.X.XoXoXoXoXa.= , , = - , = - m *.*.&._ ^ ~ E E E E E E E Q E E E E E ^ _ _ _ ^ _ _ _ _ @.@.@.@.@.x.x.x.z.2.@.^ ^ ^ ^ ^ ^ ^ ^ ^ ^ ^ ^ ^ ^ ^ ^ ^ ^ ^ } } %.=.=.=.^ ^ ^ ^ ^ ^ ^ ) j.L.L.L.a.=.%.%.%.%.%.%.%.%.w.w.y.y.t.t.t.t.t.y.t.t.t.t.t.t.t.w.%.%.%.%.%.%.%.%.%.%.| | } ) ) ) ) ) ) ) ) ) ) ) ) ) ) ) ) ) ) ) ) ) | | | | | | | | } | | | } } } | ( W W W W %.k.k.y.y.y.y.y.k.k.l.l.l.l.l.k.k.l.l.# # # # = - 2 2 ^ ^ ^ ^ ^ E T Q Q Q T T T T Q T T E ^ ^ ^ ^ ^ ^ ^ ^ ^ ^ ~ E E E Q P P P P P Q Q K K K K K K K K K K K K K K P K K K K K K K K ^ X.X.~ u 4 4 4 4 4 & O O O = 4 4 u E E E E E ",
"W W ! ! W } } } %.%.%.%.%.=.t.t.t.t.t.t.t.t.t.t.t.t.t.t.t.y.f.l.l.l.l.l.N.N.N.N.M.M.M.l.l.f.f.f.f.f.f.y.w.%.%.%.%.%.%.%.%.%.k % % % % % % % % u K K K K K K K K K K K K K K K K K K K K K G N N m m m m < % % % % % % % % , , , , k &.&.&.Q m m m m m m m m m m m m N N N N N N N N N N k 4 6 G =.=.X.B B B B K T T Q Q K K T Q E E E E E E E E ^ [ [ [ [ ] ] X.@.@.@.@.@.@.@.@.$.=.=.=.=.=.=.=.=.=.=.=.=.=.=.%.=.=.=.=.=.=.=.=.=.=.;.2.;.;.t.2.;.t.t.s. XoXoXoXoX.XoXoXoXoXoXa., , = = = = - 6 *.*.@.^ _ _ _ _ ^ ^ ^ ~ ~ ~ E E E E ^ ^ _ _ _ ^ _ _ _ _ X.@.@.@.@.h.x.2.' _ _ ^ ^ ^ ^ ^ ^ ^ ^ ^ ^ ^ ^ ^ ^ ^ ^ ^ ^ ^ ) } #.=.=.=.#.^ ^ ^ ^ ^ ) F.L.L.j.=.%.%.%.%.%.%.%.=.w.w.w.w.y.y.y.t.t.t.y.y.s.s.s.y.y.y.y.t.w.w.%.%.%.%.%.%.%.%.%.| | } ) ) ) ) ) ) ) ) ) ) ) ) ) ) ) ) ) ) ) ) { | | | | | | } } } | | | } } } { W W W W W ( i.y.y.y.y.y.k.k.l.l.l.l.k.k.k.l.l.# # # # = = : t ^ ^ ^ ^ ^ ^ ^ ^ Q Q T T T Q Q Q T ^ ^ ^ ^ ^ ^ X.X.^ ^ ^ ^ E E E E Q P P P P Q Q K K K K P P K K P P P P K Q P K K K K K K K K K E ..X...m 4 4 4 4 % O O O & 2 4 k E E E E E ",
"W W W W W W } } } %.%.%.%.%.=.t.t.t.t.t.t.t.t.t.t.t.t.t.t.t.t.f.l.f.l.l.l.M.N.N.N.N.N.N.N.N.n.l.l.f.f.f.f.f.t.%.%.%.%.%.%.%.%.s $ % % % % % $ $ K K K K K K K K K K K K K K K K K K K K K K N N m m x x < % % % $ % % % % , , , z &.&.&.~ m m m m m m m m m z m m m m N N N N N N N N 6 = = = ^ =.E B B B B B B K K K K T K K Q E E E E E E E E E ^ [ [ [ [ [ [ [ @.@.@.@.@.@.@.@.$.=.=.%.=.=.=.=.=.%.=.=.=.=.%.=.=.=.=.=.=.=.=.=.=.;.2.;.;.;.;.;.;.;.;.d.U.oXoXoXoXoXoXoXoXoXoX<., , , = - = 6 *.*.@.^ ^ ^ _ _ _ _ ^ ^ _ _ _ _ ^ ^ _ ^ _ z.*.^ _ _ ^ ^ X.@.@.@.@.*.@._ ^ ^ ^ ^ ^ ^ ^ ^ ^ ^ ^ ^ ^ ^ ^ ^ ^ ^ ^ ^ ^ ^ } } } #.%.%.=.=.#.#.#.@.F.L.F.w.=.%.=.=.%.%.%.%.w.w.w.w.t.y.t.t.t.t.t.y.f.f.f.f.f.f.f.f.y.t.t.w.w.w.w.%.%.%.%.%.%.%.| | } ) ) ) ) ) ) ) ) ) ) ) ) ) ) ) ) ) ) ) ) ) } } } } | | | | | | } } | | | / W W W W W W q.y.y.y.y.k.k.k.l.l.l.l.k.k.k.k.# # # # # # * B ^ ^ ^ ^ ^ ^ ^ ^ ^ E T T Q Q T T E ^ ^ ^ ] [ [ [ [ [ ] ^ ^ E E E E E Q P P P Q P P P K P P P K K K K Q Q Q Q Q Q K K P P Q K V V V K ..X.X.~ s 4 4 O O O O % 2 6 k E E E E E ",
"W W W W W W ) } } } %.%.%.%.%.w.t.t.t.t.t.t.t.t.t.t.t.t.t.t.t.t.s.l.l.l.l.l.M.N.N.N.N.N.N.N.N.N.N.N.M.M.l.l.l.f.=.w.%.%.%.%.%.%.2 + % % % % % % 6 K K K K K K K K K K K K K K K K K K K K K K K N m x x 2 % + + $ % % % % , < Q &.&.&.~ m z m m m m m m m m m m m m m m N N N N N N 6 = = = ' @.B b B B B n B B K Q K K T K K Q E E E E E E E E E E [ [ [ [ [ [ ] @.@.@.@.@.@.@.@.@.=.=.%.=.=.=.=.=.%.=.=.=.=.=.=.=.=.%.=.=.=.=.=.=.;.;.;.;.;.;.;.t.;.;.s.d.j.U.oXoXoXoXoXoXoXoXoXI = = = = = = *.*.' _ ^ ^ _ _ _ _ ^ ^ _ _ _ _ ^ ^ ^ ^ _ V.S.&._ _ ^ ^ ' @.@.@.@._ _ _ ^ ^ ^ ^ ^ ^ ^ ^ ^ ^ ^ ^ ^ ^ ^ ^ ^ ^ ^ ^ ^ ^ } @.} @.%.%.=.=.%.%.%.%.j.w.%.%.%.%.=.=.%.%.%.%.w.w.t.t.t.t.t.t.t.t.y.s.f.f.f.f.f.f.f.f.f.y.t.t.w.w.w.w.w.%.%.%.%.%.%.| | { ) ) ) ) ) ) ) ) ) ) ) ) ) ) ) ) ) ) ) ) ) ) } { } | } | | | | | w.N.q.) W W W W W W / t.y.y.y.i.k.k.l.l.l.l.k.k.k.k.# # # # # # # E ^ ^ ^ ^ ^ ^ ^ ^ ^ ^ ^ E E T T E ^ ^ ^ [ X.X.[ [ [ [ X.] ^ ^ ^ E E E Q P P P Q Q P K P P P P K K K K P P Q Q Q Q P P P P Q Q K V V K K ^ X.X...Q s O O O O % ; 6 u E E E E E ",
"W W W W W W W } } } } #.%.%.%.%.t.t.t.t.t.t.t.t.t.t.t.t.t.t.t.t.t.y.l.l.f.l.j.l.N.N.N.N.N.N.N.N.N.N.N.N.N.N.N.N.M.f.s.t.%.%.%.%.#.6 + + % % $ % % N N N K K K K K K K K K K K K K K K K K K K K K N x x 7 + + + $ + % % & 6 X.&.&.&.K m m m m m m m m m m m m m m m m m N N N N N u = = ; ^ ' u t t u B B B B B K Q T T T T K Q E E E E E E E E E E ^ ] [ [ [ [ @.@.@.@.@.@.@.@.@.@.$.=.%.%.=.=.=.=.=.=.=.=.=.=.=.=.%.%.=.=.=.=.=.=.t.t.;.2.;.;.;.;.2.a.f.d.d.d.f.F.U..XoXoXoXoXoXoXs = % % % = &.*._ _ ^ ^ ^ _ _ _ ^ ^ ^ ^ _ _ ^ ^ _ _ ^ g.S.h.^ ^ ^ ^ _ _ ' ' _ _ _ _ ^ ^ ^ ^ ^ ^ ^ ^ ^ ^ ^ ^ ^ ^ ^ ^ ^ ^ ^ ^ ^ ) @.@.@.@.#.%.=.=.%.%.%.%.=.%.%.%.%.%.=.=.%.%.%.%.%.w.t.t.y.y.t.t.y.y.y.f.f.f.f.f.f.f.f.f.f.f.t.t.t.w.w.w.w.w.w.%.%.%.%.%.| | { ) ) ) ) ) ) ) ) ) ) ) ) ) ) ) ) ) ) ) ) ) ) ) ) ) ) { | | | } %.N.N.| W S S S W W { q.y.y.y.i.k.k.k.k.l.k.k.k.k.k.* * # # # # # E ^ ^ ^ ^ ^ ^ ^ ^ ^ ^ ^ ^ ^ ^ ^ ^ ^ [ X.X.X.X.[ [ @.X.X.X.^ ^ ^ ^ E E E Q Q P P P P P P P Q Q Q Q K K P P P P Q Q Q P P P P Q K K K K K K Q X.....K 2 O O O % ; 4 4 i Q E E E ",
"W W W W W W W ) } } } } #.%.%.%.%.t.t.t.t.t.t.t.t.t.t.t.t.t.t.t.t.t.y.l.f.j.j.j.l.M.N.N.N.N.N.N.N.N.N.N.N.N.N.N.N.N.l.s.s.w.%.%.t.t.< + % % $ $ % k N N N N N K K K K K K K K K K K K K K K K K K J x x 7 + + + + + % % k &.&.&...b m m m m m m m m m m m m m m m m m m m N N N z = ; m Q Q t t t t t c B B B B B T T T T T K Q E E E E E E E E E E ^ ] [ [ [ [ @.@.@.@.@.@.@.@.@.@.@.=.%.%.=.=.=.=.=.=.=.=.=.=.=.=.%.%.%.=.=.=.=.=.t.t.t.2.;.;.;.;.a.d.d.d.d.d.f.f.f.f.f.j.j.F.G.L.d.% + + + O F *._ X.&.&.^ ^ _ ^ Q Q ^ ^ ^ _ _ _ _ _ _ X.V.z.^ ^ ^ ^ _ _ _ _ _ _ _ _ ^ ^ ^ ^ ^ ^ ^ ^ ^ ^ ^ ^ ^ ^ ^ ^ ^ ^ ^ ^ } ) @.@.@.} #.%.%.=.=.%.%.%.=.=.%.%.%.%.=.=.%.%.%.%.%.=.w.t.t.y.t.t.y.y.y.f.f.f.f.f.f.f.f.f.f.f.t.y.y.y.t.w.w.w.w.w.%.%.%.%.%.| } { ) ) ) ) ) ) ) ) ) ) ) ) ) ) ) ) ) ) ) ) ) ) ) ) ) ) | | | | | N.N.k.) S S / / { q.q.q.y.y.y.k.k.k.k.l.l.k.k.l.i.# # # # # # = v E ^ ^ ^ [ X.X.X.[ [ ] ^ ^ ^ ^ [ X.X.X.X.X.@.$.$.$.X.X.X.[ ^ ^ ^ ^ E E Q Q Q P P P P Q Q Q Q Q Q P P P P P P Q Q Q P P P Q Q K K K K K K K K Q K K 2 O O O O = 4 4 4 6 m E E ",
"W W W W W W W W } } } } } #.%.%.%.w.t.t.t.t.t.t.t.t.t.t.t.t.t.t.t.t.t.s.l.l.l.l.l.l.M.N.N.N.N.N.N.N.N.N.M.M.M.M.N.N.N.M.f.s.t.t.s.s.=.& % % + + % 7 N F N N N N N K K K K K K K K K K K K K K K K K N m s $ $ $ + + % s &.&.X.G m m m m m m m m m m z m m m m m m m m m m m N z = 4 B G b u t t t t u N B B B B V Q Q Q T T T Q E E E E E E E E E E [ [ [ [ [ ] [ @.@.@.@.@.@.@.@.@.@.$.=.=.=.=.=.=.=.=.%.%.=.=.=.=.=.=.=.=.=.=.=.=.;.;.;.;.t.;.;.a.d.d.f.f.d.d.f.f.d.d.d.f.f.f.d.d.2 O + + + + 6 Z.Z.Z.Z.Z.C.X.^ Q Q Q Q Q ~ ^ ^ ^ ^ ^ ^ ^ _ h._ _ _ _ ^ ^ ^ ^ ^ ^ _ _ ^ ^ ^ ^ ^ ^ ^ ^ ^ ^ ^ ^ ^ ^ ^ ^ ^ ^ ^ } } } @.} } } @.%.=.=.=.%.%.%.%.=.%.%.%.%.=.=.%.%.%.%.%.%.w.t.t.t.t.t.t.t.y.y.s.f.f.f.f.f.f.f.f.f.t.y.y.y.t.t.w.w.w.w.w.w.%.%.%.%.| | { ) ) ) ) ) ) ) ) ) ) ) ) ) ) ) ) ) ) ) ) ) ) ) ) { | | | | | M.N.N.| { | | | q.q.q.q.q.q.y.k.k.k.l.l.k.k.k.l.} # * # # # # : v c E ^ ^ X.X.[ [ [ [ X.X.X.X.X.X.[ [ @.@.$.$.$.$.$.[ X.X.[ [ ^ ^ ^ ~ E E E E Q P P P P P P P P P P P P P K K P P P P Q Q P P K K Q K K K V V V V K 2 O O + O = w 6 4 6 w B E ",
"W W W W W W W W W W ^ } } } #.%.%.%.%.w.t.t.t.t.t.t.t.t.t.t.t.t.t.t.t.t.f.l.l.l.l.l.l.n.N.N.N.N.N.N.N.N.M.M.M.N.N.J.T.T.T.f.s.s.s.y.s.^ % % + + % < F F F F N N N N N F J K K K K K K K K K K K K K K m k % % $ + + 2 &.X.G m m m m m m m m m m m m m m m m m m m m m m m m i ; k G G m t t t t t t ^ '.B B B B K Q Q Q T T T Q E E E E E E E ^ ^ [ [ [ [ [ ] ] ] [ @.@.@.@.@.@.@.@.@.@.%.=.=.=.=.=.=.=.%.%.=.=.=.=.=.=.=.=.=.=.=.=.;.;.;.;.t.a.d.d.d.d.f.f.d.d.f.f.d.d.d.f.f.f.d.a.2 % + + + + O h.Z.Z.Z.Z.Z.&.Q Q Q Q Q Q Q Q ~ ^ ^ ^ _ ^ Q ~ ^ _ _ _ ^ ^ ^ ^ ^ ^ _ ^ ^ ^ ^ ^ ^ ^ ^ ^ ^ ^ ^ ^ ^ ^ ^ ^ ^ ^ ^ } } } @.@.} } } #.=.=.=.=.%.%.%.%.%.%.%.%.=.%.%.%.%.#.=.%.%.w.t.t.t.t.y.t.y.y.y.y.f.f.f.f.f.f.f.y.t.t.y.y.t.t.t.w.w.w.w.w.w.%.%.%.%.| { { { } ) ) ) ) ) ) ) ) ) ) ) ) ) ) ) ) ) ) ) ) ) { | | | | | k.N.N.w.| | | %.q.q.q.q.q.q.q.k.k.k.l.l.k.k.k.l.i # # # # # # w v v c E ^ X.X.X.[ [ [ X.X.X.X.X.X.@.$.$.$.$.$.$.$.$.[ X.X.[ [ ^ ^ ^ ^ E E E E E Q Q P P P P P P K P P Q P K K P P P P Q P P P K K Q Q K K V V V V K 2 O O O O = 4 6 4 4 w u E ",
"W W W W W W W W W W W } } } } %.%.%.%.%.%.%.%.=.=.w.t.t.t.t.t.t.t.t.t.t.t.l.l.l.l.l.l.l.l.M.N.N.N.N.N.N.N.B.T.T.T.T.T.T.T.T.f.s.y.y.s.s.m % % % % % N F G F F N N N N N N N J K K K K K K K K K K K K G k + % $ $ 2 _ G m m m m m m m m m m m m m m m m m m m m m m m m m k t k G G m t u t u u t G '.'.B B B B K Q Q Q T T T Q E E E E E E ^ [ [ [ [ [ [ [ [ [ [ [ [ X.@.@.@.@.@.@.@.@.$.%.%.=.=.%.=.=.%.=.=.=.=.%.%.=.%.%.=.=.=.=.;.;.;.;.;.d.d.d.f.d.f.f.d.d.d.d.d.d.d.d.f.f.s.$.2 % + + O + O x Z.Z.Z.Z.g.~ Q Q Q Q Q Q Q Q Q Q ~ ^ _ ^ Q Q ^ ^ _ _ ^ _ ^ ^ ^ ^ ^ ^ ^ ^ ^ ^ ^ ^ ^ ^ ^ ^ ^ ^ ^ ^ ^ ^ ^ ^ ^ } } @.} @.} } } @.=.=.=.=.%.%.%.%.%.%.%.%.=.=.%.%.%.@.@.=.%.%.w.t.y.y.t.t.t.y.t.s.f.f.f.f.f.f.y.y.t.t.y.y.t.t.t.t.t.w.w.w.w.w.%.%.%.%.| { { { { { ) ) ) ) ) ) ) ) ) ) ) ) ) ) ) ) ) ) ) } } } | | | w.N.N.w.| | q.q.q.q.q.q.q.q.q.k.k.l.l.l.l.k.k.w.# # # # # # * - c v v v ^ X.X.X.X.[ @.@.@.@.@.$.$.$.$.$.$.$.$.$.$.$.X.X.X.X.[ ^ ^ ^ ^ ~ E E E E E E Q Q Q P P K K Q Q Q Q Q K P P K K Q Q P P K P P Q P P K V V V V O O O O O & 4 4 4 4 4 w E ",
"W W W W W W W W W W ^ } } } } #.%.%.%.%.%.%.%.%.%.%.%.%.%.w.t.t.t.t.t.t.t.s.l.l.l.l.l.l.l.l.M.N.N.N.N.B.T.T.T.T.T.T.T.T.T.T.T.f.y.y.y.s.y.4 % % % % 6 F F F G F G N N N N N N N J K K K K K K K K K K K K + % % & m m m m m m m m m m m m m m m m m m m m m m m m m m m m u t u N s t t u u u u G '.'.L.B B B B K Q Q Q Q Q T Q E E E E E E E ] [ [ [ [ [ [ [ [ [ ] [ [ [ [ X.@.@.@.@.@.@.$.%.=.%.%.=.=.=.=.=.=.%.%.%.=.%.%.%.%.=.=.;.;.;.;.;.a.d.d.f.f.f.f.d.d.d.d.d.d.d.f.f.d.t.@.2 ; + + O O O 7 h.Z.x.X.Q Q Q Q Q Q Q Q Q Q Q Q Q Q ~ ~ Q Q Q ^ _ _ _ _ ^ ^ ^ ^ ^ ^ ^ ^ ^ ^ ^ ^ ^ ^ ^ ^ ^ ^ ^ ^ ^ ^ ^ ^ ^ } @.@.} } @.} } } @.#.#.#.#.@.@.#.%.%.%.=.=.=.%.%.=.#.@.#.%.%.w.t.y.y.y.y.t.y.f.f.f.f.f.f.f.y.y.y.t.y.f.f.t.t.y.t.t.t.w.w.w.w.w.%.%.%.%.#.| { { { } { ) ) ) ) ) ) ) ) ) ) ) ) ) ) ) ) ) } } } | | | | N.N.| | | | | | %.q.q.q.q.q.i.k.l.l.l.l.k.t.= # # # # # # = - w v v v n X.X.X.@.$.$.$.$.$.$.$.$.$.$.$.$.$.$.$.$.$.X.X.X.X.^ ^ ^ ^ ^ ~ Q E E E E E E E Q Q P K K Q Q Q Q Q Q P P K Q Q Q P K P P P Q P P P K V V V 2 O O O O % 2 4 4 6 6 4 E ",
"W W W W W W W W W W } } } } } } %.%.%.%.%.%.%.%.%.%.%.%.%.%.%.=.t.t.t.t.t.t.f.l.f.f.j.l.l.f.l.N.N.N.B.T.T.T.T.T.T.T.T.T.T.T.T.T.l.s.s.s.s.=.% % % % % N G G F F F F N N N N N N N N J K K K K K K K K J K $ $ % s m m m m m m m m m m m m m m k i z m m m m m m m m m m m u t t t t t t t t u ^ '.'. X@.B B B B T T T Q Q Q T Q E E E E E E E ^ [ [ [ [ [ [ [ [ [ [ ] ] [ [ X.@.@.@.@.@.@.@.=.=.%.=.=.=.=.=.=.=.=.=.=.=.=.=.=.=.=.=.2.t.;.;.;.2.d.f.f.f.d.d.d.d.d.d.d.d.d.d.d.s.;.X.2 2 + + + + O 7 Q ~ Q Q Q Q Q Q Q Q Q Q Q Q Q Q Q Q Q Q Q Q Q E ^ ^ _ _ _ _ ^ ^ _ ^ _ ^ ^ ^ ^ ^ ^ ^ ^ ^ ^ ^ ^ ^ ^ ^ ^ ^ ^ ) @.@.@.} @.@.} @.) } } } @.@.} } @.#.=.=.%.#.#.#.#.=.#.@.=.=.w.t.y.y.t.t.y.f.f.f.f.f.f.f.f.y.y.y.t.f.f.f.y.y.t.t.t.t.y.t.w.w.w.w.w.%.%.%.%.#.| { } } | { ) ) ) ) ) ) ) ) ) ) ) ) ) ) ) ) | } | | } } | | | | } } | | | | | q.q.q.e.k.k.l.q.( A : # # # # # # # = - ; v v v v ^ X.$.$.$.$.$.$.$.$.$.$.$.$.$.$.$.$.$.$.$.X.X.X.X.] ^ ^ ^ ^ ^ ~ E E E E E E E E Q K P P P Q Q Q Q Q Q Q Q Q K K K K P K P P K K P K K K K 2 O O # # % 2 4 4 4 4 4 E ",
"W W W W W W W W W ^ W W ! ! ^ } #.%.%.%.%.%.%.%.%.%.%.%.%.%.%.%.%.t.t.t.t.t.y.l.l.l.M.l.l.f.l.M.N.N.T.T.T.T.T.T.T.T.T.T.T.T.T.T.T.M.s.s.s.s.B % % % % 6 G G F F F F F F N N N N N N N N J K K K K J N N m $ $ $ m m m m m m m m m m m m m i ; = = = t m m m m m m m m m m i t t t t t t t t X.'.'.'.*.B B B B B K K T T Q Q K K E E E E E E E E [ [ [ [ [ [ [ ] [ [ ] [ [ [ [ @.@.@.@.@.@.@.$.=.%.%.=.=.=.=.=.=.=.=.=.=.=.=.=.=.=.;.2.t.;.;.;.;.d.f.f.f.f.f.d.d.d.d.d.d.d.d.d.a.;.[ 2 2 O + + + O 7 G Q Q Q Q Q Q Q Q Q Q Q Q Q Q Q Q Q Q Q Q Q Q ^ ^ ^ _ _ _ _ ^ ^ ^ _ ^ ^ ^ ^ _ _ _ _ ^ ^ ^ ^ ^ ^ ^ ^ ^ ^ ^ ^ ) @.@.} @.@.} @.) } } } @.} } } @.@.@.#.@.@.} } } } } } #.=.w.w.t.t.t.t.y.f.f.f.f.f.f.f.f.y.y.y.s.f.f.f.f.y.y.y.t.t.y.y.t.w.w.w.w.w.%.%.%.%.%.#.| } | | | { ) ) ) ) ) ) ) ) ) ) ) ) ) ) ) | | | | } | | | } } | | | | | { | q.q.q.k.y.S A A A Z = # # # # # # = - - y v v v v @.$.$.$.$.$.=.=.=.=.;.;.;.;.;.=.$.$.$.$.X.X.X.X.] ^ ^ ^ ^ ^ ~ E E E E E E E E Q K P P Q Q Q Q Q P Q Q K Q Q Q K K P K K P P K P K K K K 2 O O # # % 2 4 4 4 4 6 E ",
"W W W W W W W W W W W W ! ! W } } %.%.%.%.%.%.%.%.%.%.%.%.%.%.%.%.%.t.t.t.t.t.y.l.l.M.N.N.N.N.N.N.J.T.T.T.T.T.T.T.T.T.T.T.T.T.T.T.T.N.s.s.s.s.4 + + + + N G F F F F F F F N N N N N N N N N J K K N N N m & $ $ m m m m m m m m m m m z 2 = = = = = = 6 m m m m m m m m m u t t t t t t t m G.H.a.T B B B B B K K T T T T K K Q E E E E E E E E ^ [ [ ] ^ E ^ [ [ [ [ [ [ [ [ @.@.@.@.@.@.@.$.=.=.=.=.=.%.%.%.=.=.=.=.=.=.=.=.;.;.2.;.;.t.t.;.;.a.d.f.f.f.f.f.f.d.d.d.d.f.f.d.;.;.^ 2 2 % + + + + 7 G Q Q Q Q Q Q Q Q Q Q Q Q Q Q Q Q Q Q Q Q ~ _ _ ^ _ _ _ _ ^ ^ ^ _ _ _ _ ^ _ ^ ^ ^ ^ ^ ^ ^ ^ ^ ^ ^ ^ ^ ^ ^ ^ ^ ) } } } } } } } } } } @.@.} } } } @.@.@.@.@.@.} } } } %.=.w.w.t.t.t.t.y.y.f.f.f.f.f.f.f.s.y.y.f.f.f.f.f.y.y.y.t.t.t.y.y.t.w.w.w.w.w.%.%.%.%.%.#.| | | | | } | } { ) ) ) ) ) ) ) ) ) ) ) ) | | | | | | | | | | | | | { | { q.q.q.w.A A A A A A 2 # # # # # # = - - : v v v v ^ $.$.$.=.;.;.;.;.=.;.;.;.;.;.;.$.$.$.#.[ X.X.X.^ ^ ^ ^ ^ ^ ^ E E E E E E E E Q P P P P K Q Q P P P K K K Q Q Q P P P Q P Q Q K K K K K 2 O O # # % ; 4 4 6 4 u E ",
"W W W W W W W W W W W W W ! W ) } %.%.%.%.%.%.%.%.%.%.%.%.%.%.%.%.%.=.t.t.t.t.t.y.f.l.N.N.N.N.N.J.T.T.T.T.T.T.T.T.T.T.T.T.T.T.T.T.T.T.N.s.s.s.#.+ + + + 6 F F G G G F F F F N N N N N N N N N N N N N N m < $ $ k m m m m m m m m m z ; = = = = = = = = m m m m m m b B k t t t t t t u c B B B B B B B B B B K K T T T K K K Q E E E E E E E E ^ [ ] [ E E E ^ [ [ [ [ [ [ [ @.@.@.@.@.@.@.$.=.=.=.=.=.%.%.%.=.=.=.%.%.=.=.;.;.t.;.;.;.;.;.;.;.;.d.f.f.f.f.f.f.f.d.d.f.f.f.a.t.;.^ 2 2 % + + + + 6 J Q Q Q Q Q Q Q Q Q Q Q Q Q Q Q Q Q Q Q Q ^ _ _ _ _ _ _ _ ^ ^ ^ _ _ _ _ _ _ ^ ^ ^ ^ ^ ^ ^ ^ ^ ^ ^ ^ ^ ^ ^ ^ ^ ^ ) ) ) } } } } } } @.@.@.} } } } } } @.@.} } } } #.R.OXt.w.w.t.t.t.t.y.y.s.f.f.f.f.f.f.f.f.f.f.f.f.f.f.f.y.y.t.t.t.t.y.t.w.w.w.w.w.w.%.%.%.%.%.%.| | | | } } } } ) ) ) ) ) ) ) ) ) ) ) ) ) } | | | } | | | | | | | { { | q.q.q.{ A A A A A Z - - # # # # # = - - - y v v v T $.$.=.;.;.;.;.;.;.;.;.;.;.;.;.=.$.$.@.[ [ X.X.^ ^ ^ ^ ^ ^ ^ ^ ~ ~ ~ ~ E E E E P P P P K K K P P P K K K Q Q Q P P P Q Q K V V V K K K 2 O O O O # ; 4 4 6 6 i E ",
"W W W W W W W W W W R W W W ^ } } #.%.%.%.%.%.%.%.%.%.%.%.%.%.%.%.%.%.w.t.t.t.t.t.t.y.s.N.B.T.T.T.T.T.T.T.T.T.T.T.T.T.T.T.T.T.T.T.T.T.T.n.y.y.y.m % % % % N F F F F F F F F F F N N N N N N N N x N N N N 2 + + t m m m m m m m m s & % % = = = = = = = m m m m b B B B t t t t u u s B B B B B B B B B B B B K T T Q Q K K K E E E E E E E E E ~ [ [ ] E E E ^ [ ] [ [ [ [ ] @.@.@.@.@.@.@.$.=.=.%.%.%.=.=.=.=.=.%.=.=.;.2.;.;.;.t.t.t.t.t.2.2.;.a.f.f.f.f.f.f.f.f.d.d.d.f.a.t.=.^ 2 2 % + + + + 6 Q Q Q Q Q Q Q Q Q Q Q Q Q Q Q Q Q Q Q Q E ^ ^ ^ ^ ^ _ _ _ _ _ _ ^ ^ ^ ^ ^ _ _ _ ^ ^ ^ ^ ^ ^ ^ ^ ^ ^ ^ ^ ^ ^ ^ ^ ^ ^ ^ ^ ^ } @.@.@.@.} } } @.@.@.@.@.} } } } } j.OX!.f.w.w.w.t.t.t.t.y.y.y.f.f.f.f.f.f.f.f.f.f.f.f.f.f.f.f.f.f.s.t.t.y.y.y.t.w.w.w.w.w.w.%.%.#.#.#.} | | | | } } ) ) ) ) ) ) ) ) ) ) ) ) ) ) { ) ) ) { } | | | | | | { | q.q.q.q.W A A | t.A - - - # # # # = - - - ; v v v v $.=.;.;.;.;.;.;.;.;.;.;.;.=.;.=.$.$.@.X.X.[ [ ^ ^ ^ ^ ^ ^ ^ ^ ^ ^ ^ ~ Q E E E Q P P P P P P P P P P P P P P P K P P K K V V V V K K V 2 O O O O O = 4 6 4 4 i E ",
"n A W W W W W W R A A A R W ^ } } } #.#.#.#.} } #.%.%.%.%.%.%.%.%.%.%.=.t.t.t.t.t.t.t.t.s.T.T.T.T.T.Q.T.T.T.T.T.T.T.T.T.T.T.T.T.T.T.T.T.T.f.s.y.y.& % % % 2 F F F F F F F F F F F N N N N N N N x x N N m 7 + + & m m m m m m m 4 % $ $ % = = = = = = - m m m m B B B B t t t t i b B B B B B B B B B B B B B K T T Q Q K K K Q E E E E E E E E E [ [ ^ E E E [ [ ] ] ] [ [ [ @.@.@.@.@.@.$.=.=.=.=.%.%.=.=.=.=.%.%.=.;.2.2.;.;.;.2.t.t.t.t.2.2.;.;.d.f.f.d.f.f.d.d.d.d.f.s.t.=.=.^ 2 2 O + + + + 6 Q Q Q Q Q Q Q Q Q Q Q Q Q Q Q Q Q Q Q Q ^ ^ ^ ^ ^ ^ ^ ^ _ _ _ _ ^ ^ ^ ^ _ _ _ _ ^ ^ ^ ^ ^ ^ ^ ^ ^ ^ ^ ^ ^ ^ ^ ^ ^ ^ ^ ^ ^ ^ @.} @.@.} } } } @.@.@.@.} } } #.R.OXQ.q.%.%.%.w.w.t.t.t.y.t.t.f.f.f.f.f.f.f.f.f.f.f.f.f.f.f.f.f.f.f.f.t.y.y.y.t.t.t.t.t.t.w.w.%.%.#.#.| | | | | } } ) ) ) ) ) ) ) ) ) ) ) ) ) ) ) ) ) ) ) } | | | | } | | q.q.q.q.q.( A ) B.B.i - - - - # # # = - - - 2 p v v v ^ ;.;.;.;.;.;.;.;.;.;.;.=.=.;.=.$.$.@.X.X.X.[ ^ ^ ^ ^ ^ ^ ^ ^ ^ ^ ^ ~ Q E E E E Q P P P P P P P P P P Q E Q P P P P K V V V V V K K K 2 O O O O O = 6 6 4 4 i E ",
"= = = n W W W R A A A A A W W ^ ) ) ^ W W W W W W } #.%.%.%.%.%.%.%.%.w.t.t.t.t.t.t.t.t.t.y.B.T.T.XXXXXX~.Q.T.T.T.T.T.T.T.T.T.T.T.T.T.T.T.B.s.s.s.W % + % $ k F G G F G F F G G G F N N N N N N x x N N N u + + $ s m m m m s & % $ $ $ = = = = = = = 2 m m m m B B B B b b b B B B B b B B B B B B B B B B B B T T Q Q K K T T Q E E E E E E E E ^ ^ E E E ^ [ [ [ [ [ [ [ [ [ @.@.@.@.@.=.=.=.=.=.=.=.=.=.=.=.%.=.;.;.;.;.;.;.2.2.2.2.;.;.;.2.;.;.a.f.d.d.d.d.f.d.d.d.d.t.t.=.=.Q % + + + + + + 6 Q Q Q Q Q Q Q Q Q Q Q Q Q Q Q Q Q Q Q Q ^ ^ _ _ _ _ ^ ^ ^ ^ _ _ ^ ^ _ _ _ _ _ _ ^ ^ ^ ^ ^ ^ ^ ^ ^ ^ ^ ^ ^ ^ ^ ^ ^ ^ ^ ^ ^ ^ ^ } } } } } } } } } } } } } w.XXOXR.%.%.%.%.q.w.w.t.t.t.y.y.t.s.f.f.f.f.f.f.f.f.f.f.f.f.f.f.f.f.f.f.f.t.y.y.t.t.t.y.t.y.y.t.y.w.w.%.%.| | | } { ) ) ) ) ) ) ) ) ) ) ) ) ) ) ) ) ) ) ) ) ) | | | | } } | q.q.q.q.q.q.W A l.B.@.- - - - - - = = - - - - : y v v v T ;.;.;.;.;.;.;.;.;.;.;.;.;.;.%.$.$.X.X.[ [ ^ ^ ^ ^ ^ ^ ^ ^ ^ ^ ^ ^ Q Q E E Q Q E Q P P Q Q P P P P Q E E P P P Q Q K V V V K K K K K 2 O O O O O = 4 4 4 4 4 = ",
"= = = W W W W A A A A A A T W W W W W W W W W W W ^ } #.%.%.%.%.%.%.%.t.t.t.t.t.t.t.t.t.t.t.k.k.N.Q.XXXXXXXX~.Q.T.T.T.T.T.T.T.T.T.T.T.T.T.T.l.s.s.s.t + % % % F G G G G F F G G G G F N N N N N N N N N N k + + $ < m m s < % % $ $ $ % = = = = = = = s m m m m m B B B B B B B B b m b B B B B B B B B B B B B B K Q Q Q Q T T Q Q Q Q E E E E E E E E E E [ [ [ [ [ [ [ [ [ [ @.@.@.@.$.=.=.%.=.=.=.=.=.=.=.%.%.=.;.;.;.;.;.;.2.2.2.2.;.;.2.2.;.t.t.s.d.d.f.d.d.d.d.d.a.;.;.=.=.Q = + + + + + + u Q Q Q Q Q Q Q Q Q Q Q Q Q Q Q Q Q Q Q Q ^ ^ _ _ _ _ ^ ^ ^ ^ _ _ ^ ^ _ _ _ _ _ _ _ ^ ^ ^ ^ ^ ^ ^ ^ ^ ^ ^ ^ ^ ^ ^ ^ ^ ^ ^ ^ ^ ^ ^ } } } } ) } ) } } } } l.OXOXN.%.%.%.%.%.w.w.w.t.t.y.y.t.t.s.f.f.f.f.f.f.f.f.f.f.f.f.f.f.f.f.f.f.f.f.y.t.t.t.y.y.t.t.t.t.y.t.w.%.%.| | | } ) ) ) ) ) ) ) ) ) ) ) ) ) ) ) ) ) ) ) ) ) { } | | | } } %.q.q.q.q.q.%.A ( B.B.2 - - - - - - - - - - - - - y h v v b ;.;.;.;.;.;.;.;.;.;.=.;.;.;.$.$.$.X.X.[ [ ^ ^ ^ ^ ^ ^ ^ ^ ^ ^ ^ ~ Q Q E E E Q E E Q P Q Q Q Q Q E E E Q Q P P Q Q Q K V V V K K K K 2 O O O O O = 4 4 4 4 4 = ",
"= = n W W W T A A A A A A A T R R T A A R W W W W W ^ } %.%.%.%.%.%.w.t.t.t.t.t.t.t.t.t.t.f.k.k.k.k.n.T.XXXXXXXX!.T.T.T.T.T.T.T.T.T.T.T.T.T.N.s.s.s.=.% % % % 2 G G F F F F G G G F F F N N N N N N N N N z + + $ $ % % % % $ % % % % = = = = = = = i B m m m m m m B B B B B B m m m b B B B B B B B B B B B B B B K K T T T T Q Q Q Q Q E E E E E E E E ^ [ [ [ [ [ [ [ [ [ [ @.@.@.@.@.=.%.%.=.=.=.=.=.=.%.%.=.t.t.t.t.t.2.;.t.;.;.;.;.;.;.;.;.;.t.;.s.d.d.d.d.d.d.a.;.;.=.=.%.K 2 + + + + + + s Q Q Q Q Q Q Q Q Q Q Q Q Q Q Q Q Q Q Q Q ^ ^ ^ _ ^ _ _ _ ^ ^ _ _ _ _ _ ^ ^ ^ ^ ^ ^ ^ ^ ^ ^ ^ ^ ^ ^ ^ ^ ^ ^ ^ ^ ^ ^ ^ ^ ^ ^ ^ ^ ^ ) } } } } } ) ) @.#.L.OXXXt.#.#.%.%.%.%.w.w.w.t.y.y.t.t.t.s.f.f.f.f.f.f.f.f.f.y.y.f.f.f.f.f.f.f.f.f.f.t.t.t.y.t.t.t.t.t.t.t.w.%.%.| } | | ) ) ) ) ) ) ) ) ) ) ) ) ) ) ) ) ) ) ) ) } } | | | | | | q.q.q.q.q.q.( A s.B.W - - - - - - - - - - - - - - y y v v v $.=.;.;.=.=.=.;.;.;.=.;.;.%.$.$.$.X.X.[ ^ ^ ^ ^ ^ ^ ^ ^ ^ ^ ^ ^ E E E E E Q Q E E E Q Q K Q E E E E Q K K K K Q P K K K K K K K K K 2 O O O O # = 2 4 4 4 2 = ",
"= Z W W R A A A A A A A A A A A A A A A A R W W W W W ) #.%.%.%.%.%.t.t.t.t.t.t.t.t.t.t.t.k.k.k.k.k.k.k.k.T.+X+XXXXXQ.T.T.T.T.T.T.T.T.T.T.T.B.s.s.s.t.m % + % % s G F F F F G G G F F F F F N N N N N N N N % % $ $ % % + % + + % % = = = = = = = 4 B B m m m m m m b B B B B m m m m b B B B B B B B B B B B B B B K K Q Q T T Q Q Q Q Q E E E E E E E E [ [ [ [ [ [ [ [ [ [ [ [ @.@.@.@.=.=.%.=.=.%.%.=.=.=.=.t.t.t.t.t.t.;.;.t.t.;.;.;.;.;.;.;.;.t.;.;.s.d.d.d.d.a.;.;.=.=.=.%.K 2 + + + + + + k Q Q Q Q Q Q Q Q Q Q Q Q Q Q Q Q Q Q Q ^ ^ ^ ^ _ ^ ^ _ _ ^ _ _ _ _ _ _ _ ^ ^ ^ ^ ^ ^ ^ ^ ^ ^ ^ ^ ^ ^ ^ ^ ^ ^ ^ ^ ^ ^ ^ ^ ^ ^ ^ ^ ^ ) } } } @.} } =. XOXR.#.#.#.#.%.%.%.q.w.w.w.t.y.y.t.y.t.y.f.f.f.f.f.f.f.f.y.y.y.y.f.f.f.f.f.f.f.f.f.t.t.t.t.t.t.t.t.t.t.t.w.%.%.#.| | | } ) ) ) ) ) ) ) ) ) ) ) ) ) ) ) ) ) ) ) | | | | | | | q.q.q.q.q.q.%.A W J.B.2 - - - - - - - - - - - - - - y y c v v ^ =.;.;.;.;.;.;.;.;.;.;.=.$.$.$.$.X.X.^ ^ ^ ^ ^ ^ ^ ^ ^ ^ ^ ^ ^ E Q E E E E E E E E E E E E E E E E Q K K K V K K K K K K K K K K K 2 O O O O % = 2 4 4 4 = = ",
"Z W W R A A A A A A A A A A A A A A A A A A T W W W W W } %.%.%.%.=.t.t.t.t.t.t.t.t.t.t.y.k.k.k.k.k.k.k.k.k.k.T.XXXXXX~.T.N.l.l.N.T.T.T.T.T.B.s.t.%.%.%.u % + + % z F F F F G G G G F F F F F N N N N N N N < + $ % % % + + + % % = = = = = = = ; B B B b m m m m m m B B B m m m m m b B B B B B B B B B B B B B B K Q T Q K K T Q Q Q E E E E E E E E E [ ^ ^ ^ E E [ [ [ ] ] [ @.@.@.@.$.=.=.=.=.%.%.=.=.=.;.t.;.;.t.2.2.;.;.t.t.;.;.;.;.a.t.;.;.;.2.;.;.s.d.d.a.;.;.=.=.=.=.%.G % + + + O + + z Q Q Q Q Q Q Q Q Q Q Q Q Q Q Q Q Q Q ^ ^ ^ ^ ^ ^ ^ ^ _ _ _ _ _ _ _ _ ^ ^ ^ ^ ^ ^ ^ ^ ^ ^ ^ ^ ^ ^ ^ ^ ^ ^ ^ ^ ^ ^ ^ ^ ^ ^ ^ ^ ^ ^ ^ ^ ) } } } } f.OXOXN.#.#.#.#.#.%.%.%.%.w.w.w.t.t.t.y.y.y.y.y.f.f.f.f.f.f.s.t.y.y.y.y.f.f.f.f.f.f.f.y.t.y.y.t.t.t.t.t.w.w.w.%.%.%.#.| | | | | } } } { ) ) ) ) ) ) ) ) ) ) ) ) ) { | } } | | | %.q.q.q.q.q.q.{ A B.J.^ - - - - - - - - - - - - - - - w y i v v E ;.;.;.;.;.;.;.;.;.;.=.$.$.$.$.@.X.X.^ ^ ^ ^ ^ ^ ^ ^ ^ ^ ^ ^ ^ E E E E E E E E E E E E Q E E E E Q P K K V V K V V K P P P K K K K 2 O O O O % = ; 4 4 4 = 4 ",
"W W R A A A A A A A A A A A A A A A A A A A A A R W W W ) #.%.%.%.w.t.t.t.t.t.t.t.t.t.t.f.k.k.k.k.k.k.k.k.k.k.k.k.T.XXXXXXJ.f.s.s.s.f.M.N.M.f.t.%.%.%.%.#.< % + % % N F F F F G G G F F F F F F N N N N N N < % $ $ % % + % % = = = = = = - t d b B B B b m m m m m m b B m m m m m m m B B B B B B B B B B B B B B Q Q T K K Q E E E E E E E E E E E E E E E E E E E ] [ ] ] ] ] @.@.@.@.@.=.=.=.=.%.%.=.=.;.;.;.;.;.2.2.2.2.;.t.t.2.;.2.2.t.;.;.;.;.;.;.;.;.a.;.;.;.=.=.=.=.=.$.T O + + + O O + Q Q Q Q Q Q Q Q Q Q Q Q Q Q Q Q E ^ ^ ^ ^ ^ ^ ^ ^ ^ ^ _ _ _ _ ^ ^ _ _ ^ ^ ^ ^ ^ ^ ^ ^ ^ ^ ^ ^ ^ ^ ^ ^ ^ ^ ^ ^ ^ ^ ^ ^ ^ ^ ^ ^ ^ ^ ^ ^ ^ ^ ) @.B.OXXXs.#.| #.#.#.#.%.%.%.%.w.w.w.t.t.t.y.y.y.y.y.y.f.f.f.f.f.y.t.y.y.y.y.s.f.f.f.f.f.s.y.y.y.y.t.w.w.w.w.w.%.%.%.%.%.| | | | | | | | | } } { } } { { ) ) ) ) ) ) ) | | } } | | | q.q.q.q.q.q.q.W i.=XJ.t - - - - - - - - - - - - - - - w y y v v T ;.;.;.;.;.;.;.;.;.=.$.$.$.$.@.X.X.[ ^ ^ ^ ^ ^ ^ ^ ^ ^ ^ ^ ^ ^ E E E E E E E E Q E E E Q Q Q E E P K K K V V V V V V K K K K K K K 2 O O O O % = ; 4 4 ; t V ",
"R A A A A A A A A A A A A A A A A A A A A A A A A W W W W } %.%.%.w.t.t.t.t.t.t.t.t.t.t.k.k.k.k.k.k.k.k.k.k.k.k.k.k.k.T.+X+XXXT.k.s.s.s.s.s.t.%.%.%.%.%.%.T + + % % % N F F F F G G F F F F G G F N N N N k = + % = = = = = = = = = = = t k k k B B B B B m m m m m m m m m b B B B B B B B B B B B B B B B B B B K Q Q Q Q K K E E E E E E E E E E E E E E E E E E E [ [ [ [ [ ] X.@.@.@.@.$.=.%.%.=.=.=.=.;.;.2.2.t.t.t.t.;.;.t.;.t.;.t.2.;.;.;.;.;.;.;.;.;.;.;.;.=.=.=.=.$.X.^ Q O O + + + + + Q Q Q Q Q Q Q Q Q Q Q Q Q Q E ^ ^ ^ ^ ^ ^ ^ ^ ^ ^ ^ ^ ^ ^ ^ ^ ^ ^ ^ ^ ^ ^ ^ _ _ _ _ ^ ^ ^ ^ ^ ^ ^ ^ ^ ^ ^ ^ ^ ^ ^ ^ ^ ^ ^ ^ ^ ^ ^ ^ ^ ^ ^ $. XOXR.#.} #.#.#.#.#.%.%.%.%.q.w.w.w.t.y.y.y.t.t.t.y.y.t.s.f.f.f.t.y.t.t.t.t.y.f.f.f.f.f.y.y.t.t.w.w.w.w.q.%.%.%.%.%.%.%.| | | | | | } } | | | } } } } } } } ) ) ) ) } | } | { | | | q.q.q.q.q.q.q.) yXyXs.- - - - - - - - - - - - - - - - w y y c v T ;.;.;.;.;.;.;.=.$.$.$.$.$.@.[ [ [ ^ ^ ^ ^ ^ ^ ^ ^ ^ ^ ^ ^ ^ ^ ~ E E E E E E E E E E E E E E E Q K K K K V V V K K K V V V V K K V ; O O O O % = = 4 1 4 V V ",
"A A A A A A A A A A A A A A A A A A A A A A A A A W W W W } #.%.%.w.t.t.t.t.t.t.t.t.t.w.y.k.k.k.k.k.k.k.k.k.k.k.k.k.k.k.k.T.+X+XXXQ.N.s.s.s.%.%.%.%.%.%.%.@.< + $ % % % N F F F G G F F F F G G F N N N N 2 = % = = = = = = = = = = 2 k k k k m B B B B B m m m m m m m m b B B B B B B B B B B B B B B B B B B B K Q Q Q Q K K E E E E E E E E E E E E E E E E E E E ^ [ [ [ [ [ [ @.@.@.@.@.=.%.%.=.=.=.=.;.;.2.2.t.;.t.t.;.;.;.;.a.a.;.;.;.;.;.;.;.;.;.;.;.;.;.=.=.=.$.X.^ ^ ^ Q + + + + + + + G Q Q Q Q Q Q Q Q Q Q Q Q ^ ^ ^ ^ ^ ^ ^ ^ ^ ^ ^ ^ ^ ^ ^ ^ ^ ^ ^ ^ ^ ^ ^ ^ ^ _ _ _ _ ^ ^ ^ ^ ^ ^ ^ ^ ^ ^ ^ ^ ^ ^ ^ ^ ^ ^ ^ ^ ^ ^ ^ ^ ^ ^ f.OXOXL.) ) ) #.#.#.#.#.%.%.%.%.q.w.w.w.t.y.y.t.t.t.t.y.y.t.t.t.t.y.t.y.y.t.t.t.t.f.f.f.f.y.y.t.t.w.w.w.q.%.%.%.%.%.%.%.%.| { | | | | | | } | | | | | } } | | | { ) { | | | } { { | | q.q.q.q.q.q.q.q.!.yXyXT - - - - - - - - - - - - - - - - 2 y y h v T =.;.;.;.;.=.$.$.$.@.@.X.X.[ [ [ ^ ^ ^ ^ ^ ^ ^ ^ ^ ^ ^ ^ ^ ^ ^ ^ ~ E Q E E E E E E E E E Q Q E K K K K K V V V K K K V V V V V V V % O O O O O = = = ; B V V ",
"A A A A A A A A A A A A A A A A A A A A A A A A A W W W W ^ } %.%.=.t.t.t.t.t.t.t.%.S S y.k.k.k.k.k.k.k.k.k.k.k.k.k.k.k.k.k.k.T.~.XXXXXXQ.M.%.%.%.%.%.%.#.W G < $ $ % % % N F F G F F F G G G G F N N N N = = = = = = = = = = = = 2 k k k k k B B B B B B m m m m m m m m B B B B B B B B B B B B B B B B B B B B B Q T Q T T T Q E E E E E E E E E E E E E E E E E E E [ [ [ [ [ [ @.@.@.@.@.%.=.=.=.=.=.=.;.;.2.2.;.;.2.2.2.2.;.;.;.;.;.;.;.;.=.=.;.;.;.;.;.;.=.=.%.X.' ^ X.X.^ Q + + + + + + + K Q Q Q Q Q Q Q Q Q Q Q E ^ ^ ^ ^ ^ ^ ^ ^ ^ ^ ^ ^ ^ ^ ^ ^ ^ ^ _ _ ^ ^ ^ ^ ^ ^ ^ ^ _ _ ^ ^ ^ ^ ^ ^ ^ ^ ^ ^ ^ ^ ^ ^ ^ ^ ^ ^ ^ ^ ^ ^ ^ W ) f.J.w.) ) ) @.#.#.@.@.%.%.%.%.%.%.w.w.w.t.t.t.t.t.t.t.y.y.y.t.t.y.y.y.y.y.y.t.t.t.y.f.f.y.y.y.t.t.w.w.q.%.%.%.%.%.%.%.%.| { { | | | | | | | | | | | | | | | | | | { { | | | | { { { q.q.q.q.q.y.y.q.y.yXyXyX- - - - - - - ; q y y 2 - - - - - ; y y i v T [ $.$.$.@.$.$.@.X.[ X.X.X.X.[ ^ ^ E E E ~ ~ ^ ^ ^ ^ ^ ^ ^ ^ ^ ^ ^ E Q Q E E Q E E E E E Q Q Q K V V K K K V V V K K V K V V V V V % O O O O O % = = u V V V ",
"Z Z Z Z A A A A A A A A A A A A A A A A A A A A T W W W W W } #.%.%.t.t.t.t.t.t.W Z S 9.k.k.k.k.k.k.k.k.k.k.k.k.k.k.k.k.k.k.k.k.k.B.!.XX+XQ.q.%.%.%.%.%.@.^ T T u $ % % % % d F F F F F F G G G G K ^ X.X.= = = = = = = = = = = 2 k k k k k B B B B B B B b m m m m m m m B B B B B B B B B B B B B B B B B B B B B B B Q Q T T Q E E E E E E E E E E E E E E E E E E E ^ [ [ [ [ [ @.@.@.@.@.%.=.=.=.=.=.=.;.;.2.2.;.;.2.2.2.2.;.;.;.;.;.;.;.;.=.=.=.=.;.;.;.=.=.=.@.^ ' X.X.X.^ Q + + + + + + + _ Q Q Q Q Q Q Q Q E ^ ^ ^ ^ ^ ^ ^ ^ ^ ^ ^ ^ ^ ^ ^ ^ ^ ^ ^ ^ ^ ^ _ _ ^ ^ ^ ^ ^ ^ ^ _ _ ^ ^ ^ ^ ^ ^ ^ ^ ^ ^ ^ ^ ^ ^ ^ ^ ^ ^ ^ ^ ^ ^ ) ) ) ) ) ) ) ) #.#.#.#.#.#.%.%.%.%.%.q.w.w.w.t.t.t.t.t.t.t.y.y.w.w.w.y.y.y.y.y.y.t.t.t.t.y.y.y.y.y.t.w.w.w.%.%.%.%.%.%.%.%.| { | { } | | | | | | | | | | | | | | | | { { { | | | | { | q.q.q.q.q.r.y.y.r.&XyXyXJ.- - - - - - 2 y y y y y - - - - - - y y i c T E ^ ^ ^ ^ ^ ^ ^ ] [ [ [ ] ^ ^ ^ E E E E E E Q ^ ^ ^ ^ ^ ^ ^ ^ ^ E E E Q E E Q E E E E E E E K K V V K K K V V V K K K K V V V V V & O O O O O % = = B V V V ",
"Z Z Z Z A A A A A A A A A A A A A A A A A A A A R W W W W W } #.%.%.t.t.t.t.%.S Z ( T.k.p.y.k.k.k.k.k.k.k.k.k.k.k.k.k.k.k.k.k.k.k.k.k.k.Y.T.k.w.%.%.%.%.} ) T T G B 2 + $ + + 6 F F F F F F F K @.@.@.@.s = = = = = = = = = = ; k k k k c B B B B B B B B B m m m m m m m B B B B B B B B B B B B B B B B B B B B B B B K K K K Q E E E E E E E E E E E E E E E E E E E E [ [ [ [ [ @.@.@.@.@.=.=.=.=.=.=.;.2.2.;.;.2.2.;.;.t.t.;.;.;.;.=.=.=.=.=.=.=.=.=.=.=.=.=.=.@.^ ^ ^ ' X.^ Q + + + + O O 6 o.Q Q Q Q Q Q E ^ ^ ^ ^ ^ ^ ^ ^ ^ ^ ^ ^ ^ ^ ^ ^ ^ ^ ^ ^ ^ ^ ^ ^ _ ^ ^ ^ ^ ^ ^ ^ ^ _ _ ^ ^ ^ ^ ^ ^ ^ ^ ^ ^ ^ ^ ^ ^ ^ ^ ^ ^ ^ ^ ^ W ) ) ) ) ) ) ) } #.#.| | | %.%.%.%.%.%.q.w.w.w.w.t.t.t.t.t.t.y.t.w.w.w.w.t.t.t.t.t.t.y.y.t.t.y.t.t.t.t.w.w.%.%.%.%.%.#.#.%.| | | } } } } | | } | | | | | | | | | | | %.%.| { | | | | | q.q.q.q.q.r.y.y.y.y.tXyXyXQ - - - - - : y y y y y y - - - - - - w y y b T Q ^ ^ ^ ^ ^ ^ ^ ^ ^ ^ ^ ~ ~ ^ ~ E E E E E E Q ~ ^ ^ ^ ^ ^ ^ ^ E E E Q E E E E E E E E E E Q K K K V V V V V V V V V K K K K K K N = # # O O % & = ; V V V V ",
"Z Z Z Z A A A A A A A A A A A A A A A A A A A A W W W ! W W ) } %.%.t.t.t.%.A Z ( Q.T.y.y.y.r.p.k.k.k.k.k.k.k.k.k.k.k.k.k.k.k.k.k.k.k.k.k.k.k.k.y.%.%.%.} ) W Y K T Y m & % + + % z E ~ ~ Q ~ @.@.@.@.X.= = = = = = = = = = = s k k k b B B B T B B B B B B B b m m m m b B B B B B B B B B B B B B B B B B B B B B B K Q K K K Q E E E E E E E E E E E E E E E E E E E E [ [ [ ] ] @.@.@.@.@.=.=.=.=.=.=.2.2.2.;.;.2.2.;.;.t.t.;.;.;.=.=.=.=.=.=.=.=.=.=.=.=.=.=.=.$.^ ^ ^ ' ' ^ Q + + + + O O o.O.Q K Q Q Q ^ ^ ^ ^ ^ ^ ^ ^ ^ ^ ^ ^ ^ ^ ^ ^ ^ ^ ^ ^ ^ ^ ^ ^ ^ ^ ^ ^ ^ ^ ^ ^ ^ ^ ^ _ _ ^ ^ ^ ^ ^ ^ ^ ^ ^ ^ ^ ^ ^ ^ ^ ^ ^ ^ ^ ^ ^ ^ ^ ^ ^ W ) ) ) #.#.#.| | | #.%.%.%.%.%.w.w.w.w.t.t.t.y.t.t.t.t.w.w.w.w.w.t.t.t.t.t.t.y.y.t.t.y.t.t.t.t.w.w.%.%.%.%.%.#.%.#.| | } } } } } | | } } | | | | | | | | | | q.q.q.q.q.| | %.q.q.q.q.q.q.y.y.y.y.W.yXyXyX4 - - - - - 2 y y y y y w - - - - - - 2 y y B T T Q Q Q Q Q E E E E E E Q Q E E E E E E E E Q ~ ^ ^ ^ ^ ^ ^ E E E E Q Q E E E E E E E E Q P K K K K V V V V V V K V K K K K K K K = = = = = = = = 4 V V V V ",
"Z Z Z Z A A A A A A A A A A A A A A A A A A A R W W W W W W ^ } #.%.t.t.q.S Z ( Q.Q.p.y.y.y.y.y.y.k.k.k.k.k.k.k.k.k.k.k.k.k.k.k.k.k.k.k.k.k.k.k.k.y.%.%.} ) ) ^ T T Y T G 4 % % % % ^ @.@.@.@.@.@.@.@.m = = = = = = = = = = 2 k m B B B B ^ %X[ B B B B B B B B B B m m B B B B B B B B B B B B B B B B B B B B B B V Q Q Q K K Q E E E E E E E E E E E E E E E E E E E ^ [ [ [ [ [ X.@.@.@.$.=.%.%.=.=.;.;.t.t.t.t.2.2.;.;.t.t.;.;.;.=.=.=.=.%.=.=.=.=.%.=.%.%.=.=.=.X.^ ^ ^ ^ ^ Q O + + + + 4 *.o.z s Q Q ^ ^ ^ ^ ^ ^ ^ ^ ^ ^ ^ ^ ^ ^ ^ ^ ^ ^ ^ ^ ^ ^ ^ ^ ^ ^ ^ ^ ^ ^ ^ ^ ^ ^ ^ ^ ^ _ ^ ^ ^ ^ ^ ^ ^ ^ ^ ^ ^ ^ ^ ^ ^ ^ ^ ^ ^ ^ ^ ^ ^ ^ ^ ^ ) ) ) #.#.#.| | #.@.%.%.%.%.q.w.w.w.w.t.y.y.y.y.t.w.w.w.w.w.w.w.t.t.t.t.t.y.y.y.t.t.y.y.t.t.t.w.w.%.%.%.%.%.%.%.| | | | | | | | | | } } | | | | } } | } } | q.q.q.q.q.q.q.q.q.q.q.q.q.y.y.y.y.i.yXyXyX=X- - - - - - - y y y y y : - - - - - - ; y y B T T T T Q Q Q E E E E E E Q Q E E E E Q Q Q E Q ~ ^ ^ ^ ^ ~ E E E E E E Q E E E E E E E Q P P K K K K V V K K K K K K K K K V K K T ; = = = = = = = 4 V V V V ",
"Z Z Z Z A A A A A A A A A A A A A A A A A A A R W W W W W W W } } %.t.t.S Z ( Q.Q.n.q.r.y.y.y.y.y.y.i.k.k.k.k.k.k.k.k.k.k.k.k.k.k.k.k.k.k.k.k.k.k.k.w.%.} ) ) ) W T T T T T < % % % < X.@.@.@.@.@.T y : = = = = = = = = = = u B B B B B $.4XOXB B B B B B B B B B B B B B B B B B B B B B B B B B B B B B B B B V T Q Q T Q K T Q E E E E E E E E E E E E E E E E E E ^ [ [ [ [ ] ] X.@.@.@.$.%.%.%.=.=.;.;.t.t.t.t.2.2.;.;.t.t.;.;.=.=.=.=.%.%.=.=.=.=.%.%.%.=.=.=.%.^ ^ ^ ' ^ ^ Q + + + + O N *...k s N E ^ ^ ^ ^ ^ ^ ^ ^ ^ ^ ^ ^ ^ ^ ^ ^ ^ ^ ^ ^ ^ ^ ^ ^ ^ ^ ^ ^ ^ ^ ^ ^ ^ ^ ^ ^ ^ _ ^ ^ ^ ^ ^ ^ ^ ^ ^ ^ ^ ^ ^ ^ ^ ^ ^ ^ ^ ^ ^ ^ ^ ^ ^ ^ ) ) ) #.#.#.#.#.#.@.#.%.%.%.w.w.w.w.w.w.y.y.y.y.t.w.w.w.w.w.w.w.w.t.t.t.t.w.t.y.t.t.y.y.t.t.t.w.w.%.%.%.%.%.%.%.#.| | | | | | | | | } } | | | | } | | } } | q.q.q.q.q.q.q.q.q.q.q.q.y.y.y.y.y.&XyXyXyXf.- - - - - - - 2 y y y 2 - - - - - - - - w y V T T T T T T T Q Q E E E E Q Q E Q T Q E E Q E Q Q ^ ^ ^ ~ E E E Q Q Q E E E E E E E E Q P Q Q K K K V V V K K K K K K K K V V K T T 6 = = = = = = = 4 V V V V ",
"Z Z Z Z Z A A A A A A A A A A A A A A A A A R W W W W W W W W ) } } t.W Z ( Q.Q.n.9.9.9.y.y.y.y.y.y.y.y.y.p.k.k.k.k.k.k.k.k.k.k.k.k.k.k.k.k.k.k.k.k.f.%.} ) ) ^ ) ^ T T T T b $ $ $ % k @.^ E b i t t = = = = = = = = = = = c B B B B j.4X4X[ B B B B B B B B B B B B B B B B B B B B B B B B B B B B B B B B B K Q Q Q T T T Q Q E E E E E E E E E E E E E E E E E ^ ] [ [ [ [ ] [ @.@.@.@.$.%.%.%.=.;.;.;.;.;.;.t.t.t.t.t.;.;.;.;.;.=.=.=.=.=.=.%.%.%.%.=.=.=.=.=.$.X.^ ^ ^ ^ ^ ^ + + O O + 7 *._ s s k ^ ^ ^ ^ ^ ^ ^ ^ ^ ^ ^ ^ ^ ^ ^ ^ ^ ^ ^ ^ ^ ^ ^ ^ ^ ^ ^ ^ ^ ^ ^ ^ ^ ^ ^ ^ ^ ^ ^ ^ ^ ^ ^ ^ ^ ^ ^ ^ ^ ^ ^ ^ ^ ^ ^ ^ ^ ^ ^ ^ ^ ^ ^ ^ ^ ^ ) ) #.#.#.#.#.@.@.#.%.%.q.w.w.w.w.w.w.y.y.y.t.t.w.w.w.w.w.w.w.w.w.w.w.w.w.w.t.t.t.y.y.t.t.t.w.w.%.%.%.%.%.%.%.%.{ | | | | } } | | | | | } | | | | { { {  .q.q.q.y.y.y.y.r.q.q.q.y.y.y.y.y.p.yXyXyXyXB - - - - - - - - ; 2 ; - - - - - - - - - 2 y T T T T T T T T T T Q Q E E E Q T T T T Q Q Q E E E ~ ~ E E E Q Q Q Q Q Q Q Q Q Q Q Q K K T T K V V V K K K V V V V V V V V V V K T T m = = = = = = = ; V V V V ",
"Z Z Z Z Z A A A A A A A A A A A A A A A A A W W W W W W W W W W } } ) Z %.Q.Q.n.9.9. . .q.y.y.y.y.y.y.y.y.y.y.p.k.k.k.k.k.k.k.k.k.k.k.k.k.k.k.k.k.k.k.@.) ) ) ^ ) ) ^ ^ ^ T K $ $ $ = = t t t t t t t = = = = = = = = = = = c B B T U.4X4Xa.B B B B B B B B B B B B B B B B B B B B B B B B B B B B B B B B B B B K Q Q T T T T E E E E E E E E E E E E E E ^ ~ E ^ [ ] [ [ [ [ ] [ @.@.@.@.$.%.=.=.=.;.;.;.;.;.;.;.t.t.;.;.2.2.t.t.;.=.=.=.=.=.=.=.%.=.=.=.=.=.=.=.X.X.^ ^ ^ ' ^ B + + O O + + 7 ~ s s s ^ ^ ^ Q B u u u u c B ^ ^ ^ ^ ^ ^ ^ ^ ^ ^ ^ ^ ^ ^ ^ ^ ^ ^ ^ ^ ^ ^ ^ ^ ^ ^ ^ ^ ^ ^ ^ ^ ^ ^ ^ ^ ^ ^ ^ ^ ^ ^ ^ ^ ^ ^ ^ ^ ^ ^ ^ ^ ^ ^ W ) ) @.#.#.#.#.@.@.#.%.%.%.w.w.w.w.w.w.y.t.y.t.y.t.w.w.w.w.w.w.w.w.w.w.w.w.w.w.t.t.y.y.t.t.t.t.w.%.%.%.%.%.%.%.%.{ | | | | } } | | | | } } { { | | { { | q.q.q.q.y.y.y.y.y.y.y.y.y.y.y.y.y.k.yXyXyXyX- - - - - - - - - - - - - - - - - - - - - ; B #.T T T T T T T T T T T T Q Q T T T T T Q Q Q E E E E Q E E E T Q Q T T T T T T T T T T T T T V V V K K K K V V V V K V V V V V K T T T ; = = = = = = = B V V V ",
"Z Z Z Z Z Z A A A A A A A A A A A A A A A R W W W W W W W W W W ) } ( M.Q.Q.J.q. . . . . .r.y.y.y.y.y.y.y.y.y.y.y.p.k.k.k.k.k.k.k.k.k.k.k.k.k.k.k.k.%.) ) ) ^ ^ ) ) ^ ^ ) ) W % + % = = = t t t t t t = = = = = = = = = = = i B [ ;X4XG.! T V B B B B B B B B B B B B B B B B B B B B B B B B B B B B B B B B B B B Q Q Q Q Q E E E E E E E E E E E E E E ^ [ [ [ [ [ [ [ [ [ [ [ [ @.@.@.@.$.=.=.=.;.;.;.;.;.;.;.;.2.2.;.2.2.2.t.t.t.=.=.=.=.=.=.=.=.=.=.=.=.=.=.$.X.X.^ ^ ' ' ^ N + + + + + + + m s s s E B 2 + + + + + + + + + 2 c ^ ^ ^ ^ ^ ^ ^ ^ ^ ^ ^ ^ ^ ^ ^ ^ ^ ^ ^ ^ ^ ^ ^ ^ ^ ^ ^ ^ ^ ^ ^ ^ ^ ^ ^ ^ ^ ^ ^ ^ ^ ^ ^ ^ ^ ^ ^ ^ ^ ^ ^ ^ ) ) @.#.#.#.#.#.@.#.#.%.%.%.w.w.w.w.w.t.t.t.t.t.t.w.w.w.w.w.w.w.w.w.w.w.w.w.w.w.t.t.t.t.t.t.t.w.%.%.%.%.| | | | | | | | | } | | | | | } } | | | | { | q.q.q.q.q.y.y.y.y.y.y.y.y.y.y.y.y.y.m.yXyXyXJ.- - - - - - - - - - - - - - - - - - - - - c #.@.T T T T K V K T T T T T T Q Q T T T T Q E Q Q E E E Q E E Q T T T T T T T T T T T T T T T K V V V V V K K K V K K K K K V V K K T T T u = = = = = = = i V V V ",
"Z Z Z Z Z Z A A A A A A A A A A A A A A A W W W W W W W W W W W W y.Q.Q.Q.Q.w. . . . . . .q.y.y.r.r.y.y.y.y.y.r.y.y.y.p.k.k.k.k.k.k.k.k.k.k.k.k.k.t.) ) ) ) ) ) ) ) ) ^ ) ) ) 2 % = = = = : t t t t t = = = = = = = = = = = : C.4X2X=.^ T T T T B B B B B B B B B B B B B B B B B B B B B B B B B B B B B B B B B B B Q Q Q E E E E E E E E E E E E E E E [ [ [ [ [ [ [ [ [ [ [ [ X.@.@.@.@.=.=.=.=.=.=.;.;.;.;.2.2.2.2.;.2.2.2.t.t.t.;.=.=.=.=.=.=.=.=.=.=.=.=.=.X.^ ^ ^ ^ X.X.^ m + + + + + + + % s s s 6 + + + + + + + + + + + + + % m E Q K K Q ^ ^ ^ ^ ^ ^ ^ ^ ^ ^ ^ ^ ^ ^ ^ ^ ^ ^ ^ ^ ^ ^ ^ ^ ^ ^ ^ ^ ^ ^ ^ ^ ^ ^ ^ ^ ^ ^ ^ ^ ^ ^ ^ ^ ^ ) ) ) @.#.#.#.#.@.#.#.%.%.%.w.w.w.w.w.t.t.t.t.t.t.w.w.w.w.w.w.w.w.w.w.w.w.w.w.w.t.t.t.t.t.t.t.w.w.%.%.| { { { { | | | | | | | | | | | | | | | | } { q.q.q.q.q.q.q.y.y.y.y.y.y.y.y.y.y.y.y.n.tXyXyXB - - - - - - - - - - - - - - - - - - - - t $.#.E T T T T T K B B V K T T T Q Q T T T T Q T Q Q Q Q E E E E Q Q T T T T T T T T T T T T T K V V V V V K K K K V K K K K K K K K K T T T b = = = = = = = ; B V V ",
"Z Z Z Z Z Z Z A A A A A A A A A A A A A A R W W W W W W W W W W #.Q.Q.Q.Q.k.9.9. . . . . . .q.r.r.y.y.y.y.y.r.r.y.y.y.y.y.k.k.k.k.k.k.k.k.k.k.k.i.} @.#.@.} ^ ^ ) ) ^ ) ) ) ) 6 = = = = = = 2 t t t t = = = = = = = = = 2 | | M.OX} ^ ^ W E E E T V B B B B B B B B B B B B B B B B B B B B B B B B B B B B B B B B B B Q Q Q E E E E E E E E E E E E E ^ [ [ [ [ [ ] [ ] [ [ X.@.@.@.@.@.@.=.=.=.=.=.=.=.=.;.;.t.;.;.2.2.2.2.;.t.t.;.;.;.;.;.=.=.=.=.=.=.=.=.=.=.^ ^ ^ ' X.X.X.^ z + + + + + + + % u s < + + + + + + + + + + + + + + + % N K K K K K ^ ^ ^ ^ ^ ^ ^ ^ ^ ^ ^ ^ ^ ^ _ ^ ^ ^ ^ ^ ^ ^ ^ ^ ^ ^ ^ ^ ^ ^ ^ ^ ^ ^ ^ ^ ^ ^ ^ ^ ^ ^ ^ ^ W ) ) ) ) #.#.@.@.#.#.#.%.%.%.w.w.w.w.y.y.t.y.y.t.w.w.w.w.w.w.w.w.w.w.w.w.w.w.w.w.t.t.t.t.t.w.w.w.%.%.| | { | %.| | | } } } } | | | | } | | | | } %.q.q.q.q.q.q.q.y.y.y.y.y.y.y.y.y.y.y.y.m.=XyXY.d - - - - - - - - - - - - - - - - - - - t $.%.@.T T T T T T K B B B B B V K T Q T T T T T T T T T T T Q Q E E Q T T T T T T T T T T T T T K K K V K K K K K K K K K V V V V K K K T T T T = = = = = = = = t V V ",
"Z A Z Z Z Z Z A A A A A A A A A A A A A A T W W W W W W W W W W ) q.T.Q.Q.q.9.9. . . . . . . . .q.r.y.y.y.y.r.r.y.y.y.y.y.y.p.k.k.k.k.k.k.k.k.k.#.#.#.#.#.#.) ^ ) ) ^ ^ ) ) M ; = = = = = = = 4 t t t = = = = = = = = = = W | | | } ^ ^ ^ ^ ! E E T V B B B B B B B B B B B B B B B B B B B B B B B B B B B B B B B B B B K Q Q E E E E E E E E E E E ^ [ [ [ [ [ [ ] [ ] @.@.@.@.@.@.@.@.$.=.=.%.=.=.=.=.=.=.;.t.t.;.;.2.2.2.;.t.t.;.;.;.;.;.;.;.=.=.=.=.=.=.=.%.^ ^ ^ ^ ^ X.X.^ k + + + + + + O % 1 1 % + + + + + + + + + + + + + + + + < K K K K K Q ^ ^ ^ ^ ^ ^ ^ ^ ^ ^ ^ ^ _ _ ^ ^ ^ ^ ^ ^ ^ ^ ^ ^ ^ ^ ^ ^ ^ ^ ^ ^ ^ ^ ^ ^ ^ ^ ^ ^ ^ ^ ^ ^ ) ) ) ) ) } #.@.#.#.#.%.%.%.w.w.w.w.y.t.t.y.t.t.w.w.w.w.w.w.w.w.w.w.w.w.w.w.t.t.y.t.t.w.w.w.w.w.w.%.%.| | #.%.%.| | } } } } } | | | } } | | | | q.q.q.q.q.q.q.q.q.y.y.y.y.y.y.y.y.y.y.y.n.&XT.n.k.i - - - - - - - - - - - - - - - - - 2 #.%.$.Q T T T T T T T V B B B B B B B K K T T T T T T T T T Q T T T Q Q T T T T T T T T T T T T T T T T T K K K K K K K K K K K K K K T T T T T T = = = = = = = = k V V ",
"Z Z Z Z Z Z A A A A A A A A A A A A A A A A T R W W W W W W W ) ) ) | B.J. .9.9. . . . . . . . .9. .q.r.y.y.y.y.y.y.y.y.q.q.q.y.k.k.k.k.k.k.k.%.#.#.#.#.#.#.@.^ ) ) ) ) @.) = = = = = = = = = = : t 2 = = = = = = = = = = w | | | | } ^ ^ ^ ^ ! T T T V B B B B B B B B B B B B B B B B B B B B B B B B B B B B B B B B B B K Q Q Q E E E E E E E E ~ ] [ [ [ [ [ [ [ [ @.@.@.@.@.@.@.@.@.$.=.=.%.%.=.=.=.=.=.;.t.t.;.;.2.2.t.;.2.a.;.;.;.;.;.;.=.=.%.%.=.=.=.=.=.@.^ ^ ^ ^ ^ ^ ^ k + + O O + + + % 1 1 = % + + + + + + + + + + + + + + + + 2 K K K K K ^ ^ ^ ^ ^ ^ ^ ^ ^ ^ ^ _ ^ ^ ^ ^ ^ ^ ^ ^ ^ ^ ^ ^ ^ ^ ^ ^ ^ ^ ^ ^ ^ ^ ^ ^ ^ ^ ^ ^ ^ ^ ^ ^ ) ) ) ) ) ) ) @.#.#.#.%.%.%.w.w.w.w.t.t.t.y.t.w.w.w.w.w.w.w.w.w.w.w.w.t.t.y.y.t.y.w.w.w.w.w.w.w.w.%.%.%.| %.%.%.| | | | | | | | | | | } | | | q.q.q.q.q.q.q.q.q.q.y.y.y.y.y.y.y.y.y.y.y.n.n.n.n.n.n.i - - - - - - - - - - - - - - - 2 @.%.%.E T T T T T T T T K V V B B B B B V B B V K K T T T T T Q T Q Q T T T T T T T T T T T T T T T T T T T T T T T T T T T T T T T T T T T T T T T = = = = = = = 4 V V V ",
"n Z Z Z Z Z Z A A A A A A A A A A A A A A A A A W W W W W ( ) ) ) ) ) { i. .9.9. . . . . . . . . . .| | y.y.y.y.y.y.r.| | | | | i.k.k.k.k.k.i.#.%.w.%.#.#.#.#.#.} } @.#.#.c = = = = = = = = = = = = = = = = = = = = = = = = W | | | | } ^ ^ ^ ^ ! T T T B B B B B B B B B B B B B B B B B B B B B B B B B B B B B B B B B B B B K Q Q E E E E E E ^ [ [ [ [ [ [ [ [ [ [ @.@.@.@.@.@.@.@.@.@.=.=.%.%.=.=.=.=.=.;.t.t.t.;.;.2.t.t.2.2.;.;.;.;.;.;.=.=.%.%.%.%.=.=.=.%.^ ^ ^ ^ ^ ^ E k O O O O + + + & 1 1 1 1 < < 1 = & % + + + + + + + + + + + u K K K K ^ ^ ^ ^ ^ ^ ^ ^ ^ ^ ^ _ ^ ^ ^ ^ ^ ^ ^ ^ ^ ^ ^ ^ ^ ^ ^ ^ ^ ^ ^ ^ ^ ^ ^ ^ ^ ^ ^ ^ ^ ^ ^ ^ W ) ) ) ) ) ) } #.#.#.%.%.%.%.w.w.w.t.t.t.w.w.w.w.w.w.w.w.w.w.w.w.w.w.t.y.y.y.y.y.w.w.w.w.w.w.w.w.%.%.%.%.%.%.#.| | | | | | | | | | | } | | %.q.q.q.q.q.q.q.q.q.q.r.y.y.y.y.y.y.y.y.y.p.n.n.n.n.n.n.k.- - - - - - - - - - - - - - 2 b B ^ ^ T T T T T T T T T Q K V B B B B B B B B B B B B V V K K T T T T T T T T T T T T T T T T T T T T T T T T T T T T T T T T T T T T T T T T T T K = = = = = = 2 B V V V ",
"b B n Z Z Z Z Z A A A A A A A A A A A A A A A R W W W W ( ) ) ) ) ) ) ) ) | 9.9. . . . .9.9.9.9. . . . .y.y.y.y.y.y.9.| | | | | | k.k.k.k.k.#.#.w.w.w.%.#.#.#.#.#.#.#.#.#.2 = = = = = = = = = = = = = = = = = = = = = = = = w | | | #.#.} ^ ^ ^ W W T T T B B B B B B B B B B B B B B B B B B B B B B B B B B B B B B B B B B B B Q Q E E E E E ^ [ [ [ ] [ [ [ ] ] ] X.@.@.@.@.@.@.@.@.@.@.$.%.=.=.=.=.=.=.=.;.;.;.;.;.;.;.t.t.2.;.;.;.;.;.;.=.=.=.=.=.%.%.%.=.=.=.@.^ ^ ^ ^ ^ Q k + O O O + + + = 1 1 1 1 1 1 1 1 1 1 1 ; & % + + + + + + + + N K K K ^ ^ ^ ^ ^ ^ ^ ^ ^ ^ ^ ^ ^ ^ ^ ^ ^ ^ ^ ^ ^ ^ ^ ^ ^ ^ ^ ^ ^ ^ ^ ^ ^ ^ ^ ^ ^ ^ ^ ^ ^ ^ ^ ^ ^ ) ) ) ) ) ) ) #.#.#.#.%.%.%.w.w.w.w.w.w.w.q.%.%.%.q.w.w.w.w.w.w.w.w.y.t.t.t.y.t.t.t.w.w.w.w.w.w.w.%.%.%.%.| { | | | | | | | | | | | { { | q.q.q.q.q.q.q.q.q.q.q.q.y.y.y.y.y.y.y.y.y.k.n.n.n.n.n.Y.W.- - - - - - - - - - - - - - B B B B B T T T T T T T T T T K B B B V B V B B B V V V V B B B B V V K K K K T T T T T T Q Q T T T T T T T T T T T T T T T T T T T T T T T T T T T T B = = = = = = w m c b B ",
"b b B B n Z Z Z Z A A A A A A A A A R T T T R W W W W W ) ) ) ) ( W W ) ) ) { | | { { | 9.9.9.9.|  . .q.y.y.y.y.y.q.| | | | | | | p.k.k.k.t.#.%.w.w.w.w.#.#.#.#.#.#.#.#.) = = = = = = = = = = = = = : 2 = = = = = = = = = = = A | | #.#.#.} ^ ^ ^ ^ W T T T B B B B B B B B B B B B B B B B B B B B B B B B B B B B B B B B B B B Q Q Q E E E ^ [ [ [ [ [ [ @.@.@.@.@.@.@.@.@.@.@.@.@.@.@.@.@.=.=.=.=.=.=.=.=.;.;.;.;.;.;.;.t.t.2.;.;.;.;.;.;.=.=.=.=.=.=.=.%.=.=.=.=.X.^ ^ ^ X.X.k O + O O + + + ; 1 1 1 1 1 2 u s k 2 1 1 1 1 1 < & % % + + + 2 K K *.^ ^ ^ ^ ^ ^ ^ ^ ^ ^ ^ ^ ^ ^ ^ ^ ^ ^ ^ ^ ^ ^ ^ ^ ^ ^ ^ ^ ^ ^ ^ ^ ^ ^ ^ ^ ^ ^ ^ ^ ^ ^ ^ ^ ^ W ) ) ) ) ) ) | #.#.#.%.%.%.%.w.w.w.w.q.%.%.%.%.%.%.%.w.w.w.w.w.w.t.t.t.t.t.y.y.t.t.t.w.w.w.w.w.w.%.%.%.%.{ { | | | | } } | | | | | { | q.q.q.q.q.q.q.q.q.q.q.q.q.y.y.y.y.y.y.y.y.y.n.n.n.n.n.m.W.W.i - - - - - - - - - - - - w m B B B B V T T T T T T T T T T B B B B B V V B B V V V V B B B B V V V V B B B V K T T T T Q T T T T T T T T T T T T T T T T T T T T T T T T T T T T B = = = = = = i m m m m ",
"B B B B B Z Z Z Z Z Z A A A A A A A W W W W W W W W W ) ) ) ) ( W W W ( ) ) ) ) ) ) ) { 9. .9.9. .9.9.q.y.y.y.y.y. .| | | | | | | y.k.k.k.#.#.w.w.w.w.q.#.#.#.#.#.#.#.#.c = = = = = = = = = = = w n C C n y = = = = = = = = = 2 | | | #.| | } ^ ^ ^ ^ ^ E E T B B B B B B B B B B B B B B B B B B B B B B B B B B B B B B B B B V Q Q Q Q E ^ [ [ [ [ [ [ [ [ @.@.@.@.@.@.@.@.@.@.@.@.@.@.@.@.=.=.=.=.=.=.=.=.t.;.;.;.;.;.;.2.2.t.t.;.;.;.;.;.%.=.=.=.=.=.=.=.=.=.=.=.$.' ' ^ j.C.*.+ + + + + + + 1 1 1 1 1 2 u u B K K m 6 1 1 1 1 1 1 1 1 = & 1 K &.@X^ ^ ^ ^ ^ ^ ^ ^ ^ ^ ^ ^ ^ ^ ^ ^ ^ ^ ^ ^ ^ ^ ^ ^ ^ ^ ^ ^ ^ ^ ^ ^ ^ ^ ^ ^ ^ ^ ^ ^ ^ ^ ^ ^ ^ W ) ) ) ) ) ) #.#.#.#.#.%.%.%.%.%.%.%.%.%.%.%.%.%.%.%.%.w.w.w.w.w.t.t.t.t.t.t.y.y.t.t.t.w.w.w.w.%.%.%.%.%.{ { | | | } } | | | { | { | q.q.q.q.q.q.q.q.q.q.q.q.q.q.y.y.y.y.y.y.y.y.p.n.n.n.n.n.B.W.W.c - - - - - - - - - - - - : d k k b B B K T T T T T T T T T K B B B V V V B B V V B B B B B B B B V B B B B B B B V K Q Q T T T T T T T T T T T Q T T T T T T T T T T T T T T T T k = = = = = = k m m m m ",
"B B B B B B Z Z Z Z Z Z A A A A A A R R R R T T A R W ) ) ) ) ( W W W W ) ) ) ) ) ) ) ) |  .9.9. .9.q.y.y.y.y.y.y.| | | | | | | | y.k.k.y.#.%.w.w.w.w.%.#.#.#.#.#.#.#.#.2 = = = = = = = = = = p n C C C n n v : = = = = = = = = c | | #.| | | } ^ ^ ^ ^ W E E T V B B B B B B B B B B B B B B B B B B B B B B B B B B B B B B B B m w w T E E [ [ [ [ [ [ [ [ @.@.@.@.@.@.@.@.@.@.@.@.@.@.@.$.=.=.=.=.=.=.=.;.;.;.;.;.;.2.2.2.2.t.t.=.=.=.=.=.=.=.=.=.=.=.=.=.=.=.=.=.=.X.^ ^ h.C.C.+ + + + + + + 1 1 1 1 1 u u k K K K K K N 6 1 1 1 1 1 1 1 1 1 m [.;X^ ^ ^ ^ ^ ^ ^ ^ ^ ^ ^ ^ ^ ^ ^ ^ ^ ^ ^ ^ ^ ^ ^ ^ ^ ^ ^ ^ ^ ^ ^ ^ ^ ^ ^ ^ ^ ^ ^ ^ ^ ^ ^ ^ ^ ^ ) ) ) ) ) ) @.@.#.#.#.#.%.%.%.%.%.%.%.%.%.%.%.%.%.%.%.w.w.w.w.w.t.t.t.t.y.y.y.y.t.t.t.w.w.q.%.%.%.%.%.#.{ { | | | } } } | | | | | q.q.q.q.q.q.q.q.q.q.q.q.q.q.q.y.y.y.y.y.y.y.i.n.n.n.n.n.n.T.W.W.c - - - - - - - - - - - - - w d d m B B B K T T T T T T T T T K B B V V V B B V V B B B B B B B B V V B B V V B B B B V K K T T T T T T T T T T Q T T T T T T T T T T T T T T T T k = = = = = = k m m m m ",
"B B B B B b n Z Z Z Z Z A A A A A A A A A A A A A A R ( ) ) ) W W W W W ( ) ) ) ) { { ) ) { | 9.9.| q.q.q.| | { { { { { | | | | | i.k.k.#.#.%.w.w.w.w.%.#.#.#.#.#.#.#.^ = = = = = = = = = : v n C C C C C n n n : = = = = = = = ; | #.#.| | | | } W ^ ^ ^ W T T E T T V V B B B B B B B B B B B B B B B B B B B B B B B B B B w - - 2 Q E E E [ [ [ [ [ [ ] ] @.@.@.@.@.@.@.@.@.@.@.@.@.$.=.=.=.%.%.=.=.=.;.;.;.t.;.2.2.2.t.;.;.t.t.=.=.=.=.%.%.%.%.=.=.=.=.=.=.=.=.=.=.@.' ' @.C.C.+ + + + + + O 1 1 1 1 t u u G K K G K K G K G N 2 1 1 1 1 1 1 _ ;X;X@.^ ^ ^ ^ ^ ^ ^ ^ ^ ^ ^ ^ ^ ^ ^ ^ ^ ^ ^ ^ ^ ^ ^ ^ ^ ^ ^ ^ ^ ^ ^ ^ ^ ^ ^ ^ ^ ^ ^ ^ ^ ^ ^ ^ ^ W ) ) ) ) ) } @.@.@.#.#.#.%.%.%.%.%.%.%.%.%.%.%.%.%.%.w.w.t.y.w.t.t.t.t.y.y.y.t.t.t.w.w.%.%.%.%.%.%.%.| | | } } | } | { { { | | q.q.q.q.q.q.q.q.q.q.q.q.q.q.q.r.y.y.y.y.y.y.i.n.n.N.Y.Y.n.m.W.W.W.} - - - - - - - - - - - - - : d d d b B B B K T T T T T T T T T K B B B B V K B B B V V V V V V B B B B B B B B B B B B V V V K K K T T T T T T Q T T T T T T T T T T T T T T T T u = = = = = = k m m m m ",
"B B B B B b B Z Z Z Z Z A A A A A A A A A A A A A A A W W W W W W W W W W ) ) ( ( ( ( ) ) ) ) ) ) ) ) ) ) ) ) ) { { ) { | | | | | k.k.k.#.#.w.w.=.=.w.#.#.#.#.#.#.#.#.c = = = = = = = = : p n n C C S R R Z n n v = = = = = = = = d #.y.t.#.| | | | ^ ^ ^ ^ ! T E E E E E T T T T T B B B B B B B B B B B B B B B B B B B m : - - i E E E E ^ [ [ [ [ [ ] ] [ @.@.@.@.@.@.@.@.@.@.@.@.$.=.=.=.=.%.%.=.=.;.2.;.;.;.;.2.2.t.t.;.;.2.2.=.=.=.=.=.=.=.%.=.=.%.=.=.=.=.=.=.=.@.' ' ^ @.C.+ + + + + + % 1 1 1 u u u k K K K K K K K K X.@.X.1 1 1 1 1 1 ].;X;X^ ^ ^ ^ ^ ^ ^ ^ ^ ^ ^ ^ ^ ^ ^ ^ ^ T ^ ^ ^ ^ ^ ^ ^ ^ ^ ^ ^ ^ ^ ^ ^ ^ ^ ^ ^ ^ ^ ^ ^ ^ ^ ^ ^ ^ ^ ) ) ) ) ) ) } #.@.#.#.#.#.%.%.%.%.%.%.%.%.%.%.%.%.w.t.y.y.y.t.t.y.t.t.y.y.y.y.t.t.w.%.%.%.%.%.%.#.| | | | | | | | | { { { | q.q.q.q.q.q.q.q.q.q.q.q.q.q.q.q.y.y.y.k.m.k.m.n.n.Y.W.W.W.W.W.W.W.W.#.- - - - - - - - - - - - - - i d d m B B B B T T T T T T T T T T K K V K Q K B B B B V V V V V B B B B B B B B B B B V V V V V B B B B V V V V V V T T T T T T T T T T T T T T T 4 = = = = = = k m m m m ",
"B b B B b b b B Z Z Z Z A A A A A A A A A A A A A A A R W W W W W W W W W W W W W W W W W ( ) ) ) ) ) ) ) ) ) ) { { { | | | | | | k.k.k.#.%.w.w.=.=.=.#.#.#.#.#.#.#.#.2 = = = = = = = : p p n n S ) { { { ) n n n h = = = = = = = = | y.y.t.| | | | | } ^ ^ ^ ! T T T T T T E T T T T T T B B B B B B B B B B B B B B B u - - : B E E E E E ] [ [ [ [ [ [ [ X.@.@.@.@.@.@.@.@.@.$.$.=.=.=.=.=.=.%.=.=.;.;.;.;.;.;.t.;.2.t.;.t.t.2.;.=.=.=.=.=.=.=.=.=.=.%.%.%.=.=.=.=.=.@.^ ' ^ ^ ^ O O O + + + % 1 2 u u u u G K K 2.2.G K K X.@.@.@.1 1 1 1 1 N ;X;X'.^ ^ ^ ^ ^ ^ ^ ^ ^ ^ ^ ^ ^ ^ ^ T T T T ^ ^ ^ ^ ^ ^ ^ ^ ^ ^ ^ ^ ^ ^ ^ ^ ^ ^ ^ ^ ^ ^ ^ ^ ^ ^ ^ ^ W ) ) ) ) ) ) } #.#.#.#.#.#.#.%.%.%.%.%.%.%.q.w.w.t.y.y.y.t.t.t.t.t.t.t.t.t.t.t.w.%.%.%.%.#.| | | | { | | | | | | | | |  .q.q.q.q.q.q.q.q.q.q.q.q.q.q.q.q.q.y.y.m.n.n.n.n.n.N.W.W.W.W.W.W.W.W.W.f.- - - - - - - - - - - - - - 4 k k k B B B B V T T T T T T T T T T T T T Q K B B B V V V V V B B B B V V B V V V B B B B V V B B B B B B B B B B V T T T T T T T T T T T T T T T 4 = = = = = = k m m m m ",
"b b B B b b b n Z Z Z Z A A A A A A A A A A A A A A A A A R W W W W W W W W W W W W W W W W W W ( ) ) ) ) ) ) ) { { { | | | | | q.k.k.i.%.w.w.w.=.=.=.%.#.#.#.#.%.%.^ = = = = = = = = p p p n ) { { { { { / n n n n w = = = = = = = c y.y.y.#.| | | | | | ^ ^ ^ ! T T T T T T T T T E E E E T T V V V V T T T T T B b : - - w Q E E E ^ ^ ] ] [ [ [ [ [ [ [ @.@.@.@.@.@.@.@.$.=.=.=.=.=.=.=.=.;.;.;.;.;.;.;.;.;.;.;.;.2.t.;.t.t.2.;.=.=.=.=.=.=.=.=.=.=.%.%.%.=.=.=.=.=.$.^ ^ ^ ^ ^ O O O + + + & 1 u u u u k K K ^ 2.2.G G ..@.@.@.~ 1 1 1 1 1 [.;X;X=.^ ^ ^ ^ ^ ^ ^ ^ ^ ^ ^ ^ ^ ^ T T T T T E ^ ^ ^ ^ ^ ^ ^ ^ ^ ^ ^ ^ ^ ^ ^ ^ ^ ^ ^ ^ ^ ^ ^ ^ ^ ^ ^ W ) ) ) ) ) ) ) #.#.#.#.#.#.#.%.%.%.%.%.q.w.w.w.t.t.t.t.t.t.t.t.t.t.t.y.t.t.t.w.q.%.%.%.%.%.} | | | { | | | | | | | %.q.q.q.q.q.q.q.q.q.q.q.q.q.q.q.q.q.q.y.y.p.n.n.n.n.n.n.W.W.W.W.W.W.W.W.W.W.N.- - - - - - - - - - - - - - : d k k c B B B B V T T T T T T T T T T T T Q V B B B V V V V V V B B B V V V V V V B B B B B V V B B B B B B B B B B T T T T T T T T T T T T T T T = = = = = = = u m m m m ",
"b b b b b b b B Z Z Z Z Z A A A A A A A A A A A A A A A A A R W W W W W W W W W W W W W W W W W W W ( ) ) ) ) ) ) { | | | | | | k.k.k.i.w.w.w.w.t.w.w.w.%.%.=.w.w.w.Z = = = = = = = y p p p C ) { { { { { S C n n n p q = = = = = = y y.y.y.%.| | | | | | | } ^ ^ T E T T T E T T T E E E E T T E E E E E E E E T i - - - g ^ ^ [ [ [ [ [ [ [ [ [ [ [ [ X.@.@.@.@.@.@.@.$.=.=.=.=.=.=.=.=.;.;.;.;.;.2.2.t.t.;.;.;.;.;.;.t.;.;.;.;.;.=.=.=.=.%.=.%.%.=.=.=.=.%.%.=.=.=.=.=.X.^ ^ ^ ^ O + + + O O = 1 u u u u B K K *.2.*.G K X.@.@.@.u 1 1 1 1 ..;X;X].^ ^ ^ ^ ^ ^ ^ ^ ^ ^ ^ ^ ^ T T T T T T T T ^ ^ ^ ^ ^ ^ ^ ^ ^ ^ ^ ^ ^ ^ ^ ^ ^ ^ ^ ^ ^ ^ ^ ^ ^ ^ ^ ) ) ) ) ) ) ) ) #.#.#.#.#.#.#.#.%.%.%.w.w.w.w.w.y.y.y.y.t.t.t.y.y.y.y.t.t.t.w.w.w.%.%.%.%.%.%.{ { | } } } | | | | q.q.q.q.q.q.q.q.q.q.q.q.q.q.q.q.q.q.q.q.y.y.m.n.n.n.n.n.m.W.W.W.W.W.W.W.W.W.W.W.- - - - - - - - - - - - - - - u k k m B B B B B K T T T T T T T T T T T K B B B B B B B B B B B B B B B B B B B V V B B B B B B B B V V V V V V B K T T T T T T T T T T T T T T = = = = = = = u m m m m ",
"b b b b b b b b Z Z Z Z Z Z Z Z Z Z Z Z Z Z Z Z A A A A A A A T W W W W W W W W W W W W W ( ) ) ) ) ) ) ) ) ) ) { | | | | | | q.k.k.k.k.w.w.w.y.y.w.w.w.w.w.w.w.w.w.B = = = = = = = p p p p C S { { { { { Z C C n p i i 2 = = = = = 2 y.y.y.#.| | | | | | | | | ) ^ ! ! ! ! ! W ! E E E E E T E E E E E E E E E c - - - B [ [ [ @.@.@.[ [ [ [ [ [ [ @.@.@.@.@.@.@.@.@.@.@.=.=.=.=.=.=.%.;.;.;.;.;.;.2.2.t.t.t.;.;.;.;.;.t.;.;.;.;.;.=.=.=.=.%.=.%.%.%.=.=.=.=.%.=.=.=.%.=.$._ _ ^ Q O + + + + + = 1 1 2 t u G K K =.2.~ K m m @.@.m 1 1 1 1 6 ;X;X@X' ^ ^ ^ ^ ^ ^ ^ ^ T T T T T T T T T T T T T T ^ ^ ^ ^ ^ ^ ^ ^ ^ ^ ^ ^ ^ ^ ^ ^ ^ ^ ^ ^ ^ ^ ^ ^ ^ ^ ) ) ) ) ) ) ) ) #.#.#.#.#.#.@.#.%.%.%.q.w.w.w.w.t.y.y.t.t.t.t.y.y.y.y.t.t.w.w.w.w.w.%.%.%.%.%.#.{ | | } } | | | | q.q.q.q.q.q.q.q.q.q.q.q.q.q.q.q.q.q.q.r.y.y.n.n.n.n.n.n.N.W.W.W.W.W.W.W.W.W.W.W.c - - - - - - - - - - - - - - 2 k k k B B B B B B K T T T T T T T T T T V B B B B B B B V V B V B B B B B B B B V V B B B B B B B B V V V V B V V K T T T T T T T T T T T T T T = = = = = = = 4 m m m m ",
"B B b b b b B B n Z Z Z Z Z Z Z Z Z Z Z Z Z Z Z Z A R T T A A A R W W W W W W W W W W W W ) ) ) ) ) { { ) ) { | | | | | | | | k.k.k.k.k.t.t.y.y.y.t.w.w.w.w.w.w.w.w.i = = = = = = 2 p p p v n n S { { { ) n C n C p i i y = = = = = = y.y.w.| | #.| | | | | | | | | } ^ ^ W ^ ^ ^ ^ W W W W W W W ! E E E E T T w : i ^ [ @.=.2.2.2.2.[ [ [ ] [ ] [ @.@.@.@.@.@.@.@.@.@.@.%.=.=.=.=.=.=.;.;.;.;.;.t.2.2.t.t.;.;.;.;.2.;.t.t.;.;.;.;.=.=.=.=.%.%.=.=.=.=.=.=.%.%.=.%.%.%.=.=.@.^ ^ s + + + + + + = 1 1 1 6 u k K K ^ 2.K K k s G K 1 1 1 ; & 6.;X;X*.^ ^ ^ ^ ^ ^ ^ ^ ! T T T T T T T T T T T T T T T ^ ^ ^ ^ ^ ^ ^ ^ ^ ^ ^ ^ ^ ^ ^ ^ ^ ^ ^ ^ ^ ^ ^ ^ ^ ) ) ) ) ) ) ) } #.@.#.#.#.@.@.#.%.%.%.%.w.w.w.w.t.y.y.y.t.t.t.t.t.t.t.t.w.w.w.w.w.w.w.%.%.%.%.%.{ | | | | | | | |  .q.q.q.q.q.q.q.q.q.q.q.q.q.q.q.q.q.q.y.y.y.y.k.m.n.n.n.N.W.W.W.T.N.Y.W.W.W.W.k.2 - - - - - - - - - - - - - - - d k k B B B B B B B K T T T T T T T T T V B B B B B V V V V V V V V B B B B B B V V V B V V B V B B B B B B B B V V Q Q T T T T T T T T T T T K = = = = = = = 2 m m m m ",
"B B B b b B B B n Z Z Z Z Z Z Z Z Z Z Z Z Z Z Z Z T ! ! W W W R W W W W W W W W W W W W W ) ) ) ) ) { { { | | | | | | | | | q.k.k.k.k.k.y.y.y.y.y.y.w.w.w.w.w.w.w.=.t = = = = = = y p p p v v n C / { { Z C C C C c i i q = = = = = = ^ y.w.%.| #.#.#.#.| | | | | | | | } ^ W ^ ^ W W ^ W W W W W ! T E E E T T T T T } -.;.;.2.2.2.$.[ [ [ ] [ ] ] @.@.@.@.@.@.@.@.@.[ [ %.%.=.=.=.=.;.;.;.;.;.t.t.2.2.2.;.;.;.t.t.2.2.2.a.;.;.;.=.=.=.=.=.=.=.=.=.=.=.=.=.%.=.=.%.%.%.=.=.=.@.^ % + + + + + + ; 1 1 1 6 u u s G K K K K s s s 1 1 1 = & & [.;Xh.^ ^ ^ ^ ^ ^ ^ ^ ^ T T T T T T T T T T T T T T T T T ^ ^ ^ ^ ^ ^ ^ ^ ^ ^ ^ ^ ^ ^ ^ ^ ^ ^ ^ ^ ^ ^ ^ ^ ^ ) ) ) ) ) ) } #.@.#.@.@.@.#.#.%.%.%.%.q.w.w.w.w.t.t.y.t.t.t.t.t.t.t.t.w.w.w.w.w.w.w.w.%.%.%.%.| | | | | | | | | | q.q.q.q.q.q.q.q.q.q.q.q.q.q.q.q.q.q.q.y.y.y.y.y.y.p.p.p.k.i.y.y.y.y.k.Y.W.W.n = - - - - - - - - - - - - - - - w k k B B B B B B B B T T T T T T T T T B B B B B B B V V V V V V V V B B B B V V V V V V V V V B B B B B B B B V V K K T T T T T T T T T T b k = = = = = = = 1 m m m m ",
"B B b b b b B B B Z Z Z Z Z Z Z Z Z Z Z Z Z Z Z A R W W W W W W W W W W W W W W W W W W W ( ) ) { { { | | | | | | | | | | | p.k.k.k.k.k.i.y.y.y.y.y.w.w.w.w.w.=.w.w.t = = = = = = p p p p p p p p p C v h v v v n v i y = = = = = = = K y.w.w.%.%.w.w.w.w.w.%.%.#.| | | | | | } ^ ^ ^ ^ ^ ^ W W W ! E E E E T T T T T ;.2.2.2.2.2.;.[ [ ] [ [ [ [ [ [ @.@.@.@.@.@.@.@.[ ] $.%.=.=.=.=.2.;.;.2.2.t.t.t.;.2.2.2.;.t.2.2.2.;.;.;.;.;.;.=.=.=.=.=.=.=.=.=.=.=.=.=.=.=.=.=.=.=.=.=.$.2 + + + + + + O ; 1 1 1 6 u u u u m K K K s s s 1 1 = & = m .Xg.^ ^ ^ ^ ^ ^ ^ ^ ^ T T T T T T T T T T T T T T T T T T T T ^ ^ ^ ^ ^ ^ ^ ^ ^ ^ ^ ^ ^ ^ ^ ^ ^ ^ ^ ^ ^ ^ ^ W ) ) ) ) ) ) #.@.@.#.#.#.#.#.#.%.%.%.%.w.w.w.w.w.t.t.t.t.t.t.t.t.t.t.w.w.w.w.w.w.w.w.w.%.%.%.| { { | | } } | | { | %.q.q.q.q.q.q.q.q.q.q.q.q.q.q.q.q.q.q.q.e.e.e.q.q.q.q.y.y.y.y.y.y.p.m.m.Y.2 = ; - - - - - - - - - - - - - - : d d B B B B B B B B B T T T T T T T T V V B B B B V V V V V V V V V V V V V V B B V V V V B B B B B B B B V V V B B V B V K T T T T T T m k u = = = = = = = = m m m m ",
"B B b b b b B B c Z Z Z Z Z Z Z Z Z Z Z Z Z Z A A R W W W W W W W W W W W ( ) ) ) ) ( W W ( ) ) { | | | | | | | | | | | | | y.k.k.k.k.k.k.y.y.y.y.y.w.w.w.w.=.=.w.q.t = = = = = = p p p p p p p p p p p p p p p y w : = = = = = = = = T #.y.w.w.w.w.w.w.w.w.w.w.w.w.w.%.#.| | | | } ) ^ ^ ^ W W W W E E E E T T T T T ;.2.2.2.2.2.@.[ [ [ [ [ [ [ [ [ X.@.@.@.@.@.@.@.X.] X.=.=.=.=.=.2.;.;.;.;.t.t.;.;.2.2.2.2.t.t.2.2.;.;.;.;.;.;.=.=.=.=.=.=.=.=.=.=.=.=.=.=.=.=.=.=.=.=.=.s O O + + + + + O ; 1 1 1 2 u u u u u m K K s s s 1 1 & & & B ^ ^ ^ ^ ^ ^ ^ ^ ^ ^ E T T T T T T T T T T T T T T T T T T T T T ^ ^ ^ ^ ^ ^ ^ ^ ^ ^ ^ ^ ^ ^ ^ ^ ^ E ! ^ ^ ^ ^ W ) ) ) ) ) ) ) } #.#.#.#.#.#.%.%.%.%.%.w.w.w.w.w.t.t.t.t.t.t.t.t.t.w.w.w.w.w.w.w.w.w.%.%.%.%.| { | | } } } | { { { { { | q.q.q.q.q.q.q.q.q.q.q.q.q.q.q.q.q.q.q.q.q.q.q.q.r.y.y.y.i.m.m.m.m.A # - - - - - - - - - - - - - - - - u k B B B B B B B B B B T T T T T T T K V B B B B V V V V V B V V B B V V V V B B V V V V B B V B V V B B V V B B B B B B B T T T T T b k k u = = = = = = = = m m m m ",
"B B b b b B B t O O t n Z Z Z Z Z Z Z A A A A A A R W W W W W W W W W ( ) ) ) ) ) ) ) ) ) ) ) ) | | | | | | | | | | | | | | | p.k.k.k.k.k.f.y.y.y.y.y.w.w.w.w.w.q.q.t = = = = = : p p p p p p p p p p p p p p y w w = = = = = = = = = T } y.y.q.w.w.w.w.w.w.w.w.w.w.w.w.w.w.q.#.| | | | } ^ W W W ^ ! E E T T T E E T } ;.;.2.2.=.[ [ [ ] [ [ [ [ [ [ [ @.@.@.@.@.@.@.@.[ [ =.=.=.=.t.t.t.t.2.;.2.2.2.2.t.t.t.;.;.;.;.;.;.;.;.;.;.;.;.=.=.=.=.%.%.%.=.=.=.=.=.=.=.=.=.=.%.%.K + O O + + + + + + 1 1 1 1 1 u u u K G b K K k s s 1 = & & = N ^ ^ ^ ^ ^ ^ ^ ^ ^ ^ T T T T T T T T T T T T T T T T T T T T T ^ ^ ^ ^ ^ ^ ^ ^ ^ ^ ^ ^ ^ T T T T T T T T T T T E ^ ) ) ) ) ) ) ) ) } #.#.#.#.%.%.%.%.%.w.w.w.w.w.w.t.t.t.t.t.y.y.w.w.w.w.w.w.w.w.w.w.%.%.%.%.%.| { | } | | | | | | | { q.q.q.q.q.q.q.q.q.q.q.q.q.q.q.q.q.q.q.q.q.q.q.q.q.e.k.m.m.m.m.m.m.m.%.# # - - - - - - - - - - - - - - - 2 c B B B B B B B B B B V T T T T T T Q V V B B B V V V V B B B B B B V V B B B B V V B B B B V V V V B V V V B B B B B B B K T T T K k k k u = = = = = = = = m m m m ",
"B B b b b i = O O O O O : i n A A A A A A A A A A T W W W W W W W W W ) ) ) ) ) ) ) ) ) ) ) ) ) { | | | | | | | | | | | | | | | i.k.k.k.k.k.y.y.y.y.y.y.w.w.w.w.q.q.i = = = = = : p p p p p p p p p p p p p i e w w - = = = = = = = = T y.k.y.y.y.y.t.t.t.t.e.w.w.w.w.w.w.w.w.w.w.=.%.#.| | ^ W W W ^ E E T T T E E T T } ;.2.;.^ E ^ [ [ [ [ [ [ [ [ [ [ @.@.@.@.@.@.@.[ [ =.=.=.=.;.t.t.t.;.2.2.2.2.2.t.t.t.;.;.;.;.;.;.;.;.;.;.;.;.;.=.=.=.%.%.%.=.=.=.=.=.%.=.=.=.%.%.E O + = 1 % + + + + % 1 1 1 1 1 t u u G G K K K G k s , & & & & < T ^ ^ ^ ^ ^ ^ ^ ^ T T T T T T T T T T T T T T T T T T T T T T ^ ^ ^ ^ ^ ^ ^ ^ ^ ^ ^ T T T T T T T T T T T T T T T T E W ) ) ) ) ) ) ) } #.#.#.%.%.%.%.%.w.w.w.w.w.t.t.t.y.y.y.y.w.w.w.w.w.w.w.w.w.w.w.%.%.%.%.%.| { | | | | | | | | | q.q.q.q.q.q.q.q.q.q.q.q.q.q.q.q.q.q.q.q.q.q.q.p.m.m.m.m.m.m.m.m.m.m.p.# # O % - - - - - - - - - - - - - - c B B B B B B B B B B B K T T T T T Q T V B B B V V V V B B B B B B B B B B B B V V B B B B V V V V B V V V B B B B B B B K T T T m k k k u = = = = = = = = m m m m ",
"b b b i = O O O O O O O O O O w A A A A A A A A A A R R R R R R W W W ) ) ) ) ) ) ) ) ) ) ) ) ) { | | | | | | | | | | | | | | | | q.k.k.k.k.k.y.y.y.y.y.y.y.t.t.w.w.Z = = = = = : p p p p p p p p p p p p p y w w w w = = = = = = = = ^ N.k.i.y.y.y.y.y.y.y.y.y.y.y.y.q.w.w.w.w.w.w.w.w.w.#.| } ^ ^ ^ ^ T T E E E E T T T E E E E E ! [ [ [ [ [ ] [ ] ] [ [ @.@.@.@.@.X.^ [ =.=.=.=.;.;.;.t.a.;.;.;.;.;.2.2.2.2.;.;.=.=.=.=.=.=.=.=.=.=.=.%.=.=.%.%.=.=.=.=.%.%.=.%.%.%.$.2 + = 1 1 ; + + + + = 1 1 1 1 1 1 u u K K G G G s 2 & & & & & & & s ^ ^ ^ ^ ^ ^ ^ T T T T T T T T T T T T T T T T T T T T T T T ^ ^ ^ ^ ^ ^ ^ ^ ^ ^ ^ T T T T T T T T T T T T T T T T T T T T E W ) ) ) ) ) } @.#.#.%.%.%.%.w.w.w.w.w.t.y.t.t.t.t.w.w.w.w.w.w.w.w.w.w.w.w.%.%.%.%.%.| | | | | } | | | q.q.q.q.q.q.q.q.q.q.q.q.q.q.q.q.q.q.q.q.q.q.k.n.y.y.m.m.m.m.m.m.m.m.N.m.O O O @ + - - - - - - - - - - - - 2 c b B B B B B B B B B B B K T T T T T T T K B B B B B B V V V V V V V V V B B B V V B B B B V V V V V V V V N N N m b B V K Q Q K k k k k u = = = = = = = = m m m m ",
"c t O O O O O O O O O O O O O O # B A A A A A A A A A T A A A A A R W W ) ) ) ) ) ) ) ) ) ) ) ) { { { { { | | | | | | | | | | | | | r.y.k.k.k.k.y.y.t.t.y.y.y.y.y.y.R = = = = = : p p p p p p p p p p p p p y w w w e w = = = = = = 2 n.B.n.k.i.y.y.y.y.y.y.y.y.y.y.y.y.w.w.w.w.w.w.w.w.w.w.#.| } ^ ^ ^ W ! ! ! W W T T E E E E T T E ^ [ [ [ [ [ [ [ [ [ [ [ X.@.[ [ ] ^ @.=.=.=.=.;.;.t.t.2.2.;.;.;.t.2.2.;.;.=.%.=.=.=.=.%.=.=.=.=.=.=.%.=.=.%.%.=.=.=.=.%.%.%.%.=.$.6 1 = 1 1 1 ; + + + + ; 1 1 1 1 1 1 2 u K K m t = & & & & % & & & & & K ^ ^ ^ ^ ^ ^ T T T T T T T T T T T T T T T T T T T T T T ! ^ ^ ^ ^ ^ ^ ^ ^ ^ ^ ^ ^ T T T T T T T T T T T T T T T T T T T T T T ! ) ) ) ) ) ) @.#.#.%.%.%.w.w.w.w.w.t.t.y.t.t.w.w.w.w.w.w.w.w.w.w.w.w.w.w.%.%.%.%.| | | | } } | %.q.q.q.q.q.q.q.q.q.q.q.q.q.q.q.q.q.q.q.q.q.q.q.W n n n n n n n A A ( { p.w O O @ + - - - - - - - - - - - - t k k m B B B B B B B B B B B K T T T T T T T K B B B B B B B V V V V V V V B B B V B B B B B V V V V V B N b b m m m b N V K T T b k k k k u = = = = = = = = m m m m ",
"O O O O O O O O O O O O O O O O O O v A A A A A A A A A A A A A A T W W W ( ) ) ) ) ) ) { { ) ) { { { { { { { | | | | | | | | | | | 9.r.r.k.k.k.k.y.t.t.t.y.y.y.y.y.T 2 = = = = : p p p p p p p p p p p p p i w e e e e w = = = = = d B.B.N.k.k.i.y.y.y.y.y.y.y.y.y.y.y.y.w.w.w.w.w.w.w.w.w.w.| | | ^ W W W ^ ^ ^ ^ ! T T T E E T T T T ^ [ [ [ [ [ [ [ [ [ [ [ [ [ E K ^ %.=.=.=.;.;.;.;.t.;.;.;.t.t.t.;.=.=.=.%.%.=.=.=.=.=.=.=.=.=.=.=.=.=.=.%.%.=.=.=.=.=.=.=.=.=.s 1 1 1 1 1 1 ; + + + O = 1 1 1 1 1 1 1 1 2 ; & & & & & & & % & & & & & ; Q ^ ^ ^ ^ ^ T T T T T T T T T T T T T T T T T T T T T T ^ ^ ^ ^ ^ ^ ^ ^ ^ ^ ^ ^ ^ ^ T T T T T T T T T T T T T T T T E W ! E E T W ) ) ) ) ) ) ) } #.#.#.%.w.w.w.w.w.t.y.y.w.w.w.w.w.w.w.w.w.w.w.w.w.w.w.w.%.%.%.#.} | | | | | | q.q.q.q.q.q.q.q.q.q.q.q.q.q.q.q.q.{ R c w : O O O O O O # # # # # # O O O O O O % - - - - - - - - - - - - d k k k c c b B B B B B B B B B K T T T T Q T T K B B B B B B B B V B V V B B B B B B B B B B V V V V N m b b b b m m m m V K T T z k k k k u = = = = = = = = = ; 2 2 ",
"O O O O O = = O O O O = = O O O O O O v A A A A A A A A A A A A A A W W W W W ( ) ) ) ) ) { | | | | | | | | | | | | | | | | | | | | | q.r.y.k.k.k.k.t.t.t.y.y.y.y.y.T 2 = = = = = p p p p p p p p p p p p p y w e e e e w - = = = = i B.B.B.N.k.k.i.i.i.i.k.k.k.k.k.i.y.y.y.t.w.w.w.w.w.w.w.w.| | | | { W W ^ ^ ^ ^ W T T T E E T T T T ! [ [ [ [ [ [ [ [ [ [ [ ^ B b B [ =.%.=.=.;.;.;.;.;.;.;.t.t.t.=.%.=.=.=.%.=.=.=.=.=.=.=.=.=.=.=.=.=.=.=.=.=.=.=.=.=.=.=.=.=.B 1 1 1 1 1 1 1 ; + + + O % 1 1 1 1 1 1 1 = & & & & ; = & & & & & & & & % % 1 Q ^ ^ ^ ^ T T T T T T T T T T T T T T T T T T T T T T ^ ^ ^ ^ ^ ^ ^ ^ ^ ^ ^ ^ ^ ^ ^ ^ ^ E E T T T T T T T T T T ( ) ) ) ) ) ) ) ) ) ) ) ) ) ) ) ) #.#.#.#.w.w.w.w.w.w.w.w.w.w.w.w.w.w.w.w.w.w.w.w.w.w.w.q.%.%.#.| | | | | | | | q.q.q.q.q.q.q.q.q.q.q.| A i : O O O O O O O O O O O O # # # # # # O O O O O O % - - - - - - - - - - - 2 k k k c c c c k B B B B B B B B B K T T T T T T T K B B B B B B B B B V V V B B B B B V V B B B V B b m m b b b b m m b b V K T T k k k k k u = = = = = = = = = = = = ",
"O O O O = = = O O O O = = = O O O O O O b A A A A A A A A A A A A A R W W W W ( ) ) ) ) ) ) | | | | | | | | | | | | | | | | | | | | | q.r.r.k.k.k.k.k.y.y.y.y.y.y.y.T i = = # O O y p p p p p p p p p p p p e w w w w w w = = = = = i B.B.B.B.N.n.k.k.k.k.k.k.k.k.k.k.k.i.i.y.t.w.w.w.w.w.w.w.| | | | | | [ ^ ^ W W ^ ! T T T T E E T T T ! [ [ [ [ [ [ [ [ [ ^ b b B [ %.%.=.=.=.;.;.;.;.;.;.;.;.;.=.%.%.%.=.=.=.=.=.=.=.=.=.=.%.=.=.=.=.=.%.%.=.=.=.=.=.=.%.%.=.^ 1 1 1 1 1 1 1 1 1 + + + O O 1 1 1 1 1 1 1 = & & & 1 1 1 1 & & & & & & & & & & 1 Q ^ ^ ^ ^ ^ ^ ^ ^ ^ ^ E T T T T T T T T T T T T T T ^ ^ ^ ^ ^ ^ ^ ^ ^ ^ ^ ^ ^ ^ ^ ^ ^ ^ ^ ^ ^ ^ ^ ^ B c c c M Z Z ) ) ) ) ) ) ) ) ) ) ) ) ) ) #.#.#.#.#.#.#.%.w.w.w.w.w.w.w.w.w.w.w.w.w.w.w.w.w.w.w.w.w.%.%.%.| | | | } | | { | q.q.q.q.q.q.q.q.Z 2 O O O O O O O O O O O O O O O O O O O O # # # # O O O O = - - - - - - - - - - - 2 c c c c c c c k B B B B B B B B B B K T T T T T T T K B B B B B B B B B B B B V V B B V V V V V N m b m m m m b b b m m m B V T T k k k k k u = = = = = = = = = = = = ",
"O O O O = = = * O O = = = = = O O O O O = A A A A A A A A A A A A A R W W W W ( ) ) ) { ) ) { | | | | | | | | | | | | | | | | | | | | | r.r.y.k.k.k.k.i.y.y.y.t.y.y.T 2 = O O O O = p p p p p p p p p p p e w w e w w w q = = = = = = f.B.B.B.B.B.n.k.k.k.k.k.k.k.k.k.k.k.i.y.y.y.w.w.w.w.w.w.| | | | | #.| [ ^ W ^ ^ ^ T T T T E E T T T T ! [ [ [ [ [ [ [ ^ b b B [ @.=.%.=.=.=.=.=.;.;.;.;.;.;.;.%.%.%.%.=.=.=.=.=.=.=.=.=.=.%.=.=.=.=.=.%.%.=.=.=.=.=.=.%.%.$.2 1 1 1 1 1 1 1 1 1 + + + O O = 1 1 1 1 1 1 1 1 1 1 1 1 1 1 ; & & & & & & & & & & 1 K ^ ^ ^ ^ ^ ^ ^ ^ ^ ^ ^ ^ T B c B T T T T T T T T ^ ^ ^ ^ ^ ^ ^ ^ ^ ^ ^ ^ ^ ^ ^ ^ ^ ^ ^ ^ K d ; O O @ @ O O O O O O O = ; w i i N Z Z Z E E B Z T T T T T T T T T T T T T T T T T B Z W ) w.w.w.w.w.w.%.%.%.| | | | } | | { { | %.q.q.q.| c # O O O O O O O O O O O O O O O O O O O O O O # # O # O O O O = - - - - - - - - - - - t c c c c c c c k B B B B B B B B B B B T T T T T T T T T K V B B B B B B B B B V V B B V V V V N m b b m m b m b b m m m b B V T K k k k k k k = = = = = = = = = = = = ",
"= O O * = = = = O = = = = = = = O O O O O t A A A A A A A A A A A A A R W W W ) ) ) { { ) ) ) ) { | | | | | | | | | | | | | | | | | | | q.r.r.k.k.k.k.k.y.y.y.y.y.y.T 2 = O O O O O p p p p p p p p p p e e e e e e w w = = = = = = = t n.B.B.B.B.B.N.n.k.k.k.k.k.k.k.k.k.k.k.y.y.y.t.w.w.w.w.w.#.#.| | | | | W W W ^ ^ W E T T E E E E T T T ! [ ] [ [ [ [ T b b ^ [ @.=.=.=.=.=.=.=.=.=.;.;.;.;.=.=.=.=.=.=.=.=.=.%.%.=.=.=.=.%.%.=.=.=.=.%.%.$.@.@.$.=.=.%.%.$.2 1 1 1 1 1 1 1 1 1 O + + + + O 1 1 1 1 1 1 1 1 1 1 1 1 1 1 1 = & & & & & & & = & & & t K ^ ^ ^ ^ ^ Q B B b i u u u u u u i k B T T ^ ^ ^ ^ ^ ^ ^ ^ ^ ^ ^ ^ ^ ^ ^ ^ ^ ^ m 2 = O O O O O O O O O O O O O @ @ @ @ @ @ @ O O O O O O O O O O O O O O O O O O O O O O O O O O O O O = : i Z #.w.%.| | | | } } | | ( c c W | q.R = O O O O O O O O O O O O O O O O O O O # % O O O O O O O O O O O O % % = - - - - - - - - i c c c k c k k c B B B B B B B B B B B K T T T T T T T T T T K K K V V B B K K Q K B B B B V B N m m m b b m m b b b b m N B K T V k k k k k k = = = = = = = = = = = = ",
"= = O = = = = = = = = = = = = = O O O O O O n A A A A A A A A A A A A T W W W ) ) ) { { { ) ) ) { { { | | | | | | | | | | | | | | | | | | r.r.p.k.k.k.k.f.y.y.y.y.y.Z = = O O O O O : p p p p p p p p y e e e e e e w q = = = = = = = = : } B.B.B.B.B.B.N.n.k.k.k.k.k.k.k.k.k.k.i.y.y.y.w.w.w.w.w.=.#.| | | | } W W ^ ^ ^ W E E E T T E E T T T E ^ ] [ [ ^ T b E [ [ [ %.=.=.=.=.=.=.=.=.;.;.;.=.=.=.=.=.=.=.=.=.%.%.%.%.=.=.=.=.%.=.=.=.=.=.$.[ [ [ [ [ [ @.$.=.m 1 1 1 1 1 1 1 1 1 % + + + + + % 1 1 1 1 1 1 1 1 1 1 1 1 1 1 = & & & & & & & & = & & & & & - = O O O O O O O O O O O O O O O O % t N d t - - 4 ^ ^ ^ ^ ^ ^ ^ ^ ^ m 2 O O O O O O O O O O O O O O O O O O @ @ @ @ @ @ O O O O O O O O O O O O O O O O O O O O O O O O O O O O O O O O O O t | | | | | } } | ( c c c c A v O O O O O O O @ @ O O O O O O O O O O O O % : : - = % O O O O O O O O O O O - - - - - - - - d c c c k k k k c B B B B B B B B B B B K T T T T T T T T T T Q Q Q Q Q T T T T T Q K B B B B B N m m m b b b b b b b b b B B T T V k k k k k k ; = = = = = = = = = = = ",
"= = = = = = = = = = = = = = = = O O O O O O 2 A A A A A A A A A A A A A T W W W ) ) ) ) ) ) ) ) ) ) ) { | | | | | | | | | | | | | | | | | r.r.y.k.k.k.k.k.y.y.y.y.t.w = = O O O O O O p p p p p p p p w w w w w w w w - = = = = = = = = = = 4 ! | B.B.B.B.B.N.n.k.k.k.k.k.k.k.k.k.i.y.y.y.w.w.w.w.w.w.w.#.| | | ^ ^ ^ W W W ! E E E T T T T E E E E ! ^ ^ T T T [ [ [ [ $.=.=.=.=.=.=.=.%.=.=.=.=.=.=.=.=.=.=.=.=.=.=.=.=.=.=.=.$.$.#.@.@.@.@.@.[ } [ [ X.[ [ [ %.$.2 1 1 1 1 1 1 1 1 @ + + + + + + = 1 1 1 1 1 1 1 1 1 1 1 1 1 & & & & & & & & & & & & = & % O O @ O O O O @ O O O O O O O O O O O O O O O O O O k ^ ^ ^ ^ ^ K 4 % O O O O @ @ O O O O O O O O O @ O O O O @ @ O O O O O O O O O O O O O O O O O O @ @ @ O O O O O O O O O @ @ O O O O O O ; c c v v Z Z A b c c c c c c = O O O O O O O O O O O O O O O O O O O O O O = : : : : - = O O O O O O O O O % - - - - - - - d c c c c c k k m B B B B B B B B B B B T T T T T T T T T T T T T T T T T T T T T T T K B B B B N b b m b b m m m b b b N B K T T V k k k k k k 1 = = = = = = = = = = = ",
"= = = = = = = = = = = = = = = = O O O O O O O Z A A A A A A A A A A A A A T W W W ) ) ) ) ) ) ) ) ) ) { | | | | | | | | | | | | | | | | | q.r.r.k.k.k.k.k.y.y.y.y.c = = = O O O O O O w p p p p p p i w w w e w w w w = = = = = = = = = = = = - q w ! M.B.B.B.B.N.n.k.k.k.k.k.k.k.k.k.i.y.y.t.w.w.w.w.w.w.#.| | ^ ^ ^ ^ W W W ! E E T T T T E E E E T T T T E ! } [ [ [ X.=.=.=.%.=.=.=.=.%.%.%.=.=.=.=.=.=.=.=.=.=.=.$.$.@.@.[ } } } [ X.[ [ [ [ } [ [ X.X.[ [ @.%.^ 1 1 1 1 1 1 1 1 % + + + + + O + 1 1 1 1 1 1 1 1 1 1 1 1 = = = = & & & & & & & & & = = % O O @ O O O O @ O O O O O O O O O O O O O O O O O @ O i Q T t = O O O O O O O @ O O O O O O O O O O @ O O O O @ O O O O O O O O O O O @ O O O @ O O O O O O O O O O O O O O O O O O O O O O O ; c c c c c c c c c c c c c w O O O O O O O O O O O O O O O O O O O O O O O % : : : : : - # O O O O O O O O O O % % = = - - d c k k c c k c m B B B B B B B B B B K T T T T T T T T T T T T T T T T T T T T T T T T V B B B B b b b b b m m m m b N B K T T T V k k k k k k 4 = = = = = = = = = = = ",
"= = = = = = = = = = = = = = = = O O O O O O O y A A A A A A A A A A A A A A A R W W ) ) ) ) ) ) ) ) ) { | | | | | | | | | | | | | | | | | 9.r.r.r.k.k.k.k.y.y.y.c = = = = O O O O O O # p p p p p p y w e e e e w w - = = = = = = = = = = = = : 2 2 q y f.B.B.B.B.B.B.B.N.n.k.k.k.k.k.k.y.y.y.t.w.w.w.w.w.w.| } W ^ ^ ^ ^ ^ W ^ E E E E T T T E T T T T T T E ^ [ [ [ [ [ $.=.=.%.%.=.=.=.=.=.=.%.%.%.@.@.@.@.@.@.X.[ [ [ [ [ [ } } [ [ X.[ [ [ [ [ [ [ X.X.[ } [ @.$.N 2 1 1 1 1 1 1 = + + O + + + + 1 1 1 1 1 1 1 1 1 1 1 1 1 1 1 1 < & & & & % & & & & = % O O O O O O O O O O O O O O O O O O O O O O O @ @ O O O O O O O O O O O O O O O O O O O O @ O O O O O O O O O O O O O O O O O O O O O O O O O O O O O O O O O O O O O O O O O O O O O O O O O = c c c c c c c c c c c c 2 O O O O O O O O O O O O O O O O O = - = O O O O O = : : : : % O O O O O O O O O O O O O O O O % i c c k c c c c c B B B B B B B B B B T T T T T T T T T T T T T T T T T T T T T T T T T T B V B B b b b m m m m b b b B B T T T T V k k k k k k t = = = = = = = = = = = ",
"= = = = = = = = = = = = = = = = O O O O O O O - A A A A A A A A A A A A A A A A R W W ) ) ) ) ) ) ) ) | | | | | | | | | | | | | | | | | | | r.r.r.k.k.k.k.y.t.d = = = = = O O O O O O O i p p p p p e e e e e e w q = = = = = = = = = = = = = 2 2 q w i A B.B.B.B.B.B.B.B.B.N.n.k.k.k.k.i.y.y.y.q.w.w.w.w.w.| } ! ! T ! ^ ^ W W ^ ! E E T T T E T T T T E E E [ [ } [ [ [ X.%.=.%.%.=.=.=.=.=.=.=.=.@.[ [ [ [ } [ [ [ [ [ [ [ [ } } [ X.[ [ [ [ [ [ [ [ X.[ [ } [ [ [ [ [ E u 1 1 1 1 % + + O O + + + ; 1 1 1 1 1 1 1 1 1 1 1 1 1 1 1 1 1 & & & & & & & & & % O O O O O O O O O O O O @ @ O O O O O O O O O O O O O O O O O O O O O O O O O O O O O O O @ @ O O O O O O O O O O O O O O @ O O O O O O O O O O O O O O O O O O O O O O O O O O O O O O O O O O p c c c c c c c c c i ; O O O O O O O O O O O O O O O O O = : : : ; = % % = - : : : = O O O O O O O O O O O O O O O O O O 4 c k k c c c c c B B B B B B B B B K T T T T T T T T T T T T T T T T T T T T T T T T T T K V V N b b b m m k k k k z V K T T T T V k k k k k k u = = = = = = = = = = = ",
"= = = = = = = = = = = : 4 - = * O O O O O O O O A A A A A A A A A A A A A A A A A R W W ( ) ) ) ) ) ) { | | | | | | | | | | | | | | | | | | q.r.r.i.k.k.k.w.w = = = = = = # O O O O O O - p p p p y w e e e e w w = = = = = = = = = = = = = - 2 4 4 i p p %.B.B.B.B.B.B.B.B.B.N.k.k.k.k.i.y.y.y.y.w.w.w.w.#.| E T T E T ! ^ W ^ W W ! E E E T T T T E T T T ! } [ [ [ [ [ [ #.=.%.=.=.=.=.=.=.=.=.$.[ [ [ [ } } [ [ [ [ [ [ [ [ [ [ [ X.[ [ [ [ [ [ [ [ [ X.} } [ [ [ [ [ [ [ k 1 1 1 % + + + O + + + ; 1 1 1 1 1 1 1 1 1 1 1 1 1 1 1 1 1 = & & & & & % % % % O O O O O O O O O O O O O O O @ O O O @ @ @ O O O O O @ O O O O O O O @ O @ O O O @ @ O O O O O O O O O O O O O O @ @ O O O O O O O O O O O O O O O O O O O O O O O O O O O O O O @ @ O O O O O = p c c c c c c y : O O O O O O O O O O O @ O O O O O O % : : : : : : : : : : : : = O O @ O O O O O O O O O O O O O O O O ; c c c c c c c k c B B B B B B B B T T Q Q T T T T T T Q Q Q T T Q Q Q Q Q Q T T T T T T K k s 6 4 1 = & & & & & & & m T T T T T V k k k k k k k = = = = = = = = = = = ",
"= = = = = = = = = = 2 4 4 - = # O O O O O O O O b A A A A A A A A A A A A A A A A A A R W ( ) ) ( ( ( ) { | | | | | | | | | | | | | | | | | | r.r.r.k.k.T = = = = = = % O O O O O O O O O i p p p w w w e e w w : = = = = = = = = = = = = = : 2 4 w h p p p n t.B.B.B.B.B.B.B.B.n.k.k.i.y.y.y.y.y.e.w.w.w.| ) T T T T E E ! ^ ^ W W W W E T T T E T E E T T ^ } [ [ [ [ [ [ [ %.=.=.=.=.=.=.=.=.$.[ [ [ [ [ } } [ [ [ [ [ [ [ [ [ [ X.X.[ [ [ [ [ [ [ [ X.X.} } [ [ [ [ } [ [ [ 1 1 1 O + + O O O + O 1 1 1 1 1 1 1 1 1 1 1 1 1 1 1 1 1 1 = & & & & & & & & % O O O O O O O O O @ @ O O O O @ @ O O O O O O O O O O @ O O O O O O O @ @ @ O O O O O O O @ @ O O O O O O O O O O @ @ O O O O O O O O O O O O O @ O O O O @ @ O O O O % - ; = O O O @ O O O O O O O - w w 2 ; O O O O O O O O O O O O O O @ O O O O O O - : : : : : : : : : : : = O O O O O O O O O O O O O O O O O O O O = i c c c c c c k s k c m m m m m N B B K Q Q T T T T T T T Q Q T Q m m m m m m m k 4 < & % & = & & & & & & & & & & & ; B T T T T V k k k k k s 2 = = = = = = = = = = = ",
"= = = = = = = = = 2 4 4 4 = = O O O O O O O O O i c b A A A A A A A A A Z c c c v v v v b b b b b b B B Z Z Z A Z Z n i i c R | | | | | | | | q.r.r.r.w O O O O O O O O O O O O O O O O O = = = = = = = = = = = = = = = = = = = ; : : - = = 2 2 4 w p p p p h h p B W } l.n.n.f.f.i.i.i.y.y.y.y.y.y.w.w.| } T T T T E E E E W W ^ W ^ ^ W E T T E E E E T T } } [ [ [ [ [ [ [ @.=.=.=.=.=.=.%.@.[ [ [ [ [ [ [ [ [ X.} } [ [ [ [ [ [ } } X.[ [ [ } } [ [ X.[ } } } [ [ [ [ [ [ ^ 1 1 = + + + + + + O % 1 1 1 1 1 1 1 1 1 1 1 1 1 1 1 1 ; = & & & & & & & & & % O O O O O O O O O O O O O O O O O O O O O O O O O O O O O O O O O O O O O O O O O O O O O O O O O O O O O O O O O O O O O O O O O O O @ O O O O @ O O O O O O O O % = : : : : - % O O O O O O O O O O O O O O O O O O O O O O O O O O - - = # O O O O = - : : : : - : : : : : = O O O O O O O O O O @ O O O O O O O % - ; 1 2 i u u 6 4 4 4 4 4 4 t t t t t t t t u u 6 2 2 ; = + + X X X X X o o o o X X X X X X X X X o o O % % & & & & & & & & = s T T T V k k s u 2 % O o + % = = = = = = = = ",
"= = = - : : : - : 4 4 4 : = = O O O O O O O O O O O O O O O O O O O O O O O O O O O O O O O O O O O O O O O O O O O O O O O O O - i Z S S S S p C w : O O O O O O O O O O O O O O O O O O O # O O O O O O O O O O = = = = = = = 2 2 2 2 2 : 2 2 2 2 2 w i p p b R ( ( ( } y.y.y.y.y.y.i.y.t.%.%.%.%.#.| T T T A B b b A E E ! ^ ^ ^ ^ ^ ^ E T T E E E E T ! } } } [ [ [ [ [ [ [ X.@.$.$.@.@.[ [ [ [ [ [ [ [ [ [ X.X.} } } [ [ [ [ [ } } } [ [ [ } } [ [ [ [ } } } [ [ [ E k 4 1 1 1 ; + + + + + O O 1 1 1 1 1 1 1 1 1 1 1 1 1 1 = = & & & & & & & & & & & & & % O @ @ @ @ @ @ O O O O O O O O O O O O O O O O O O O O O O O O O O O O O O O O O O O O O O O O O O O @ @ O @ O O O O O O O O O O O O O O O O @ @ O O O O O % = ; : : : : : : : : = % O O O = ; = @ O O O O O O O O O O O O O O O O O - : : : = = # = - - : : : : : : - - = = O O O O O O O O O O O @ O O O % = ; 1 1 1 1 1 1 % + + + + + + + + + + + + + + + O + O o X X X X X X X X X X X X o o X X X X X X X X X X X X X X o o X X o o + O + o o X % 2 4 4 = = % O X X X X X X + % = = = = = = ",
"= = - 2 4 4 4 w w w w 2 = = = O O O O O O O O O O O O O O O O O O O O O O O O O O O O O O O O O O O O O O O O O O O O O O O O O O O O O O O O O O O O O O O O O O O O O O O O O O O O O O O O O O O O O O O O O O = = = = = = = = : 2 2 2 2 2 2 2 2 q q q w c ( ( ( ( ( ( ( ( ( ( W n n u u u u g g c ! T n b b b b b b T T T ^ ^ ^ ^ ^ ! T T T T T T T E ^ @.@.} } [ [ [ [ [ [ @.@.@.[ [ [ [ [ [ [ [ [ @.@.@.@.X.[ } } } [ [ [ @.@.X.[ [ [ } [ @.} [ [ [ [ } } } } K 4 1 1 1 1 1 1 1 = O O + + % 1 1 1 1 1 1 1 1 1 1 1 1 1 = = & & & & & & & & & & & & < 2 = & & & = 4 2 2 % O O O O O O O O O O O O O O O O O O O O O O O O O O O O @ O O O O O O O O O O O O O O O O O O O O O O O O O O = - - - 2 2 - O O O O O O % - : : : : : : : : : : : : : ; - : : : : : ; = O O O O O O O O O O O O O O O - : : : : : - - - - : : - = = % O O O O O O O O O O O O O O O % % - ; 1 1 2 2 2 2 2 1 1 1 2 ; = + + + + % + + O O + # O O O % + O + o o X X X X X X X X X o X X X X X X X o o o o o X X X o X X X X X X X o o o o o + O + X X X X X o X X X o o o + % = = = ",
"= = 2 4 4 4 4 w w w : = = = = O O O O O O O O ; : : = O O O O O O O O O O O O O O O O O O O O O O O O O O O O O O O O O O O O O O O O O O O O O O O O O O O O O O O O O O O O O O O O O O O O O O O O O O O O O O = = = = = = = = = = ; : 2 2 2 2 2 w q q 2 w y Z R R R Z v 4 = O O O O O O O % O O O k B b b b b b b b T T T W ^ ^ ^ W E E T T T T T T E [ @.@.} } [ [ [ [ [ [ @.@.[ [ [ [ [ [ } [ [ [ X.@.@.} [ ^ ^ ^ ^ ^ ^ ^ E E X.[ [ [ } } @.} } [ [ E K K T 4 1 1 1 1 1 1 1 1 1 1 1 & % ; 1 1 1 1 1 1 1 1 1 1 1 1 1 1 & = & & & & & & & & & & & & & 2 2 1 & & = 4 2 4 4 = O O O O O O O O O O O O O O O O O O O O O O O O O O O O O O O O O O O O O O O O O O O O = - - 2 w w i i f f f f f B ( ( ( ( A i 2 = : : : : : : : : : : : q w q : : : : : : : : : : : : % O O O O O O O O O O O O % : : : : : : : - - = = O O O O O O O O O O O O O O O O O O % - 1 1 1 ; ; 2 2 2 2 2 2 1 1 1 2 1 = + + + % + + + O + + % % O O + + O O % + + o X X X X X X X o X X X X X X X o o o o o X X o o X X X X X X o o o o o o o X o X X X X X o X X X o o o o X X + % ",
"= = : 4 4 4 4 4 2 = = = = = = = O O O O O O = 2 : : : : : O O O O O O O O O O O O O O O O O O O O O O O O O O O O O O O O O O O O O O O O O O O O O O O O O O O O O O O O O O O O O O O O O O O O O O O O O O O O = = = = = = = = = = = = = = - : 2 w w 2 2 2 w 2 2 2 2 - O O O O O O O O O O O O O O O ; c b b b b b b T E T ! ^ ^ ^ E E E E T T T T T T E E E [ [ [ [ [ [ [ [ @.@.@.^ K V V K K K V V K N m z z z z N K K K K u u u 4 4 4 1 ; % % X X X X X % 1 1 1 1 1 1 1 1 1 1 1 1 1 1 1 1 1 1 1 1 1 1 1 1 1 1 1 1 1 < & & & & = = & & & & & & & & & 1 2 2 2 & & 2 6 6 4 4 % O O O O O O = 2 2 : = = = = = = = d - O O O O O @ O O O O O O O O O O O O O q f f f f f f f f f f p f f f f f c ( ( ( ( ( ( ( ( c : : : : : : : : : : : w w w w w w w q : : : : : : : ; O O O O O @ O O O O = 2 w 4 : : : - - : : = O O O O O O O O O O - 2 2 2 1 ; = = = ; 1 1 1 1 1 ; ; ; : ; ; 2 1 1 1 ; ; 2 % + + % % + + + + + + % % % % + + O O % + o X o o X X X X X X o o X X X X X X X X o o o o X X o X X X X X X X X X o o X X o X X X X X X X X X X X X X X X X X ",
"= = : 4 4 4 2 - = = = = = = = = O O O O # # - 2 : : : : : : O O O O O O O O O O O O R R R Z Z Z Z p R { W u u 4 O O O O O O O O O O O O O O O O O O O O O O O O O - O O O O O O # w t T T T T T f w 2 2 2 2 2 2 w w w w 4 = = = = = = = = = = = = = = = - 2 2 q 2 2 : % O O O O O O O O O O O O O O O O O O = w i i i i m T T c b b b b b b b k k k k k k k k k k k k k u u 4 + X X X X X X X X X X X X X X X X X X X X X X X X X X X X X X X X X X X X X X X 1 1 1 1 1 1 1 1 1 1 1 1 1 1 1 1 ; 1 1 1 1 1 1 1 1 1 1 1 1 1 < & = = 1 1 = & & & & & & & & & = 4 6 2 & & 1 6 6 6 6 - O O O O O - t t t t t t t w w t t  X Xs.a.=.T G t 2 O O O = - - - : w w t p f f f v B Z A R R T Z C n c f f f R ( ( ( ( ( ( ( ( ( w : : : : : : : : : : q w w w w w w w w q : : : : : = O O O @ @ @ 2 u b K K K K K K V B B c d u w 2 # O O O O O O ; t t t t t t t 4 2 2 1 2 1 1 1 1 ; ; ; : ; ; ; 1 ; ; 1 1 2 % + + % % % + + + + + % % % % + + u u 6 6 2 X o o o o X X X X o o X X X X X X X X X o o o X X o X X X X X X X X X X X o X X X o X X X X X X X X o o X X X X o ",
"= = - 4 4 : = = = = = = = = - : : : 2 2 2 2 2 2 : : 2 2 2 2 O O O O O O O = @.^ O 2 R R W W W W R R k.Y.Y.Y.Y.Y.M.} | | | | #.#.} B v i i y w w q 2 2 = O w B Z B B C C Z R w.f.f.f.f.f.f.f.f.t.#.#.#.#.#.#.#.#.#.#.#.#.#.} 4 = = = = = = = = = = = = = = 2 2 2 2 ; O O O O O O O O O O O O O O O O O O # # O o X X X X X X X X X X X X X X X X X X X X X X X X X X X X X X X X X X X X X X X X X X X X X X X X X X X X X X X X X X X X X X X X X X X X X X O 1 1 1 1 1 1 1 1 1 1 1 1 1 1 1 & % % % % = 1 1 1 1 1 1 1 1 1 1 1 1 1 1 1 1 & & & & & = & & & = 2 6 2 = = 1 6 2 4 4 1 O O O O = t t t t t t t t t t t t  X XN.a.#.#.%.%.| W c p f f f f f f f p c M Z S A A R R R R R T T ( } } } ) ) ) ( ( ( ( ( ( ( ( A : : : : : : : : : : : q w w w w w w w w q : q w w : = = = : N T Q K V V V K K V V K K B B K K V V B b s 2 = % w t t t t t t t t t t t t w 2 2 2 2 1 1 ; ; 1 1 1 1 ; ; : 2 2 ; t ^ ^ ^ ^ } #.%.%.%.%.%.;.d.f.j.F.F.F.F.F.F.F.j.m X X 2 2 2 2 2 ; ; ; : 2 2 2 4 u 2 2 2 i i u 4 2 2 % X o o X X o o o o + & = = & & & & & & % X o X X X X o ",
"= = - 4 4 2 = = = = = = = : 2 : : : 2 : 2 2 2 2 : : 2 2 2 2 O O O O O O O G $.@.2 v R R W W W W R W { e.Y.Y.Y.Y.B.#.} } | | #.#.} } } } | | | | } } } } | s.f.f.f.f.f.f.f.f.f.f.f.f.f.f.f.y.#.#.#.#.#.#.#.#.%.w.t.t.=.#.#.#.@.; = = = = = = = = = = = = : 2 2 2 ; O O O O O O O O O O O O O O O O O O O # % O X X X X X X X X X X X X X X X X X X X X X X X X X X X X X X X X X X X X X X X X X X X X X X X X X X X X X X X X X X X X X X X X X X X X X X X % 1 1 1 1 1 1 1 1 1 1 1 1 1 1 1 & % % % % % 1 1 1 1 1 1 1 1 1 1 1 1 1 1 1 1 = & & & = = & & & & 2 6 6 1 1 6 4 4 2 2 1 O O O O q t t t t t t t t t t t B XX XQ.) R R R ) | | } ) Z v v v v B Z A A T R S S A R R R R R R R ( | } } } | | | | ) ( ( ( ( ( ( c : : : : : : : : : : : 0 w w w w w w w w : w w w w w w w @.=.^ Q T V V V K K K V K K K T Q T K B V V K K K B c k i i t t t t t t t t t t t t w 2 1 4 t t t t k T T Q T c m T ^ ^ ^ @.%.%.=.%.#.#.$.$.$.=.%.%.=.=.%.%.%.%.=.=.%.2 = 4 2 2 2 2 2 2 2 2 2 2 b E E E X.@.$.*.=.=.=.=.=.=.=.*.E Q d.-.N b b m m m z z z z m b m m N b k k u 4 ",
"w 4 4 4 4 2 = = = = = = = 2 2 : : : : : i c c u : 2 2 2 2 2 = O O O O O O ^ $.2 # R R R W W W W R { { | k.Y.Y.Y.B.M.%.} | | ) c i i p p h h B Z n } } #.y.f.f.f.f.f.f.f.f.f.f.f.f.f.f.f.f.w.#.%.w.t.t.y.s.f.f.f.f.f.f.#.=.l.J.#.= = = = = = = = = ; : 2 q q q 2 O O O O O O O O O O O + O O O O O O O O % % % + X X X X X X X X X X X X X X X X X X X X X X X X X X X X X X X X X X X X X X X X X X X X X X X X X X X X X X X X X X X X X X X X X X X X X X = 1 1 1 1 1 1 1 1 1 1 1 1 1 1 1 = % % % % 1 1 1 1 1 1 1 1 1 1 1 1 1 1 1 1 1 1 = & ; 1 & & & & & 1 2 6 4 6 6 4 2 2 2 = O O O O t t t w w t t t t t t t w. X XL.R R R R ( | | } } | R R R R R R T R R R R A A T R R R R R R R | | | | | | | | | | | ) ( ( ( ( w : : : : : : : : : : : w w w w w w w w q w w w w w w B =.=.=.Q Q T V V K B B B K K Q Q Q Q Q T V V V K K K K K B B V K B B B m c i i t i c T T Q Q Q Q Q E ^ ^ ^ ^ ^ ^ ^ ^ ^ %.f.f.s.u.} ^ ^ ^ ^ ^ ^ %.%.%.;.u.f.f.c.n.;.%.%.c c i 2 2 2 2 2 2 2 2 2 b E E E E E E E E E ^ ^ ^ ^ ^ ^ E E E =.d._ u 4 4 4 4 4 4 4 4 u i z N N b b b N N ",
"w i m T [ @.$.=.=.=.=.=.;.a.j.j.j.j.j.j.j.j.j.j.j.j.j.;.=.^ t O O O O O O N s # # n R R W W W W W { | | | Y.Y.Y.B.B.B.N.y.#.| | ! h i i i i n E %.f.f.f.f.f.f.f.f.f.f.J.J.J.T.Q.!.~.+X+X+X+X+X+X+X+X~.T.J.J.G.N.l.l.N.J.J.J.J.J.c = = = = c c c c 2 2 2 q q q q 2 2 2 : : - - = % = 1 = O O O O O O O O % % % % o X X X X X X X X X X X X X X X X X X X X X X X X X X X X X X X X X X X X X X + & & & & & & + X X X O O O O % & & & = ; ; = & & & < & X X X = 1 1 1 1 1 1 1 1 1 1 1 1 1 1 1 ; % % % & 1 1 1 1 1 1 1 1 1 1 1 1 1 1 1 1 1 1 1 1 N h.~ & & & & 2 2 2 2 6 6 4 2 2 2 O O O O O w t t w t t t t t t t i Q. X X} R R R R ) | | | | | ( R R R R R R R R R R A A T R R T R R R R ) | | | | | | | | | | | | ) ( ( R 2 : : : : : : : : : q w w w w w w w w w w w w q : t =.=.=.=.Q Q Q T V B B B B K Q Q Q Q Q Q Q V V K K K K K K B B V K K K K K B B K K Q T T T Q Q Q Q T ^ ^ ^ ^ ^ ^ ^ ^ @.c.n.n.n.c.s.^ ^ ^ ^ ^ ^ ^ %.=.f.n.n.n.n.c.n.f.%.%.c c c 2 2 2 2 2 2 2 2 u E E E E E E E E E E E E E E E E E E E ^ d.a.a.a.=.@.@.Q B K K B b b b N b N N N N ",
"@.@.@.@.$.d.j.j.j.j.j.j.j.j.j.j.j.a.a.2.;.=.=.=.*.@.@.^ ^ ^ 4 O O O O O O O = = * W R R W W W W / | | | | p.Y.Y.Y.Y.Y.Y.Y.N.w.| | | W c i #.sXhXsX1XJ.f.f.f.f.f.l.N.B.J.J.J.J.J.J.J.J.J.T.Q.Q.Q.T.J.T.T.J.J.J.J.J.J.J.T.J.J.J.J.J.2 = = = p c c c y 2 2 2 w i c b #.#.#.%.%.%.%.W W m s s u t 2 = O O O O % % O O + X X X X X X X O O O + X X X X X X X X X X X X O & = = = = = = & & & 2 m m b b b b m m b u u u 2 1 1 1 1 1 1 ; ; 1 ; ; ; 1 1 N K K K m ; = 1 1 1 1 1 1 1 1 1 1 1 1 1 1 1 1 % % % = 1 1 1 1 1 1 1 1 1 1 1 1 1 1 1 1 1 1 = m x.x.x.<.1 & & 2 4 4 u u t 4 4 4 2 O O O O O ; w 2 2 t t t t t t t #. X Xs.R R R R ( ) | | %.%.| | | | ) ) ( ( ( ( ( ( ( ) ) ) ) ) ) ( ( ( W } | | | } } } | | | | | } ( ( ( Z : : : : : : : : 2 w w w w w w w w w w w w : : 2 $.=.=.=.[ Q Q Q T T V V V V Q Q Q Q Q Q Q K K K V V K K K K V V V V K K K K V V V K T T T Q Q Q Q T ^ ^ ^ ^ ^ ^ ^ ^ ^ c.c.c.n.n.n.=.^ ^ ^ ^ ^ ^ ^ %.c.c.c.c.n.n.n.n.c.f.=.c c c 2 2 2 2 2 2 2 2 K E E E E E E E E E E E E E E E E E E E E E E E ^ X.*.=.2.a.a.a.a.a.a.a.a.a.a.=.*.*.",
"@.@.@.@.$.=.=.=.=.=.$.@.@.@.@.@.$.@.@.@.@.@.@.@.@.@.@.[ ^ ^ 4 = O O O O O O = = * W W R W W W W / | | q.i.y.B.Y.Y.Y.Y.Y.Y.Y.Y.n.%.| | | B.hXhXhXhXhXiX*X*X&X&X&X*X*X*X*X&X+XXXXXQ.Q.J.J.T.J.J.T.J.T.T.T.J.J.J.N.n.N.N.N.J.N.N.M.k.w.: = = t c c c c c c c c c c c t.#.#.%.#.%.#.W W V s s s s s s s % O O O # O O O O 2 1 1 2 t 4 4 4 4 4 4 4 4 4 u k s s 6 2 O = = = = = = = = = = = = 1 m Q E E E E E E E E ~ ~ ~ N 2 1 1 1 1 ; ; < ; ; ; 1 k K K K K K K z 2 1 1 1 1 1 1 1 1 1 1 1 1 1 1 ; % % % 1 1 1 1 1 1 1 1 1 1 1 1 1 1 1 1 = & % % h.x.x.x.x.&.c k s s k c c m k s 6 4 2 % O O @ @ O % w t t t t t t M XXXXl.R R R R ( ( ) | %.0.0.0.0.| | | | | | | | | | } } | | | | | | | | | | | | | } } } | | | | } ) ( ( ( ( c : : : : : : : w w w w w w w w w w w w : : : ^ =.=.=.=.E Q Q Q T Q T V T Q Q Q T T T T K K K V V V K K K K V V V V V K K V V V V Q T T T Q Q Q Q ^ ^ ^ ^ ^ ^ ^ ^ ^ $.c.c.c.M.n.j.^ ^ ^ ^ ^ ^ ^ ^ M.P.n.c.c.c.n.n.n.n.c.%.c c c 2 2 2 2 2 2 2 u E E E E E E E E E E E E E E E E E E E E E E E E E E E E E E E X.X.@.@.@.@.@.@.@.[ [ ",
"@.@.@.@.@.@.@.@.@.@.@.@.@.@.@.@.@.@.@.@.@.@.$.$.@.@.@.[ ^ ^ 4 = O O O O O O = = : W R R W W W W / | | i.i.i.k.Y.Y.Y.Y.Y.Y.Y.Y.Y.Y.N.f.XXhXhXhXhXhXhX*X*X*XXX!.*X*X*X*X*X*X*X*X*X*X*X*X*X+XXXXX+XXXXXXXXXXXJ.J.J.N.n.n.n.n.i.y.y.y.y.q.: = y c c c c c c c c c c } T.n.#.#.#.%.^ W W ! k s s s s s 1 O O O O O O 4 m B B V V V V T T T T T T E $.2.2.2.=.=.$.} ^ c = = = = = = = = = = = = m Q Q E ~ E E E E E E ~ ~ ~ z = % % % & & & & & 4 m K J K K K K K K K s 2 1 1 1 1 1 1 1 1 1 1 1 2 % % % % 1 1 1 1 1 1 1 1 1 1 1 1 = & % % % % & N ..<.h.x.x.x.3.Q c c c c c c c m z k u 4 O O @ O = w t t t t t t i R. XJ.R R R R R ( ( ) | | %.0.0.0.0.%.| | | | | | | | | } | | | | | | | | | | | | | | | | | | | | ) ( ( ( ( ( ( i : : : : : : w w w w w w w w w w w : : : E =.=.=.=.$.Q Q Q Q Q Q Q Q Q Q Q Q V V B B K K K K V V B B K K V V V V V V V V V T Q Q T Q Q Q Q Q ^ ^ ^ ^ ^ ^ [ [ @.[ ;.M.c.c.j.=.^ ^ ^ ^ ^ ^ ^ ^ c.E.E.E.M.c.c.c.c.c.n.n.W c c k 2 2 2 2 2 2 2 K E E E E E E E E E E E E E E E E E E E E E E E E E E E E E E ^ [ [ [ ] ] [ [ [ [ [ [ ",
"@.@.@.$.$.@.@.@.@.@.$.@.@.@.@.$.@.@.@.@.@.@.$.$.@.@.@.[ ^ ^ 4 * O O O O O O = = p W W W W W R R W | | i.i.i.y.N.N.N.N.N.N.N.N.N.N.N.N.XXXXXXXXN.N.p.k.k.k.k.p.p.p.p.k.k.k.k.k.k.N.B.T.Q.XX+XiXsXsXsXsXsXsXsXsXsXsXT.n.n.n.k.y.y.y.y.y.y.W c c c c c c c c c c } T.T.T.t.#.$.^ ! W ^ ! V u ; = = O O O O O O 2 B B B B B V V V V V T T T T T T T ! ^ ! ! ^ ^ ^ W ! t = = = = = = = = = = = m m m m m b B K E E E ~ ~ E K # % % % % % % % 2 E N N N N N F J K K K K K N k t t 6 6 t k z G K K k & % % = 1 1 1 1 ; = = & % % % % % % % = x K K I I I Q X.2.h.x.h.*.~ N c c c c m m c c O O @ 2 t t t t t t t i G. XJ.R R R R R R ( ( ( ) ) | %.0.0.0.0.q.%.| | | | | } | | | | | | | | | | | | | | | | | | | | | ) ( ( ( ( ( ( ( ( i : : : : : 2 w w w w w w w w w 0 : : c =.=.=.=.=.^ Q Q Q Q Q Q Q Q Q Q Q K V V B B K K K K V V B B K K V K K K K K T T Q Q Q Q E ^ Q Q Q E ^ ^ ^ [ } @.@.@.@.@.@.@.[ ^ ^ ^ ^ ^ ^ ^ ^ ^ ^ c.E.E.E.E.E.B.c.c.c.n.c.c.B c c u 2 2 2 2 2 2 d E E E E E E E E E E E E E E E E E E E E E E E E E E E E E E E ^ [ [ [ [ [ [ [ [ [ [ [ ",
"@.$.$.$.$.$.$.@.@.$.$.$.@.@.$.$.@.@.@.@.@.@.@.$.@.@.@.^ ^ ^ 4 # # O O O O * * = A W W W W W W R W { | i.i.i.i.k.n.n.n.n.n.n.n.k.k.f.k.k.k.k.k.k.k.k.k.k.k.k.k.p.p.k.k.k.k.k.k.k.k.n.n.n.n.n.n.n.n.n.n.n.n.n.n.n.n.n.n.n.n.n.k.p.i.y.y.y.y.t.R v c c c c v v t.J.T.T.f.} ^ ! ! ! W ! V V B 4 O O O O O O % c B B V V V V V V B B B V T T T T T T T T ! ! ! ! W W ! ^ 2 = = = = = = = = = = m m m m m m m m m G G Q E E N # # # # % % % u ^ F N N N N N N N G K K K K K K K K K K K K K K K K K F 1 % % % & % % % % % % % % % % % 6 Q h.<.z x z N J I I I I Q ..&.3.j.g.*.*.*.*.X.N c O O 2 t t t t t t t t s. XJ.R R R R R R W ( ( ( ( ) | | 0.0.0.0.q.q.q.q.0.%.| | | | | | | | | | | | | | | | %.0.| | | | ( W R R R R ( ( ( ( ( i : : : : : : : q w w w w q : 2 2 m =.=.-.-.-.=.Q Q Q Q Q Q Q Q Q Q Q T K V V B V V V V T T T K B B B Q Q Q Q Q Q Q Q Q Q Q E ^ ^ E Q Q ^ ^ [ @.@.@.@.@.@.#.@.@.@.@.@.@.[ [ [ [ } } @.#.J.E.E.E.E.E.E.P.n.c.c.c.c.c c k 2 2 2 2 2 2 2 K E E E E E E E E E E E E E E E E E E E E E E E E E E E E E E E E ^ [ [ [ [ [ [ [ [ [ [ ",
"$.$.@.$.@.@.$.$.@.$.@.@.@.@.$.$.@.@.@.@.@.@.@.@.@.@.@.^ ^ ^ ; # # O O O # * * ; W W W W W W R R W { | y.i.i.i.p.n.n.n.n.n.n.n.k.k.k.f.k.p.i.k.k.k.k.k.k.k.k.k.k.k.k.k.k.k.k.k.k.n.n.n.n.n.n.n.n.n.n.n.n.n.n.n.n.n.n.n.n.n.n.n.k.k.p.y.y.y.y.y.y.) v c c T N.J.J.T.f.W W ! ! ! ! ! V B B B B w O % ; t k m B B B B V V V B B B B B B T T T T T T T T ! W W W W W ! ^ K = = = = = = = = = = k m T T K K B B b m t t i K k # # # # % % u ^ J N N N N N N N N N K K K K K K K K K K K K K K K K K K K 4 % % % % % % % % % % % 2 F 2.h.h.+.k k x x z N F F F F K I I K K Q ~ ~ ~ ~ ~ Q N % O t t t t w 2 - 2 t. XJ.R R R R R R R ( ( ( ( ( ) | %.q.0.0.0.q.q.0.0.0.0.q.q.q.0.0.%.%.%.%.%.%.%.%.0.0.0.0.0.| | | ( R R R R R R R W ( ( ( ( B 2 : : : : : : : : : : : : 2 m =.=.=.-.-.-.[ T Q Q Q Q Q E Q Q Q Q T T T T T T K V K Q T T Q T K B T Q Q Q Q Q Q Q Q Q ! ^ ^ ^ ^ E E ^ ^ @.@.@.@.@.@.@.#.@.@.@.@.@.@.@.@.@.@.@.@.@.u.E.E.E.E.E.E.E.E.E.M.c.c.f.c y 4 2 2 2 2 2 2 2 E E E E E E E E E E E E E E E E E E E E E E E E E E E E E E E E E E ^ [ [ [ [ [ [ ] [ [ ",
"@.@.@.@.@.@.@.@.@.@.$.$.@.@.@.@.$.$.@.@.@.@.@.@.$.$.@.^ ^ ^ = = * # # # * * * c W W W W W W W W W | | q.i.i.i.i.n.n.n.n.n.n.n.k.p.p.k.k.i.i.i.i.i.i.k.k.k.k.k.k.k.k.k.k.k.n.n.n.n.k.n.n.n.n.n.n.n.n.n.n.n.n.n.n.n.n.n.n.n.n.n.n.k.k.k.y.y.y.y.y.i.i.| w.T.T.T.T.t.W W W W W ! T B B B B B B B c m m m m m B B B B B V V B B B B B B B T T T T T T T W W W W W W ! ! ^ t = = = = = = = = = k m K T T T T T T K d t t t u % % % % % 6 ^ Q N N N N N N N N N N N K K K K K K K K K K K K K K K K K K K u % % % % % % % u P 2.h.h.h.6.P k k k z z z N F F F F F I I K I I I I I I I I I 2 O - 2 2 - O O 4 a.l.N.R R R R R R R R ( ( ( ( ( | w.B.s.0.q.0.%.0.0.0.0.0.q.q.0.0.0.0.0.0.0.0.0.0.0.0.q.q.0.0.| | ) W R R R R R R R R W ( ( ( ( R t : - # * = : : : : : : k 2.=.=.=.=.-.=.T T Q Q E ^ ^ ^ E T Q Q Q T Q Q Q Q Q Q T Q Q Q Q T T T T Q T T T Q Q Q Q ^ ^ ^ ^ ^ ^ ^ ^ ^ } @.@.@.@.#.%.=.=.=.#.@.@.@.@.@.@.@.%.=.;.c.&X*X*X&XE.E.E.E.E.E.E.n.n.u.2 2 2 2 2 2 2 2 2 2 E E E E E E E E E E E E E E E E E E E E E E E E E E E E E E E E E E E E ] [ [ [ ] ] [ [ ",
"@.@.@.@.@.@.@.@.@.@.@.@.@.@.@.@.$.$.@.@.@.@.@.@.@.$.[ ^ ^ ^ = = * # # # * * = S W W W W W W W W ( | |  .i.i.i.i.k.n.n.n.n.n.n.k.p.k.k.k.i.i.i.i.i.k.k.k.k.k.k.k.k.k.k.k.n.N.N.N.N.N.N.N.N.N.N.N.N.N.N.N.N.n.n.n.n.n.n.n.n.n.n.n.k.k.k.y.y.q.y.y.y.i.M.T.T.T.T.t.W W W W ! T V V B B B b m m m m m m m m m m m m m B V V B B B B B B B T T T T T T ! W W W W W W ! ! ^ T t = = = = = = = = u k m K T T T T T T T c c u 6 % % % % 2 ~ E N N N N N N N N N N N N N N G K K K K K K K K K K K K K K F N K o.o.o.o.o._ *.2.g.h.h.2.I z z k k k k z z z F F F F F J I I I I I I I I I I I 2 O O O O O = T j.j.} Z Z R R R R R R W ( ( ( ( ( | l.B.N.0.| ( ) ) %.0.q.0.q.q.0.0.0.0.0.0.0.q.0.0.0.0.q.q.0.0.%.| ( R R R R R R R R R R W ( ( ( ( ( v O O O O O = : : : t =.2.=.=.=.;.;.$.T Q Q ! ^ ^ ^ ^ ! T T Q Q Q Q Q Q Q Q Q Q Q Q Q Q T T T T T T E ^ ^ Q T ^ ^ ^ } } } } } } @.@.@.@.#.%.=.=.=.=.=.=.$.@.@.#.=.N.N.N.B.B.*X=X=X=X=X*X!.E.E.E.E.E.P.n.[ 2 2 2 2 2 2 2 2 2 t E E E E E E E E E E E E E E E E E E E E E E E E E E E E E E E E E E E E ^ [ [ [ [ [ [ [ ",
"@.@.@.@.@.@.@.@.@.@.@.@.@.@.@.@.$.$.@.@.@.$.$.$.@.@.[ ^ ^ ^ = = * * = = = = p W R R R R W W W W | | | | y.y.y.y.p.n.n.n.n.n.n.k.i.k.k.k.k.k.k.k.k.k.n.n.n.n.n.n.k.n.N.N.N.N.N.N.N.N.N.N.N.N.N.N.N.N.N.N.N.N.n.n.n.n.n.n.n.n.n.n.k.k.k.i.q.w.e.y.y.y.J.T.T.J.#.W ^ W W E V B B B B b m b m m m m m m m m m m m m m B B B B B V V B B B T T T T T ! W W W W W ! ! ! ! ! ^ T = = = = = = = = 4 u t u B T T T T T T c k t w % % % & Q ^ F N N N N N N N N N N N N N N N N G K K K K K K K K K K K K N N N K _ ..o.o.o.o.o.o.X.F z z z k k k j j z z z N F F F F F I I I I I I I I I I I 2 O O O O u d.j.f.T Z Z Z T R R R R R ( ( ( ( ( ( } t.B.B.0.( ( ) ) | 0.q.q.q.0.0.0.0.0.0.0.0.0.q.q.q.q.q.q.0.0.q.| ( R R R R R R R R R R R ( ( ( ( ( ( = O O O O O = : 2 =.=.=.=.=.=.=.=.^ E E ^ ^ ^ ^ ^ ^ ^ T Q Q Q Q E E ^ ! E Q Q Q Q Q Q Q Q Q Q Q Q ^ ^ ^ ^ ^ ^ ^ @.@.@.@.@.@.@.@.@.@.$.=.=.=.=.=.=.=.=.=.%.%.=.t.f.f.t.t.t.Q.*X*X=X=X1X1XE.E.E.E.E.!.M.u 2 2 2 2 2 2 2 2 2 u E E E E E E E E E E E E E E E E E E E E E E E E E E E E E E E E E E E E E ^ [ [ [ [ [ [ ",
"^ @.@.@.@.@.@.@.@.@.@.@.@.@.@.@.@.$.@.@.@.@.@.$.@.@.X.^ ^ ^ = = ; 2 2 ; = = n W W W R R W W W { | | | | y.y.i.y.i.k.n.n.n.n.n.n.k.k.n.n.N.N.N.N.n.n.n.n.n.n.N.N.N.N.N.N.N.B.Y.Y.Y.Y.Y.Y.Y.Y.Y.Y.Y.B.N.N.N.N.n.n.n.n.n.n.n.n.n.n.n.k.k.i.q.w.w.y.y.y.i.k.y.} ! ! ^ ! T T B B B b m m b b m m m m m m m m m m m m m B B B B B V V B B V T T T T ! W W W W W ! ! ! ! ! W ^ } = = = = = = = = t u u t t N T T T T b c s t w % % % m ^ K N N N N N N N N N N N N N N N N N N N K K K K K K K J K K F N N N z z z z z z z z z z z z z z k k k j j k z z x F F F F F K I I I I I K K K I I = O o t B #.w.) Z Z Z Z Z Z R R R R R R ( ( ( ( ( ) } f.B.%.( ( ) ) | q.q.q.0.0.0.0.0.0.0.0.0.0.q.q.q.q.q.q.0.0.q.q.( R R R R R R R R R R R R W ( ( ( ( i O O O O O = : t =.=.$.[ =.=.=.*.^ ^ ^ ^ ^ ^ ^ ^ ^ ^ E E E ^ ^ ^ ^ ^ ^ ^ ^ T Q Q Q ^ ^ ^ E Q Q Q E ^ ^ ^ ^ ^ } @.@.@.@.@.@.@.@.@.%.=.=.;.d.s.a.;.=.=.=.=.=.=.%.} } } } } } XX*X=XsXhXsXE.E.E.E.=X1XM.2 2 2 2 2 2 2 2 2 2 t E E E E E E E E E E E E E E E E E E E E E E E E E E E E E E E E E E E E E E ^ [ [ [ [ [ ",
"^ [ $.@.$.$.@.@.@.@.@.@.@.@.$.$.@.@.@.@.@.@.@.@.@.@.^ ^ ^ ^ = = 2 2 2 2 2 2 Z W W W W W W W ( | | | | | i.y.i.i.y.k.k.k.n.n.n.n.k.k.k.n.n.n.N.n.n.n.N.N.N.N.N.N.N.N.N.Y.Y.Y.Y.Y.Y.Y.Y.Y.Y.Y.Y.Y.Y.Y.Y.Y.N.N.N.n.n.n.n.n.n.n.n.n.n.k.k.i.y.w.q.| | { } ) ! ! ! T T T T B B B b m m m b m m m m m m m m m m m m m b B B V V V V V B V T T T T T W W W W W W W ! ! W W W ^ } t = = = = = = = t t t t t t m K N c c c u t 4 % % 2 ^ ~ N N N N N N N N N N N N N N N N N N N N N F K F F N N N N N N N N m z z z z z z z z z z k k k k k k k j k k z z z F F F F F K K K I K F F F F F I O o o 2 Z Z Z Z Z Z Z Z Z Z T R R R R R R ( ( ( ( ( ( ( ) ( ( ( ( ) | 0.q.q.0.0.0.0.0.0.q.q.q.q.q.q.0.0.0.0.0.0.q.q.) R R R R R R R R R R R R R W ( ( ( v O O O O O = : : *.=.^ [ =.=.=.^ ^ ^ ^ ^ ^ ^ ^ ^ ^ ^ ^ ^ ^ ^ ^ ^ ^ ^ ^ ^ ^ ^ E Q T ^ ^ ^ ^ ! T Q E ^ ^ ^ ^ ^ @.@.@.@.@.@.@.@.#.=.=.=.=.d.f.f.f.f.f.s.t.;.=.=.} } } } } | t.s.~.hXhXhX*XE.E.E.*X1X1X@.2 2 2 2 2 2 2 2 2 2 2 E E E E E E E E E E E E E E E E E E T T T T E E E E E E E E E E E E E E E E E [ [ [ [ [ ",
"^ ^ X.@.@.$.@.[ ^ ^ ^ ^ @.@.$.$.@.@.@.@.@.@.@.@.@.@.^ ^ ^ ^ = = 2 2 2 2 2 4 C R W W W W W / | | | | | e.i.y.i.i.y.k.k.k.k.n.n.n.k.k.k.k.n.n.n.N.N.N.N.N.N.N.N.N.N.B.Y.Y.Y.Y.Y.Y.Y.Y.Y.Y.Y.Y.Y.Y.Y.Y.Y.Y.B.N.N.n.n.n.n.n.n.n.n.n.n.k.k.i.i.q.q.| { } } ^ T T T T T T B B B b m m m m m m m m m m m m m m m m m m B B B B B V V V V T T T T T ! W W ^ ^ ^ W W ! ! W W W } } m = = = = = = = t t t t t t t k c c c d t t 2 # % K ^ J N N N N N N N N N N N N N N N N N N N N N N N N N N N N N N N N N z z z z z z z z z z k k k k k k k j j j k z z z N F F F F F K I J F F F F F F F O o o + Z Z Z Z Z Z Z Z Z Z A R R R R R R W ( ( ( ( ( ( ( ( ( ( ( ) ) 0.q.q.q.0.0.0.q.q.q.q.q.q.q.q.0.0.0.0.0.0.q.q.) W R R R R R R R R R R R R R R ( ( v O O O O O = : : i *.^ ^ =.=.[ ^ ^ ^ ^ ^ ^ ^ ^ ^ ^ ^ ^ ^ ^ ^ ^ ^ ^ ^ ^ ^ ^ ^ ^ ^ E ^ ^ ^ ^ ^ ^ E E ^ ^ ^ ^ @.@.@.@.@.@.@.#.%.=.=.=.=.s.f.f.f.f.f.f.f.f.f.s.u.} } } } s.n.M.n.n.iXhX*XE.E.E.!.1X1X1Xc 2 2 2 2 2 2 2 2 2 2 2 E E E E E E E E E E E E E E Q Q E T Q T T T E E E E E E E E E E E E E E E E E E [ [ [ [ ",
"^ ^ ^ X.[ ^ ^ ^ ^ ^ ^ ^ ^ ^ @.@.@.@.@.@.@.@.@.@.@.^ ^ ^ ^ ^ = = : 2 2 2 2 2 n S W W W W W { | | | | | i.y.y.y.y.i.k.k.k.k.k.n.n.n.n.n.n.n.n.N.N.N.N.N.N.N.N.N.B.Y.Y.Y.Y.Y.Y.Y.Y.Y.Y.Y.Y.Y.Y.Y.Y.Y.Y.Y.Y.B.N.N.n.n.n.n.n.n.n.n.n.n.k.k.y.i.e.w.| } } } ) ! T T T T V B B b m m m m m m m m m m m m m m m m m m B B B B B B B B V T T T T T ! ! ! } } } } [ ^ ^ ! W W W [ } E = = = = = = = t t t t t t t c c c c u t t 2 O 2 ~ ~ N N N N N N N N N N N N N N N N N N N N N N N N N N N N N N N N N N z z z z z z z z z z k k k k j j j j k k z z z z N F F F F F K K F F F F F F F F O + o o n Z Z Z Z Z Z Z Z Z A R R R R R R R ( ( ( ( ( ( ( ( ( ( ( ) ) | q.0.q.q.0.0.0.0.q.q.0.0.q.q.q.q.0.0.0.0.0.q.( W R R R R R R R R R R R R R R R W n O O O O O # : : : E ^ ^ =.[ ^ ^ ^ ^ ^ ^ ^ ^ ^ ^ ^ ^ ^ ^ ^ ! E E E ^ ^ ^ ^ ^ ^ ^ ^ ^ ^ ^ ^ ^ ^ ^ ^ ^ ^ ^ } @.@.@.@.@.%.=.=.=.=.=.;.d.d.d.f.f.j.j.j.d.d.d.d.f.;.} =.c.b.b.M.n.c.XX&X!.E.E.E.&X1X1X*X2 2 2 2 2 2 2 2 2 2 2 2 E E E E E E E E T T E E E T T T E T T T T T Q E E T E E E E E E E E E E E E E E E [ [ [ ",
"^ ^ ^ ^ ^ ^ ^ ^ ^ ^ ^ ^ ^ ^ ^ X.@.@.@.@.@.@.$.@.@.^ ^ ^ ^ ^ = = = 2 2 2 2 2 i C R W W W W | | | | | r.p.y.y.y.y.i.k.k.k.k.k.n.n.n.n.n.n.n.N.N.N.N.N.N.N.N.B.Y.Y.Y.Y.Y.Y.Y.Y.Y.Y.Y.Y.Y.Y.Y.Y.Y.Y.Y.Y.Y.Y.N.N.N.n.n.n.n.n.n.n.n.n.k.k.p.y.i.e.q. .| { } ) ! T T T T B B B m m m m m m m m m m m m m m m m b b b B B B B B B B K T T T T T ! ! ! ^ } } } } [ } [ [ [ ^ ^ } [ =.= = = = = = 1 t t t t t t t k c c s t t t 2 O N ^ K N N N N N N N N N N N N N N N N N N N N N N N N N N N N N N N N N N z z z z z z z z z z k k j j j j j j k k z z z z z F F F F F F F F F F F F F F N O o o o d Z Z Z Z Z Z Z Z Z A R R R R R R R ( ( ( ( ( ( ( ( ( ( ( ( ) ) %.q.q.q.0.0.0.0.q.q.0.0.0.0.q.q.0.0.0.0.q.| ( W R R R R R R R R R R R R R R R R n O O O O O # : : : m ^ ^ ^ ^ ^ ^ ^ ^ ^ ^ ^ ^ ^ ^ ^ ^ ! E E T T T T T ! ^ ^ ^ ^ ^ ^ ^ ^ ^ [ } [ ^ ^ ^ ^ [ @.@.@.@.#.=.=.=.=.=.;.s.f.d.d.j.b.n.n.n.M.b.b.c.c.c.j.c.c.b.b.b.M.n.c.M.&X&X!.E.E.&X1XXX( 2 2 2 2 2 2 2 2 2 2 2 2 T E E E E E E T T T T Q T T T T Q T T T T T T Q Q T T Q T E E E E E E E E E E E E E [ [ ",
"^ ^ ^ ^ ^ ^ ^ ^ ^ ^ ^ ^ ^ ^ ^ ^ [ $.@.@.@.@.$.$.[ ^ ^ ^ ^ ^ = = = 2 2 2 2 2 2 C Z R W W { | | | | 9.p.p.y.y.y.y.i.k.k.k.k.k.n.n.n.n.n.T.n.N.N.N.N.N.N.B.Y.Y.Y.Y.Y.Y.Y.Y.Y.Y.Y.Y.Y.Y.Y.Y.Y.Y.Y.Y.Y.Y.Y.N.N.N.N.k.k.k.n.n.n.n.n.n.k.k.i.y.y.q.w.%.| { } } ! E T T K B B b m b b m m m m m m m m m m m m m b b B V B B B B B T T T T T T ! W W ! [ [ [ } } } } } } } } } } [ a.4 = = = = = 1 t t t t t t t d c k u t t t = % E ^ K N N N N N N N N N N N N N N N N N N N N N N N N N N N N N N N N N N z z z z z z z z z z k k j j j j k k k z z z z x z F F F F F F F F F F F F F N z o o o o < Z Z Z Z Z Z Z Z Z Z Z Z R R R R R ( ( ( ( ( ( ( ( ( ( ( ( ) ) { 0.q.q.q.q.0.0.0.q.0.0.0.0.q.q.q.0.q.q.| ( W R R R R R R R R R R R R R R R R R n O O O O O # : : : t ^ ^ ^ ^ ^ ^ ^ ^ ^ ^ ^ ^ ^ ! E E T T T T T T T T T ^ ^ ^ ^ ^ ^ ^ ^ ^ @.@.@.@.} ^ ^ @.@.@.@.#.=.=.=.=.;.s.d.f.f.d.d.c.c.n.n.M.M.b.b.n.c.n.n.n.n.b.b.c.c.n.n.n.L.&X&X!.E.&XG.W W u 2 2 2 2 2 2 2 2 2 2 2 B E E E E E E T T T T T T T T Q T T T T T T T T T T T T T T T Q T E E E E E E E E E E ^ ",
"^ ^ ^ ^ ^ ^ ^ ^ ^ ^ ^ ^ ^ ^ ^ ^ ^ [ @.@.@.$.$.$.^ ^ ^ ^ ^ ^ 4 = = : 2 2 2 2 2 y C A W W { | | | { y.p.p.i.y.y.y.i.k.k.k.k.k.k.k.n.B.1X1Xn.N.N.N.N.N.B.Y.Y.Y.Y.Y.Y.Y.Y.Y.Y.Y.Y.Y.Y.Y.Y.Y.Y.Y.Y.Y.Y.Y.N.N.N.N.N.k.k.k.n.n.n.n.n.k.k.k.i.y.q.q.q.| { } } ) ! ! T T B B B b b b m m m m m m m m m m m m m m b B V V B V B V T T T T T T W W W W ^ [ [ [ [ } } } } [ } } } } [ d.u = = = = = = t t t t t t t i c u t t t t 4 t X.^ N N N N N N N N N N N N N N N N N N N N N N N N z z N N N N N N N N m z z z z z z z z z z j k k j k k k k k z z z z x x N F F F F F F F F F F F N z z o o o o + Z Z Z Z Z Z Z Z Z Z Z Z R R R R ( ( ( ( ( ( ( ( ( ( ( ( ( ( ) { | 0.q.q.q.0.0.0.q.0.0.0.0.q.q.q.0.q.| ( R R R R R R R R R R R R R R R R R R R n O O O O O = : : : t ^ ^ ^ ^ ^ ^ ^ ^ ^ ^ ^ ! T T T T T E E T T T T T T ^ ^ ^ ^ ^ ^ ^ ^ } @.@.@.@.@.@.@.@.@.@.$.=.=.=.;.s.f.f.f.f.f.d.d.c.n.n.n.M.b.b.b.n.n.c.n.n.n.j.j.d.s.u.t.;.;.t.Q.&X~.M.W W W A 2 2 2 2 2 2 = ; 2 2 2 c E E E E E Q T T T T T T T T T T T T T T T T T T T T T T T Q Q Q Q Q T E E E E E E E E ",
"^ ^ ^ ^ ^ ^ ^ ^ ^ ^ ^ ^ ^ ^ ^ ^ ^ ^ [ @.@.@.@.@.^ ^ ^ ^ ^ ^ 4 * = = 2 2 2 2 2 2 v Z S W { | | | 9.y.y.y.y.y.i.i.y.k.k.k.k.k.k.n.Q.uXuX+Xn.N.N.N.N.B.Y.Y.Y.Y.Y.Y.Y.Y.Y.Y.Y.Y.Y.Y.Y.Y.Y.Y.Y.Y.Y.Y.B.N.N.N.N.N.k.k.k.k.k.n.n.n.k.k.k.k.y.y.q.q.| } } } } ^ ! ! T T B B B B m m m m m m m m m m m m m m m m m B B B B B V T T T T T T ! W ! ! [ } } } #.$.$.%.$.| } [ [ [ @.$.s.Q = = = = = = t u t t t t t i i t t t t t t X.H.^ N G N N N N N N N N N N N N N N N N N N N N N z z z z z z m m m N N z z z z z z z z z z z k k k k k k k k k j z z z z z z F F F F F F F F F F F z z z o o o o o c Z Z Z Z Z Z A Z Z Z Z R R R R ( ( ( ( ( ( ( ( ( ( ( ( ( ( ) { | 0.q.q.q.0.0.q.q.q.q.q.q.0.0.0.0.) ( R R S S S A S R R R R R R R R R R R R R v O O O O O = : : : t ^ ^ ^ ^ ^ ^ ^ ^ ^ ^ E T T T E T T T T T T T E E E ^ ^ ^ ^ ^ ^ ^ ^ @.@.@.@.@.@.@.@.@.@.%.=.=.;.s.f.f.f.f.d.d.d.d.d.j.n.n.c.c.b.b.b.M.n.n.n.b.;.;.;.;.;.t.t.;.;.;.;.M.&X~.t.| W W ! m 2 2 2 2 = = = 2 2 i E E E E E T T T T T T T T T T T T T T T T T T T T T T T T T T T T T T T E E E E E E E ",
"^ ^ ^ ^ ^ ^ ^ ^ ^ ^ ^ ^ ^ ^ ^ ^ ^ ^ ^ @.@.@.@.^ ^ ^ ^ ^ ^ ^ 4 = = = - 2 2 2 2 2 t Z Z R { | | | y.i.y.y.y.y.i.p.p.k.k.k.k.k.N.*XuXuXuXT.n.N.N.N.B.Y.Y.Y.Y.Y.Y.Y.Y.Y.Y.Y.Y.Y.Y.Y.Y.Y.Y.Y.Y.Y.Y.Y.N.N.N.N.N.n.k.k.k.k.k.n.k.k.k.k.k.i.y.q.q.| | } } } ^ ! ! T T T B B B B m m m m m m m m m m m m m m m m b B B B B V T T T T T ! ! ! W W [ } } } $.$.$.$.$.$.%.%.#.@.$.$.%.f.Q = = = = = = 2 t t t t t t t t t t t t t c U. X^ K K K N N N N N N N N N N N N N N N N N N N m z z z z z z z z z z z z z z z z z z z z z z k k k k k k k k j j k k z z z z N F F F F F F F F F F z z z + o o o o t Z Z Z Z Z Z Z Z Z Z A R R R R R ( ( ( ( ( ( ( ) ) ) ) ) ) | | 0.q.q.q.0.0.0.0.q.0.%.| | { ) ) ( ( R S Z Z Z Z Z Z Z S R R R R R R R R R R R v O O O O O = : : : t ^ ^ ^ ^ ^ ^ ^ ^ ! E E T T T E T T T T T T T T E ! ^ ^ ^ ^ ^ ^ ^ } @.@.@.@.@.@.#.$.%.=.=.=.;.d.f.f.f.f.f.f.d.d.f.d.j.n.n.n.M.b.b.b.n.n.n.n.b.;.;.;.;.;.t.t.;.;.;.;.;.s.XX&X&X&X&X&X&X&X&XG.B = % & - 2 u E E E E T T T T T T T T T T T T T T T T T T T A B B A T T T T T T T T T T Q E E E E E ",
"^ ^ ^ ^ ^ ^ ^ ^ ^ ^ ^ ^ ^ ^ ^ ^ ^ ^ ^ ^ @.@.@.^ ^ ^ ^ ^ ^ ^ 4 = * * = ; 2 2 2 2 w Z Z A { | |  .p.p.p.p.y.y.y.p.p.k.k.k.T.*XuXuXuXuXQ.n.n.N.N.N.Y.Y.Y.Y.Y.Y.Y.Y.Y.Y.Y.Y.Y.Y.Y.Y.Y.Y.Y.Y.Y.Y.Y.N.N.N.N.N.n.n.k.k.k.k.k.k.k.k.k.k.p.y.e.w.| | { } } W ! T T T T T B V B B b m m m m m m m m m m m m m m m B B V V K T T T T T ! ! ! ! ^ [ } } #.%.$.%.;.;.%.$.#.#.$.$.%.%.=.f.=.= = = = = = = 4 t t u u t t t t u t t t j. X X*.K K K N N N N N N N N N N N N N N N N N N N z z z z z z z z z z z z z z z z z z z z z z z j k k j k k k j j j j j k k z z z F F F F F F F F F N z z z + o o o o % Z Z Z Z Z Z Z Z Z Z R R R R R R R W ( ( ( ( ) ) | | ) ) ) | 0.q.q.q.q.0.0.0.0.| ) ) { { { ) ( W R S Z Z Z Z Z Z Z Z Z Z R R R R R R R R R R v O O O O O - : : : d ^ ^ ! E ^ ^ ^ E E T T T T E E E E T T T T T T E ^ ^ ^ ^ ^ ^ ^ } @.@.@.@.@.#.%.=.=.=.=.=.;.f.f.d.f.f.f.f.f.f.f.f.f.j.n.b.M.M.b.b.b.b.b.n.n.n.;.;.t.;.;.;.t.;.;.;.;.;.;.t.!.&X&X&X&X&X&X&X&X^ = & & & ; 4 E E T T T T T T T T T T T A B B B B B A Z B B B B B B B B B A T T T T T T T Q E E E E ",
"T ^ ^ ^ ^ ^ ^ ^ ^ ^ ^ ^ ^ ^ ^ ^ ^ ^ ^ ^ ^ ^ ^ ^ ^ ^ ^ ^ ^ ^ 4 = * * * * = = : 2 w Z Z Z ( | | y.p.y.i.p.y.y.y.i.p.k.k.~.uXuXuXuX~.k.k.n.n.N.N.N.Y.Y.Y.Y.Y.Y.Y.Y.Y.Y.Y.Y.Y.Y.Y.Y.Y.Y.Y.Y.Y.B.N.N.N.N.N.N.n.n.k.k.k.k.k.k.k.k.k.k.y.y.q.q.| | } } W ! ! T T T T T V V B B b m m m m m m m m m m m m m m m B B V V T T T T T ! ! ! ! ^ } } } $.%.%.%.;.;.;.;.=.%.#.$.$.%.%.s.f.=.= = = = = = = = 6 u u t t t t t u t t G  X X X$.K K K N N N N N N N N N N N N N N N N N N z z z z z z z z z z z z z z z z z z z z z z z k j k k k k k k j j j j j k k z z z z F F F F F F F F N z z z + o o o o 1 Z Z Z Z Z Z Z Z Z Z R R R Z Z T R R R W ( ( ) ) | { { ) ) 0.q.q.q.q.0.0.0.| | | ) ) { ) ( ( ( R R Z Z Z Z Z Z Z Z Z Z Z S R R R R R R R R R v O O O O O ; : : : m ^ ^ T T T ! T T E T T T T E E E E E T T T T T ^ ^ ^ ^ ^ ^ [ @.@.@.@.@.@.#.=.=.=.=.=.=.;.d.f.f.d.f.f.f.f.f.f.f.f.f.c.n.b.b.b.b.b.b.b.b.n.n.j.;.;.;.;.;.;.;.;.;.;.;.;.;.;.;.J.&X&X&X&X&X&X&X^ = & & & = 2 T T T T T T T T T T T A B B B B B B B B B B B B B B B B B B Z B T T T T T T T T E E E ",
"T T ^ ^ ^ ^ ^ ^ ^ ^ ^ ^ ^ ^ ^ ^ ^ ^ ^ ^ ^ ^ ^ ^ ^ ^ ^ ^ ^ ^ 4 = * = % % # # = 2 v C C C W |  .y.y.y.y.y.y.y.y.y.k.k.k.uXuX1X!.k.k.k.k.n.N.N.N.N.N.Y.Y.Y.Y.Y.Y.Y.Y.Y.Y.Y.Y.Y.Y.Y.Y.Y.Y.Y.N.N.N.N.N.N.N.n.n.k.k.k.k.k.k.k.k.k.p.y.y.q.w.| | { { } ! ! T T T T T T V V V V m m m m m m m m b m m m m m m b B B V K T T T T ! W W ^ } } } #.%.%.=.;.;.;.;.;.;.;.;.=.%.%.%.;.f.f.=.= = = = = = = = = t t t t t t t t t t G. X XU.K K K K F N N N N N N N N N N N N N N N N m z z z z z z z z z m N z z z z z z z z z z z j k j j j j j j j j k k j j k k z z z z z F F F F F F F N z z z + o o o o n Z Z A Z Z Z Z A Z T R T Z Z Z Z R R R R ( ( ( ) ) ) ) ) | | | | | | | | | | | | ) ) ( ( ( ( R R Z Z Z Z Z Z Z Z Z Z Z Z Z R R R R R R R R R v O O O O O : : : : K ^ ^ ! T T T T T T T T E E E E E E T T T T E ^ ^ ^ ^ ^ ^ ^ [ @.@.@.@.@.@.%.=.=.=.=.=.t.d.f.f.f.d.d.f.f.f.f.f.f.f.f.b.b.b.M.n.n.n.n.n.M.b.b.f.;.;.s.f.j.;.;.;.;.;.;.;.;.;.;.t.M.&X&X&X&X&X&X^ & = = = & 2 T T T T T T T T T T Z B B B B Z Z B B B B B B B B B B Z Z Z Z Z A T T T T T T T E E E ",
"T T T ^ ^ ^ ^ ^ ^ ^ ^ ^ ^ ^ ^ ^ ^ ^ ^ ^ ^ ^ ^ ^ ^ E T ^ ^ ^ c = = = % % * * = v C C C Z W | y.y.y.y.y.y.y.y.i.p.k.k.k.B.k.k.k.k.k.k.k.n.N.N.N.N.N.N.N.Y.Y.Y.Y.Y.Y.Y.Y.Y.Y.Y.Y.Y.Y.Y.N.N.N.N.N.N.N.N.N.n.n.k.k.k.k.k.k.k.k.p.y.y.y.w.q.| | } } W ! ! T T T T T T V V V B m m m m m m m m b b m m m m m B B B B T T T T ! ! ^ } } [ @.#.#.%.;.;.;.;.;.;.;.;.;.;.;.;.;.;.s.f.d.f.= = = = = = = = = 2 t t t t t t t t X. X X X=.K K K K F N N N N N N N N N N N N N N N N z z z z z z z z m N N N m z z z z z z z z z j j k j j k j j j j j k k j j k k k z z x z z F F F F F F F z z z + o o o 2 Z Z Z Z Z Z Z Z Z Z T Z Z Z Z Z A R R R R W ( ( ( ) ) ) ) | { { { ) ) ) ) { { | | ) ) ( ( ( ( R R Z Z Z Z Z Z Z Z Z Z Z Z Z R R R R R R R R R v O O O O * : : : : T ^ ^ ^ T E T T T T T T T T E E E E T T T T ^ ^ ^ ^ ^ ^ ^ ^ [ @.@.@.@.@.$.=.=.=.;.a.d.f.f.f.f.f.d.d.f.f.f.f.f.f.f.f.j.j.M.M.n.n.n.n.n.n.b.M.f.u.j.n.c.t.;.;.;.;.;.;.t.t.;.;.;.s.J.J.P.!.!.XX^ 4 = = = = 2 T T T A A A A A A B B B B B B Z Z B B B n B Z B B n n B B Z Z B B T T T T T T T T E E ",
"T T T ^ ^ ^ ^ ^ ^ ^ ^ ^ ^ ^ ^ ^ ^ ^ ^ ^ ^ ^ ^ ^ ^ T T T ^ ^ m = = = = % * * = Z C C C R W q.y.y.y.y.y.y.y.i.k.k.k.k.k.k.k.k.k.k.k.k.n.n.n.N.N.N.N.N.N.N.N.Y.Y.Y.Y.Y.Y.Y.Y.Y.Y.Y.B.N.N.N.N.N.N.N.N.N.n.n.k.k.k.k.k.k.k.k.k.i.y.y.q.w.| | } } ) ! ! T T T T T T T B B B N m m m m m m m m b b m m m m m B B B V T T T ! ! ^ } } } $.%.%.=.;.;.;.;.s.f.f.f.d.s.u.u.;.t.s.f.d.d.d.= = = = = = = = = ; t t t u u t t i U. X XU.K K K K K F N N N N N N N N N N N N N N N z z z z z z m N N N N N N m z z z z z z z k j j k k k k k k k j k k k k j j k k k j z z z z F F F F F F F N z x + o o o B Z Z Z Z Z Z Z Z Z Z Z Z Z Z Z Z T R R R R ( ( ( ( ( ) | | | | ) { { ) ) ) ) ) { { | ( ( ( ( ( R R Z Z Z Z Z Z Z Z Z Z Z Z Z A R R R R R R R R v O O O O O : : : : ^ ^ ^ ^ ^ E E E E E T T T T T T E T T T T ^ ^ ^ ^ ^ } [ ^ ^ } @.@.@.@.#.=.=.;.s.f.f.f.f.d.f.f.f.d.f.f.f.f.d.d.d.f.f.d.d.f.j.j.n.n.n.M.b.b.b.n.n.n.n.t.;.;.;.;.;.;.;.;.;.;.;.;.s.N.J.J.J.J.J.%.4 = = = = 4 B Z B B B B B Z B B B B B B B Z Z Z Z B B Z Z Z n B B B n B B B B A T T T T T T Q E E ",
"T T T T ^ ^ ^ ^ ^ ^ ^ ^ ^ ^ ^ ^ E T T T ^ ^ ^ ^ ^ T T T E ^ m = = = = % * * q Z Z C S W W y.y.y.y.i.y.y.i.k.k.k.k.k.k.k.k.k.k.k.k.n.n.n.n.n.N.N.N.N.N.N.N.N.B.Y.Y.Y.Y.Y.Y.Y.Y.N.N.N.N.N.N.N.N.N.N.N.n.n.k.k.k.k.k.k.k.k.p.y.y.y.w.w.| | { } W ! ! T T T T T T T B B B b m m m m m m m m m m m m m m B B B B T T T E W [ } } #.%.%.%.;.;.;.;.s.f.f.f.f.f.d.d.f.f.f.f.f.f.d.d.d.= = = = = = = = = = t t t t u u t j. X X Xa.K K K K K N N N N N N N N N N N N N N N z z z z m N N N N N N N N N N z z z z z z k k j j k k k k k k k k k k k k j k z k k j k x z z F F F F F F F N z x + o o + Z Z Z Z Z Z Z Z Z Z Z Z Z Z Z Z Z R R R R R ( ( ( ( ( | | | | | ) ) { ) ) ) ) ) { { ) ( ( ( ( ( R R Z Z Z Z Z Z Z Z Z Z Z Z Z Z S R R R R R R R c O O O O O # : : : ^ ^ ^ ^ ^ E E E E T T T T T T T E E T T ^ ^ ^ ^ [ @.@.@.@.@.@.@.@.$.%.=.=.t.d.d.f.f.f.f.d.d.f.f.d.f.f.f.f.d.d.d.f.f.d.d.f.f.f.j.n.n.n.b.b.b.n.n.n.n.n.f.;.;.;.;.;.;.;.t.;.t.s.f.f.d.j.N.J.J.%.4 = = = = 2 B B B B B B B B B B B B B Z B Z Z B Z B B Z Z Z B B B B B B B B B B T T T T T T T E E ",
"T T T T E E E E E E E E T E T T T T T T T ^ ^ ^ ^ T T T T T T = * # * * = = i C Z Z W W | y.y.y.y.y.y.i.k.k.k.k.k.k.k.k.k.k.k.k.k.k.n.n.n.n.n.N.N.N.N.N.N.N.N.Y.Y.Y.Y.Y.Y.N.N.N.N.N.N.N.N.N.N.N.N.n.k.k.k.k.k.k.k.k.k.p.y.y.y.q.w.%.| | } ) ! ! T T T T T T T T B B V m m m m m m m m m m b B B B B B B B V T T T W ^ } } #.%.$.;.;.;.;.s.f.f.f.f.f.f.f.f.f.f.f.f.f.f.f.f.f.f.= = = = = = = = = = 4 t t t t t Q  X X X'.Q K K K K K N N N N N N N N N N N N N z z z z z N N N N N N N N N N N z z z z z z k k k j j k k k j j j j j j k k k j z z z z k k z z z F F F F F F F N z z o o o 2 Z Z Z Z Z Z A Z Z Z Z Z Z Z Z Z A R R R R W ( ( ( ( ( ) ) ) ) ) ) ) | | ) ) ) ) ) ) ) ( ( ( ( W R R S Z Z Z Z Z Z Z Z Z Z Z Z Z Z S R R R R R R p # # = = ; : : : : ^ ^ ^ ^ ^ E T T T T T T T T E T T T ! ^ ^ ^ ^ ^ @.@.@.@.@.@.#.%.=.=.=.=.;.s.d.d.f.f.f.f.d.d.d.d.d.d.f.f.f.f.d.d.f.f.f.j.c.M.c.j.n.n.n.b.b.b.n.n.M.n.M.M.c.2.;.;.;.;.;.;.;.s.f.f.f.f.f.d.f.G.%.4 = = = = 2 v B n B B B Z Z Z B B Z B B B Z Z Z Z B B Z Z n B b b b b B Z Z Z B V T T T T T T T E ",
"T T T T T T T T T T T T T T T T T T T T T E ^ ^ ^ E T T T T T ; * # * = = = n C Z Z S W q.y.y.y.y.y.y.y.k.k.k.k.k.k.k.k.k.k.k.k.k.k.k.n.n.n.n.n.N.N.N.N.N.N.N.B.Y.Y.Y.Y.B.N.N.N.N.N.N.N.N.N.N.N.n.k.k.k.k.k.k.k.k.p.i.y.y.y.y.w.w.| | } } ^ ! T T T T V B B B B B B B b m m m m m m m m m B B B B B B B B T T T ! ^ } } $.%.%.;.;.;.u.d.f.j.c.c.b.c.c.j.j.c.b.f.d.f.f.f.f.f.f.= = = = = = = = = = ; t t t t i U. X X Xa.K K K K K G N N N N N N N N N N N N N z z z m N N N N N N N N N N N N z z z z z k k k k k j k k k j j j j j j j k k k z z z z x z z z z F F F F F F N z z z o o o i Z Z Z Z A Z Z Z Z Z Z Z Z Z Z Z T R R R R ( ( ( ( ( ( ( ) ) ) ) ( ) | | ) { ) ) ) ) { ( ( ( ( W R R S Z Z Z Z Z Z Z Z Z Z Z Z Z Z Z S R R R R R t : : : : : : : : : ^ ^ } ^ ^ ! T T T T T ! ^ ! ! ! ^ ^ ^ ^ ^ ^ ^ @.@.@.@.@.@.#.=.=.=.=.;.t.s.s.d.f.f.f.f.f.d.d.d.d.d.f.f.f.f.d.d.d.f.f.c.c.n.M.M.M.n.n.c.b.b.b.n.n.n.M.M.n.b.c.;.;.;.;.;.;.;.s.d.d.f.f.f.d.d.G.%.4 = = = = 2 c v v v B n Z Z B B B Z B B B Z Z Z Z B n B B B B b b b b B Z Z Z B B T T T T T T T T ",
"T T T T T T T T T T T T T T T T T T T T T T ^ ^ ^ E T T T T T i = = 2 : 2 w w v Z Z Z { y.i.y.i.y.y.y.y.k.k.k.k.k.k.k.k.k.k.k.k.k.k.k.n.n.n.n.n.N.N.N.N.N.N.N.B.Y.Y.Y.Y.N.N.N.N.n.n.n.n.n.n.n.n.n.n.k.k.k.k.k.k.p.y.y.y.y.y.q.w.w.| | { } ! ! T T T B B B B B B b B B b m m m m m m m m m B B B B V B B K T T E W } } $.%.%.;.;.;.s.d.d.j.c.c.c.b.b.c.b.n.c.b.j.f.d.d.d.d.d.f.4 = = = = = = = = = = t t t t j. X X X'.Q K K K K K N N N N N N N N N N N N N N z z m N N N N N N N N N N N N m z z z z j k k k k k k k k k k j j j j k k k k k z z z x x z z z z N F F F F F x z z z o o o c Z Z Z Z Z Z Z Z Z Z Z Z Z Z Z Z Z R R R R ( ( ( ( ( ( ( ) ( ( ( ( ( | | | { | | { | { ) ( ( ( R R R R Z Z Z Z Z Z Z Z Z Z Z Z Z Z Z Z A R R R R 2 : : : : : : : : : T ^ @.^ ^ E T T T ! ^ ^ ^ ^ ^ ^ ^ ^ ^ ^ ^ ^ [ @.@.@.@.@.#.=.=.=.;.t.a.a.s.s.f.f.f.f.f.f.d.d.s.d.d.d.f.f.f.f.d.d.f.j.c.c.M.M.M.M.n.M.n.n.b.b.b.M.M.b.n.n.b.b.j.;.;.;.;.;.;.d.f.f.f.f.f.d.j.J.%.w = = = % 2 c c v v v v v B Z B B Z Z B B B B Z Z Z B B B B B b b b b b B Z Z Z B T T T T T T T T ",
"T T T T T T T T T T T T T T T T T T T T T T T ^ ^ ^ T T T T T N = = 2 w w w w w n Z A k.q.r.i.i.y.y.y.y.k.k.k.k.k.k.k.k.k.k.k.k.k.k.k.n.n.n.n.n.n.N.N.N.N.N.N.Y.Y.Y.Y.Y.N.N.N.n.n.n.n.n.n.n.n.n.n.n.k.k.k.k.k.k.i.y.y.y.y.y.q.w.q.| | } ) ! ! T T B B B b m m m m m b b m m m m m m m m m B B B V V B B T T T W ^ } #.%.%.;.;.;.d.d.j.c.c.c.c.c.b.b.c.c.c.c.b.j.f.d.d.d.d.d.f.u = = = = = = = = = = 2 t t *. X X X Xa.K K K K K K N N N N N N N N N N N N N N N z N N N N N N N N N N N N m z z z z z j j k k k k k k k k j j j j j k k k k k z z z x z z z z x x F F F F F N z z s o o o n Z Z Z Z Z Z Z Z Z Z Z Z A Z Z Z Z A R R R R ( ( ( ( ( ( ( ( ( ( ( ( ) | | | | | | | ) ) ( ( ( W R R R Z Z Z Z Z Z Z Z Z Z Z Z Z Z Z Z Z R R R A : : : : : : : : : : c ^ @.} ^ T T T ^ ^ ^ ^ ^ ^ ^ ^ ^ ^ ^ ^ ^ ^ [ @.@.@.@.#.=.;.t.u.u.u.a.a.s.s.f.f.d.d.f.f.f.s.u.s.f.d.f.f.f.f.d.d.f.j.c.c.M.M.M.M.n.n.n.n.b.b.b.M.b.b.n.n.n.b.b.s.t.;.;.;.;.f.f.f.f.f.d.j.J.J.%.4 = = = % 1 c c v v v v v v v B B Z Z B B B B Z B Z B B B B B B b b b b B Z Z Z B V T T T T T T T ",
"T T T T T T T T T T T T T T T T T T T T T T T E ^ ^ E T T T T T = = = 2 w w w w p Z p.tXy.q.y.y.y.y.y.p.k.k.k.k.k.k.k.k.k.k.k.k.k.k.k.n.n.n.n.n.n.n.N.N.N.N.N.Y.Y.Y.Y.N.N.N.n.n.n.n.n.n.n.n.n.n.n.n.k.k.k.k.k.k.i.y.y.y.y.r.q.q.%.| | } ^ ! T T T B B m m m m m m m m m m m m m m m m m b B B B V V B T T T ! W [ } $.%.;.;.;.s.f.j.b.b.b.b.b.b.b.c.c.b.b.b.b.j.f.f.d.d.d.f.f.2 : : ; 2 2 2 2 = = = = t ^  X X X X'.Q K K K K K K G N N N N N N N N N N N N N N N N N N N N N N N N N m z z z z z z z k j j j j k k j j k k k k k k k k j k k k z z z x x x x x z F F F F F x z z s o o o Z Z Z Z Z Z Z Z Z Z Z Z Z Z Z Z Z Z Z A R R R R ( ( ( ( ( ( ( ( ( ( ( ) ) ) ) | { { { ) ) ( ( ( R R R R S Z Z Z Z Z Z Z Z Z Z Z Z Z Z Z Z R R R v : : : : : : : : : : 2 ^ @.@.^ ^ ^ ^ ^ ^ ^ ^ ^ ^ ^ ^ ^ ^ [ [ ^ ^ [ @.@.@.@.;.a.a.a.s.a.a.a.a.a.d.d.d.d.f.f.f.s.u.u.y.s.f.f.f.f.f.f.f.d.c.n.b.b.b.M.n.j.f.d.d.d.d.d.j.b.b.c.c.n.n.n.n.t.;.;.;.;.f.f.f.f.f.f.N.J.J.%.4 & & & % = v v v v v v v v v B B Z Z Z B B B B B Z B B B B B B B B B B n B B B B B T T T T T T T ",
"T T T T T T T T T T T T T T T T T T T T T T T T ^ ^ ^ T T T T E = = = = : w w w w Z ^.tXY.q.r.y.y.y.y.p.k.k.k.k.k.k.k.k.k.k.k.k.k.k.k.n.n.n.n.n.n.n.n.N.N.N.N.Y.Y.Y.Y.N.N.N.n.n.n.n.n.n.n.n.n.n.n.k.k.k.k.k.k.k.i.y.y.y.y.q.q.q. .| { } W ! T T B B m m m m m m m m m m m m m m m m m b B B B B V V B T T T W ^ } $.%.;.;.;.s.f.j.c.b.b.b.b.b.b.b.b.b.b.c.c.b.j.f.f.d.d.f.f.f.2 : : 2 2 2 2 2 ; = = = s U. X X X Xa.K K K K K K K K B N N N N N N N N N N N N N N N N N N N N N N z z z z z z z z z z z k j j j k k k j k k k k k k k k j k k k k z x x z z x x z x F F F x z z z 7 o o o Z Z Z Z Z Z Z Z Z Z Z Z Z Z A Z Z A Z Z R R R R R ( ( ( ( ( ( ( ( ( ( ( ) ) ) ) ) ) ) ( ( ( ( ( R R R R R S Z Z Z Z Z Z Z Z Z Z Z Z Z Z Z R R R w : : : : : : : : : : : c @.@.} ^ ^ ^ ^ ^ ^ ^ } } } @.@.@.@.@.@.^ ^ } @.$.t.u.a.a.s.s.a.a.a.a.s.s.d.d.d.f.f.s.u.u.u.y.s.s.s.s.s.s.f.f.d.c.b.b.b.c.c.j.s.s.d.d.d.d.d.d.a.j.c.c.n.n.n.n.n.t.;.;.;.s.f.f.f.f.f.f.n.j.$.4 & & = % = v v v v v v v v v b B Z Z B B B B B B Z B B n n B B B B B B n B B B B B T T T T T T T ",
"T T T T T T T T T T T T T T T T T T T T T T T T ^ ^ ^ E T T T ' 2 # = % = ; w w w v tXtXW.q.q.y.y.y.y.i.k.k.k.k.k.k.k.k.k.k.k.k.k.k.k.n.n.k.k.k.k.n.n.n.N.N.N.N.Y.Y.Y.N.N.N.n.n.n.n.n.n.n.n.n.n.n.k.k.k.k.k.k.k.i.y.i.y.y.w.q.q.| | { } ! ! T T B b m m m m m m m m m m m m m m b B V V V V B B B B V T T T ! ^ } #.%.;.;.a.f.j.n.n.n.n.b.b.b.b.n.n.n.n.c.c.n.c.f.f.d.d.f.f.f.w : : 2 2 2 2 : ; = = K '. X X X X XQ K K K K K K K K K K N N N N N N N N N N N N N N N N N N N z z z z z z z z z z z z z z z k k k k j j j j k k k k j j j j k k k k x x z z z z z z z x z z z z x 2 o o o Z Z Z Z Z A Z Z Z Z Z Z Z Z Z Z Z Z Z Z R R R R R R ( ( ( ( ( ( ( ( ( ( ( ( ( ( ( ( ( ( ( ( ( ( W R R R R R R S Z Z Z Z Z Z Z Z Z Z Z Z R R R R : : : : : : : : : : : : : } @.@.^ ^ ^ ^ ^ ^ } @.@.@.@.@.@.@.@.@.@.[ @.%.a.u.u.a.s.s.s.s.s.s.t.s.s.d.d.f.f.d.s.a.a.a.a.a.s.s.s.s.s.f.f.d.j.M.n.n.n.f.d.d.s.d.d.d.d.d.d.d.d.j.M.n.n.b.b.n.j.d.t.;.s.d.d.d.d.f.f.f.s.^ 4 & & = = = c v v v v v v v v v n B B B B n B B Z Z B b b b b n b B B B Z B B B B A T T T T T T T ",
"T T T T T T T T T T T T T T T T T T T T T T T T T ^ ^ ^ T T T @.z # # % = = = 2 w v tXtXN.q.q.y.y.y.y.i.k.k.k.k.k.k.k.k.k.k.k.k.k.k.k.k.k.k.k.k.k.k.k.n.n.N.N.N.Y.Y.Y.N.N.n.n.n.n.n.n.n.n.n.n.n.k.k.k.k.k.k.k.p.y.y.i.i.q.w.w.q.| | } ) ! ! T T B m m m m m m m m m m m m m m b V V V V V V B B B B T T T T ! } #.#.;.;.t.f.j.c.n.n.n.n.c.c.b.M.n.n.n.n.c.c.n.c.f.f.d.f.f.f.f.c 2 2 2 2 2 2 : : ; K  X X X X X Xb.K K K K K K K K K K K K K B N N N N N N N N N N N N N N N z z z z z z z z z z z z z z z z z k k k j j j j k k k j j j j j k k k k k x z z z z z z z z z z z z x , o o o Z Z Z Z Z Z Z Z Z A Z Z Z Z Z Z Z Z Z A R R R R R R R W R R R R R W ( ( ( ( ( ( ( ( ( ( ( ( ( ( ( R R R R R R R R S Z Z Z Z Z Z Z Z Z A R R R c : : : : : : : : : : : : : B @.@.@.^ ^ ^ ^ @.@.@.@.@.@.@.@.@.@.@.@.@.=.a.a.u.u.y.s.s.a.s.u.t.t.u.s.d.f.f.f.s.s.a.a.a.a.a.s.s.s.s.s.d.d.d.f.n.n.n.j.d.d.d.d.a.t.t.d.d.d.d.d.f.n.n.n.M.b.c.c.d.s.;.u.d.d.d.d.f.s.=.^ ^ 4 = = = = = c v v v v v v v v v B B B B B n n n Z Z B b b b b b b B B B Z Z B B B B T T T T T T T ",
"K Q T T T T T T T T T T T T T T T T T T T T T T T ^ ^ ^ E T T *.m = = * * * = = 2 A tXtXr.q.q.y.i.i.y.p.k.k.k.k.k.k.k.k.k.k.k.k.k.k.k.k.k.k.k.k.k.k.k.k.k.k.N.N.Y.Y.Y.N.N.n.n.n.k.k.k.k.n.n.n.n.k.k.k.k.k.k.k.i.y.y.y.y.q.w.w.%.| { } ) ! E T V B b m m m m m m m m m m b m m b B B V V V V V V V T T T T ! ^ } $.%.;.;.s.d.c.b.b.n.n.c.c.c.b.b.b.b.n.n.n.c.b.c.d.d.f.f.f.f.d.Q 2 2 2 2 2 2 2 : 2 L. X X X XL.F.E Q T T K K K K K K K K K K K N N N N N N N N N N N N N N z z z z z z z z z z z z z z z z z z k k k j j j j j j k k k k k k k k k k k k z z z z z z z z z z z z z + o o o Z Z Z Z Z Z Z Z Z Z Z Z Z Z Z Z Z Z Z A R R R R R R R R R R R R R W ( ( ( ( ( ( ( ( ( ( ( ( ( ( ( ( R R R R R R R R R Z Z Z Z Z Z Z A R R R R 2 : : : : : : : : : : : : : 2 [ @.@.@.[ [ @.@.@.@.@.@.@.@.@.@.@.@.%.u.a.s.s.s.s.a.u.u.t.t.t.t.t.u.y.s.d.d.a.s.y.y.y.u.t.t.u.s.s.s.s.a.d.d.f.j.n.c.d.d.d.s.;.;.;.;.t.d.d.d.d.j.n.n.n.b.b.n.n.d.d.a.t.f.f.s.s.t.^ @.F.@.2 = = % % = i v v v v v v v v v v B B B Z Z Z B B B B B B b n B B B B B n n B B B B B A T T T T T ",
"V V T T T T T T T T T T T T T T T T T T T T T T T T ^ ^ ^ T T <.u = = = = = = # = ( &XT.q.q.q.e.i.i.y.p.k.k.k.k.k.k.k.k.k.k.k.k.k.k.k.k.k.k.k.k.k.k.k.k.k.k.N.N.Y.Y.Y.N.N.n.n.n.k.k.k.k.k.k.n.k.k.k.k.k.k.k.i.y.y.y.y.q.q.q.w.| | { } W ! E T V B B m m m m m m m m m m b b m b B B V B V V V V T T T T T ! [ } $.%.;.;.d.j.b.b.b.c.n.n.c.c.b.b.b.b.n.n.c.c.b.b.d.d.f.f.f.f.d.=.2 2 2 2 2 2 2 : 2 B B B B B K E E E E E T K K K K K K K K K K G N N N N N N N N N N N N N N N N z z z z z z z z z z z z z z z k k k j j j j k k k k k k j j k j k k k k z z z z z z z z z z z z z o o o o Z Z Z Z Z Z Z Z Z Z Z Z A Z Z Z Z A Z Z Z Z Z T R R R R R R R R R W ( ( ( ( ( ( ( ( ( ( ( ( ( ( ( ( ( R R R R R R R R R Z Z Z Z Z Z R R R R w : : : : : : : : : : : : : : : c @.@.=.;.;.d.Q. X1X4XuXiXa.@.#.%.%.;.a.u.t.t.;.t.;.;.t.;.t.t.t.t.t.y.a.s.a.a.s.s.y.y.;.;.;.;.t.t.u.a.a.a.d.f.s.=.=.a.d.a.;.;.;.;.t.t.a.d.d.d.j.n.n.n.b.b.n.c.d.d.a.;.;.;.;.;.;.=.$.G.$.= = = = = = t v v v v v v v v v v B B Z Z B Z B B B B B B n n B B B B n n n n Z B B B B B A T T Z ",
"V V B T T T T T T T T T T T T T T T T T T T T T T T E ^ ^ T T <.t % % % = * # # w n.n.e.q.q.q.q.y.i.i.k.k.k.k.i.i.k.k.k.k.k.k.k.k.k.k.k.k.k.k.k.k.k.k.k.k.k.k.N.B.Y.Y.N.N.n.n.n.k.k.k.k.k.k.k.k.k.k.k.k.k.k.y.y.y.y.e.q.w.w.| | | } } W ! E T T B B m m m m m m m m m m b b m b B B B B B B B T T T T T ! ! } } #.#.;.;.d.d.c.c.b.n.c.c.c.c.c.c.j.j.M.n.b.b.b.b.d.d.f.f.f.f.f.f.2 : 2 2 2 2 2 2 2 k B B B B B V E E E E E Q K K K K K K K K K K N N N N N N N N N N N N N N N N N N m z z z z z z z z z z z z j k k k j k k k k k k j j j j j j j j k k k x x x z z x x x x z z z o o o o Z Z Z Z Z Z Z Z Z Z Z Z Z Z Z Z Z Z Z Z Z Z Z Z Z R R R R R R R R W ( ( ( ( ( ( ( ( ( ( ( ( W R R R R R R R R R R R R Z Z Z Z Z Z S R R R w : : : : : : : : : : : : : : : : : L.L.L.L.L.OXiXiXiXiXiXf.@.#.%.%.;.;.t.;.t.t.;.;.;.;.;.;.;.;.t.t.t.y.a.a.a.a.a.a.a.;.;.;.;.;.;.;.;.;.t.t.s.f.=.=.=.;.;.;.;.;.;.;.;.;.;.a.d.d.j.c.n.n.n.b.n.j.d.d.d.t.;.;.;.;.;.;.a.G.$.= = = = = = w v c v v v v v v v v B B B B B Z Z B Z Z B B b b b b B B n n Z Z Z Z B B Z Z Z B B B ",
"V V B B T T T T T T T T T T T T T T T T T T T T T T T T ^ T T <.t = % % % = # # | n.i.| q.q.q.q.q.e.i.k.k.k.i.y.y.y.p.k.k.k.k.k.k.k.k.k.k.k.k.k.k.k.k.k.k.k.n.N.N.Y.Y.N.N.n.n.n.n.k.k.k.k.k.k.k.k.k.k.k.k.i.y.y.y.y.q.q.w.%.| | { } } ! ! E T T B B m m m m m m m m m m b b m B B B B B B B T T T T T W ! ^ } } #.%.;.;.f.d.j.c.b.M.M.b.c.c.c.c.s.f.j.M.b.b.b.b.d.f.f.f.f.f.f.f.u : : 2 2 2 2 2 2 4 B B B B B B V E E E E E Q K K K K T T E K K N N N N N N N N N N N N N N N N N N m z z z z z z z z z z z z k k k k k k k k k k k k j j j j j j j k k k x x x z z x x x x z z s o o o o B n n Z Z Z Z Z Z Z Z Z Z Z Z Z Z Z Z Z Z Z Z Z Z Z T R R R R R R W ( ( ( ( ( ( ( ( W R R R R R R R R R R R R R R R Z Z Z Z Z Z C t t w : : : : : : : : : : : : : : : : : : : j.L.L.L.L.uXiXiX4XQ.%.@.#.%.%.=.t.;.;.;.t.t.t.;.;.;.;.;.;.;.;.;.t.y.u.a.a.a.a.a.a.;.=.=.%.%.=.=.=.=.=.=.s.;.=.=.=.;.;.;.;.;.;.;.;.;.;.;.a.d.d.f.j.j.j.j.j.d.d.d.d.a.;.;.;.;.;.t.s.G.$.= = = = & = 2 v c v v v v v v v v v B B B B B B B Z Z Z B b b b b B B b n Z Z Z Z B B Z Z Z Z B B ",
"V V B B B K T T T T T T T T T T T T T T T T T T T T T T T T ^ <.t - # # = = = ; n.n.| | | q.q.q.w.w.i.k.k.k.y.y.y.y.y.y.i.i.k.k.k.k.k.k.k.k.k.k.k.k.k.k.k.k.n.N.N.Y.Y.N.N.n.n.n.k.k.k.k.k.k.k.k.k.k.k.k.k.y.i.i.y.q.q.q.q.| | | { } ) ! W E T T T B b m b b b b m m m m m m b B V V B B B T T T T E ! W ^ [ [ @.#.%.;.;.d.f.f.c.b.b.n.n.c.c.b.=.[ } a.j.b.n.n.n.f.f.f.f.f.f.f.f.B : 2 2 2 2 2 2 2 2 m B B B B B B V E E E E E T T T E E E E K K K N K K B N N N N N N N N N N N N N m z z z z z z z z z z z k k k k k k k k k j j j j j k k j j j j k k z z z z z z x x x z z z s o o o + b b b B B B Z Z Z Z Z Z Z Z Z Z Z Z Z Z Z Z Z Z Z Z Z T R R R R R R W W W W R R R R R R R R R R R R R R R R R R A Z Z Z Z Z Z Z w : : : : : : : : : : : : : : : : : : : : : : @.L.L.L.j.@.@.@.@.@.@.@.%.%.%.=.t.;.;.t.t.;.;.;.;.t.t.t.;.;.t.t.t.y.a.a.s.s.s.y.;.;.=.=.=.=.=.=.=.=.=.=.=.=.=.=.;.;.;.;.t.t.t.t.t.;.;.;.;.s.d.d.d.d.d.d.d.d.d.d.d.d.;.;.;.;.;.;.s.F.$.% & = = = = 2 c c v v v v v v v v v Z Z B B B B B n n B B B B B b B B B B B n B B Z Z Z Z B Z Z Z ",
"V V B B B B K T T T T T T T T T T T T T T T T T T T T T T T ^ <.t - # # = = = b n.i.| | | | q.q.w.w.i.k.p.y.y.y.y.y.y.y.y.y.y.y.i.i.i.p.k.k.k.k.k.k.k.k.k.k.n.N.N.N.N.N.N.n.n.n.k.k.k.k.k.k.k.k.k.k.k.k.i.y.i.i.e.w.q.%.| | | } } } ) ! ! ! T T T B B m b b b b m m m m m b B B B V B V T T T T ! ! ! W [ [ [ $.#.%.;.;.f.f.f.f.j.c.c.c.c.j.%.[ [ [ [ u.j.M.n.n.f.f.f.f.f.f.f.f.^ : 2 2 2 2 : : 2 2 4 B B B B B B B T E E E E E E E E E E E K K K K E K K K N N N N N N N N N N N N z z z z z z z z z z z z k k k k k k k k j j j j j j k j j j j j k k z z z z z z z x x z z z 6 o o o = b b b B B B B n n n n B B B Z Z Z Z Z Z Z Z Z Z Z Z Z Z R R R R R R R R R R R R R R R R R R R R R R R R R R S Z Z Z Z Z Z Z Z c : : : : : : : : : : : : : : : : : : : : : : : @.L.L.L.$.@.@.@.@.@.@.@.%.%.%.%.%.%.=.=.=.=.%.%.%.%.=.;.;.;.t.t.t.y.a.a.s.s.s.u.;.;.=.=.=.=.=.=.=.=.=.=.=.=.=.;.;.;.;.;.t.s.s.d.d.d.s.t.;.t.d.d.d.d.d.d.d.s.d.d.d.d.s.;.;.;.;.;.s.F.@.% = = & % = = c v v v v v v v v v v Z Z B B B B B n n B B n B B B B B B B B n B B Z B Z Z B Z Z Z ",
"V V B B B B V B Q T T T T T T T T T T T T T T T T T T T T T ^ <.t - = = = = * i.n.q.| | | | q.q.w.q.r.r.q.q.q.y.y.y.y.y.y.y.y.y.y.y.y.y.i.p.k.k.k.k.k.k.k.n.n.n.N.N.N.N.N.n.n.n.k.k.k.k.k.k.k.k.k.k.k.k.y.y.y.y.w.w.%.| | { } } } } W ! W ! T T T T B b m m m m m m m b B B B B B B V T T T T ! ! ! ! [ [ [ } $.#.=.;.;.f.s.s.u.;.;.;.%.%.W [ [ [ [ [ [ f.f.j.j.f.f.d.d.f.f.f.f.@.2 2 2 2 : : : : : : i ^ ^ E B B B B Q E E E E E E E E E E K K K K =.K K K V N N N N N N N N N N N z z z z z z z z z k k k k k k k k k j j j j k k k k k k j j j k k k z z z z z z x x z z z z 2 o o o = n b b b b b b b n b b b b B B n n Z Z Z Z Z Z Z Z Z Z Z A R R R R R R R R R R R R R R R R R R R R R R R R R Z Z Z Z Z Z Z Z S y : : : : : : : : : : : : : : : : : : : : : : : =.L.L.a.@.@.@.@.@.@.@.@.@.%.%.%.%.%.%.%.%.%.%.%.%.%.%.;.;.t.t.t.;.a.a.a.a.a.s.a.;.;.=.=.=.=.%.%.=.=.=.=.=.=.=.;.;.;.;.t.s.s.d.d.d.d.d.d.s.t.s.s.d.d.d.d.d.d.d.d.s.d.d.a.;.;.;.;.s.F.@.= = % % % = = v v v v v v v v v v n Z Z B B B Z B n B n B B B B B b b B B B n B B B B B B B B Z Z ",
"B V V V B B B B B B B B T T K K K K T Q T T T T T T T T T T ^ <.t - * = = = w n.k.| | | | q.q.q.q.q.w.q.q.q.q.y.y.y.y.y.y.y.y.y.y.y.y.y.y.y.i.k.k.k.k.k.k.n.n.n.N.N.N.N.N.n.n.n.k.k.k.k.k.k.k.k.k.k.k.i.y.y.y.w.w.q.| | | { } } } ^ ! W W E T T T T B B m m m b B B B B B B B B B T T T T T T ! ! ! [ } [ [ #.%.#.;.;.;.;.;.;.%.[ A V V V V V ^ [ [ [ [ a.f.f.f.d.d.d.d.d.f.f.f.@.2 2 2 2 : : : : : : : Q ^ ^ E B B B B E E E E E E E E E E K K K E a.K K K K V N N N N N N N N N N z z z z z z z z z k k k k k j k k k j j j j k k k k k k j j k j k z z z z z z z z z z z z z & o o o = n b b b b b b b b b b b b B B n n b n Z Z Z Z Z Z Z Z Z Z T R R R R R R R R R R R R R R R R R R R R R R R S Z Z Z Z Z Z Z S R w : : : : : : : : : : : : : : : : : : : : : : : b.L.L.@.@.@.@.@.@.@.@.@.@.@.%.%.%.%.%.%.%.%.%.%.%.%.%.=.;.;.t.t.t.a.a.a.a.a.s.s.t.;.=.=.=.=.%.%.%.=.=.=.=.=.%.;.;.;.;.s.d.d.d.d.d.d.d.d.s.s.s.s.d.d.d.s.d.d.s.s.s.d.d.a.;.;.;.;.s.G.^ % = % % % = = c v v v v v v v v B Z Z Z B B B Z Z n n B B B B b B b b B B B B B B B B B B B B Z Z ",
"B V B B B B B B V V V V V V V B B B B B Q T T T T T T T T T ^ *.t - * = = = ) n.q.| | | | q.q.q.q.q.q.q.q.w.q.y.y.i.i.i.y.y.y.y.y.y.y.y.y.y.p.k.k.k.k.k.k.n.n.n.N.N.N.N.N.n.k.k.k.k.k.k.k.k.k.k.k.k.k.y.y.y.q.w.w.| | | } } } } ^ W W ! ! T T T T T B B B B B B V V V V B B B B K T T T T T ! ! ! ^ } [ [ } %.%.#.;.;.;.;.;.[ V V V V V V V V V [ [ [ } f.c.n.M.M.f.f.f.f.f.d.f.@.: : : 2 2 2 2 : : 2 2 u ^ ^ ^ T B B B T E E ^ ^ ^ E E E E K K K *.2.K K K K K K N N N N N N N N N z z z z z z z z z z j k k k j j k k k k k k j j j k k k j j k k k k x x z z z z z z z z z z + o o o = v v v b b n n n b b b n n n n n n b b B Z Z Z Z Z Z Z Z Z Z R R R R R R R R R R R R R R R R R R R R R R R A Z Z Z Z Z Z Z R R y w w 2 : : : : : : : : : : : : : : : : : : : : L.L.b.@.@.@.@.@.@.@.@.@.@.@.$.%.%.%.%.%.%.%.%.%.%.%.%.;.;.;.;.t.y.y.y.y.a.a.u.u.t.;.=.=.=.=.=.=.=.=.%.=.=.=.=.=.;.;.;.d.d.d.d.d.s.s.s.d.d.d.d.d.d.s.s.s.d.s.s.s.d.d.d.t.;.;.;.;.s.F.^ = & & = = = = i c v v v v v v B B B B B B B B Z Z n n b b B B B B c b b b b B n n n n n n B B B Z ",
"B V B B B B B B V V V V V V V B B B B B V T T T T T T T T T ^ ' t - = = = = | q.| | | | | q.q.q.q.q.q.q.q.q.w.y.i.i.y.i.y.y.y.y.y.y.y.y.y.y.p.k.k.k.k.k.n.n.n.n.N.N.N.N.N.n.k.k.k.k.k.k.k.k.k.k.k.k.i.y.y.y.w.w.q.| | | } } } ) W W ! ! T T T T T T B B B B B B V V V V B B B V T T T T T E ! ! ^ } [ [ [ @.%.%.#.f.;.;.;.W V V V V V V V V V V W [ #.f.M.M.M.M.n.f.f.f.f.f.d.d.Q : : : 2 2 2 2 2 2 2 2 2 Q ^ ^ E T B B B E E ^ ^ ^ ^ E E E K K K a.2.K K K K K K K N N N N N N N N z z z z z z z z z z j k k k j j k k k k k k j j j j k k k k k k k k z x x z z z x z z z z z + o o o & c c c c c v n b b b b n b n n n n b b B B Z Z Z Z Z Z Z Z Z Z T R R R R R R R R R R R R R R R R R R R R R Z Z Z Z Z Z Z Z R W ) v c c w : : : : : : : : : : : : : : : : : : t L.L.t.@.@.@.@.@.@.@.@.@.@.@.$.%.%.%.%.%.%.%.%.%.=.=.;.;.t.;.u.s.f.f.f.s.a.a.y.y.a.;.=.=.=.%.=.=.=.=.%.%.=.=.=.%.;.;.;.d.d.d.d.d.s.s.s.s.d.d.d.d.d.d.s.s.d.s.d.s.d.s.d.t.;.;.;.;.s.F.G = & & & = = = t c v v v v v B B B B B B B B B Z Z B n b b B B B B c c b b B B B n n n B B B B B B ",
"V B B B B B B V B B V V V V B B V V B B V V K Q T T T T T T T ..t - % % % w | | | | | | | q.q.q.| | q.q.q.q.q.i.y.y.y.y.y.y.i.i.y.y.y.y.y.y.i.k.k.k.k.n.n.n.n.n.N.N.N.N.N.n.k.k.k.k.k.k.k.k.k.k.k.p.y.y.y.q.q.q.%.| | } } } } W W ! ! E T T T T V B B B B B V V V B V V B B B T T T T T T W ! ! [ } } } } $.#.%.#.&X*XXXL.%.V V V V V V V V V V W | n.n.n.M.M.M.M.f.d.d.f.d.d.d.u 2 2 : 2 2 2 w 4 2 2 2 2 4 ^ ^ ^ E Q B B E E ^ ^ ^ ^ E E Q K K E a.@.K K K K K K K G N N N N N N N N z z z z z z z z z k j k k j j j k j j k j j j k k k k k k k k k z z z z z z z x x z z x x o o o o , c c c c c c c v b b b b b b b n b b b B B B Z Z Z Z Z Z Z Z Z Z A R R R R R R R R R R R R R R R R R R R R Z Z Z Z Z Z Z Z R W ) ) B c c 2 : : : : : : : : : : : : : : : : : N L.L.=.@.@.@.@.@.@.@.@.@.@.@.$.%.%.%.%.%.%.%.=.;.t.;.t.t.t.y.a.f.j.j.j.j.f.u.u.u.a.;.=.=.%.%.=.=.=.=.=.%.=.=.%.%.;.;.;.a.s.d.d.d.s.s.d.d.d.d.d.d.d.d.d.d.d.d.d.s.s.s.s.a.;.;.;.;.s.F.d = & & = = = = w c v v v v B B B B Z Z Z Z B Z Z Z B B b b B n B B c c c b B B B n Z Z B Z B B B B ",
"V B B B B B B V B B B V V V V B V V B B B B B B K Q T T T T T ..t - % # % 2 | | | | | | | | | | | | 9.q.q.q.q.i.y.y.y.y.i.i.i.i.y.y.y.y.y.y.i.k.k.k.k.n.n.n.n.N.N.N.N.N.N.n.k.k.k.k.k.k.k.k.k.p.y.y.y.y.e.q.q.q.%.| | { } } ^ W W ! ! T T T T B B B B B B V V V B B B B B B T T T T T T ! W W ^ } } } } @.#.#.%.%.u.*X*X*X*X*X!.c.| A V V V E [ =.N.N.n.n.M.M.M.M.c.d.d.f.f.d.$.2 2 2 2 2 2 4 w w w 2 2 2 2 B ^ ^ ^ E E B Q E ^ ^ ^ ^ E E Q K K @.a.X.K K K K K K K K N N N N N N N N N z z z z z z z z z j k k j j j k j j j j j j k k k k k k k k z z z z z z z z x x x x x z o o o o < c c c c c c c c c c v b b b b n n b b B B b B Z Z Z Z Z A A A A A R R R R R R R R R R R R R R R R R R R R Z Z Z Z Z Z Z A R W ) ) ) B c w : : : : : : : : : : : : : : : : : @.L.L.@.@.@.@.@.@.@.@.@.@.@.#.%.%.%.%.%.%.%.;.;.;.t.t.t.t.a.y.y.j.j.j.j.j.j.s.u.u.a.;.=.=.%.%.=.=.=.=.%.%.=.=.%.=.;.;.;.t.t.d.d.d.d.d.d.d.s.d.d.d.d.d.d.d.d.d.d.s.s.s.s.d.d.a.;.;.s.F.2 = % & = = = = 2 c v v v n B B B B Z Z Z Z B B Z n B B b b b b B B c c c v B B B B B Z Z Z B B B B ",
"V V B B B B V V B B V V V V B B V V V V V B B B B B K Q T T T ' t - % % * * Z | | | | | | | | | | | | q.q.q.q.y.y.y.y.y.y.y.i.i.y.y.y.y.y.y.i.k.k.k.k.n.n.n.n.N.N.N.N.N.N.N.N.k.k.k.k.k.k.k.k.i.y.y.i.y.w.q.w.w.%.| | } } } W W W W T T T T B B B B B B B B V V B B B B B T T T T T T T W W W } } [ [ } $.%.#.%.%.#.N.XX*X*X*X*X*X*X*X&XQ.Q.Q.Q.Q.Q.Q.Q.E.J.N.M.M.n.f.j.n.n.@.w 2 2 2 2 2 4 w w w w w 2 2 2 4 ^ [ [ [ ^ E E E ^ ^ ^ ^ E E T K K =.a.E K K K K K K K K V N N N N N N N N N m z z z z z z z z k k j j j j j j k k k k k k j k k k j z z z z z z z z z x x x z z z o o o o < c c c c c c c c c c c c c c b b b n n n b b b B Z Z Z A R R R R R R R R R R R R R R R R R R R R R R R R R Z Z Z Z Z Z Z S R ) ) ) ) ) B w : : : : : : : : : : : : : : : : : j.L.L.%.@.@.@.@.@.@.@.@.@.@.$.%.%.%.%.%.%.;.;.t.u.u.a.a.u.a.a.s.j.j.j.j.j.j.j.s.s.a.;.=.=.=.=.=.=.=.=.=.=.=.=.=.;.;.;.;.t.;.;.a.d.s.d.d.d.s.s.d.d.d.d.d.d.d.d.s.s.s.s.d.d.d.d.s.t.a.j.% % % = = = = = 2 v v v B B B Z Z Z B B B Z Z Z Z n B B B B b b b n v c c c v B B B B Z B B B B Z Z ",
"V B B B B B V V B B V V V V B B V V B V V V B B B B B B T T T Q t - % % * * * 2 Z { | | | | | | | | | | q.q.q.q.q.q.q.w.q.q.q.q.q.t.y.y.y.y.y.i.k.k.k.k.n.n.n.N.N.N.N.N.n.n.n.n.k.k.k.k.k.k.k.i.y.y.i.i.w.w.w.w.q.| | } } ^ W W W ! T T T T B B V V B B B B V V B B B B T T T T T T T ! W W ^ } [ [ [ @.#.#.#.%.%.%.$.t.t.f.G.XX*X*X*X*X*X*X*X*X*X*X!.Q.Q.Q.Q.M.M.M.c.M.n.t.w w 2 2 2 2 2 w w w w w w w 2 2 2 b [ [ [ [ ^ E E ^ ^ ^ ^ ^ E T K K a.a.K K K K K K K K K K N N N N N N N N N N N N z z z z z z k k j j j j j j k k k k k k j k k k z z z z z z z z z z x x z z z z o o o o 2 m d k c c c c c c c c c c c v b b n n n b b B b Z Z Z R R R R R R R R R R R R R R R R R R R R R R R R R R Z Z Z Z Z Z Z R ( ) ) ) ) ) ) f : : : : : : : : : : : : : : : : : F.L.L.;.@.@.@.@.@.@.@.@.@.@.%.%.%.%.%.%.%.;.;.;.a.a.a.a.y.a.a.f.j.j.j.j.j.j.j.s.s.a.=.=.=.=.=.=.=.=.=.=.=.=.=.;.;.;.;.;.;.;.;.;.;.s.d.d.d.s.s.d.d.s.d.d.d.d.d.s.s.d.d.d.d.d.d.s.s.a.a.% & % = = = = = ; v v v B B Z Z Z Z B B Z Z Z Z Z n B B B B b b b b v c c c c v B B B n B B B B Z Z ",
"V V V B B V V V B B B V V B B B B B B B B V V V B B B B B T T B u - = = * * = = = = : c ) | | | | | | | | 9.q.q.q.w.w.w.q.q.q.q.w.w.w.q.q.y.y.i.i.k.k.k.n.n.n.N.N.N.N.N.n.n.k.n.k.k.k.k.k.k.k.k.y.y.y.y.q.q.w.w. .| { } } W W W ! T T T T B B B V V V V B B B V V V B T T T T T T T ! ! ! W [ } [ [ [ $.#.%.$.%.$.$.$.t.t.t.t.t.f.f.f.n.P.XX*X*X*X*X&XQ.Q.Q.J.M.n.M.n.n.f.%.A w w 4 4 4 w w w w w w w w w 2 2 2 ^ [ ^ ^ ^ ^ ^ ^ ^ ^ ^ ^ E Q K Q a.a.K K K K K K K K K K K B N N N N N N N N N N N N N z z z z k j j k j k k k k k k j j j j k k z z z z x z x x z z z z z z z z o o o o 7 Q i i i i i k i c c c c c c c b b b n n n B B b B Z Z R R R R R R R W ( ) ) ) ) ) W R R R R R R R R R R R S Z Z Z A R R W ) { { ) ) ) ) W : : : : : : : : : : : : : : : : : L.L.L.%.@.@.@.@.@.@.@.@.@.#.%.%.%.%.%.%.=.t.t.t.u.a.a.a.a.u.s.j.j.j.j.j.j.j.j.f.y.t.;.;.=.=.=.%.%.=.=.=.=.=.%.=.;.;.;.;.;.;.;.;.;.t.s.d.d.d.d.d.d.s.s.s.d.d.d.d.s.d.d.d.d.d.d.s.a.a.a.& & = = = = = = = v v B B B B B Z Z B B B B Z Z n b b b B b b b n B v c c c c c c v B B n B B Z Z Z ",
"V V B B B B V V B B B V B B B B B B B B B B B V V V B B B B Q B t - = = * * = = = = = = = w | | | | | | | | | | | | | q.q.q.q.q.w.w.q.q.q.q.y.i.y.i.k.k.k.k.n.n.n.n.N.N.n.n.n.n.k.k.k.k.k.k.k.k.i.y.y.y.q.q.w.q. .| { } } W W W E T T T T B B B V V V V B B B V V V T T T T T T T ! ! W W W } } [ [ @.%.%.%.$.$.$.$.$.t.t.t.t.t.t.y.f.f.f.f.f.n.n.n.N.P.Q.P.N.M.n.n.n.f.%.%.%.w 4 4 w w w w w w w w w w w 2 2 2 B ^ ^ ^ ^ ^ [ [ [ ^ ^ ^ E E K [ a.;.K K K K K K K K K K K K K K K N N N N N N N N N N z z z z z k k k k k k k k k j j j j j k k z z z z x x x x z z z z z z z z o o o + 7 Q c i i i i i i c c c c c c c c b b n n n B b b B n Z R R R R R ) ) ) ) ) ) ) ) ) ) ) ) W R R R R R R R R R R R R R R ( ) ) { y.{ ) ) ) ) i : : : : : : : : : : : : : : : : P.L.M.$.@.@.@.@.@.@.@.@.@.$.%.%.%.%.%.%.=.t.t.t.u.a.a.a.a.y.f.j.j.j.j.j.j.j.j.j.s.u.;.;.;.;.=.%.%.%.%.=.=.=.%.%.%.=.;.;.;.;.;.;.;.t.a.d.d.d.d.d.d.s.s.s.s.d.d.d.d.d.d.d.d.d.d.s.t.a.a.u & = = = = = = = v v Z B B B B Z Z B B B B B Z n B b b b b b b n B v c c c c c c c c c c B Z Z Z Z ",
"B V V V B B B B B V V V B B B B B B B V B B B B B V B B B B T B t - * * = * # = - - - ; = = i { | | | | | | | | | | | | | q.q.q.q.q.q.q.q.q.q.q.y.y.p.k.k.k.k.k.k.k.k.k.k.k.k.k.k.k.k.k.k.k.k.k.p.y.y.y.e.w.q.q.| | { } ^ ! W ! T T T T V B B B B V B B B B B B T T T T T T T ! W W W W W ^ } } } } $.%.%.%.%.%.%.%.#.t.t.t.t.t.t.t.t.f.f.f.f.f.n.M.M.M.M.M.M.M.M.M.f.=.%.%.#.2 2 2 2 4 w w w w w w w w w 2 2 2 4 ^ ^ ^ ^ ^ ^ ^ ^ ^ ^ [ ^ E K *.a.*.K K K K K K K K K K K K K K K K N N N N N N N N N N z z z z z k k j j j j j k k k k k k j j k z z z z z z z x z z z z x x x o o o + 6 Q m i i i i i i i c c c c c c c v b b n b n b b b n A R R R W ) ) ) ) ) ) ) ) ) ) ) ) ) ) ) W R R R R R R R R R R W ) ) ) ) ) f.i.%.) ) ) R : : : : : : : : : : : : : : : w OXL.d.%.@.@.@.@.%.%.$.$.$.%.%.%.%.%.%.%.%.t.t.;.u.a.a.y.y.f.j.j.j.j.j.j.j.j.j.j.f.y.t.;.;.;.;.=.=.=.=.=.=.%.=.=.=.=.=.=.=.=.;.;.;.;.s.s.s.s.s.d.d.d.d.s.s.s.s.s.d.d.d.d.s.d.d.a.;.a.a.u = = % % % = = = v b B Z Z Z Z Z Z B Z Z Z Z Z B B B B B B B B B B v c c c c c c c c c c c v n Z Z ",
"B V V V B B B B B V V V B B B B B B V V B B B B V V B B B B T T t = * = = = % y y y y y y y i | | | | | | | | | | | | | | | | q.q.q.q.q.q.q.q.q.y.y.y.k.k.k.k.k.k.k.k.k.k.k.k.k.k.k.k.k.k.k.k.k.k.y.y.y.y.w.q.q.| | } } ^ W W T T T T T B B B B B V B B B V T T T T T T T T ! ! W W W W ^ [ } } [ } $.$.%.%.%.%.%.%.#.w.t.t.t.t.t.t.t.t.f.f.f.f.f.n.M.M.n.n.M.M.M.j.=.%.f.f.E 2 2 : 2 2 w w w w w w w w w 4 2 2 2 Q ^ ^ ^ ^ ^ [ ^ ^ ^ ^ ^ E Q a.a.@.K K K K K K K K K K K K K K K K N N N N N N N N N N z z z z z k k k j j j j k k k k k k j j k k z z z z z z x z z z z z x z o o o % < Q m i i i i i i i c c m c c c c v b b n n b b n b Z A R R W ) ) ) ) ) ) ) ) ) ) ) ) ) ) ) ) ) ( R R R R R R W ( ) ) ) ) ) ) ) y.f.f.i.w.#.#.t : : : : : : : : : : : : : : _ ;XL.;.%.@.@.@.%.%.%.%.%.%.%.%.%.%.%.%.%.%.t.t.t.a.a.a.y.f.j.j.j.j.j.j.f.f.j.j.j.j.y.y.;.;.;.;.;.;.;.;.;.=.=.=.=.=.=.=.=.=.=.=.=.;.a.s.s.s.s.d.d.d.d.s.s.s.s.s.s.d.d.d.d.s.d.d.t.;.a.a.N = = % % % = = = v B B B B Z Z Z Z B B Z Z Z Z B n B B B B B B B B v c c c c c c c c c c c c c B B ",
"B B V V B B B B B B V V B B B B V V V V B B V V V V V V V V T T = o # = = = % { | | ( ( ( ( { | | | | | | { { { { | | | | | | | 9.q.q.q.q.q.q.q.q.y.y.p.k.k.k.k.k.k.k.k.k.k.k.k.k.k.k.k.k.k.k.k.k.i.y.y.e.q.w.%.| | } } W W W T T T T T B B B B B B K T T T T T T T T T T E ! ! W W W W ^ } } } [ #.$.$.$.$.#.#.%.%.$.=.t.t.t.t.t.t.t.t.y.f.f.f.f.f.n.n.n.n.n.M.f.%.%.=.F.F.b 2 : : : 2 2 4 w w w w w w w w 2 2 2 k ^ ^ [ [ [ [ ^ ^ ^ ^ ^ E [ a.a.X.K K K K K K K K K K K K K K K K N N N N N N N N N N N z z z z k k k k k j j k k j j k j j j k k z z z z z z x x z z z z z z o o o % < Q N i i i i i i i c c m c c c c c b b b n n n n b Z A R W ) ) ) ) ) { } | #.#.#.#.#.| { ) ) ) ) ) ( W ( ) ) ) ) ) ) ) ) ) ) | #.t.f.f.f.f.f.#.: : : : : : : : : : : : : : '.1XL.%.%.@.@.$.%.%.%.%.%.%.%.%.%.%.%.%.%.;.t.t.a.a.a.a.y.f.j.j.j.j.j.j.j.j.j.j.j.j.s.s.t.;.;.;.;.;.;.;.;.;.;.;.;.;.=.=.=.=.=.=.=.;.s.d.d.s.s.s.d.d.d.d.s.s.s.d.d.d.d.d.s.s.d.s.;.;.a.a.B = = = % & = = & c B B B B B B Z B B B B B Z B B n b b B B B B b b c c c c c c c c c c c c c c c c ",
"B B V V V B B B B B V B b B B B V V V V B B B V V V V V B K T T o o o # = = % { | | | | { { ) { { | | | | { { { { | | | | | | | | | q.q.q.q.q.q.q.y.y.i.k.k.k.k.k.k.k.k.k.k.k.k.k.k.k.i.i.i.y.y.y.y.y.y.q.q.q.| | } } } W W ! T T T T T T T T T T T T T T T T T T T T T T ! ! ! W W W ! [ } } } [ $.$.$.$.%.%.#.%.$.$.=.t.t.t.t.t.t.t.t.t.f.f.f.f.f.n.n.n.n.M.f.%.%.%.f.F.F.B 2 : : : 2 2 2 : 4 w w w w w w 2 2 2 2 ;.h.X.E E ^ ^ ^ ^ ^ ^ E [ a.a.E K K K K K K K K K K K K K K K K N N N N N N N N N N N z z z z k k k k k k k j j j j j j j j k k k z z z z z x x z z z z z z o o o + < Q i i i i i i i i d c m m c c c c v b b b n n n Z Z A R ) ) ) { } #.#.#.#.#.#.#.#.#.#.#.} ) ) ) ) ) ) ) ) ) ) ) ) ) } } #.#.#.#.#.y.f.f.f.f.f.i : : : : : : : : : : : : i 4X4XG.%.%.#.$.%.%.%.%.%.%.%.%.%.%.%.%.=.;.;.t.y.a.a.a.a.y.f.j.j.j.j.j.j.j.j.j.j.j.j.j.y.u.;.;.;.;.;.;.;.;.;.;.;.;.;.;.;.;.=.=.=.=.a.d.d.d.d.d.s.d.d.d.d.s.d.d.d.d.d.d.d.s.s.d.t.;.;.a.a.c & = = = = = = = v B B B B B B B B B B B B Z B B n b B B B B b b v c c c c c c c c c c c c c c c c ",
"c c b b b B B B b b c m m m b B B B B B B B V V B B B B B T T T o o o O * * = ( | { Z Z Z Z Z S W ) { | | { { { { | | | | | | | | | 9.q.q.q.q.q.q.y.y.i.k.k.k.k.k.k.k.k.k.k.k.k.k.k.k.i.y.y.y.y.y.y.y.w.w.q.| | | { } } ^ ! ! T T T T T T T T T T T T T T T T T T T T E W W W W ! ! ! ^ } } [ [ } $.%.%.$.$.$.$.$.#.=.t.t.t.t.t.t.t.t.t.t.f.f.f.f.f.n.M.M.M.f.%.%.%.%.M.F.j.2 2 2 2 2 2 2 2 2 2 w w w w w w 4 2 2 2 j.b.] K K K Q T T T T T ^ a.a.E K K K K K K K K K K K K K K K G N N N N N N N N N N N N z z z z k j k k k k k j j j j j j j k k j k z z z x z z z z z z z z % o o o < N w i i i i i i i i c c c c c c c c v b B b n Z Z Z R ) ) } #.#.#.#.#.#.#.#.#.#.#.#.#.#.#.#.} ) ) ) ) ) ) ) ) ) ) #.#.#.#.#.#.#.#.%.f.f.f.f.f.#.: : : : : : : : : : : : K.4X4XL.%.%.%.%.%.%.%.%.%.%.%.%.%.%.=.;.;.t.a.u.a.a.a.a.a.a.f.j.j.j.j.j.j.j.j.j.j.j.j.j.s.s.t.t.t.t.t.=.=.=.=.;.;.;.;.;.;.;.;.;.;.a.d.d.d.d.d.d.d.d.d.d.d.d.d.d.d.d.d.d.s.d.s.d.;.;.;.;.a.c ; = = & & & = ; n B B B B B B B B Z Z Z B B B B n b b B B B B b c c c c c c c c c c c c c c c c c ",
"m m m m m m m m m m m m m m m m B B B B B B V V B B B B B T T N o o o O * * = R | R Z Z Z C C A W W { { | { { { { { | | | | | | | | | q.q.q.q.q.w.y.y.y.k.k.k.k.k.k.k.k.k.k.k.k.k.k.k.i.y.y.y.y.y.y.w.q.| | | | | { } } ^ ! ! T T T T T T T T T T T T T T T T T T T ! W W W W W ! ! ! } } [ [ [ #.$.$.%.$.$.$.$.%.t.t.t.t.t.t.t.t.t.t.t.f.f.f.f.f.f.M.M.M.f.=.%.%.%.s.F.F.^ 2 2 2 2 2 2 2 2 : 2 w w w w w w w 2 2 K '.b.K K K K K K K Q T T ^ a.2.E Q K K K K K K K K K K K K K K N N N N N N N N N N N N N N z z z z z k k k k k k j j j j j j k k j j k z z z z z z z z z z z 6 o o o & i t i i i i i i i i c c c c c c c c c b B b n Z Z A W ) } #.#.#.#.#.#.#.#.#.#.#.#.#.#.#.#.#.#.#.} ) ) ) ) ) ) ) ) #.#.#.#.#.#.#.#.#.t.i.f.f.f.f.: : : : : : : : : : : _ 2X2X4XL.%.%.%.%.%.%.%.%.%.%.%.%.%.%.=.;.;.u.a.u.a.a.a.a.a.a.s.j.j.j.j.j.j.j.j.j.j.j.j.j.f.s.t.t.;.t.=.*.=.=.=.=.;.;.;.;.;.t.t.;.a.d.d.d.d.d.d.d.d.d.d.d.d.d.d.d.d.d.d.d.d.d.d.a.;.=.;.;.a.c 1 = = & & = = t n B B B B B B B B Z Z B B B B Z B b b B B B B v c c c c c c c c c c c c c c c c c ",
"m m m m m m m m m m m m m m m m m B B B B B V V B V B B B T T m o o o O * * = n | Z Z Z C C C Z R R ) { { { { { { { { { { | | | | | | | q.q.w.q.q.y.y.y.k.k.k.k.k.k.k.k.k.k.k.k.k.k.k.i.y.y.y.y.y.e.w.| | | | | | } } } ) ! ! T T T T T T T T T T T T T T T T T E ! ^ W W W W W ! ! ^ } } } [ [ $.$.%.%.#.#.%.t.t.t.t.t.t.t.t.t.t.t.t.f.f.f.f.f.f.n.M.M.n.=.%.%.%.%.b.F.M.w 2 2 2 2 : : 2 : 2 2 w w w w w w w 4 w '.oXb.K K K K K K K K K Q ^ a.*.E E Q K K K K K K K K K K K K B N N N N N N N N N N N N N N z z z z z z z k j k k k k k k j j k k j j k k k k k k k z z z z z s o o o o t t i i i i i i i i i c c c c c c c c v B b Z Z A R ) ) } #.#.#.#.#.#.#.#.#.#.#.#.#.#.#.#.#.#.#.#.#.} ) ) ) ) ) ) } #.#.#.#.#.#.#.#.#.i.i.f.f.f.i : : : : : : : : : c 2X4X4X4XG.%.%.%.%.%.%.%.%.%.%.%.%.%.%.=.t.t.t.y.a.a.a.a.a.a.a.u.j.j.j.j.j.j.j.j.j.j.j.j.j.j.a.a.;.;.=.*.*.*.=.=.=.t.t.;.;.;.;.t.;.s.d.d.d.d.s.s.d.d.a.a.a.d.d.d.s.s.d.d.d.d.d.d.t.;.@.;.;.a.m 2 = = = & = = i n B B Z B Z Z Z Z Z Z Z B B B Z B b b b B B n b c c c c c c c c c c c c c c c c c ",
"m m m m m m m m m m m m m m m m m m b B B B V V V V B B B T T m o o o # = * % c | Z Z Z C C C C S R / { { { { { { { { { { { | | | | | | q.w.w.q.q.i.i.i.i.k.k.k.k.k.k.k.k.k.k.k.k.k.k.i.y.y.y.y.y.q.w.| | | | | { } } } ) ! ! T T T T T T T T T T T T T T T ! W ! ! ^ ^ ^ W W W ^ ^ } } } } [ [ $.$.#.#.#.#.%.t.t.t.t.t.t.t.t.t.t.t.f.f.f.f.f.f.f.M.M.M.y.%.%.%.%.=.F.F.@.2 2 2 2 2 2 : : : 2 2 w w w w w w w 4 &.oXoXa.K K K K K K K K K K T a...E E E K K K K K K K K K K K G N N N N N N N N N N N N N N N N z z z z z z z k k k k k k k j k k k j j k k k k k k k z z z z z s o o o o 4 t u i i i i i i i i c c c c c c c c c b b n Z Z R ) ) ) #.#.#.#.#.#.#.#.#.#.#.#.#.#.#.#.#.#.#.#.#.#.#.| } ) ) ) } #.#.#.#.#.#.#.#.#.%.i.f.f.f.i : : : : : : : : c 2X4X4X2X2Xu.%.%.%.%.%.%.%.%.%.%.%.%.%.%.=.t.t.t.u.a.a.a.a.a.a.a.u.f.j.j.j.j.j.j.j.j.j.j.j.j.j.s.a.;.;.=.*.*.*.=.=.=.;.t.;.;.;.;.t.;.;.t.s.d.d.s.s.s.d.t.;.;.;.;.t.a.s.d.d.d.d.d.d.;.$.X.=.t.a.m 2 = = % & = = i n B B Z Z Z Z Z Z Z Z Z B B B Z n b b n B B B b c c c c c c c c c c c c c c c c c ",
"m m m m c c c c m m m m m m c c m m m b B B B B V V B B B T T k o o o = = = % w { Z C C Z Z Z Z Z S R ) { { { { { { { { { { | | | | | | q.q.q.q.q.y.y.y.y.k.k.k.k.k.k.k.k.k.k.k.k.k.k.i.y.y.y.y.y.q.q.| | | | | { } } } } W ! T T T T T T T T T T T T E ! W W W ! W W W ! ^ [ } } [ } } } } [ } #.$.$.%.$.$.=.t.t.t.t.t.t.t.t.t.t.f.f.f.f.f.f.f.n.M.M.n.%.%.%.%.%.s.F.F.u 2 2 2 2 2 2 2 2 : : 2 w w w w w w w k oXoXoXj.K K K K K K K K K K K X.~ E E E Q K K K K K K K K K K N N N N N N N N N N N N N N N N N z z z z z z z z k j j j j j k k k k j j j k k k k k j k z z z z < o o o o ; t u i i i i i i i i i c c c c c c c c c b b Z Z A R ( ) { #.#.#.#.#.#.#.#.#.#.#.#.#.#.#.#.#.#.#.#.#.#.#.#.#.| } #.#.#.#.#.#.#.#.#.#.| #.q.%.i % - : : : : : : m :X4X4X4X2XF.%.%.%.%.%.%.%.%.%.%.%.%.%.%.%.=.;.;.;.a.a.a.a.a.a.a.y.y.f.j.j.j.j.j.j.j.j.j.j.j.j.j.s.y.;.;.;.;.=.*.=.=.=.;.;.;.;.;.;.;.;.;.t.t.a.d.d.d.d.s.;.;.;.;.;.;.;.;.;.;.;.;.;.;.=.[ [ =.t.a.m 2 % % = = = = u B B B B B B n B n Z B B B B B Z n b b b b B B B c c c c c c c c c c c c c c c c c ",
"m m m m c c c c c c m m m m c c m m m m c B B B V V B B B T T d o o o = * * = 2 ) C C C C Z Z Z Z S S ( { { { { { { { { { { | | | | | | | q.q.q.q.y.y.i.y.y.i.p.k.k.k.k.k.k.k.k.k.k.k.i.y.y.y.y.y.q.q.q.| | | | { } } } } ^ ! ! T T T T T T T T T E W W W W W W ! ! W W ^ } } } } } } } } } [ [ @.$.%.%.$.$.t.t.t.t.t.t.t.t.t.t.t.f.f.f.f.f.f.f.n.M.n.f.%.%.%.%.%.f.F.j.2 2 2 2 2 2 : 2 2 2 : 4 w w w w w w w h.oXoXoX2.K K K K K K K K K K K K E E E E E K K K K K K K K K K B N N N N N N N N N N N N N N N N N z z z z z z z z k j j k k k k k k k j k k k k k k j k z z z z o o o o o 4 t u i i i i i i i i i f c c c c c c c c b b b Z Z R R W ) ) } #.#.#.#.#.#.#.#.#.#.#.#.#.#.#.#.#.#.#.#.#.#.#.#.#.#.#.#.#.#.#.#.#.#.#.| #.#.#.2 % % ; : : : : c &.2.4X;XG.=.%.%.%.%.%.%.%.%.%.%.%.%.%.%.%.%.=.;.;.;.u.s.s.a.a.a.a.y.y.f.j.j.j.j.j.j.j.j.j.j.j.j.j.f.y.u.;.;.;.;.=.=.=.=.=.=.;.;.;.;.;.;.;.;.;.;.t.s.d.d.t.;.;.;.;.=.=.;.;.;.;.;.;.t.t.#.[ [ @.t.a.m 1 % % & = = & 2 B Z Z B Z B n B B n Z n B B B Z n b b b n B B b c c c c c c c c c c c c c c c c c ",
"m m m m m m m m c c m m m m m c m m m m m m B B V V V B B K T s o o O * * * * = W A C C C C Z Z Z S R W { { { { { { { { { { { | | | | | | q.q.q.w.y.y.y.y.y.y.y.y.i.i.i.i.i.k.k.k.k.i.y.y.y.y.y.y.q.q.q.| | | | { } } } } } ! ! T T T T T T T T ! W ! ! W W W W W W W W [ [ [ [ [ [ } } } } } [ #.#.%.%.$.%.t.t.t.t.t.t.t.t.t.t.u.f.f.f.f.f.f.n.M.n.n.=.%.%.%.%.%.M.F.^ : : : : 2 2 : : : 2 2 4 w w w w w w w '.oXoXoX=.K K K K K K K K K K K K Q E E E E Q K K K K K K K K K B N N N N N N N N N N N N N N N N N z z z z z z z z k k k k k k k k k j j k j k k k j j j x x z 2 o o o o o F t u i i i i i i i i i i d c c c c c c c c b b B Z Z R R W ) ) ) | #.#.#.#.#.#.#.#.#.#.#.#.#.#.#.#.#.#.#.#.#.#.#.#.#.#.#.#.#.#.#.#.#.#.#.#.#.% % % & : : : c &.^ N Q %.%.%.%.%.%.%.%.%.%.%.%.%.%.%.%.%.%.%.%.t.t.;.t.s.s.a.s.a.u.u.s.j.j.j.j.j.j.j.j.j.j.j.j.j.j.j.s.u.a.;.;.;.;.=.=.=.=.=.=.=.=.=.;.;.;.;.;.;.;.;.;.;.;.;.;.;.=.=.=.=.;.;.;.;.;.t.=.[ [ X.X.=.a.m = % & = = = = & B Z Z Z Z Z B B B B Z Z Z B B B n b b B B B B v c c c c c c c c c c c c c c c c c ",
"m m m m m m m m c c c m m m m c m m m m m m m B V V B B B K T u o o O * * * = = W A C C C C Z Z Z A R W ) { { { { { { { { { { | | | | | | q.q.q.w.y.y.y.y.y.y.y.y.y.y.y.y.y.y.y.y.y.y.y.y.y.y.y.y.q.q.q.| | | | | { } } } } W ! T T T T T T T ! W W W ! W W W W W W W ^ } } } [ [ [ [ } } } } } #.#.%.%.$.=.t.t.t.t.t.t.t.t.t.u.f.f.f.f.f.f.f.M.n.n.n.=.%.%.%.%.%.M.F.b : : : : 2 : : : : : 2 4 w w w w w w m oXoXoXoXQ K K K K K K K K K K K K K Q E E E E K K K K K K K K K V N N N N N N N N N N N N N N N N N N z z z z z z z z k k k k k k k k j j j j k k k j j j z x z o o o o o , _ t u i i i u t t u i i i i i c c c c c c c c b b Z Z Z R R R ) ) ) | #.#.#.#.#.#.#.#.#.#.#.#.#.#.#.#.#.#.#.#.#.#.#.#.#.#.#.#.#.#.#.#.#.#.#.} % % % % : : t &.@.B N N a.s.=.%.%.%.%.%.%.%.%.%.%.%.%.%.%.%.%.%.;.t.t.t.t.u.a.s.a.u.s.f.j.j.j.j.j.j.j.j.j.j.j.j.j.j.j.f.y.y.y.;.;.;.;.=.*.*.=.=.=.=.*.*.=.=.;.;.;.;.;.;.;.;.;.=.=.=.=.=.=.=.;.;.;.;.;.X.[ [ [ X.X.a.m = & & = = = = & B Z Z Z Z n B B B B B n n n n n B b b B B B B c c c c c c c c c c c c c c c c c c ",
"m m m m m m m m m m m m m m m m m m m m m m m m b B B B B B T u o o O * = = = = W S Z Z C C C Z Z Z R R ( { { { { { { { { { { | | | | | q.q.q.q.q.y.i.y.y.y.y.y.y.y.y.y.y.y.y.y.y.y.y.i.y.y.y.y.q.w.w.q.| | | | | | } } } } ) ! ! T T T T T W W ! ! ! ! W W W W W W W ^ } } [ [ [ [ } } } } } $.$.#.%.%.%.t.t.t.t.t.t.t.t.u.f.f.f.f.f.f.f.f.l.M.M.M.M.=.%.%.%.%.%.M.F.c 2 2 2 2 2 2 : : : : 2 4 w w w w w w 2.oXoXoXL.K K K K K K K K K K K K K K K E E E E E Q K K K K K K K K N N N N N N N N N N N N N N N N N N z z z z z z z z k k k k k k k k k k k k k k k k k j z z s o o o o o 2 _ t u i i t t w w w w t y i i i c c c c c c c b b b Z Z A R R R ) ) ) | #.#.#.#.#.#.#.#.#.#.#.#.#.#.#.#.#.#.#.#.#.#.#.#.#.#.#.#.#.#.#.#.#.#.K % % % % - : E &.Q N N N Q j.j.;.%.%.%.%.%.%.%.%.%.%.%.%.%.%.%.%.=.=.;.;.;.;.t.u.u.u.f.f.j.j.j.u.f.f.M.XX!.n.j.j.j.j.j.j.s.s.a.t.;.;.;.=.=.=.=.=.=.=.=.*.*.*.*.=.=.=.;.;.t.;.=.=.*.$.@.*.=.=.;.;.=.=.@.X.X.X.X.X.X.2.m & = = = = = = = c B B Z Z B B b b b b b B B B n b n B B B B b c c c c c c c c c c c c c c c c t % ",
"m m m m m m m m m m m m m m m m m m c c m m m m m b B B B B T u o o O * = = = * W W C Z C C C C Z Z R R W { { { { { { { { { { | | | | | q.q.q.q.q.y.i.y.y.y.y.y.y.y.y.y.y.i.y.y.y.y.i.y.y.y.y.y.w.w.w.%.| | | | | | } } } } } W W T T T T W W W W W ! ! W W W W ^ W W ^ } } [ } [ [ } } } } #.$.$.%.%.$.%.t.t.t.t.t.t.t.f.f.f.f.f.f.f.f.f.f.l.M.n.n.M.t.%.%.%.%.%.b.F.c 2 2 2 2 2 2 : : : : 2 w w w w w w w '.oXoXoX=.K K K K K K K K K K K K K K K K E E E E E E Q Q K K K K G N N N N N N N N N N N N N N N N N N N m z z z z z z z k k k k k k k j k z z z z k k k k k z k o o o o o 3 _ t u u t t t t t w w t t t i i i d c c c c c c b b n Z Z T R R R ) ) ) #.#.#.#.#.#.#.#.#.#.#.#.#.#.#.#.#.#.#.#.#.%.%.#.#.#.#.#.#.#.#.#.#.#.m % % % % = 2 &.&.B N N N b ~ d.j.;.%.%.%.%.%.%.%.%.%.%.%.%.%.%.%.%.%.%.%.=.=.;.t.t.s.f.f.j.j.u.t.a.j.!. XXXXXG.j.j.j.j.j.j.s.a.a.;.t.;.;.=.=.=.=.=.=.=.*.*.*.*.=.=.=.=.=.;.=.=.=.*.$.@.@.@.=.=.=.=.=._ K ^ X.X.X.X.=.d % = = = = = = = i B Z Z n B B b b b b B B B B n b B B B B B b c c c c c c c c c c c c c c w % # # ",
"m c m m m m c c m m c c m m m m m c c c m m m m m m c B V B T 2 o o # % = = * = S S C C C C C Z Z Z S R S ) { { { { { { { { | | | | | q.q.q.q.q.q.q.y.y.y.y.y.y.y.y.y.y.y.y.y.y.y.y.y.y.y.y.y.e.w.w.w.| | | | | | | | } } } } } W W ! ! ! ! W W W W ^ ^ W W W W ^ W W ^ ^ } } } [ } } } } [ $.$.$.$.$.$.=.t.t.t.t.t.t.f.f.f.f.f.f.f.f.f.f.f.l.M.M.M.M.f.%.%.%.%.%.f.F.c 2 2 2 2 2 2 2 2 2 2 2 w 4 2 2 w w k oXoXoXU.Q K K K ^ E K K K K K K K K K K K K E E E E E E E E E Q K N Q -.2.~ N N N N N N N N N N N N N N N N N z z z z z z z k k j k j j z z z z z z z k k k j k j + o o o o 3 _ d t t t t t t t t t t t t t i i i i c c c c c v b b Z Z A R R R W ) ) | #.#.#.#.#.#.#.#.#.#.#.#.#.#.#.#.#.%.=.=.=.=.=.=.%.#.#.#.#.#.#.} } m % % % % % i &.X.N N m k k k Q j.j.;.%.%.%.%.%.%.%.%.%.%.%.%.%.%.%.%.%.%.%.%.%.;.t.u.j.f.j.j.t.t.u.M.XXXXXXXXXXJ.f.j.j.j.j.f.s.s.t.;.;.=.=.=.*.*.=.=.=.=.*.*.=.=.=.=.=.=.=.=.=.=.*.$.@.@.@.@.$.=.=.*.~ K G Q ^ [ [ @.t & % = = = = = = i B B Z n B B b b b b B B B B b b n B B B v c c c c c c c c c c c c c 2 # # # # % ",
"c c m m m c c c m m m c c c m m m c c c m m m m m m m B V B T 1 o o # = = = * 2 S S A C C C C Z Z Z S S S W { { { { { { { { | | | | q.q.q.q.q.q.q.w.y.y.y.y.y.y.y.y.y.y.y.y.y.y.y.y.y.y.y.y.t.w.w.w.w.| | | | | | | | } } } } } ^ W W W W ! W W W ^ ^ ^ ^ W W W W W W W ^ W ^ } [ [ } } [ [ $.$.$.$.$.$.t.t.t.t.t.t.f.f.f.f.f.f.f.f.f.f.f.f.l.M.M.M.M.M.=.%.%.%.%.t.F.B 2 2 2 2 2 2 2 2 2 2 w w 2 2 2 2 w X.oXoXL.B B K K K ^ ^ ^ Q K K K K K K K K K K K E E E E E E E E E E K E 2.2.2.K N N N N N N N N N N N N N N N N N z z z z z z z k j j k z z z z z z z z k j j j k k , o o o o 2 _ d t t t t t t t t t t t t t t i i i i i c c c c b b n Z A R R R R ) ) } #.#.#.#.#.#.#.#.#.#.#.#.#.#.#.#.#.=.=.=.=.=.=.=.=.=.%.#.#.| ^ ^ ^ m % % % % % i &.K N N k k k k k $.j.j.=.%.%.%.%.%.%.%.%.%.%.%.%.%.%.%.%.%.%.%.%.%.=.t.f.j.j.f.t.t.;.J.XXXXXXXXXXXXQ.j.j.j.j.j.s.s.u.;.;.=.=.=.*.*.=.=.=.=.=.*.=.=.=.=.=.=.=.=.=.*.*.$.@.@.@.@.@.@.@.X.~ K G G K ^ [ K & & % = = = = = = B B B Z b B c c c c c v v b B b b b b v c c c c c c c c c c c c c 2 # # # # # % m ",
"c c m m m m m m c c m m m m m m m m m c c c m m m c c B B B T + o o * * = = = 2 S S A C Z Z C C C C A S W W ) { { { { { { | | | | 9.q.q.q.q.q.q.q.q.y.i.y.i.y.y.y.y.y.i.y.y.y.y.y.y.y.y.y.q.q.q.q.q.q.| | | | | | | | | { } } } ) ! W W W ! W W W W W W W W W W W W W W W W W W ^ [ [ } } } $.$.$.$.$.%.t.t.t.t.y.f.f.f.f.f.f.f.f.f.f.f.f.f.f.n.n.n.M.M.t.%.%.%.%.%.j.! : 2 2 2 2 2 2 2 2 4 w w 4 2 2 2 4 ~ oXZ.B B B B G B B ^ ^ ^ Q K K K K K K K K K K K E E E E E E E E E K E 2.2.-.~ N N N N N N N N N N N N N N N N N N N z z z z z z z z z z z z z z z z z z k k k k k 2 o o o o 2 I d t t t t t t t t w t t t t t t i i i i c c c c c b B Z Z R R R R W ) ) #.#.#.#.#.#.#.#.#.#.#.#.#.#.#.#.#.w.w.=.=.=.w.w.w.=.=.%.#.^ ! ! ! m % % % % % s K B N b k k k k s k d.j.j.=.%.%.%.%.%.%.%.%.%.%.%.%.#.#.#.@.@.@.%.%.%.=.t.f.j.f.t.;.;.n. XQ.=.~ Q X.t.j.j.j.j.j.f.y.u.;.;.=.*.*.*.=.=.=.=.*.*.*.=.=.=.=.=.=.=.=.*.*.*.@.@.X._ @.@.@.@._ ~ K K K N t u = = = = = = = = = 2 B B Z n B b c c c c c c c c c c v c c c c c c c c c c c c c c i # # # # # # 1 b N ",
"c c m m m m m m c c m m m m c c m m c c m m m m m c c b B B B o o o * * = = # 2 S S A C Z Z C C C C A S W S S { { { { { { | | | | q.q.q.q.q.q.q.q.q.q.y.y.i.y.y.y.y.y.q.q.y.y.y.y.y.y.q.q.q.q.q.q.q.q.| | | | | | | | | } } } } } ^ W W ! ! W W W W ^ W W ! ! ! ! W W ^ W W W W ! ^ [ } } } $.$.%.$.$.=.t.t.t.y.f.f.f.f.f.f.f.f.f.f.f.f.f.f.f.n.M.n.n.M.y.%.%.%.%.%.=.%.i 2 2 2 2 2 2 2 2 w w w w w 2 2 w B &.B B B B B B B B K ^ ^ ^ Q K K K K K K K K K K K Q E E E E E E E K E 2.2.2.&.N N N N N N N N N N N N N N N N N N N N m z z z z z z z z z z z z z z z z k k k z z 7 o o o + 2 G s t t t t t t t t w t t t t t t y i i i c c c c c b b Z Z R R R R W ) ) #.#.#.#.#.#.#.#.#.#.#.#.#.#.#.#.#.w.w.=.=.=.w.w.w.=.=.w.@.^ ! ! ! m % % % % % N B N N N k k k k k k N j.j.d.=.%.%.%.%.%.%.%.%.$.#.@.@.@.@.@.@.@.@.#.%.%.;.t.j.f.;.;.;.T u 2 2 2 2 2 2 k t.j.j.j.j.s.u.;.;.=.*.*.*.*.=.=.=.=.*.*.=.=.*.*.=.=.=.=.*.*.=.@.@.^ ^ ^ X.@.X.~ ~ K N 6 = = = = = = = = & % = = B Z B B B B c c c c c c c c c c c c c c c c c c c c c c c c c V [ u # # # 2 s N N N ",
"m m m m m m m m c m m m m m c c m m m m m m m m m m c m B B m o o O = = = = # 2 S S A Z Z Z Z C Z Z A W S S S / { { { { | | | | | q.q.q.q.q.q.q.q.q.q.q.y.y.i.y.t.q.q.w.w.w.q.e.e.q.w.w.q.q.q.q.q.q.q.| | | | | | | | } } } } } } } W W ! ! W W W W ^ ^ R T T T T T ! ! W W W W ^ [ } } } } $.%.%.%.#.t.t.t.f.f.f.f.f.f.f.f.f.f.f.f.f.f.f.f.f.n.M.M.M.M.f.%.%.%.%.%.%.%.$.2 2 2 2 2 2 2 w w w w w w 4 2 w B B B B B B B B B B B Q ^ ^ ^ Q K K K K K K K K K K K Q E E E E E E K Q 2.2.2.*.N N N N N N N N N N N N N N N N N N N N N N m z z z z z z z z z z z z z z z k z z z k o o o + 2 G t t t t y i u t t t w t t t t t y i i i c c c c c b n Z Z R R R R ( ) ) | #.#.#.#.#.#.#.#.#.#.#.#.#.#.#.%.w.w.w.=.=.w.w.=.=.=.=.%.^ ! ! T m % % % % % N N B N N N k k k k k k X.j.j.j.%.%.%.%.%.%.$.@.@.@.@.@.@.@.@.@.@.@.@.#.%.=.;.t.j.;.=.t 2 2 2 2 2 2 2 2 2 2 ^ j.j.j.s.a.;.;.=.*.*.=.=.=.=.=.=.=.=.=.=.*.*.*.=.=.=.=.*.@.@.@.^ ^ ^ ^ ' ~ ~ ~ t = = = = % = & & = % % % & % Z Z B n B b c c c c c c c c c c c c c c c c c c c c c c c c c ^ [ [ Q K K N N N N N ",
"m m m m m m m m c m m m m m c c m m m m m m m m m m m m B B u o o O = = * = = p S S A Z Z Z Z C Z Z S W S S S W { { { { | | | | | | | q.q.q.q.q.w.q.q.q.q.q.q.q.q.q.w.w.w.w.q.q.q.q.w.w.q.q.q.q.w.%.| | | | | | | | } } } } } } } } ! ! ! ! W W W ^ ^ ! T T T T T T T T W W W W ^ [ } } } } $.$.%.%.#.t.t.t.f.f.f.f.f.f.f.f.f.f.f.f.f.f.f.f.f.n.M.M.M.M.f.%.%.%.%.%.%.%.%.B 2 2 2 2 2 2 w w w w w 4 : 2 w B B B B B B B B B B B B E ^ ^ ^ K K K K K K K K K K K K K Q Q E E E K K 2.2.2...N N N N N N N N N N N N N N N N N N N N N N N N m z z z z z z z z z z z z z z z z z z o o o + 2 F t t t c c c c c i t w w t t t t i i i g c c c c c b n n Z A R R R ) ) ) } #.#.#.#.#.#.#.#.#.#.#.#.#.#.=.w.w.w.w.=.=.w.w.=.=.=.=.w.%.^ ! K m % % % % % m N N N N B b k k k k s k d.j.h.d.=.%.%.%.%.@.@.@.@.@.@.@.@.@.@.@.@.@.@.#.%.;.t.t.=.u 2 2 2 2 2 2 2 2 2 2 2 2 ^ j.j.a.a.;.;.=.=.=.=.=.=.$.@.$.$.=.=.=.*.*.*.=.=.=.*.@.@.@.@.^ ^ ^ ^ ^ ~ ~ ~ = = = = = % % % & = = % % & = B B B n B v c c c c c d d c c c c c c c c c c c c c c d d d d c T [ ] ] ] ^ B N N b ",
"m m m m m m c c m m m m m m m m c c c m m m m m m m c m B B 4 o o O * * * = = h W W W A Z Z Z Z Z A S S S W W ) { { { { | | | | | | | | | q.q.q.w.w.q.q.q.q.q.q.w.w.w.%.| q.q.q.w.w.w.w.w.w.w.q.| | | | | | | | | ) } } } ) ) ) } } W ! ! ! W W W W ! T T T T T T T T T ! ! ! ^ [ } } } [ } $.$.%.#.=.t.t.t.y.f.f.f.f.f.f.f.f.f.f.f.f.f.f.f.n.n.M.M.M.M.f.%.%.%.%.%.%.%.%.$.2 2 : : : 2 w w w w 2 2 2 2 w B B B B B B B B B B B B B ^ ^ ^ ^ K K K K K K K K K K K K K K K K K K K X.2.-.K N N N N N N N N N N N N N N N N N N N N N N N N N N z z z z z z z z z z z z z z z z z o o o + 2 k t t i k c c c c c c i t t t t t i i i c c c c c c b b B Z A R R ( ) ) ) } #.#.#.#.#.#.#.#.#.#.#.#.%.=.=.=.=.w.w.w.=.w.=.=.=.=.=.w.w.%.^ b m % % % % % s N N N N B B k k k k k k K j.h.h.h.%.%.%.%.#.@.@.@.@.@.@.@.@.@.@.@.@.@.@.#.=.;.;.s 2 2 2 2 2 2 2 2 2 2 2 2 2 2 ^ f.s.s.t.;.=.=.=.=.=.*.@.@.@.@.@.*.*.*.*.=.*.@.@.@.@.@.@.@.^ ~ ~ ~ ~ ^ ^ m = = = = = = = & & % % % = = = 4 B Z B B c c c d d d d d d d c c c c c c c c c d d d d d d d d d m B K K b m k d d ",
"m m m m m m c c m m m m m m m m c c m m m m m c m m c c B B 4 o o O * * * * = b W W W W S A A A S W S S W W W { { { { { { { | | | | | | | | | q.q.w.q.q.q.q.q.q.w.w.%.| | | | q.q.q.w.w.q.%.| | | | | | | | | | ) } } } ) ) ) ) } ^ W W W ! W W W ! T T T T T T T T T T E ! ! ^ [ } } } } #.$.$.%.%.t.t.t.t.t.t.t.f.f.f.f.f.f.f.f.f.f.f.f.n.M.M.M.M.M.M.f.%.%.%.%.%.%.%.%.%.w 2 : : : : w 4 4 2 : 2 2 2 w B B B B B B B B B B B B B B ^ ^ ^ ~ K K K K K K K K K K K K K K K K K K N N N N N N N N N N N N N N N N N N N N N N N N N N N N N z z z z z z z z z z z z z z z z z z , o o + 2 s t t t t t w 4 2 4 i c c i i i i i i i c c c c c c b b B Z A R R ) ) ) ) ) #.#.#.#.#.#.#.#.#.#.#.%.w.=.=.=.=.w.w.=.=.w.w.=.=.=.=.w.w.=.=.K m % % % % % 6 N N N N B B m k s k k k k =.h.h.j.=.%.%.%.#.@.@.@.@.@.@.@.@.@.@.@.@.@.@.@.#.;.^ 2 2 2 2 2 2 2 2 2 2 2 2 2 2 2 2 $.s.s.t.;.;.=.=.=.=.@.@.@.@.@.@.@.@.$.$.@.@.@.@.@.@.@.@.@._ ~ ~ ~ ~ ^ E + + + % % = = = = & % % % = = = = t n B b c c d d d d d d d d d d k c c d d d d d d d d d d d d d d d d i d d d d d ",
"c c c m m m m c m m m m c c m m c c m m m m m m m m m B B B 4 o o O * * % % = A W W S S S S W W W S S S W W ( { { { { { { { { { | | | | | | | | | q.q.q.q.q.q.q.w.%.| | | | | | | | | | | | | | | | | | | | | { ) ) } } } } ) } } W W W W W W W W T T T T T T T T T T T E ! ! [ } } } } %.%.%.%.$.[ ^ ^ ! c v v v Z t.f.f.f.f.f.f.f.f.f.c.M.M.M.n.n.M.M.f.%.%.%.%.%.%.%.#.! 2 : 2 2 : 2 2 2 : : : 2 : 2 w B B B B B B B B B B B B B B B ^ ^ ^ Q K K K K K K K K K K K K K K K K K N N N N N N N N N N N N N N N N N N N N N N N N N N z z z z z z z z z z z z z z z z z z z z z 6 o o + 2 7 t t t 2 + X o o o o + 2 c c i i i i c c c c c c c b b b Z A R ( ) ) ) ) t % 2 c ) #.#.#.#.#.#.#.=.=.w.w.=.=.w.w.w.w.=.=.=.=.=.=.=.=.=.=.=.b % % % % % < N N N N N N N k s k k k k N j.j.j.%.%.%.%.@.@.@.@.@.@.@.@.@.@.@.@.@.@.@.@.@.@.6 2 2 2 2 2 2 2 2 2 2 2 2 2 2 2 2 c s.a.t.;.;.*.=.*.$.@.@.@.@.@.@.@.@.@.@.@.@.@.@.@.@.@.@.@...~ ~ ~ ~ ^ N + + + + + % = = = = % = = = = = = = 2 b v c c c d d d d d d d d d d d d d d d d d d d d i d d d d d d d d d d d d d ",
"c c c m m m m c m m c c c c m m c m m m m m m m m m b B B B 4 o o O = = % % # A S S S S S S W R W S S S W W ) { { { { { { { { { { | | | | | | | | | q.q.q.q.q.q.| | | | | | | | | | | | | | | | | | | | | | { } } ) } } } } } } ^ W W ^ W W W W T T T T T T T T T T T T E ! ^ [ } } #.#.@.m 2 - = - ; ; ; ; ; w v v v t.f.f.f.f.f.f.f.l.M.M.M.M.M.n.n.t.%.B i 2 2 # # # # # # # # : 2 2 2 : : : : 2 2 2 w B B B B B B B B B B B B B B B K ^ ^ ^ T K K K K K K K K K K K K K K K K N N N N N N N N N N N N N N N N N N N N N N z k k s u u u u 5 5 s z z z z z z z z z z z z z z s o o + 2 5 t = o o o X o o o o o o 4 c c c c c c c c c c c c b b b Z T R ) ) ) c + o o o + % 1 c } #.#.#.#.%.=.w.w.=.=.w.w.w.w.=.=.=.=.=.=.=.=.=.=.=.@.% % % % % % N N N N N N B k k k k k k k =.j.=.%.%.%.#.@.@.@.@.@.@.@.@.@.@.@.@.@.@.@.@.@.Q 2 2 2 2 2 2 2 2 2 2 2 2 2 2 2 2 2 2 =.a.u.;.;.*.*.*.@.@.@.@.@.@.@.@.@.@.@.@.@.@.@.@.@.@.@.@...~ ~ ~ ^ ^ u + + + + + % = = = = = = & & = = = = = - c c c d d d d d d d d d d d d d d d d d d d d i i d d d d d d d d d d d d d ",
"m m m m c c c c m m m m m m m m c c c c c c m m m m B B B B % o o o = = * * * R S n Z S S S S R R R S S R R ) { { { { { { { { { { { | | | | | | | | | q.w.w.%.| | | | | | | | | | | | | | | | | | | | | | { } } } } ) ) ) ) ) ) ! W W W W W W ! T T T T T T T T T T T T ! W } } } #.%.^ = # # # # # # % = = - ; w v v v y.f.f.f.f.f.f.f.M.M.M.M.f.B = # # # # # # # # # # # # # = : : 2 2 2 : : 2 2 2 2 w B B B B B B B B B B B B B B B B K ^ ^ ^ K K K K K K K K K K K K K K K G N N N N N N N N N N N N N N N N N N z s 5 5 5 5 5 5 6 6 6 3 3 5 5 6 z z z z z z z z z z z z z z X o o 2 < + o o o o o o o o o o o o c c c c c c c c c c c c b b b Z R ( ) ) t o o o o o o o + % % 2 B } #.#.=.w.w.=.=.=.=.=.=.=.=.=.=.=.=.w.=.=.=.w.w.% % % % % % % % % & 1 1 2 1 2 6 4 u s k E %.} } [ ^ ^ } @.@.@.@.@.@.@.@.@.@.@.@.@.@.@.@.Q 2 2 2 2 2 2 2 2 2 2 2 2 2 2 2 2 2 2 k s.s.t.;.=.=.*.@.@.@.@.@.@.@.@.@.@.@.@.@.@.X.X..._ ^ ^ ^ ^ ^ ~ ~ ~ < + + + + + & = = = = = = = = = = = = = % % 4 d d d d d d d d d d d d d d d d d d d d d d d d d d d d d d d d d d d d ",
"m m m m c c c c c c m m m c g g u w w w w u k c m m m B B B o o o o O = * * = R v c c c v n Z S R R S S R R W ) { { { { { { { { { { | | | | | | | | | w.w.| | | | | | | | | | | | | | | | | | | | | | | | { } } } } } } ) ) ) W ! ! W W W ! ! T T T T T T T T T T T T T ! W } } } %.^ = # # # # # # # # # # # - ; c v v A f.f.f.f.f.f.f.M.M.M.t.2 # # # # # # # # # # # # # # # : : 2 2 2 2 : : 2 2 2 2 u B B B B B B B B B B B B B B B B B K ^ ^ ^ K K K K K K K K K K K K K z 4 < ; ; 2 k N N N N N N N N N N z u 6 6 5 5 5 5 5 5 6 6 6 6 3 3 5 6 6 6 k z z z z z z z z z z z z X o o o o o o o o o o o o o o o o o 2 c c c c c c c c c c c b b b Z W ) ) t o o o o o o o o o + % % % % 1 t K @.=.=.=.=.=.=.=.=.=.=.=.=.=.w.w.=.=.w.=.% % % % % % % % % % % % % % % % % % % 2 i k k z m m m m m B Q T T T @.@.@.@.@.@.@.T Q T B 2 2 2 2 2 2 2 2 2 2 2 2 2 2 2 2 2 + + u $.t.t.=.=.@.X.X.X.X.X..._ _ _ ^ ^ ^ ^ ~ ~ ~ ~ ^ ^ ^ ^ ^ ^ ~ ~ Q + + + + + % & = = = = = = = = = = = = = % + + = i d d d d i i i i i i i i i d d d d d d d d d d d d d d d d d d d d d ",
"m m m m c m g d 4 2 = % o o o o o o o o o o o o O ; u c c 2 o o o o o O * * q n h h c c h h h h v v n Z n n n n n n n n n n Z A A A | | | | | | | | | q.%.| | | | | | | | | | | | | | | | | | | | | | | | } } } } } } } } ) W ! ! ! ! E T T T T T T T T T T T T T T T T ! W } } %.@.= # # # # # # # # # # % - ; ; y v v v #.f.f.f.f.f.f.M.M.f.2 # # # # # # # # # # # # # # # = 2 : 2 2 2 2 2 2 2 2 2 2 d B B B B B B B B B B B B B N N B B B K ^ ^ ^ K K K K K K K K K N 6 < < < < ; ; < < s N N N N N N k 7 6 6 6 6 6 6 6 5 5 5 5 5 5 6 6 6 3 3 3 6 6 5 s z z z z z z z z z z u o o o o o o o o o o o o o o o o o o o i c c c c c c c c c i c c c B ) ) c o o o o o o o o o o o o % % % % % % % % = t k b m N B B B N B B B B B G B 1 % % % % % % % % % % % % % % % % % % % % % % % % % % 1 1 1 2 1 1 2 2 2 2 2 2 2 2 2 2 2 2 2 2 2 2 2 2 2 2 2 2 2 2 2 2 2 2 2 2 + + + + 1 u k F F Q ^ ~ ^ ^ ~ ~ ~ ~ ^ ^ ^ K F F F F F F G G E ^ ^ ^ k + + + O % & & = = = = & % = & % % % % + + + + + % 4 4 4 4 2 1 1 1 1 1 1 1 1 1 1 1 1 1 2 2 w t t t t t t t t t u d d d ",
"= = % o o o o o o o o o o o o o o o o o o o o o o o o o o o o o o o o o o o : h c c c c h h h c c c c c i # # # # # # # # # # # # # # : y v S S S S S R A A | | | | | | | | | | W W W W W W W W { | | | | { } } } } } } ) W ! ! ! ! T B B B B T T T T T T T T T T T T n A b A ! } w # # # # # # # = = = - ; ; ; ; 2 v v v b f.f.f.f.f.f.n.M.B # # # # # # # # # # # # # # # = 2 2 2 2 2 2 2 2 2 : : 2 2 m B B B B B B B B B B B B B B N B B B B Q E ^ E K K K K K K B u + o % % ; < < ; < < < z N m s 7 6 6 5 5 6 6 6 6 6 6 6 5 5 5 5 5 6 6 5 3 3 3 6 6 6 6 6 7 u s s s s s s 7 o o o o o o o o o o o o o o o o o o o o X & < < 1 1 2 2 2 1 1 1 2 2 < 2 1 o o o o o o o + % % % % % % % % % % % % % % % % % % % % % = 2 2 2 2 1 % % % % % % % % % % % % % % % % % % % % % % % % % % % % % % % % % % % % % % % % % % % % % % % % & & 2 2 2 2 2 2 2 2 2 2 2 2 2 2 2 2 % + + + + + + + + + + + + + + + + + + + + + + + + + + + + + % u N u + + + + + % % % % % % % % + + + + + + + + o X X X X                                                                     ",
"o o o o o o o o o o o o o o o o o o o o o o o o o o o o o o o o o o o o o o o O : i h h h h c c h c c c i # # # # # # # # # # # # # # # # # # # # # # # # # # # # # = 2 w w w w w w w w w w w w w w w ^ ^ W ^ ) A n n n n n n n B i u u u u u u y y y y u t ; = - ; 4 u u u u u u # # # # # # # - ; ; ; ; ; ; ; ; ; c v v v ) f.f.f.f.f.n.n.- # # # # # # # # # # # # # # = : 2 2 2 2 2 2 2 2 2 : : : 2 w b N B N N N N B B B B B N N N N N B B K K K K K K K m 6 % o o o o o o o o + % % % % % < 2 2 6 5 5 5 5 5 5 6 6 6 6 4 3 2 2 2 < & & & & + + + + o o o o o o o o o o o o o o o o o o o o o o o o o o o o o o o o X o o o o o o + + + + + + o o o o o o o + % = = = = 2 2 2 w w 4 ; & % % % % % % % % % % % % % % % % % % % % % % % % % % % % % % % % % % % % % % % % % % % % % % % % % % % % % % % % % % % % % % % % % % % % 2 2 2 2 2 2 2 2 2 6 2 2 2 2 2 2 < + + + + + + + + + + + + + + + + + + + + + + + + + + + + + + + + + + + + + O O O + % % + + +                                                                                               ",
"o o o o o o o o o o o o o o o o o o o o o o o o o o o o o o o o o o o o o o o o o o o = : : : : : w w 2 = # # # # # # # # # # # # # # # # # # # # # # # # # # # # # # # # # # # # # # % = = = = = = = # # # # # # # # # # # # # # # # # # # = ; = = = * # # # # # # # # = 2 2 2 % # # # # # # # = ; ; ; ; ; ; ; ; ; y v v v v t.f.f.f.l.n.t.# # # # # # # # # # = * * = : 2 2 2 2 2 2 2 2 2 2 2 : : 2 2 2 2 4 w 4 u u s m m B B B B N N N N N B m m u u < % o o X X o o o o o o o o o X o o o o o o o o o o o o o o o o o o X X o o o o o o o o X o o o o o o o o o o o o o o o o o o o o o o o o o o o o o o o o o o o X o o o o o o o o o o o o o o + + & = ; ; ; ; ; = 2 2 2 w i i i i i i y w 4 ; % % % % % % % % % = = = % % % % % % % % % % % % % % % % % % % % % % % % % % % % % % % % % % % % % % % % % % % % % % % % % % % 2 2 2 2 2 2 2 2 4 6 t 2 2 2 2 2 1 + + + + + + + + + + + + + + + + + + + + + + + + + + + + + + + + + + + + + O O + + + + + + +                                                                                               ",
"o o o o o o o o o o o o o o o o o o o o o o o o o o o o o o o o o o o o o o o o o o o o o o O # # # # # # # # # # # # # # # # # # # # # # # # # # # # # # # # # # # # # # # # # # # # # # # # # # # # # # # # # # # % % # # # # # # # # # # # % # # # # # # # # # # # # # # # # # # # # # # # # # = ; ; ; ; ; ; ; ; 2 v v v v n u.f.f.f.n.%.# # # # # # # # # # 2 2 : 2 2 2 2 2 : 2 : : 2 2 2 2 2 2 2 2 2 2 = o o o o o o o o o o o o o o o o o o o o o o o o o X o o o o o o o o o o X o o o o o o o o o o o o o o o o o o o X o o o o o o o o o o + + + + + o o o o o o o o o o o o o o o o o o o o o o o o o o o o , < < < < < o o o o o + + % = ; ; ; ; ; ; ; ; ; ; 2 4 4 4 y i i i i i i i i i i i w 2 & % % = 6 m m N m m z s 6 = 1 6 6 6 6 4 % % % % % % % % % % % % % % % % % % % % % % % % % % % % % % % % % % % % % % % = 2 2 2 2 2 2 2 6 6 6 t t 2 2 2 2 2 + + + % < 1 2 2 1 & % + + + + + + + + + + + + + + + + + + + + + + + + + + + + < 6 6 6 2 % + + o + + % t 6 6 t u s s k N N N N s u 6 6 6 2 1 1 & % % % & + + o                             ",
"; ; ; ; ; ; ; ; ; O o o o o o o o o o o o o o o O # # # % % % % O # # o o o o o o o o o o o o O # # # # # # # # # # # # # # # # # # # # # # # # # # # # # # # # # # # # # # # # # # # # # # # # # # # # % % # # # # % % % # # # # # # # # # # # # # # # # # # # # # # # # # # # # # # # # # # # # # = ; ; ; ; ; ; - % y v v v v b =.f.f.f.u # # # # # # # # # # 2 2 2 2 2 2 2 2 : : : : : : 2 2 2 2 2 2 2 : o o o o o o o o o o o o o o o o o o o o o o o o o o X o o o o o o o o o o X o o o o o o o o o o o o o o o o o o X X o o o o o + % , , , , , , , , , , , , o o o o o o o o o o o o o o o o o o o o + s I Q K K K K K K K K K ....k ; ; = ; ; ; ; ; ; ; ; 1 4 4 4 4 t p p p c c v n n c i i i i y t 4 2 s =.Q m N m N K E X.@.@.=.-.-.-.=.=.2.2.2.@.X.~ ~ G G G G N z N K m z z z G K [ @.a.a.a.a.a.*.G G G G G G G G z u 2 2 2 2 6 6 6 6 6 6 6 4 4 2 2 2 2 2 < 2 4 6 6 6 t t 6 6 4 2 1 & + + + + + + + + + + + + + + + + + + + + + & 2 s s s s s s s B N N N N N N N N N N N N N N N N N N N N N N N N N N N N N m i i i i i i i u u t t 1 = ; ; X   ",
"! ! E E Q Q Q Q Q Q Q m c c c k t t 4 4 4 4 4 4 4 4 4 4 4 4 4 4 4 4 4 4 4 4 t t w 4 ; O o o o o O # # # # # # # # # # # # # O O # # # # # # # # # # # # # # # # # # # # # # # # # # # # # # # # # # # # # # # # # # # # # # # # # # # # # # # # # O # # # # # # # # # # O O # # # # # # # # # # # # # # = - - = = # # % w c v v i w w 2 = # # # # # # # # # # # : 2 2 2 2 2 2 2 2 2 2 2 2 2 2 2 2 2 2 2 2 ; o o o o o o o o o o o o o o o o o o o o o o o o o o o o o % % % % % % % + + + o o X o o o o o o o o o + % < 3 3 s k k F F F F F F F F F F F F F F F F F z + o o + 2 k z I I x s s s 2 + o o o % F X.X.X.X.X.~ K K K K K K &.3.3.3.@.; ; ; ; ; ; ; ; ; 2 4 4 4 4 w n n n v v v v v v n h i i i i t t t m 2.2.<.*.<.@.@.@.@.@.@.@.$.*.*.=.*.@.@.*.*.*.*.*.*.*.2.2.2.2.2.2.2.=.*.*.*.$.[ [ $.2.a.2.-.@.G G G G G G G G G G B u 2 2 6 6 4 4 4 w w t 6 2 2 2 2 2 2 2 t t 6 6 w w 6 6 6 6 t t t 2 2 1 1 1 1 1 1 1 2 2 2 u s 4 2 6 s N K Q Q K Q Q K K K K Q K K B N N N N N N N N N N N N N N N N N N N N m u m N N N K ^ ! ! W ^ ^ ^ ^ ^ ^ ^ ^ ^ ^ ^ ! ! ",
"} } } } } } [ ^ E Q Q Q B c c c c c c c c c c c c d d d d d d d d c B T T T T T T T } %.=.t.f.f.f.w # # # # # # = # = : : : : : # # # # # # # # # # # # # # # # # # # # # # # # # # # # # # # # # # # # # # # # # # # # # # # # # # # # # # # # # # # # # # # # # # # # O O # # # # # # # # # # # # # # # # # # # # # # # # # # # # # # # # # # # # # # # # # # % 2 2 2 2 2 2 2 2 2 2 2 2 2 2 2 2 2 2 2 2 : o o o o o o o o o o o o o o o o o o o o + 6 z o o o o o % = 2 6 & = & & & & & = = = & 6 s j k J F F F F F F F F F F F F F F F F F F F F F F F F F F F J I < + N ~ ~ _ _ _ _ ..s s s s s s s I X.X.X.X.X.X.X.X.X.I K K K K *.3.3.2.K ; ; ; ; ; ; ; ; ; 4 4 4 4 4 v v n C Z Z C n v v n v i i i i u t t t @.2.2.2.2.=.@.@.@.@.@.@.@.@.@.@.X.[ [ [ ^ ^ ^ ^ [ [ [ [ [ [ [ [ [ [ [ [ [ [ [ [ [ [ [ [ [ [ ^ G G G G G G G G G G G m 2 4 6 6 6 4 w t t 6 6 2 2 2 2 2 2 w t 6 6 t w 6 6 6 6 t t t t 6 6 6 6 6 4 w w 6 6 N K Q Q Q Q Q Q Q Q Q K Q K Q Q K K Q Q Q Q K N N N N N N N N N N N N N N N N N N N m t t c N B E ^ ! ! W ! ^ ^ ^ ^ ^ W ^ ^ ^ ^ ! ! ",
"} } } } } } } } } } } ^ ^ V B B N c c c c c c c m c m m c c c B T ! ! ! ! ! ! W } %.%.=.y.f.f.f.f.^ # # = : 0 q y v v v v v v v c - # # # # = w t t t t u u u u t t # # # # # # # # # # # # # # # # # # # # # # # # # # # # # # # # # # # # # # O # # = : 2 2 2 2 2 w w w w w 2 2 2 2 : ; = = # # # # # # # # # # # # # # # # # # # # # # # # # # # # # # # # # # = 2 2 2 : : 2 4 w t t t t w w 4 : : : 2 4 i i i 4 2 2 < % + o o o o o % , , 7 s N K K K + o o o + = 4 6 6 = = & & = 2 6 4 ; = ; 6 s F 2.4.4.+.F F F F F F F F F F F F F F F F F F F F F F F F J I I s ~ _ ~ ~ J K z z k j x F I _ X.X.X.X.X.X.X.X.X.X.X.X.X.~ K K K X.2.2.2.m ; ; ; ; ; ; ; ; 2 4 4 4 4 c R W ) ) ^ ^ ) ) Z v n n i i i i u t t w m 3.2.2.2.2.@.@.@.@.@.@.X.@.X.[ X.[ X.[ ^ [ ^ ^ [ [ [ [ [ [ X.=.=.=.=.$.#.@.[ [ [ [ [ [ [ [ [ @.^ ^ ^ ^ ^ @.;.a.b.F.G.=.6 6 6 6 6 6 t 6 6 6 6 4 2 2 2 6 t t 6 6 w w 6 6 6 6 6 6 t t 6 6 6 6 6 t t t t m @.@.@.^ Q K Q Q Q K Q Q Q Q E E E E E E Q Q Q K N N N N N N N N N N N N N N N N N N N u t t ^ ^ ^ ^ ! ! ! ! ! ! ^ ^ ! W ! ! ^ ! ! ! ",
"} } } } } } } } } } } } } } } } } } } #.t.f.f.f.f.f.f.f.y.y.t.t.=.=.%.%.%.%.=.=.%.e.y.f.f.f.f.f.f.f.: : q q q q w v v v v v v v v y = # # = | #.f.f.f.f.f.f.f.f.f.f.f.f.f.f.f.y.# # # # # # # # # # # # # # # # = : # # # # # # # # # # # # # # % : w w w w w w w w w w w w w w w w w w w w w w w 2 2 : : = = = # # # # # # # # # # # = : : : : : : : : : : : : : : 2 2 2 w y i i i i i i i i i i i i y t w i i t 4 4 4 2 2 6 s z z J K K K K K K K K K K 6 o o o & 2 6 6 6 ; = & = 4 6 6 6 4 4 2 6 6 J _ o.2.5.4.I F F F F F F F F F F F F F F F F F F F F F K I I I ...._ ~ K z P ~ ..X.X.X.X.X.X.X.X.X.X.X.X.X.X.X.X.X.X.X.X.X.~ I ~ 2.2.2.u ; ; ; ; ; ; ; ; 4 4 4 4 4 W ^ ^ ) ) ^ ^ ) ) W n n n i i i i u t t w w ].).h.2.2.$.@.@.@.X.[ [ ^ [ [ X.X.X.[ [ [ ^ ^ ^ ^ ^ ^ ^ ^ ^ ^ @.*.=.=.=.=.;.j.j.F.G.G.G.G.G.G.F.b.b.b.F.G.G.G.G.G.G.G.$.6 6 6 6 6 t 6 6 6 6 6 6 2 2 6 6 t 6 2 2 2 t t 6 6 4 6 6 6 t t t 6 6 t 6 6 t &.*.*.&.*.&.X.Q Q Q Q Q Q @.@.@.@.@.@.@.@.@.@.@.@.@.' ^ G N N N N N N N N N N N N N N N m t k ^ ^ ^ ^ ! ! ! ! ! ! ^ ^ W W W ! ^ ! ! ! ",
"} } } } } } } } @.} } } } } } } } } } t.u.u.f.u.y.y.y.y.y.y.y.y.y.f.f.f.f.f.f.f.f.f.f.f.f.f.f.f.f.f.y q q q q q q v v v v v v v v w q = # w #.#.%.f.f.f.f.f.f.f.f.f.f.f.f.f.f.f.m # # # # # # # # = : : = # # # : : = # # # # # # # # # # # # = q w w w w w w w w w w w w w w w w w w y p i y w w w w w w w w w w w w w 2 2 w w i Z Z A E ^ ) ) n b n n v v v v b b W ! A B c i i i i i i i i i i i i i i i i i 6 4 4 4 4 u z z z z m K K K K K I K K K K N o o % & 6 6 6 6 2 = = 4 4 4 6 6 6 6 6 6 6 I Q Q Q _ <.<.F F F F F F F F F F F F F F F F F F F F P I I I Q _ ...._ _ ..X.X.X.X.X.X.X.X.X.X.X.X.X.X.X.X.X.X.X.X.X.X.X.X.X.X.X.2.2.2.s ; ; ; ; ; ; ; 2 4 4 4 4 4 W ^ ^ ^ ^ ( ) ) ) ) Z n n i i i i t t t t k ].].].g.2.&.@.@.@.X.X.[ [ ^ ^ ^ ^ [ [ X.^ ^ ^ ^ ^ E E ^ ^ ^ ^ ^ X.X.X.=.=.=.;.;.a.a.d.d.d.d.d.d.d.d.d.d.F.H.H.H.G.G.G.G.Q t t t 6 6 6 6 t 6 6 6 6 6 6 6 6 4 2 2 2 2 6 t 2 2 2 2 2 2 2 2 2 2 2 4 6 ^ *.*.*.&.&.&.&.&.Q Q Q Q Q @.@.@.@.@.@.@.@.@.@.@.@.@.@.@.@.^ G N N N N N N N N N N N N N N m k ! ! ^ ^ ! ! ^ ^ ! ! ! ! ! ! ! ! W W ! ! ",
"} } } } } } @.} } } ) ( W W W W W W W W W W W W W W W W W W W W W W W ) } %.y.f.f.f.f.f.f.f.y.t.#.} ) q q q q q q w v v v v v v y q q q : w #.#.#.y.f.f.f.f.f.f.f.f.f.f.f.f.f.f.f.- # # # # # # = : : : : % # - : : : # # # # # # # # # # # - w w w w w w w w w w w w w w w w w w w w p p p p p p i y w w w w w w w w w w w w i w.t.t.t.t.t.t.t.t.n W ^ W ! T Z Z ! W W W W W R i i i i i i i i i i i i i i i i 6 4 4 6 k z z z z z m z N G J K I I K K K K k + & & 6 6 6 6 4 ; 4 6 4 4 6 6 6 6 6 6 6 Q Q Q Q I F F F F F F F F F F F F F F F F F F F F F J I I I I ~ _ ...._ _ ..X.X.X.X.X.X.X.X.X.X.X.X.X.X.X.&.&.+.+.X.X.X.X.X.X.X.X.2.2.2.; ; ; ; ; ; ; 2 4 4 4 4 4 4 i W ^ ^ ( ( ) ) ) ^ W n v i i i y w t t t N ].].].2.2.&.@.@.@.@.X.[ [ ^ ^ ^ ^ [ ^ ^ ^ ^ ^ ^ ^ E ! ! ^ ^ ^ ^ X.X.X.=.;.d.d.d.d.d.d.d.d.d.d.d.d.d.d.d.j.H.H.H.G.G.G.G.G.c w t t 6 6 6 t 6 6 6 6 6 6 6 6 2 2 2 2 2 2 2 2 1 1 2 2 1 2 2 2 2 2 2 2 X.*.&.E N B B B K K Q Q Q E @.@.@.@.@.@.@.@.@.@.@.@.@.@.@.@.@.@.E B N N N N N N N N N N N N N B ^ ^ ^ ^ ! ^ ^ ^ ! ! ! ! ^ ^ ! ! W ^ ! ! ",
"} } } } ^ ^ ^ W W W W W W W W W W W W W W W W W W W W W W W W W W W W W W W W ( %.y.=.#.| } } } } } } c q q q q q q q y i i y q q q q q w ^ f.f.f.f.f.f.f.f.f.f.f.f.f.f.f.f.f.f.f.^ # # # # # = : : : : : - = : : : : = # # # # # # # # # 2 w w w w w w w w w w w w w w w w w w w w w Z B c c p p p p p i t w w y w w w w w i w.t.t.t.t.t.t.t.t.t.W b n n T W W W W W W W W W d i i c B B B B B B B B B B B B B b m m K K z z z z z z z z z z z z z z z m K I k & & 4 4 6 6 6 6 6 6 4 4 6 6 6 6 6 6 6 I Q Q Q F F F F F F F F F F F F F F F F F F F F F P I I I I Q _ _ ........X.X.X.X.X.X.X.X.X.X.+.X.X.X.X.X.&.&.&.&.+.+.+.+.+.+.X.X.*.2.2.; ; ; ; ; ; 2 4 4 4 4 4 4 2 ; 2 i c T W ^ ^ W ^ ^ Z p i i y w t t t t K ].].).2.2.&.@.@.@.@.X.X.[ ^ [ ^ ^ ^ ^ ^ ^ ^ ^ ! ! E E ^ ^ ^ ^ [ X.X.@.=.=.d.d.d.d.d.d.d.d.d.d.d.d.d.d.d.j.H.H.G.G.G.G.G.G.F.G 4 6 6 6 t t 2 2 2 2 4 6 6 2 2 2 2 2 2 2 1 1 2 2 2 2 1 1 1 2 2 2 2 ^ &.X.N B B B B B B b G K K Q @.@.^ ^ ^ Q Q K B B B B B V Q ^ @.@.@.X.K N N N N N N N N N N N K X.} ! ^ ^ ! ! ^ ^ ^ ^ W W ^ ^ ^ ^ ^ ^ ! ! ",
"W W W W W W W W W W W W W W W W W W W W W W W W W W W W W W W W W W W W W W W W W } } } } } } } } } } ) q q q q q q q q q q q q q q q c y.f.f.f.f.f.f.f.f.f.f.f.f.f.f.f.f.f.f.f.f.f.m # # # = : : : : : : : : : : : : : # # # # # # # # u ^ ^ B w w w w w w w w w w w w w w w w w w c f.t.Z Z Z B n v c v b Z Z Z Z c w w B t.t.t.t.t.t.t.t.t.t.y.j.j.j.s.=.| | | | | t.y.j.j.j.j.j.j.j.j.j.j.j.j.j.j.j.j.j.j.j.j.j.j.j.j.j.j.j.d.-.&.~ F z z z z z z z N $.-.-.6 & ; 4 6 6 6 6 6 6 4 4 6 6 6 4 6 6 6 J Q Q J F F F F F F F F F F F F F F F F F F F F P I I I I I ~ _ _ ......X.X.X.&.&.&.X.X.X.X.&.&.&.&.+.+.+.&.&.&.&.&.&.&.&.&.&.&.X.&.2.2.; ; ; ; ; ; 4 4 4 4 4 4 ; ; ; ; 2 4 4 4 i c c v i i i i t t w t t t t *.].].K.2.2.@.@.@.@.@.@.X.X.[ ^ ^ ^ ^ ^ ^ ^ ^ ! ! E E E ^ ^ ^ ^ X.X.X.X.=.=.a.d.d.d.d.d.d.d.d.d.d.d.d.d.d.j.H.H.G.G.G.G.G.G.G.oXL.~ 6 6 4 2 2 2 2 2 1 2 2 1 2 2 2 2 2 2 1 1 2 2 2 2 1 1 1 2 2 2 G &.^ B B B B b B B b b B B B B b b b b b b b b b b B B B B B B B T X.@.@.^ G N N N N N N N B ^ @.@.@.! E R T T T T T R R ! ! ! ^ ^ ^ ^ ! ! ",
"W W W W W W W W W W W W W W W W W W W W W W W W W W W W W W W W W W W W W W W W W ( } } } } } } } } } } c q q q q q q q q q q q q w ^ f.f.f.y.w.e.t.f.f.t.e.y.f.f.f.f.f.f.f.f.f.f.f.f.c # = : : : : : : : : : : : : : : # # # # # # # u ^ ^ ^ ^ ! c c c c t w w w w w w w w w w w w c f.f.Z Z Z n Z Z Z Z Z C C n n n y ! t.t.t.t.t.t.t.t.t.t.t.y.j.j.j.j.j.j.j.j.j.j.j.j.j.j.j.j.j.j.j.j.j.j.j.s.$.X.^ ^ ^ ^ @.@.@.@.@.@.@.@.$.*.-.-.-.-.-.*...^ ^ ..*.;.-.-.-.$.; & 6 6 6 6 6 4 6 6 6 6 6 2 2 6 6 6 N Q Q F F F F F F F F F F F F F F F F F F F F F I I I I I Q _ _ _ X.X.X.X.+.*.&.&.&.+.X.X.X.&.&.&.&.&.&.&.&.&.&.&.&.&.&.&.&.&.&.&.&.3.3.; ; ; ; ; 2 4 4 4 4 4 2 ; ; ; 2 4 4 4 4 4 4 4 w y i i i u t t t t t t <.].].z.2.2.@.@.@.@.@.@.[ [ ^ ^ ! ! ! ! ! ! ^ ^ ^ ! E E ^ ^ ! ! [ @.X.X.=.=.=.d.d.d.d.d.d.d.d.d.d.d.d.d.d.f.G.G.G.G.G.G.G.G.G.oXoXoX X*.2 2 2 2 2 1 1 2 2 2 1 1 1 2 2 2 1 1 2 1 1 1 2 2 2 2 u Q &.E B b b b B B B B b b B B b b b b B B B B b b B B B b b b B B B B B ^ @.@.@.^ G N N N T ^ @.@.@.@.@.R T T A A A A T T T T T R R R T T ! ! ",
"W W W W W W W W W W W W W W W W W W W W W W W W W W W W W W W W W W W W W W W W W W ( ) { } { } } } } } t.w q q q q q q q q q w ! f.f.f.f.u.{ %.e.e.e.e.e.e.e.e.y.i.f.f.f.f.f.f.f.f.f.t.: : : : : : : : : : : : : : : = # # # # # # 2 ^ ^ ^ ^ ^ ^ v c c c w w w w w w w w w w w w w c f.f.W Z Z Z B Z Z Z Z B A T T A %.t.t.t.t.t.t.t.t.t.t.t.t.y.j.j.j.j.j.j.j.j.j.j.j.j.j.f.f.f.s.s.s.y.y.y.%.^ ^ ^ ^ ^ ^ ^ ^ X.@.X.X.@.@.@.@.@.@.$.*.-.-.-.-.-.-.;.-.;.;.-.-.-.N & 4 6 6 6 6 4 4 6 6 6 6 = = & = 2 z Q I F F F F F F F F F F F F F F F F F F F F F K I I I I ~ _ _ X.X.&.&.&.*.*.&.&.&.&.X.+.X.+.&.&.&.&.&.&.&.&.&.&.&.&.&.&.&.&.*.-.*.3.g.2 ; ; ; 2 4 4 4 4 4 4 ; ; ; 2 4 4 4 4 4 4 4 4 4 w i i i i t w t t t t S.].].3.2.2.@.@.@.@.@.@.[ [ ^ ^ ! ^ ! ! E E ^ ^ ^ ! E E ^ ^ ! ! [ X.X.X.=.=.=.;.d.d.d.d.d.d.d.d.d.d.d.d.d.d.F.G.G.G.G.G.G.G.G.oXoXoXoXoX_ 2 2 2 2 1 2 2 2 2 1 1 2 2 2 2 1 1 2 1 1 1 2 2 2 m _.K.Q b B B b b B B B B b b b b b b b b B B B B b b B B b b b b B B B B b B [ @.@.@.@.@.^ @.@.@.@.@.@.^ T A T T A A A A T T T T T T S S A A A ! ",
"W W W ) } ) } ) } } } } W W W W W W W W W W W W W W W W W W ) W W W W W W W W W W W W W W ( } } } } } } t.f.c q q q q q q y R f.f.f.f.f.t.{ { q.e.e.e.e.e.e.e.e.e.e.e.r.y.f.f.f.f.f.f.T : : : : : : : : : : : : : : = # # # # # # 2 ^ ^ ^ ^ ^ ^ ^ B c c c w w w w w w w w w w i B T } f.l.w.Z Z n n n Z E } #.#.$.$.%.t.t.t.t.t.t.t.t.t.t.t.t.t.t.f.j.j.j.j.j.j.j.j.f.s.t.t.t.t.t.t.t.t.t.t.t.^ ^ Q Q E ^ ^ ^ ^ ^ ] X.X.@.@.@.@.@.@.@.@.@.@.$.$.*.*.*.*.*.$.$.@.Q k & 2 4 4 6 6 4 4 6 6 6 6 ; = & & & d Q J F F F F F F F F F F F F F F F F F F F F F K I I I I _ _ _ X.X.+.&.&.&.*.&.&.&.&.+.X.X.+.&.&.&.&.&.&.*.*.&.*.&.&.&.&.&.*.-.-.2.2.h.~ ; ; 2 4 4 4 4 4 4 2 ; ; 2 4 4 4 4 4 4 4 4 4 4 w i i c i i t t t t w ).].K.2.2.2.@.@.@.@.@.@.X.X.^ ^ ^ ^ ^ ^ E E ^ ^ ^ ! E E E ! ! ! ^ X.X.X.=.=.=.=.a.d.d.d.d.d.d.d.d.d.d.d.d.d.d.b.G.G.G.G.G.G.G.oXoXoXoXoX.Xu 2 2 1 1 2 1 2 2 1 1 2 2 2 2 2 2 2 2 1 1 2 2 X.'.'.j.B b B B B B B B b b b b b b b B b b B B B B B B B B b b b b B B B B n B B A ^ X.@.@.@.@.@.X.^ T Z B Z A S S R R T T A A S S S S S S T T T ^ ",
"W ^ } } } } } ) ) } } } } ) ) W W W W W W W W W W W W W W ) ) ) W W W W W W W W W W W W ( } } } } } } } W y.f.t.W n T ) t.f.f.f.f.f.t.| { { | e.e.e.e.e.e.e.e.e.e.e.e.e.e.e.r.f.f.f.f.w : : : : : : : : : : : : - = # # # # # # 2 ^ ^ ^ ^ ^ ^ ^ ^ T c c c w w w w w w i B R ^ ^ ^ ^ ^ s.k.y.) Z n A ^ $.$.$.#.$.$.$.$.t.t.t.t.t.t.t.t.t.t.t.t.t.t.t.s.j.j.j.f.s.t.t.t.t.t.t.t.t.t.=.%.$.$.=.@.^ E K K K K Q Q E E ~ ~ ^ ^ ^ ^ ^ ^ ^ ^ [ X.@.@.@.@.@.@.@.@.@.X.G k k ; 1 4 4 4 6 4 4 4 6 6 6 ; = & & & z Q J F F F F F F F F F F F F F F K J K F F F F F I I I Q _ _ _ X.X.X.&.&.&.&.&.&.&.&.&.X.X.+.&.&.*.&.&.&.&.*.*.*.&.&.&.&.*.-.-.-.2.2.h.C.2 ; 2 4 4 4 4 4 2 ; ; 2 4 4 4 4 4 4 4 4 4 4 4 w c T B c i t t t w w ].].z.2.2.2.*.@.@.@.@.@.X.X.X.^ ^ ^ ^ ^ ! ! ^ ^ ^ ! E E ! ! ! ! ^ X.X.X.=.=.=.=.=.s.d.d.d.d.d.d.d.d.d.d.d.d.d.d.f.b.F.G.G.G.H.oXoXoXoXoXoXG 2 2 1 1 2 2 2 2 1 2 2 2 2 2 2 2 2 2 2 2 6 x.'.K.*.B B b b B B B B B B b b b b b B B b b b B b b B B B B B b b b B B n B B B B B B Z Z Z Z B B B B B B B Z S S S R R T T A A S S A S S S T T E ^ ",
"( } ) ) ) ) ) ) ) ) ) ) ) ) ) ) } ) W W W W W W W W W W ) ) ) ) ) W W W W W W W W W W W { } } } } } } { W ) f.f.f.f.f.f.f.f.f.t.%.{ { { { | e.e.e.e.e.e.e.e.e.e.y.e.e.e.e.e.e.e.u.f.f.2 - = = % # = : : : : - = # # # # # # # 2 ^ W T T ! ^ ^ ^ ^ W c c i y i v A ! ^ ^ ^ ^ ^ ^ ^ ^ ^ } f.%.#.^ #.$.$.$.$.$.$.$.$.$.$.t.t.t.t.t.t.t.t.t.t.t.t.t.t.t.t.t.t.t.t.t.t.t.t.t.t.t.t.%.$.$.$.$.$.#.^ ^ Q K K K K Q Q K K K Q Q Q E E E E ^ ^ ^ ^ ^ ^ ^ ] [ X.@.@.E z k k k 2 = 4 4 6 6 6 6 6 6 4 6 ; & & & & J Q F F F F F F F F F F F F F F F K J J J J F F F P Q Q ~ _ _ ....X.X.+.&.&.&.&.&.&.&.&.&.X.X.&.&.-.-.*.&.&.&.*.-.-.*.*.=.-.-.=.2.2.2.h.C.&.; 1 1 1 2 ; ; ; ; 1 4 4 4 4 4 4 4 4 4 4 4 4 i T T c c c t t t w N ].].2.2.2.2.2.*.@.@.@.@.@.X.[ ^ ^ ^ ^ ^ ^ ^ ^ ^ ! E ! ! ! ! ! ! ^ [ X.X.=.=.=.=.=.a.d.d.d.d.d.d.d.d.d.d.d.d.d.d.d.d.d.d.d.d.d.j.U.oXoXoXoXE 1 1 1 2 1 1 1 1 2 2 2 2 2 2 2 2 2 2 2 G _.'.j.Q B B B B b B B b b b b b B B b b B B B B b b b b B B B B B B B N n B B B Z B B B B B Z Z Z Z B B B B Z Z T R A S T T A A S T R S T T S S S S ^ ^ ",
") } ) { } | | | } { } ) ) ) ) ) } } ) ) ) ) ) ( W W W ( ) ) ) ) } ) W W W W W W W W W W ( } } } } } } ) W W } t.y.=.=.%.| { { { { { { { %.e.e.e.e.e.e.e.e.e.e.y.f.f.u.t.e.e.e.e.e.f.t.# # # # # # # # # # # # # # # # # # # 2 ^ W T T T A T ! ^ ^ ^ W R W ^ ^ ^ ^ ^ ^ ^ ^ ^ ^ ^ ^ ^ ^ ^ } #.$.#.@.@.@.@.} } @.$.$.$.#.t.t.t.t.t.t.t.t.t.f.f.y.t.t.t.t.t.t.t.t.t.t.t.t.t.t.%.$.$.$.$.$.$.@.^ ^ Q K K K K G G K K K K Q Q K K K K K K Q Q Q Q E E ^ ^ ^ ^ Q k k k k k ; = 4 4 6 6 6 6 6 6 4 6 = & & & & Q Q F F F z z N F F F F F F F F K K J K I I F F F K Q Q ~ ~ _ ....X.X.X.+.&.&.&.&.&.&.&.&.+.+.&.&.*.-.-.-.*.&.*.-.=.-.-.=.-.-.=.2.2.2.a.C.C.d ; ; ; ; ; ; ; ; 2 4 4 4 4 4 4 4 4 4 4 4 4 c T T M c c t t t w E ].V.2.2.2.2.2.2.*.@.@.@.@.X.[ [ ^ ^ ^ ^ ^ [ [ [ ^ E E ! ! ! ! ^ ^ [ X.X.=.=.=.=.=.2.d.d.d.d.d.d.d.d.d.d.d.d.d.d.d.d.d.d.d.d.d.d.d..XoXoXoX' 1 1 1 2 1 1 2 1 2 2 2 2 2 2 2 2 2 6 <.'.'.2.T T T B B B b B b b b b b b B B b b B B B B b b b b B B B n B B B B B B B B Z B B B B B Z Z Z Z B B B B Z A T T T T T T A A T T R R T T R T S R ^ ^ ",
"} } | | | | | | | | | | | | } } { { } ) ) ) ) ) ) ( ( } ) ) ) ) } } ) W W W W W W W W W W { } } } } } ) W W W ) { { { { { { { { { {  .e.e.e.e.e.e.e.e.e.e.e.e.i.f.f.f.f.f.f.f.f.f.f.! # # # # # # # # # # # = # # # # # # 2 ^ ^ T T A T A A A T E W ^ ^ ^ ^ ^ ^ ^ ^ W ! W ! ! ! W W ^ ^ ^ ) } } } } } } } } } $.#.#.$.t.t.t.t.t.t.t.s.f.f.f.f.f.y.t.t.t.t.t.t.t.t.t.t.t.=.$.$.$.#.#.$.[ ^ ^ Q Q K K G G G G G G K K K K K K K K K K K K Q K K K Q Q Q E z k k k k k = = 1 6 6 6 6 6 4 4 4 4 & & & & 2 Q Q F F z z z z F F F F F F F F J J I I I I J F F J I Q ~ ~ ~ ......X.X.X.*.&.&.&.&.&.&.*.&.&.&.&.-.-.-.-.-.*.-.-.=.-.=.=.-.=.-.2.3.3.2.C.C.x.2 ; ; ; ; ; ; ; 4 4 4 4 4 4 4 4 4 4 4 4 4 Z T T B c c t t t t *.].2.2.2.2.2.2.2.2.@.@.@.@.@.[ [ [ ^ E E ^ [ [ [ ^ ^ E E ! ! ^ ^ ^ X.X.X.=.=.=.=.=.;.d.d.d.d.d.d.d.d.d.d.d.d.d.d.d.d.d.d.d.d.d.d.d. XoXoXoX=.1 1 2 2 2 2 2 2 2 2 1 1 1 2 2 2 G K.'.K._ T K K K K B B B b b b b b B B B B b b b b B B b b B B B B B B B B B B B B Z Z Z Z B B B B B B Z B B B B B A R T T T T R S S A T T T R T T T T W | } ^ ",
"| | | | | | | | | | | | | | | | | | | | } ) ) ) } } } } ) ) ) ) ) } ) W W W W W W W W W W ) } } } } } ) W W W W W ) { { { { { {  .w.e.e.e.e.e.e.e.e.e.e.e.e.e.e.y.i.f.f.f.f.f.f.f.f.i # # # # # # # # # = = = # # # # # t ^ ^ T T T T T A A A A A A T R ! ! ! ! R E E E E E E E E E T ! ^ ^ ^ } } } } } } } @.$.#.#.$.t.t.t.t.t.t.f.f.f.f.f.f.f.f.f.t.t.t.t.t.t.t.t.t.t.$.$.#.#.#.@.^ ^ E Q K Q K G G G N N N G G K G G G K K K K K K K K K K K K K K G k k k k k s = = = 2 6 6 6 6 6 4 4 1 & & & & 6 Q I F N z z z z F F F F F F F J J I Q I I I I P I I ~ _ ~ ~ ~ ........X.X.+.*.&.&.*.*.&.&.&.&.&.&.-.-.-.-.-.-.=.=.=.=.-.=.=.2.2.2.3.2.2.j.C.C.&.; ; ; ; ; ; ; 2 4 4 4 4 4 4 4 4 4 4 4 t T T T B c c s t t t V.D.2.2.2.2.2.2.2.2.@.@.@.@.@.@.[ [ [ ^ E [ [ ^ ^ ^ ^ ^ ^ ! ! ! ^ ^ X.@.@.$.=.=.=.=.=.d.d.d.d.d.d.d.d.d.d.d.d.d.d.d.d.d.d.d.d.d.d.d.L.oXoXoX=.2 2 2 2 2 2 2 2 1 1 1 2 1 1 6 g.'.'.C.Q K K K K K K T G B b b b b B B B B B b b b b b b b b B B B n B B B B B B B Z Z Z Z Z B B B B B B Z R T T A A R R T T T T R S A A T T R R T T T T | | | | ",
"| | | | | | | | | | | | | | | | | | | | | { ) ) ) ) ) ) } } ) ) ) ) ) W W W W W W W W W W ) } } } } } ) W W W W W { { { { { { %.e.e.e.e.e.e.e.e.e.e.e.e.e.e.e.e.e.e.e.u.f.u.e.e.e.n.t # # # # # # # # = - = = # # # # u ^ ^ ! A T T A A A T T T A A A A T T A A T T T E E E E R R R R E ! ^ ^ ^ } } } } } } #.$.$.$.%.t.t.t.t.t.f.l.f.f.f.f.l.l.f.f.t.t.t.t.t.t.t.t.t.=.$.$.$.$.[ ^ ^ E Q K Q K G G G N N N N N N G G G G G G G G G G G G K K K Q Q Q m k z z k k u & & & & & & & & & & % % & & = & z Q Q N z z z z z F F F F F F J J K I I I I I I I ~ .........._ _ _ _ ....X.X.&.&.&.&.&.&.&.&.&.&.&.*.=.-.-.=.=.=.=.=.=.=.2.2.2.2.2.2.2.2.2.C.C.C.F ; ; ; ; ; ; ; 2 4 4 4 4 2 2 2 2 4 4 B T T T A c c c u t t ).3.2.2.2.2.2.2.2.*.@.@.@.@.@.@.@.X.X.^ ^ ^ ! ^ ^ ^ E T T E ^ ! ! ^ X.X.X.@.=.=.=.=.=.d.d.d.d.d.d.d.d.d.d.d.d.d.d.d.d.d.d.d.d.d.d.d.L.oXoXoX2.2 2 1 1 1 1 1 2 2 2 2 2 2 ~ _.'.'.h.T T T T T T K K T T K B B B B B b b b b B B B B B B B B b b b B B B B B B B B B B Z Z Z B B B A A B Z S S S T T A A R R T T S A A A T R R R T T T %.b.| | | ",
"| | | | | | | | | | | | | | | | | | | | | | { ) ) ) ) ) ) } ) ) } ) ( W W W W W W W W W W W } } } } } ) W W W W { { { { { { { %.e.e.e.e.e.e.e.e.e.e.e.e.e.e.e.e.e.e.e.e.e.e.e.e.e.~.- # # # # # # # # - - = = % # # y ^ ^ ^ T T T T T A A T T T A A A T T T T A A A T A T E R R R R R R ! ^ ^ ^ } } } } } } $.$.$.$.w.t.t.t.t.f.l.l.f.f.f.f.l.l.f.t.t.t.t.t.t.t.t.t.t.%.#.$.$.^ ^ ^ E K K K K G G G N N N N N N N N N N N N F G G G G G G G G G Q Q Q k k z z k k t & & & & & & & & & & & & & & & % P Q J z z z z z m F F F F F K K J I I I I Q I Q _ ~ .._ ...._ _ _ ~ ........X.X.&.&.&.&.*.*.&.&.&.&.*.=.-.-.=.=.=.=.2.2.2.2.2.2.2.2.2.2.2.2.g.C.C.C.G ; ; ; ; ; ; ; ; 2 4 4 2 4 2 2 4 t T T T T B c c c c d t S.2.2.2.2.<.*.&.@.@.@.@.@.@.@.@.@.X.X.^ [ ! ! E T T T T T T E ^ ^ ^ @.X.X.@.%.=.=.=.=.d.d.d.d.d.d.d.d.d.d.d.d.d.d.d.d.d.d.d.d.d.d.d.L.oXoXoX=.2 2 1 2 1 1 2 2 2 1 2 d x.'.'.'.h.T T T T T T T K K T T T K B B B B b b b b B B B B b B B B b b b b N B B B Z B B B B B Z Z B Z A T T A B A S S T T T A R R T T R A A A T R R R T T #.F.F.#.| | ",
"| | | | | | | | | | | | | | | | | | | | | | | ) ) ) ) ) ) ) ) ) ) W W W W W W W W W W W W W { } } } } } W W W W { { { { { { {  .e.e.e.e.e.e.e.e.e.e.e.e.e.e.e.e.e.e.e.e.e.e.e.e.n.~.# # # # # # # # = - - - = = = = v ^ ^ W T T T T A A A A T T A A T T T T A A A T T A A T E E R R E E ! ^ ^ ^ ^ } } } } @.$.$.$.$.t.t.t.y.f.f.f.l.f.f.f.f.f.f.y.t.t.t.t.t.t.t.t.t.t.$.$.$.^ ~ ^ E K K K K G G G N N N N N N N N N N N N N N N N G G G G G G G Q Q K k k k z z k t = = & & & & & & & & & & & & & ; Q Q N z z z z m m F F F F F J K P I I I I Q I _ _ _ _ _ ~ ~ _ ~ ~ ~ ~ _ ......X.+.&.&.&.&.&.&.&.&.&.*.=.-.-.=.2.2.2.2.2.2.2.2.2.2.2.2.2.2.2.3.j.C.C.C.G ; ; ; ; ; ; ; ; 2 4 4 4 F t 4 4 4 i i c c c c c m m m a.2.2.<.*.@.@.@.@.@.@.@.@.@.@.@.@.X.X.[ [ ^ ^ T T T T T T T T ^ ^ ^ X.X.X.X.@.=.=.=.=.a.d.d.d.d.d.d.d.d.a.a.d.d.s.a.a.;.;.;.;.;.d.d.L.oX.XoX=.2 2 2 2 2 2 2 2 1 1 1 K.'.'.'.Z.T K T T T T T T K K K T K K K B B B B B b b b B b b b b B B B B b b n B Z Z Z Z B B B B Z Z Z T T S T T A Z A S T T S S R R T T T T A A T R T T T #.F.F.F.#.| | ",
"| | | | | | | | | | | | | | | | | | | | | { } ) ) ) ) ) ) ) ( W W W W W W W W W W W W W W W W { } } } } W W W W ) { { { { { { | e.e.e.e.e.e.e.e.e.e.e.e.e.e.e.e.e.e.e.e.e.e.e.t.~.~.# # # # # # O # = - - - = = - - = y ! ! A T T T A A A A T T A A T T T T A A A T A A A T E E R R E E ! ^ ^ ^ ^ ^ } } } @.$.$.$.=.t.t.t.f.f.f.f.f.f.f.f.f.f.f.t.t.t.t.t.t.t.t.t.t.t.$.$.$.^ ^ ^ K K K K G G G G N N N N N N N N N N N N N N N N G G G G G G G K Q N k k k z z z 6 = = & & & & & & & & & & & & & d &.J z z z z z z N F F F F F J K P I I I I Q I _ _ _ _ _ _ ~ ~ ~ ~ ~ ~ _ _ _ ~ X.X.&.&.&.&.&.&.&.&.&.*.=.-.-.=.2.2.2.2.2.2.2.2.2.2.2.2.2.2.2.3.3.a.C.C.C.K ; ; ; ; ; ; ; ; ; 2 u K N 4 4 4 4 4 2 i c c c m m T 2.=.$.@.@.@.@.@.@.@.@.@.@.@.@.@.@.X.X.[ [ ^ ^ T T T T T T T T ! ^ [ X.X.X.X.@.@.=.=.=.a.d.d.d.d.d.d.;.=.=.=.=.=.=.=.=.=.=.=.=.=.;.d.L.oXL..X=.2 2 2 2 2 2 2 2 1 1 1 P '.'.'.<.Q K T T T T T K K K T T T K K B B B B B b b b B b b b b B B B B b B B B Z Z Z Z B B B B Z Z Z A S S T T T T A S T T S W W W W R R R R S A T T T #.M.F.F.b.| | | ",
"| | | | | | | | | | | | | | | | | | } } ) ) } ) ) ) ) ) W W W W W W W W W W W W W W W W W W W W { } } ) W W W W W { { { { { { } e.e.e.e.e.e.e.e.e.e.e.e.e.e.e.e.e.e.e.e.e.e.i.!.~.~.# # # # # # O # # = - - - = - - = = : Z T T T T A A A A T T A T T T A A A A A T T T T E E E E E E E ! ^ ^ ^ ^ ^ } } } #.$.$.$.=.t.t.y.f.f.f.f.f.f.f.f.f.f.f.t.t.t.t.t.t.t.t.t.t.=.$.$.$.^ ^ ^ Q K Q K G G G G N N N N N N N N N N N N N N N N G G G G G G K K K z k k k k k k 2 & & & & & & & & & % & & & & & ..*.P z z z z z z N F F F F F K K K K K K J J I ~ _ _ ....~ ~ ~ ~ _ _ ~ ~ _ _ ....X.X.&.&.&.&.&.&.&.*.*.=.=.-.=.2.3.3.2.2.2.2.2.2.2.2.2.2.2.2.3.3.2.2.h.j.h.@.2 ; ; ; ; ; ; ; ; u K K 4 4 4 4 4 4 t c c c m m X.@.@.@.@.@.@.@.@.@.@.@.@.@.@.@.@.@.[ [ [ ^ ^ ^ T T T T T T T T E ! [ X.@.@.X.X.X.*.=.=.;.d.d.d.d.a.=.=.$.$.%.=.=.=.=.=.=.=.=.=.=.=.a.F.U.L..X=.2 2 2 2 2 2 1 1 2 2 2 1 K.'.).X.^ K T T T T K K K K K K G K B b b b b B B B B B b b B B B B b b n Z Z Z Z B B B Z Z Z Z B B B A S T T T T T T S T R S R W W W W W W W W W W W ) j.M.M.M.=.| | | ",
"| | | | | | | | | | | | | | | | } } } } ) ) } } ) ( W W W W W W W W R A S S S R W W W W W W W W W { } ) W W W W W ( { { { { { } e.e.e.e.e.e.e.e.e.e.e.e.e.e.e.e.e.e.e.e.y.T.~.~.~.T.# # # # # # O # # # = = = : : = = = - - c T T T A A A A T T A T T T T T A A A T T T R R R E E E E E R ^ ^ ^ ^ ^ } } } @.$.$.$.%.t.t.y.f.f.f.f.f.f.f.f.f.f.f.t.t.t.t.t.t.t.t.t.t.=.$.$.#.[ ^ ^ E K Q K G G G G N N N N N N N N N N N N N N N F G G G G G G K K K k k k k k k k 2 & & & & & & & & & % & & & & 2 *.&.z z z z z z z m F F F F F J J K K K K K J K Q _ _ ....~ _ ~ ~ ~ _ ~ ~ _ _ ......X.&.&.&.&.&.&.*.*.*.=.=.-.=.2.3.3.2.2.2.2.2.2.2.2.2.2.2.2.3.3.2.2.2.2.2.2.2.t ; ; ; ; ; ; ; ; G K 4 4 4 4 4 4 i c c c m m G X.@.@.@.@.@.@.@.@.@.@.@.@.@.@.@.@.[ X.[ [ ^ ^ T T T T T T T T T ! X.X.X.@.X.X.X.X.=.=.=.d.d.d.;.=.=.%.#.#.$.$.$.$.=.=.=.=.=.=.=.=.=.j.L.L.U.=.1 2 2 2 2 2 1 1 2 2 2 2 N 2.&.X.' K T T T T K K K K B b B B B B b b b b B B B B b b B B b b B B Z Z Z Z Z Z B B Z Z Z Z B B B Z R R T T T T T S T T S S R W W W W W W W W W W f.M.M.M.t.| | | | ",
"| | | | | | | | | | | | | | } ) ) ) } } ) ) ) ( W W W W W W W W W R A A A A S S S S R W W W W W W W { ) W W W W W W ) { { { { %.e.e.e.e.e.e.e.e.e.e.e.e.e.e.e.e.e.e.i.T.~.~.!.y.#.| # # # # # # # # # # # # # w w q : = - - = c A A A A A A A A T T T T T T T T A R E R E E R R E E R R R ! ^ ^ ^ ^ ^ } } } $.$.$.%.t.t.y.f.f.f.l.f.l.l.f.f.f.f.t.t.t.t.t.t.t.t.t.t.w.$.$.$.#.^ ^ E K K K K G G G N N N N N N N N N N N N N N N G G G G G K Q Q Q K k k k k k k k 2 & % & & & & & & & & & & & & x *.Q z z z z z z z z N F F F F K J P P K K J J K I Q _ .._ .._ ~ ~ _ _ ...._ _ ......X.+.&.&.&.&.&.*.*.&.*.=.=.=.2.3.3.2.2.3.3.2.2.2.2.2.2.2.2.2.2.2.2.2.2.2.2.2.2.m ; ; ; ; ; ; ; u K 4 4 4 4 4 t m c c c m m m G @.@.@.@.@.@.@.@.@.@.@.@.@.@.@.@.^ [ [ [ ^ ^ ^ T T T T T T T T ! } @.X.@.X.X.@.X.$.=.=.=.=.=.=.=.%.$.$.$.$.$.$.$.$.=.=.=.=.=.=.=.=.d.L.L.L.=.1 1 2 2 2 2 1 1 2 2 2 2 2 ^ X.X.X.K T T T K K K K B b b B B B B b b b b B B b b b B B B b B B B Z B Z Z B B B B Z Z B B B B Z Z A T T T T T T T S S S S R R W W W W W W W W j.F.F.M.w.| | | | | ",
"| | | | | | | | | | | | } ) ) ) ) ) ) ) ) W W W W W W W W W W W R S A A A A A A S S S S R W W W W W W W W W W W W W W { { { } w.e.e.e.e.e.e.e.e.e.e.e.e.e.e.e.e.i.Q.~.~.~.T.#.| | | # # # # # # # # # # # # = f f w q : - - = = c A A A A A A A A T T T T T T T A R E E E E E R E R R R R R E ! ^ ^ ^ } } } #.$.$.$.t.t.y.f.f.f.f.f.l.f.f.f.f.f.t.t.t.t.t.t.t.$.w.t.t.$.$.#.$.^ ^ ^ Q K K K G G G N N N N N N N N N N N N N N G G G G K K Q Q Q Q K N k z k k k k 2 & & & & & & & & & & & & & & O.,.N z z z z z z z z z F F F F K J J P K K J J K I I Q _ _ _ _ _ ~ ..........~ Q ......X.&.&.&.&.&.&.&.&.*.=.*.*.2.3.3.3.3.3.2.2.2.2.2.2.2.2.2.2.2.2.2.2.2.2.2.2.2.2.m ; ; ; ; ; ; ; m 4 4 4 4 t i m c c c m m K X.@.@.@.@.@.@.@.@.@.@.@.@.@.@.@.@.^ ^ [ [ ^ ^ ^ E T T T T T T T ! ^ @.X.X.X.@.@.X.X.$.$.$.=.=.=.$.$.$.$.$.$.$.$.$.$.$.=.=.=.=.=.=.=.;.L.L.L.*.1 1 2 2 2 2 1 1 2 2 2 2 2 N X.X.X.K T T T T K B B B b b b B B B b b b B B B b b B B B B b B B B B B B B B B B B Z B B B B B Z Z A T T T T T T T R S S S S S R W W W W W W a.F.F.j.#.| | | | | | ",
"| | | | | | | | | } } ) ) ) ) ) ) ) ) W W W W W W W R R R R S A A A A A A A A A A A A A A S W W W W W W W W W W W W W ( { { { e.e.e.e.e.e.e.e.e.e.e.e.e.e.e.y.Q.~.~.~.~.N.|  .#.#.#.w % = = = = # # # # # # y f f y q q - - = = = c T A T T T T T T T T A A T T A T R R E E E E E E R R E E E E W ^ ^ ^ } } @.$.$.%.t.t.t.f.f.f.f.f.f.f.f.l.f.f.t.t.t.t.t.t.=.$.$.t.t.%.#.#.#.@.^ ~ E K K Q G G G N N N N N N N N N N N N N G G G G G K K K K K Q Q K k k k z z k t & & & & & & & & & & & & & 6 *.' z z m z z z z z z z F F F F J J J F F F J J P I I I Q ~ _ _ _ ......~ ~ Q I I Q _ _ X.+.&.&.&.&.*.&.&.&.-.-.=.=.2.2.2.2.2.2.2.2.2.2.2.2.2.3.2.2.2.2.2.2.2.2.2.2.2.2.m ; ; ; ; ; ; 2 4 4 4 4 t y c c m m c c B @.@.@.@.@.@.@.@.@.@.@.@.@.@.@.@.@.[ [ [ [ ^ E ^ ^ T T T T T T T ^ ^ ^ X.X.@.@.@.[ ^ E E E E E $.#.$.$.#.#.$.$.$.$.$.$.$.=.=.=.=.=.=.=.G.L.L.^ 1 2 2 2 2 2 2 1 1 1 2 2 2 d X.X.X.T K K K B B B B B b b b b b b B B B B B B b b b b b B B B N B B B B B B B B B B B B B B Z Z Z A S T T T T T T R R T T T T S W W W W W %.f.t.t.| | | | | | | | ",
"| | | | | | | | } ) ) ) ) ) ) ) ) W W W W W W R S A A A A A A A A A A A A A A S A A A A A A R W W W W W W W W W W W W W { { { e.e.e.e.e.e.e.e.e.e.e.e.e.e.i.~.~.~.~.~.B.| |  .#.#.#.w % = = = = # # # # # : f f f y q q - - = - = = v T T T T T T T T T A A T A A A T R E E E E E E R R E E E E ^ ^ ^ ^ } } @.$.$.%.t.t.t.f.f.f.f.f.f.f.l.l.f.s.t.t.t.t.t.t.$.$.$.=.t.=.$.#.$.$.^ ~ ~ K K K K G G F N N N N N N N N N N N G G G G G G G K K K K Q Q Q N k k k k k t & & & & & & & & % & & & & G *.N z z m z z z z z z z F F F F F F F F F F J J K I I I I I Q Q ~ ~ ....~ Q I I I I ~ _ ..X.&.&.&.&.*.*.&.&.*.-.-.-.2.2.2.2.2.2.2.2.2.2.2.2.2.2.2.2.2.2.2.2.2.2.2.2.2.2.2.m ; ; ; ; ; 2 4 4 4 4 u y i c m m c i c E @.@.@.@.@.@.@.@.@.@.@.@.@.@.@.@.[ [ [ ^ E E ^ ^ E T T T T T T ^ ^ ^ ^ X.X.^ ^ ^ ! ! ! E ! ! @.@.@.#.#.#.$.$.$.$.$.$.$.$.*.=.=.=.=.=.j.L.L.^ 1 1 2 2 2 2 1 1 1 1 2 2 2 N X.X.X.T B b B B B B B B b b b b b b B b B B B B b b b b b b B B B B B B B B B B B B B B Z B B B Z Z A S T T T T T T S S T T T T S R W W W W W W W ) | | | | | | | | ",
"| | | | | } } } ) ) ) ) ) ) ) ( W W W W W R A A S S A A A A A A A A S S A A A A A A A A A A S R R R S S R R W W W W W W ( { { q.e.e.e.e.e.e.e.e.e.e.e.e.e.~.~.~.~.~.Q.#.| | | |  . .w = = = - - = # = = = i f f i q q q - = = - = = - B A A T A T T T A A A A A T T T T E E R R R R R R R R R W ^ ^ ^ ^ ^ } } $.$.%.t.t.t.f.f.f.f.f.f.f.l.f.f.t.t.t.t.t.t.=.#.#.$.$.=.t.%.#.$.$.[ ^ ~ E K K K G G G N N N N N N N N N N N G G G G G G G G K K K K Q K K z k k k k s & & & & & & & & & & & & & &.' z z z z z z z z z m N F F F F F F F F F F J J K K I I I I I I I I Q Q I I I I I I Q .._ X.+.&.&.&.&.*.&.&.&.*.-.-.-.-.-.2.2.2.2.2.2.2.2.2.2.3.2.2.2.2.2.2.2.2.2.2.2.2.2.&.; ; ; ; ; 2 4 4 4 4 u y i i i i y y c =.=.@.@.@.@.@.@.@.@.@.@.@.X.X.[ [ [ [ ^ ^ E E ! ^ ^ T T T T T T ^ ^ ^ ! ! E E ^ ^ ^ ! ^ ^ ! ^ @.@.X.X.#.#.$.$.$.$.#.#.$.#.$.$.=.=.=.=.=.L.L.^ 2 2 2 2 2 2 2 2 2 2 2 2 2 ^ X.X.X.T B b b b B B B B B b B B b B b b b b B b b b b b B B B B b b B n B B Z Z Z Z Z Z Z Z B B B B A S S A S S T R S S S S T T T W W W W W W W W W | | | | | | | | ",
"| | } } } } } ) ) ) ) ) ) ) W W W W W R S S S S S S A A A A A A A A A A A A A A S A A A A A A A A A S A A A A R R W W W W { { { %.w.%. .%.e.e.e.e.e.e.e.e.y.E.~.Q.f.#.| | | | |  .| w = - - - - = = = = w f f i w q q 0 - - = = = = = - B A A A T T T A A A A A T T T T T R R E E R R R R ! ^ ^ ^ ^ [ } } } } $.$.%.t.t.t.t.f.f.f.f.f.f.f.f.f.t.t.t.t.t.=.$.#.#.$.$.$.%.#.$.$.$.#.^ ^ E K K K G G G N N N N N N N N N N N G G G G G G G G G K K K K K K B k k k k s & & & & & & & & = = ; ; 2 Q N z z z z z z z z z m N F F F F N m z m F F F J K K P I I I I I I Q Q Q I I I I I I I ~ ..X.X.&.&.&.&.*.&.&.&.&.*.-.-.-.=.=.=.=.=.=.=.=.2.2.2.2.2.2.2.3.2.2.2.2.2.2.2.2.3.-.4 ; ; ; ; 2 4 4 4 4 u y i i i i y y B ;.=.@.@.@.@.@.@.X.[ [ X.X.X.X.[ [ [ ^ ^ ^ ! ! ! E T T T T T T T E ^ ^ ! E E E ^ ^ ^ ! ^ ^ ^ ^ X.X.X.^ ^ @.$.$.$.$.#.#.$.#.$.$.$.$.$.=.=.2.L.^ 2 2 2 2 2 2 2 2 2 2 2 2 d X.X.X.~ T G b b b B B B B B B B B B B b b b b B b b b b b B B B B b b B B n B Z Z Z Z Z Z Z Z B B B B A S S S S S S S S S S S T T R W W W W W W W W W } | | | | | | | ",
"} ) ) ) ) ) ) ) ) ) ) ) W W W W W W R A Z Z Z A A A A A A A A Z Z Z Z Z Z Z Z Z Z Z Z A A A A A A S S S A A A A A R W W W ( { { { { { { { #.e.e.e.q. .} } { { { { { } #.#.#. . . .| t = = - - - - - - - : w q q q q q q = = = = - - = = : Z A A A A A A T T A A T T A A A R E E E E R ! W ^ ^ ^ } } } } } } @.$.#.#.t.t.t.t.f.f.f.f.f.f.f.f.s.t.t.t.;.%.$.$.#.#.#.#.$.$.$.$.$.$.$.^ ^ ^ K K K G G G N N N N N N N N N N N N G G G G G G G G G K K K K K Q m k k k k = = = & & & = ; ; ; 1 1 1 2 z z z z z z z z z z m F N N z z z z z z N F F K K J J J K I I I I I I I I I I I I I I Q ~ ..X.X.&.&.&.&.&.&.&.&.&.*.-.-.-.-.1.-.=.=.=.-.2.2.2.2.3.2.2.2.2.2.2.3.2.2.2.2.2.=.s ; ; ; ; 2 4 4 4 4 u i i i y y y d =.2.*.@.@.@.@.@.@.X.[ [ ^ ^ ^ ^ [ [ ^ ^ ^ ^ ^ ! T T T T T T T T T T ^ ^ ^ ^ E E ^ ^ ^ ^ ^ ^ ^ [ ^ ^ ^ ^ [ ^ @.X.@.$.$.#.$.$.$.$.#.#.$.#.$.=.2.*.1 2 2 2 2 2 2 2 2 4 6 b ^ X.X.X.Q T k 2 m b b B B B B B B B B B B b b b b b b b b B B B b b b b B B b B B B Z Z Z Z B B B Z B B A S S S S S S R T T T A R R W W W W W W W W W W ) | | | | | | | ",
") ) ) ) ) ) ) ) ) ) ( W W W W W W R A A Z Z Z Z A A A A A Z Z Z Z Z Z Z Z Z Z Z Z Z Z Z Z A A A A S A S A A A A A A S W W W { { { { { { { { %.%.{ { { { { } { { { { { | #.#. . .| | t = = - - - - - - - - q q q q q q q - = = - - - - = = q T A A A A A T T A A T T A A T T T T E E W ^ ^ ^ ^ ^ ^ } } } } } @.$.#.%.t.t.t.t.=.t.f.f.f.f.f.f.t.t.=.$.$.$.$.$.#.#.$.$.$.$.#.#.$.$.$.^ ^ ^ K K K G G G N N N N N N N N N N N N G G G G G G G G G G K K K K Q K k k k k = = & & & & & ; ; ; ; 1 1 1 2 z z z m m z z z z z m z z z z z z z z N F F K K J J J J K I I I I I I I I I I I I I I _ _ ..X.+.&.&.&.&.&.&.&.&.&.*.-.-.1.1.-.=.=.=.2.2.2.2.2.3.2.*.*.=.=.2.3.2.2.2.2.2.=.J ; ; ; ; 1 4 4 4 4 u y y y y y E ;.2.2.&.@.@.@.@.@.@.@.[ [ ^ ^ ^ ^ ^ ^ ^ ^ ! ^ ^ ^ T T T T T T T T T T T ^ ^ ^ E E ^ ^ ^ ^ ^ ^ [ [ [ [ ^ ^ [ ^ ^ ^ @.$.$.#.$.$.$.$.$.$.$.#.$.=.=.=.= 1 2 2 2 2 1 s s d k T X.X.X.E T T B = = k b b B B B B B B b b B B b b b b b b b b B B b b b b B B b n B B Z B B B B B Z Z B B A S S S S S T T T T T A R R W W W W W W W W W W ) | | | | | } } ",
") ) ) ) ) ) ) ) ) ( W W W W W R R A A A Z Z Z Z A A A Z Z Z Z Z Z Z Z Z Z Z Z Z Z Z Z Z Z Z Z Z Z Z Z Z Z A A A A A A R W W ( { { { { { { { { { { { { { { { { { { { } | #. . . .| | y = = = - - - - - - = : q q q q q q : = - - - - = = = = i T A A T T T T A A T A A A T T T T E ! ^ ^ ^ ^ ^ ^ ^ } } } } } @.$.#.=.t.t.t.=.$.$.$.%.f.f.f.f.t.=.#.$.$.#.#.@.X.X.X.X.X.[ } @.$.$.$.^ ^ E K K K G G G N N N N N N N N N N N N N G G G G G G G G G G K Q Q Q Q N k k s = = & & & & & ; ; ; 1 1 1 1 1 u z z z m z z z z z z z z z z z z z z m F F F J J J J J P I I I I I I I I I I I I I I ~ _ _ ..X.X.&.&.*.*.&.&.&.&.&.*.*.-.=.=.=.=.2.2.2.2.2.2.3.2.=.=.=.=.-.*.2.2.2.2.=.=.J ; ; ; ; ; 4 4 4 4 u y y y y B ;.;.2.2.$.@.@.@.@.@.@.@.X.[ [ [ ^ ^ ^ ^ E ^ ^ ^ ^ T T T T T T T T T T T T E ^ ^ ^ ! ^ ! ^ ^ ! ^ [ [ [ } } @.[ X.^ ^ $.$.#.#.#.$.$.$.$.$.$.$.$.$.=.=.% = 1 2 2 1 1 s s s s Q @.X.Q T T T T 2 = = c b B B b b b b b b B B B B b b b b B B B B B B B B B B B n B B B B B B B B Z Z Z Z A S T T T T T T T T T R R R W W W W W W W W W W ) | | | } ) W W ",
") ) ) ) ) ^ W W W W W W W W R A A A A A A Z Z Z Z Z Z Z Z Z Z Z Z Z Z Z Z Z Z Z Z Z Z Z Z Z Z Z Z Z Z Z Z Z A A A A A A R W W { { { { { { { { { { { { | { { { { { { {  .#.#. . .| | y = = = - - = - = - = = : q q q q q q = - - - - = = = = w B A T T T T T A A T A A A T T T T E ! ^ ^ ^ ^ ^ ^ ^ } } } } } } #.$.$.$.%.$.$.$.$.$.$.$.y.f.y.t.$.$.#.X.X.@.X.X.X.[ ^ ^ ^ ^ ^ ^ ^ E E Q K K G G G G G N N N N m z z m N N N N N F G G N N N F G G G G K Q K Q K k k 6 = = & & & & & = ; ; 1 1 1 1 1 1 z z z z z z z z z z z z z z z z z z N F F F K J J J J I I I I I I I I I I I I I I I Q _ _ _ ..X.X.+.&.*.*.&.&.&.&.&.*.-.=.=.=.=.2.2.2.2.2.2.2.2.-.=.=.=.-.-.=.=.=.=.=.=.J ; ; ; ; ; 4 4 4 4 w y y y y i =.2.2.2.@.@.@.@.@.@.@.X.X.[ [ [ ^ ^ ^ ^ ^ ^ ^ ^ ^ T T T T T T T T T T T T T ^ ^ ^ ! E E ! ! ^ ^ ^ [ ) } } @.@.@.^ ^ @.@.#.#.#.$.$.$.$.$.$.$.$.$.=.=.% % = = 1 2 1 s s s m Q Q T T T T G T u = = = b B B b b b b b b B B B B B B b b B B B B B B B B B B B B B B B B B B B B Z Z Z Z S S T T T T T T T T T R R R W W W W W W W W W W ) } { ) W W W W ",
") ) ) ) ) ) ) ) W W W W W S A A A A A A A A Z Z Z Z Z Z Z Z Z Z Z Z Z Z Z Z Z Z Z Z Z Z Z Z Z n n n n B Z Z Z A A A A A A W W ( { { { { { { { { { %.n.n.{ { { { { { {  .| |  .#.| | w - - - = = = = = = - - - q q q q q q - - - = = - - - - : c T T T T T A A A A A T T T T R R R ! ^ ^ ^ ^ ^ ^ ^ @.@.@.} } } @.$.$.#.#.$.$.$.$.$.$.$.;.t.t.=.$.$.X.X.X.[ ^ ^ ^ ^ ^ ^ ^ E E Q Q K K K G G G G G G G N N N m z z z z z m N N N N N N N N N N G G G G G K K K K B k 1 = & & & & = = = ; 1 1 1 1 1 1 1 6 z z z z z z z z z z z z z m m m F F F F F J J J J K I I I I I I I I I I I I I I I Q _ _ _ ....X.X.X.X.+.+.&.&.&.&.&.-.-.-.-.-.2.2.2.2.2.2.3.3.2.=.-.1.1.-.-.-.-.-.*.*.z ; ; ; ; ; 2 4 4 4 4 4 4 4 4 4 m ;.;.;.@.@.@.@.@.@.@.[ [ [ [ ^ ^ ! ! E E E ^ ^ T T T T T T T T T T T T T T T T T E E E E E ^ [ [ [ [ [ } } } [ [ @.#.#.$.$.$.$.#.#.#.$.$.$.$.$.=.=.% % % = = 2 2 s s s G T T K T K B B T G 2 = = 2 B B B b b B b b b b b b b b B B B b b b b B B B B B B Z B B B B Z B B B Z Z Z Z R T T T T T T T T T S S S R W W W W W W W W W W W W W W W W W W ",
") ) ) ) ) ) ( W W W W W W S A A A A A A A A Z Z Z Z Z Z Z Z Z Z Z Z n n n n C Z Z Z Z Z Z B n n n n n n Z Z Z A A A A A A R W W { { { { { { { { { n.n.k.{ { { { { { { | |  . .#.| | = - - - = = = = = = = = - q q q q q q : - - = = - - - - : y T T T T T T A A A A A T T E R R E R ^ ^ ^ ^ ^ ^ ^ @.} @.} } @.@.@.$.#.#.$.$.$.$.$.$.$.=.t.t.$.$.@.X.X.^ ~ ~ ^ ^ ^ ^ E Q K Q Q Q K K G G G N N N N N N N m z z z z z z z m N N N N N N N N N G G G G G G K K K K k ; = & & & & = = = 1 1 1 1 1 1 1 1 1 k z z z z z z z z z z z z N F F F F F J J J J J J K I I I I I I I I I I I I I I I I ~ _ ~ ......X.X.X.X.X.X.&.&.&.&.*.-.-.-.-.=.2.2.2.3.2.3.3.2.=.1.-.1.1.-.-.-.=.*.*.k ; ; ; ; ; 2 4 4 2 2 1 4 4 4 4 2 *.t.t.@.@.@.@.@.@.[ [ [ [ ^ ^ ^ ^ E E E E ^ E T T T T T T T T T T T T T T T T T T E E ! ! ! ^ } [ [ [ [ [ } [ [ @.#.#.$.$.$.$.#.#.#.$.$.$.$.$.=.=.% % % = = 2 2 s s m T T T K T K b B K 2.N = = = k B B B b B b b b b b b b b B B B B b b b b b B B Z Z Z B B B B Z B B B B Z Z Z Z A A T T T T T T T S S R T ! W W W ! W W W W W W W W W W W W W ",
") ) ) ) ( ( W W W W W W W R A A S A A A A S S Z Z Z Z Z Z Z Z Z Z B n n n n n n B Z Z C n n n n n n n n n Z Z Z A A A A A A W W W { { { { { { { { n.n.t.{ { { { { { { | | | #.#.| | - - - - = = - - = = = = - q q q q q q - - - = = = = - - : y Z T E R T T T T A T T E E E R R R R ^ ^ ^ ^ ^ ^ } } } } } } } } @.$.$.$.$.$.$.$.#.$.#.#.t.w.#.#.[ [ X.^ E ~ ^ ^ ^ ^ Q K K K Q Q K G G G G N N N N N N N z z z z z z z z z z N N N N N N N F G G G G G G K K Q Q b 1 ; & & & = ; 1 1 ; ; ; ; 1 1 1 1 1 6 z m z z z z m z z z N F F F F F F K J J P J K K I I Q Q I I I I I I I I I I Q I I Q ~ ~ _ _ ....X.X.X.X.X.+.&.&.&.*.-.-.-.-.-.-.=.-.2.2.2.2.2.=.=.=.=.=.-.-.=.=.*.&.m ; ; ; ; ; 2 4 - = = = = 4 4 4 4 T t.;.@.@.@.@.@.X.[ [ [ ^ ^ ^ ^ ^ ^ ^ E E ! T T T T T T T T T T T T T T T T T T T ! ^ ! ! ! ! ^ [ [ [ [ [ ^ ^ [ @.#.#.$.$.$.$.$.$.$.$.$.$.$.$.=.=.% = = = - 2 2 s k K T T T T K B b b ^ h.*.= = = ; B B B B b b b B B B B b B B B b b b b b b b b B B Z Z B B B B Z Z B B B B Z Z B B B B Z A A T T S S S T T T T S R A W W W W W W W W W W W W W ",
") ) ) W W W W W W W W W W W W S A A A A A A A Z Z Z Z Z Z Z Z Z Z B n n n n n n n n n n n n n n n n n n n Z Z Z A A A A A A R W W W { { { { { { { n.n.t.{ { { { { { { {  .|  .| | | - - - - = = - - - = = = - q q q q q : - - - = = = - - - w y B R R E T T T T R R E E E E R R R R ^ ^ ^ ^ ^ } } } } } } } } } #.$.$.$.$.$.$.$.#.#.#.$.%.%.#.@.[ [ X.[ ~ ^ ^ ^ ^ ^ K K K K Q Q G G G G G N N N N N N z z z z z z z z z z z z m N N N N N G G G G G G G K Q Q Q m 1 ; ; ; ; 1 1 1 1 ; ; ; ; 1 1 1 1 1 2 z z z z z z m m z m F F F F F F K J J J P J K K K Q Q Q I I I I I I I I I I Q Q Q Q ~ ~ ~ .._ ....X.X.X.X.+.&.&.&.&.-.-.-.-.-.-.=.=.=.=.=.=.=.=.=.=.=.=.-.-.=.=.=.*.m 2 ; ; ; ; 2 4 - = = = = 2 4 4 4 i ;.;.$.@.@.@.@.X.[ [ [ ^ ^ ^ ^ ^ ^ ! ! ! E T T T T T T T T T T T T T T T T T T T E ^ ^ ! E E E ^ [ [ [ [ ^ [ [ [ $.$.$.$.$.$.$.$.$.$.$.$.$.$.=.=.= = = = 1 2 2 k K K T T T T K b B B &.h.j.2 = = = i B B B b b b B B B B b B B B b b b b b b b B B B Z Z Z Z B B Z Z B B B B Z Z B B B B Z Z Z Z Z A S S T T T T S S S R W W W W W W W W W W W W ",
"( W W W W W W W W W W W W W W R A A A A A Z Z Z Z Z Z Z Z Z Z Z Z n n n n n n n n n n n n n n n n n n n n Z Z Z Z A A A A A S W W W W { { { { { { n.n.y.{ { { { { { { { |  . . .| | = = - - - = - - = = = = - q q q q : = = = = - - - - = = w y B R E R T T T T R E E E E E E R R W ^ ^ ^ ^ ^ } } } @.} } } } #.#.#.$.$.#.#.#.#.$.$.$.$.$.$.$.@.[ [ X.X.^ ^ ^ ^ ^ ^ K K K K K K G G G G G N N N N N m z z z z z z z z z z z z z m N N N N G G G G G G K K K K Q t ; 1 1 1 1 1 1 1 1 1 1 ; ; ; 1 1 1 ; ; k m z z z z z z z z F F F F F F J J J J K K K J J I Q Q I I I I I I I I I I I I I I Q ~ ~ _ ...._ ..X.X.+.&.&.*.&.&.&.&.*.*.-.-.=.-.-.-.=.=.-.-.-.-.=.=.-.=.=.=.=.2.m 4 ; ; ; ; 2 4 ; = = = & 2 4 4 4 t 2.2.$.@.@.@.X.[ ^ ^ ^ ! ^ ^ ! E ^ ^ E E E T T T T T T T T T T T T T T T T T E ^ ^ ^ ! ! ! ! E ^ ^ ^ ^ ^ ^ ^ ^ ^ $.$.$.$.$.$.$.$.$.$.$.$.$.$.=.=.= = = = 1 2 2 K K T T T T T B b B B ^ h.h.N = = = - b b B B B B b B B B B B B B b B B B B B B B B B B B Z Z Z B Z Z Z B B B B B B Z B B B B Z Z B B A T T R R S A A A A W W W W W W W W W W W W ",
"W W W W W W W W W W W W W W S S A A A A Z Z Z Z Z Z Z Z Z Z Z Z Z n n n n n n n n n n n n n n n n n n n n Z Z Z Z A A A A A S W W W W W { { ( ( W n.n.%.{ { { { { { { { | |  . .| | - = - - = = - - = = = = - q q q : - = = = = - - - - = = y y B R E E T A T T E E E E E E R R W ^ ^ ^ ^ ^ } } } } @.@.} @.$.$.#.#.#.$.#.#.$.#.$.$.$.$.#.$.$.X.} } X.X.[ X.^ ^ ^ ^ Q K K K K K G G G G G N N N N N z z z z z z z z z z z z z z z m N N N G G G G G G K K K K N 1 1 1 1 1 1 1 1 1 1 1 1 ; ; 1 1 1 1 ; ; u m z z m z z z z z N F F F F F J J J J K K K K J K Q I I I I I I I I I I I I I I I I I Q ~ ~ _ _ _ X.X.+.&.*.&.&.&.&.&.&.&.&.*.*.-.-.-.*.=.=.=.-.-.=.=.=.=.=.=.=.2.m 4 ; ; ; ; 1 4 2 = = = = 4 4 4 4 4 2.;.*.@.@.@.X.[ ^ [ ^ ! ^ ! ! E ^ ^ E E E T T T T T T T T T T T T T T T T T ^ ^ ^ ^ ! ! ! ! E ^ ^ ^ ^ [ [ [ } [ @.$.$.$.$.$.$.$.#.#.$.$.$.$.=.=.= = = = - 2 i T T T T T T T B b B B b g.h.*.= = = = b b B B B B b b B B B B B B B B B B n B B n B B B B Z Z Z Z Z Z B B B B B B Z Z B B B B Z Z B B A T A R S S T T A A T W W W W W W W W W W W ",
"W W W W W W W W W W W W S A A A A A A Z Z Z Z Z Z Z Z Z Z Z Z Z Z n n n n n n n n n n n n n n n n n n n n Z Z Z Z A A A A A A S A S W W W ( W W ( n.n.%.{ { { { { { { { | |  . .#.#.- - - - - - - - - = = - - - : = - - - - = = - - = = = : y y c E E E R R T R E E E E E E E W ^ ^ ^ ^ [ } } } } @.@.@.#.#.$.$.$.$.$.$.$.$.$.$.$.$.$.$.#.#.$.X.} @.X.@.[ } ^ ^ ^ ^ E K K K K G G G G G G N N N N z z z z z z z z z z z z z z z z z m N N G G G G G G K K K K 1 1 1 1 1 1 1 ; ; ; ; 1 1 ; ; 1 1 1 ; ; ; 2 z z z z m z z z z m F F F F F F K J J K J J K J J K I I I I I I I I I I I I I I I I I I I I I ~ _ ..X.+.&.&.&.&.&.&.&.&.&.&.&.&.*.*.-.*.=.*.=.-.-.-.=.=.=.=.=.=.d.K 4 ; ; ; ; 2 4 4 = = & ; 4 4 4 4 4 2.2.=.@.@.@.X.^ [ [ ^ ^ ^ ^ E E ^ ^ ^ E ! ^ ^ E T T T T T T T T T T T T T T E ^ ^ E E E ^ ^ ^ ^ ^ ^ X.X.@.@.} } @.$.#.#.$.$.$.$.#.#.$.$.$.$.=.=.% % = = % 1 N K T T T T T K B B B B B b ^ ~ - = - u b b b b B B b b b b B B B B B B B B Z B B n Z Z B B Z Z B B B B B B B B B B Z Z Z Z B B B Z B n A T T S S S T T R R T R W W W W W W W W W W ",
"W W W W W W W W W W S A A A A A A Z Z Z Z Z Z Z Z Z Z Z Z Z Z Z Z n n v v n n n v v v v v n n n n n n n B Z Z Z Z Z A A A S A A A A R W W W W W %.n.n.{ { { { { { { { { { | |  .#.#.- - - - - - - - - = - - - - = = - - - - - - - - - = = : y y B E E E R R R R R E E E E E ^ ^ ^ ^ ^ ^ } } } @.} } @.$.$.$.$.$.$.$.$.$.$.$.$.$.$.$.$.#.#.#.$.X.@.X.X.X.[ } ^ ^ ^ ^ ~ K K K K G G G G G G F N N N z z z z z z z z z z z z z z z z z z N N G G G G G G K K K 2 1 1 1 1 1 1 ; ; ; ; ; 1 1 ; 1 1 1 1 1 1 ; 1 m z z z z z z z z z N F F F F F F F J K J J K J J J I I I I I I I I I I I I I I I I I I I I I Q _ ..X.X.&.&.&.&.&.&.&.&.&.&.&.&.&.&.*.*.=.-.*.-.-.=.-.-.=.=.=.2.d.K 2 ; ; ; ; 1 4 4 2 = = 2 4 4 4 4 4 @.2.;.@.@.@.@.[ [ [ ^ ^ ^ ^ E E ^ T T E ^ ^ ^ E T T T T T T T T T T T T T T T E ^ E E E ^ ^ ^ ^ ^ ^ [ @.@.@.@.@.^ #.#.#.$.$.$.$.#.#.$.$.$.*.=.^ % = = = % % N K T T T T T G B B B B B B b b B B B B b b b b b b b b b b b b B B B B B B Z B B B n Z Z B Z Z B B B B B B B B B Z Z Z Z Z B B B B n Z A T T S S S T T R R R T W W W W W W W W W W ",
"W W R R W W W W R A A A A A A A Z Z Z Z Z Z Z Z Z Z Z Z Z Z Z Z Z n n v v v v v v v v v v v v v n n n n Z Z Z Z Z Z A A A A A A A A R W W W W W f.n.f.{ { { { { { { { { { #.#.#.| | - - - - = - - = = = - - - - = = - - = = = = - - - - - q y B j.R E E E E R R R R E E ! ^ ^ ^ ^ ^ ^ } } } @.@.@.$.$.$.$.$.$.$.$.$.#.#.#.$.$.$.$.$.$.$.$.$.$.@.} @.X.X.X.^ ^ ^ ^ ^ ~ K K K K G G G G G G G N N N m z z z z z z z z z z z z z z z z z m N G G G G G G K K 4 1 1 1 ; 1 1 1 1 1 1 1 1 1 ; ; ; 1 1 ; ; 1 1 1 z z z z z m m z z z z m F F F F F F J K J J J K K K K I I I I I I I I I I I I I I I I I I Q I I _ ..X.X.&.&.&.&.&.&.&.&.&.&.&.&.&.*.&.*.=.=.=.-.-.-.-.-.1.=.=.2.d.K ; ; ; ; ; ; 4 4 4 1 = = = 1 4 4 4 ^ ;.t.*.@.@.@.[ [ [ ^ ! ^ ^ E E ^ T T E T T T T T T T T T T T T T T T T T T T T E E ^ ^ ! ! E E ^ ^ [ ^ ^ ^ [ [ ^ #.$.$.$.$.#.#.$.$.$.$.$.=.=.^ % % = = = % m K T T T T T B b B b b b b B B B B B B B B B B B B b b B B b b B B Z B B B B B B B B B B B B B B B B B B B B B Z Z Z Z B B B Z Z Z n B A T T T T T T T T T T T R W W W W W W W W W ",
"W W W W W W W S A S A A A A A A Z Z Z Z Z Z Z Z Z Z Z Z Z Z Z Z Z n n v v v v v v v v v v v v v v n n n Z Z Z Z Z Z A Z Z Z A A A A S W W W W { n.n.%.{ { { { { { { { { { #.#.#.| | - - = = = = - = = = - - - - - - - - = = = = - - - - = 2 i F.s.R R E E E R E R R E ! ^ ^ ^ ^ ^ ^ ^ } } } @.@.$.$.$.#.$.$.$.$.$.$.#.#.#.$.$.$.$.$.$.$.#.#.$.@.@.X.X.X.^ ^ ^ ^ ^ ^ E K K K K K G G G G G G N N N m z z z z z z z z z z z z z z z z z m N G G G G G G G m 1 1 1 1 ; 1 1 1 1 1 1 1 1 1 ; ; ; 1 1 ; ; 1 1 1 k z z z z z z z z z z z z N F F F F F K J J J K K K K P I I I I I I I I I I I I I I I I I Q I I _ ..X.X.+.&.&.&.&.&.&.*.*.&.&.&.&.*.*.&.*.=.=.-.-.-.-.1.1.=.=.2.d.J ; ; ; ; ; ; 2 4 4 2 2 ; = = 4 4 u b ^ =.;.@.@.@.@.[ [ ^ E ^ ^ E E ^ E T T T T T T T T T T T T T T T T T T T T T T T ^ ^ ^ ! E E ! ^ ^ ^ } [ ^ [ [ ^ @.$.$.$.$.#.#.$.$.$.$.$.=.=.^ = % = = = % m K T T T T K B b b b b b b B B B b B B B B B B B B b b n B B B B B Z B B B B B B B B B n B B B Z B B B B B B B Z Z Z Z B B B Z Z Z Z B T R T T T T T A T T T T S R W W W W W W W W ",
"W R W W W W W S A S A A A A S S Z Z Z Z Z Z Z Z Z Z Z Z Z Z Z Z C n n v v v v v v v v v v v v v v n n n n n Z Z Z Z Z Z Z Z Z A A A S W W W W | k.w.{ { { } { { { { { { { | #.#.| | = = - = = = - - = = - : w - - - - - - - = = - - = = = : =.G.%.R E E E E R R R R ! ^ ^ ^ ^ ^ ^ ^ } } } } @.$.$.$.#.#.$.$.$.$.$.$.$.$.$.$.$.$.$.$.$.#.#.#.#.@.} } X.X.~ ~ ^ ^ ^ ^ Q K Q Q Q Q Q K K K G G N N N N z z z z z z z z z z z z z z z z z z N N N G G G G G G 4 1 1 ; ; ; 1 ; ; 1 1 1 1 1 1 ; 1 1 1 ; ; 1 1 1 k z z z z z z z z z z z z z N F F F F F K J J K P K K K I I I I I I I I I I I I I I I I I I I I ~ X.X.X.X.+.&.*.*.&.&.*.*.&.&.&.&.&.*.&.&.*.*.-.-.-.-.1.-.-.=.3.h.K ; ; ; ; ; ; ; 4 4 2 2 4 t t 4 w m m m c T @.@.@.@.[ [ ^ ^ ^ ^ ^ ! ^ ^ T T T T T T T T T T T T T T T T T T T T T T T E ^ ^ ! ^ ^ ! ^ ^ ^ ^ } @.[ [ ^ ^ $.$.$.$.$.$.$.$.$.$.$.=.=.N = = = = = = m K K T K T B b b b b b b b B B b b B B B B b b B B B b B Z B B B B B B B B B B B B B B B B Z Z Z Z Z B Z Z B Z Z Z Z Z B B B B Z Z B B R R S S A A A A S S R S S S W W W W W W W W ",
"W W W W W W W W S S A A A A S S Z Z Z Z Z Z Z Z Z Z Z Z Z Z Z Z n n n n v v v v v v v v v v v v v v n n n n n n Z Z Z Z Z Z Z A A S A W W W W ( { { { { { { { { } } { { { { { } { ( = = - = = = - - - - : w w = - - - - - - - = - - = = = B G.G.W R E E E E R R R ! ^ ^ ^ ^ ^ ^ ^ [ } } } } #.$.$.$.#.#.#.#.$.$.$.$.$.$.$.$.$.$.$.$.$.#.#.#.$.#.} } X.^ ~ ~ ^ ^ ^ E K K Q Q Q Q Q Q Q K G G N N N N m z z z z z z z z z z z z z z z z z N N N N N G G G G N 1 1 ; ; ; ; ; ; ; ; 1 1 1 1 ; 1 1 1 ; ; 1 1 1 k z z z z z z z z z z z z z z m F F F F K J J J J J J P I I I I I I I I I I I I I I I I I I Q Q +.X.X.X.X.X.X.+.*.*.&.*.&.&.&.&.&.&.*.&.&.&.&.*.*.-.-.-.-.-.*.a.6.N ; ; ; ; ; ; ; 4 4 4 d B B B 4 s m m u w w w m @.@.@.[ ^ ^ ^ ^ ^ ^ ^ ^ E T T T T T T T T T T T T T T T T T T T T T T E ! ! ! ! ^ ^ ^ ^ ^ ^ ^ @.@.} ^ ^ @.$.$.$.$.$.#.$.$.$.$.$.=.c = = = = = = m T K K K T B b b b B B b b B B B B B B B B n B b B B B B B B B B B Z Z B n B B B B B n B B Z Z Z Z Z Z Z Z B Z Z Z Z Z B B B B Z Z B A R R S S A A A A S R R S S S R W W W W W W W ",
"W W W W R R R R W R S A A A A A Z Z Z Z Z Z Z Z Z Z Z Z Z Z Z Z n n n v v v v v v v v v v v v v v v n n n n n n n Z Z Z Z Z Z A A A A S W W W W { { { { } } } { { { { { { { { { { { = = - - - - - - - : w w 0 = - - - - - - - - = = = = B G.G.t.R E E E E E R R ! ^ ^ ^ ^ ^ ^ ) [ @.@.@.} } $.$.$.$.$.#.$.$.$.$.#.#.$.$.$.#.#.#.$.$.$.#.#.#.#.#.} } [ ^ ^ ^ ^ ^ ^ Q Q Q Q K K K K K K K G G N N N N N z z z z z z z z z z z z z z z z z N N N N N N G G G G s 1 1 1 ; ; ; 1 1 1 ; ; ; 1 1 1 ; ; ; 1 1 1 1 k z z z z z z m z z z m m m z z m F F F F J K J J J J K I I I I I I I I I I I I Q Q Q I I I _ h.V.h.+.X.X.X.X.X.X.+.&.&.&.&.&.&.&.&.&.&.&.&.&.&.&.&.*.=.=.=.=.d.d.N ; ; ; ; ; ; ; 2 2 c B B B c 4 c m i w w w t t K @.@.[ ^ ^ ^ ^ ^ ^ ^ ^ ^ E T T T T T T T T T T T T T T T T T E E E E ! ! ! ^ ^ ^ ^ ^ ^ ^ ^ ^ ^ [ [ [ X.X.$.$.$.@.@.^ ^ #.$.$.$.=.c = = = = = = m T K G N b b b b b B B B B b b b b B n B B B B B b B B B n Z Z Z B Z Z Z Z B B B n Z Z Z Z Z B B B B B Z Z Z Z Z Z Z B B B B B B Z Z A S S S S R R R R R R T R R R R R W W W W W W ",
"W W R W W W R R W W W S A A A A Z Z Z Z Z Z Z Z Z Z Z Z Z Z Z Z n n n v v v v v v v v v v v v v v v n n n n n n n Z Z Z Z Z Z A A A A A S W W W ) { { { { { { { { { { { { { { i i y w = - - - - - - - w w w : = - - - = - - - - = = 2 @.G.G.M.R R E E E E E R ! ^ ^ ^ ^ ^ ^ ) } @.} @.@.} @.$.$.$.$.#.#.$.$.#.$.#.#.$.$.$.#.#.#.$.$.$.#.#.#.#.$.} } X.[ X.^ ^ ^ ^ Q Q Q Q K K K K K Q K G G N N N N N N z z z z z z z z z z z z z z z z N N N N N F G G G G G 4 1 ; ; ; ; 1 1 1 ; ; ; ; 1 1 ; ; 1 1 1 1 1 k z z z z z z m z z z z z z z z z N F F F F F J J J J K I I I I I I I I I I I I Q Q Q I I *.z.V.z.*.X.X.X.X.X.X.X.X.+.&.&.&.&.&.&.&.&.&.&.&.&.&.&.&.*.=.=.=.2.d.d.s ; ; ; ; ; ; - 1 2 w c B B d 4 c c 4 2 1 ; = 2 6 Q @.X.[ ^ ^ ^ ^ ^ ^ ^ ! ^ ^ ^ ^ T T T T T T T T T T T T T ! E E E E E ^ ! ^ ^ E T T E ^ ^ ^ ^ ^ ^ [ } @.#.@.^ ^ ^ ^ ^ #.$.$.$.=.s = = = = = = t B B B b b b m c c m B B B b b b b B B B B B B B B B B n B Z Z Z B Z Z B Z B B Z Z Z Z Z Z Z B B B B B Z Z Z Z Z Z Z Z B B B B B B Z A S S S S T T R T R R T R R R R R W W W W W W ",
"R W R R W W W W W W W W S S A A Z Z Z Z Z Z Z Z Z Z Z Z Z Z Z Z n n n v v v v v v v v v v v v v v v n n n n n n n Z Z Z Z A A A A A A A A S W W ) { { { { { { { { { { { { { { t y y w = - - - - = = 0 w w w - - - - = = = = - = 2 ^ G.G.G.G.^ R E E E E E E ! ^ ^ ^ ^ ^ ) } } } } } } } } } $.$.$.$.#.@.} } } #.#.#.$.$.$.$.$.$.$.$.$.$.#.#.$.$.X.X.X.X.[ ^ E E E K Q Q K K K K K K K K G G F N N N N N m z z z z z z z z z z z z z z z N N N N N G G G G G G N 1 1 ; ; 1 1 1 1 1 ; 1 1 1 1 ; ; 1 1 1 1 1 k z z z z m m z z z z z z z z z z z F F F F F J J K K K I I I I I I I I I I I I I Q Q ..h.z.z.h.*.X.X.X.X.X.X.X.X.X.X.X.&.*.*.&.&.&.&.*.*.*.*.&.&.&.&.=.=.=.2.3.3.s ; ; ; ; ; ; ; = 2 2 m B B c 4 2 % % % % % % = 6 t ^ @.[ ^ ^ ^ ! ! E E ! ! ^ E T T T T T T T T T T T T T T ! ! ! E ^ ^ ^ ^ ^ ^ T T T T T T E ^ ^ ^ } @.[ } } ^ [ [ [ [ @.$.$.$.=.2 = = = = % % 2 B B B b b m c c c c b B B B b b b B B B B n B B B B B B B Z Z B B B B B B B B B B B B Z Z B B B B B B B B Z B Z Z B B B B B B B B Z A T A T T T T T T A A A A T R T W W W W W W W ",
"W W W R W W W W W W W W R S A A Z Z Z Z Z Z Z Z Z Z Z Z Z Z Z Z n n v v v v v v v v v v v v v v v v v n n n n n n Z Z A A A A A A A A A A A R W W { { { { { { { { { { { { { { t y y w = - - = = = = : w w q = - - - = = = = 2 ^ G.G.G.G.G.@.R E E E E E E W ^ ^ ^ ^ ) } } } } } } } } } } } $.$.#.@.} } } } } $.$.$.$.$.$.$.$.$.$.$.$.$.$.$.$.$.X.X.X.X.[ ^ ^ ^ E K Q K K K K K K K K K G G G N N N N N N z z z z z z z z z z z z z z z N N N N F G G G G G G G s 1 ; 1 1 1 1 1 1 1 1 1 1 1 ; ; 1 1 1 1 1 k z z z z z z z z z z z z z z z z z F F F F F J J J K K I I I I I I I I I I I I I ..h.z.z.z.6.+.X.X.X.........X.X.X.X.X.X.&.*.&.&.&.&.-.-.-.-.-.*.*.*.*.=.=.3.3.d.s ; ; ; ; ; ; ; = 2 d B N B b 4 = % % % % % % % 2 t w ^ [ [ ! ^ ! ! E E E E ^ T T T T T T T T T T T T T T T E E ^ ^ ^ ^ ^ ^ ! T T T T T T T T T ^ ^ [ [ [ [ ^ ^ [ @.X.^ ^ $.$.$.=.2 = = = % % % = b B B b m c c c c c m b B B B B b B B B B B B B B B B B Z Z Z B B B B B B B B B B B B Z B B B B B B B B B B B B B B B B B B B B B Z A T T T T T T T T T A A A T T R W W W W W W W ",
"W W W R R W W W W W W W W S A A A Z Z Z Z Z Z Z A A A Z Z Z Z Z n n v v v v v v v v v v v v v v v v v n n n n n n Z Z A A A A A A A A A A A A R W W ) { { { { { { { { } } { { i t t w - = = = = = = - q w w w - = - - = - ^ G.G.G.G.G.F.=.E E E E E R R ^ ^ ^ ^ ^ ) } } } } } } } } } } } } } @.@.@.} } } } @.$.$.$.#.#.#.#.$.$.$.$.$.#.$.$.$.$.X.X.} } } ^ ^ ^ E K K K K K K Q Q K K K K G G N N N N N N N z z z z z z z z z z z z z z N N N N G G G G G G G G G 2 1 1 1 1 ; ; ; 1 1 1 1 1 1 1 1 ; 1 1 1 k z z z z z z z z z z z z z z N N F F F F F K K K J J K Q Q Q I I I I I I I Q o.h.C.C.C.h.*.X.X.X.] ....] ] ] ] X.X.X.X.X.X.&.&.&.&.&.*.=.=.=.=.=.=.=.=.=.=.3.3.3.s ; ; ; ; ; ; ; ; 2 m B B B B c % % % % % % % % = w w u ^ [ ^ ^ ^ ^ ! E E E E T T T T T T T T T T T T T T T T T T T T ^ ^ ^ E T T T T T T T T T E ^ [ [ [ [ } } [ [ } } [ @.$.$.=.2 % % % = = = = b B B m c c c c c c c b B B B b b b b B B Z Z Z Z Z Z B B B Z Z Z B B B B B B B B B B B B B B B B B B B B B B B B B B B B B Z B B B B A T R S R T T T S S S S S S W W W W W W W W ",
"W W W W R R W W W W W W W R S S A A Z Z Z A A S A A A A Z Z Z B n n n v v v v v v v v v v v v v v v v n n n n n n Z Z Z Z Z Z Z Z A A A A A A A R W W W ) { { { { { { { { { { c t t 2 % O O O O = = - - w w w 0 = = - w j.G.G.G.G.F.=.{ E E E E E E R W ^ ^ ^ ^ ^ } } } ^ ^ } } } } } } } } } } @.@.} } } } @.$.$.$.#.$.#.#.$.$.$.$.#.#.$.$.$.$.X.X.} } } ^ ^ ^ ^ E E Q K K K K Q K K K K G G N N N N N N N N z z z z z z z z z z z z z m N N N G G G G G G G G G N 2 1 1 1 1 1 1 1 1 1 1 1 1 1 ; ; 1 1 1 k m m z z z z z z z z z z N F F F F F F F K K J J J J P Q Q Q I I I I I I ~ ~ 6.C.C.h.*.X.X...~ ~ ] ..] ..~ ] ....X.X.X.X.X.+.&.&.&.&.*.-.=.=.-.-.-.-.=.=.=.h.3.d.s ; ; ; ; ; ; ; ; 2 c B B B B m s 2 = % % % % % % = 1 = 2 [ [ ^ ^ ^ ! ^ E E ! T T T T T T T T T T T T T T T T T T T T T T T T T T T T T T T T T T ^ ^ [ [ [ } } [ } } } [ [ #.$.=.2 % % = = = = = c m c c c c c c c c m b B B B b b b b B B Z Z Z Z B Z B B B Z Z Z B B B B Z Z Z Z B B B B B B B B Z Z B Z B B B B B B B B Z Z B B B B B A S S T T T T S S S S T R W W W W W W W W ",
"W W W R W W W W W W R R R R S S A A A A A A A A A A A A Z Z Z B n n n v v v v v v v v v v v v v v v n n n n n n Z Z Z Z Z Z Z Z Z A A A S A A A A R W W W ( { { { { { { { { { A y y % O O O O O O O = - 0 w w q - = - y j.G.G.F.s.{ { ) E T T T R E R ^ ^ ^ ^ ^ ^ } } } ^ ^ } @.@.@.} @.} } } } @.@.} } } } $.$.$.$.$.$.#.$.$.$.$.$.#.$.$.$.#.#.X.[ [ [ X.X.^ ^ ^ ^ ^ ^ E Q K Q K Q Q K K G G F N N N N N N N N m z z z z z z z z z z z z N N N G G G G G G G G G G a 1 1 1 1 1 1 1 1 1 1 1 1 1 ; ; ; 1 1 z m z m z z z z m m z z z F F F F F F J J J J J J J J I Q Q Q I I I I Q ~ ~ ~ ..2.&.X.....~ ~ ~ ~ _ ..~ ~ ~ ~ ......X.X.X.X.X.&.&.&.&.&.=.-.-.-.-.-.-.-.*.2.h.d.d.2 ; ; ; ; ; ; ; ; ; 2 2 d c k s s s s t = % % % % % % % % b [ [ ^ ^ ^ ^ ^ ^ ! ^ ^ ^ ^ ^ E T T T T T T T T T T T T T T T T T T T T T T T T T T T T E ^ [ [ [ X.[ [ [ [ [ [ [ } $.=.2 = = = = = = % d c c c c c c c c m b b b B b b b B B B B B B B B B B B B B B Z Z B B Z Z Z Z Z Z Z Z B B B B Z Z Z Z Z Z Z Z B B B B B Z Z Z Z Z Z Z B B A S S A T T T S T T T W W W W W W W W W ",
"W W W W W W W W W W R R R R R S A A A A A A A A A A A A A Z Z n n n n v v v v v v v v v v v v v v n n n n n n n Z Z Z Z Z Z Z Z A A A A S A A A A A R W W W { { { { { { { { { W y y O O O O O O O O O = - w w q - - w h s.G.l.t.t.{ { W E T B T R R R W ^ ^ ^ ^ ^ ) } } ^ ^ } } @.@.} } } } } } @.@.} } } @.$.$.$.$.$.$.$.$.$.$.$.$.$.$.#.#.#.@.X.[ [ [ X.X.~ ^ ^ ^ ^ ^ ^ ^ E Q K Q K K K G G G N N N N N N N N N m z z z z z z z z z z z m N N G G G G G G G G G G s % & = = ; 1 1 1 1 1 1 1 = = ; ; 1 2 z z z m z z z z z z z z z N F F F F F J K J J J J J J I Q Q Q I I I I ~ ~ ~ ~ ~ ~ ~ ~ ] ] ] ~ ~ ~ ~ ~ ~ ~ ~ ~ ..] ] X.X.X.X.X.+.&.&.&.&.*.-.-.-.-.-.-.*.*.2.h.d.d.; - ; ; ; ; ; ; ; ; 2 2 u s s d m m c s d 1 = = = % % % % = E [ [ [ ^ ^ ^ ^ ! ! ^ ^ ^ ^ ^ E T T T T T T T T T T T T T T T T T T T T T T T T T T T T ^ ^ [ [ X.[ [ [ [ ^ ^ ! ^ #.=.2 = = = = = = = t c c c c c c c c b b b b B b b b B B B B B B B B B B B B B Z Z Z B B B Z Z Z Z Z Z B B B B B B Z Z Z Z Z Z Z B B B B B Z Z Z Z Z Z Z Z B A S S A T T T A T T R W W W W W W W W W ",
"R R W W W R R R W W W R W W W S A A A A A A A A A Z Z Z Z Z Z n n n n n v v v v v v v v v v v v n n n n n n n n Z Z Z Z Z Z Z Z A A A S S S A A A A A W W W { { { { { { { { { { p w O O O O O O O O O * - w w q - w w S t.t.t.t.t.{ ) E T Z Z Z T E E E W ^ ^ ^ ^ ^ ^ ) ^ ^ } } @.@.} } } } @.@.} } } } @.$.#.$.$.#.$.$.#.} } #.$.$.#.$.$.$.$.[ X.X.X.X.X.X.^ ^ ^ ^ ^ ^ ~ ^ ^ E K Q K K K G G G G F N N N N N N N N N m z z z z z z z z z z N N G G G G G G G G G G a % % % % % % % + + = = % % % % % ; 2 z z z z z z z z z z z z z z N F F F F K K K J K K K K I I I I I I I Q ~ ~ ] ] ~ ~ ~ ~ ~ ~ ~ ~ ~ ~ ~ ~ ~ ~ ] ] ] ~ ~ X.X.X.X.X.+.&.&.&.&.*.-.-.-.-.-.-.*.*.3.h.h.h.- - ; ; ; ; ; ; ; ; 2 2 t s m T ^ ^ ^ T d s 2 % % % % % % % 2 ^ ^ [ [ ^ ^ ^ E ^ ^ ^ ^ ^ E E T T T T T T T T T T T T T T T T T T T T E T T T T T T T E ! ^ ^ X.[ ^ ^ E E E E ! ^ =.2 = = = = = = % = c c c c c c c b B B B B B B B B B B B Z Z Z B B B B Z Z B B B B Z Z Z Z B n Z Z Z Z B B B B Z Z Z Z Z B Z Z Z Z Z Z Z Z B B Z Z Z B B Z R R T A S S A S T T R W W W W W W W W W ",
"R W W W W W R R W W W R W W W R A A A A A A A Z Z Z Z Z Z Z Z Z n n n n v v v v v v v v v v v n n n n n n n n n Z Z Z Z Z Z Z A A A A A S S A A A A A W W W { { { { } } } { { { A w O O O O O O O O O * - w w 0 w w w | t.t.t.t.t.{ ^ E A Z Z Z T E E E E ! ^ ^ ^ ^ ^ ^ ^ ^ ^ ^ ^ ^ } } } } @.@.} } } @.$.$.$.$.$.$.$.#.@.} } } $.$.#.#.$.$.$.@.X.X.X.X.X.X.X.^ [ [ ^ ^ ~ ^ ^ ^ Q Q K K K K G G G G G F N N N N N N N N N N m m z z z z z z z N N G G G G G G G G G a + % % % % % % + + = + % % % % % % 6 z z z z z z z z z z z z z z z F F F F K K K J P K K J I I I I I I I I ~ ] ] ] ~ ~ ~ ~ Q Q Q ~ ~ ~ ~ ~ ~ ~ ] ] ~ ..X.X.X.X.X.+.+.&.&.&.&.*.1.-.-.-.-.-.=.*.3.h.6.6.s - ; ; ; ; ; ; ; ; 2 2 2 s T ^ ^ ! ^ ^ T s s 2 % % % % % % % m [ [ [ [ ^ ^ E ! ^ ^ ^ ^ E E T T T T T T T T T T T T T T T T T T T T E ^ T T T T T T T E ! ^ ^ ^ ^ ^ E E E E ! ! $.u = = = = = = % % s c c c c c m b B B B B B B B B B B B B Z Z B B B B B Z B B B B Z Z B B B n n Z Z Z B B B B Z Z Z Z Z B Z Z B Z Z Z Z Z B n n Z B B B A R R T T S S S A T Z v p e i y p R W W W ",
"R R W W W W R W W W W W R R W W R A A A A S S Z Z Z Z Z Z Z Z Z n n n n v v v v v v v v v v v n n n n n n n n n n Z Z Z Z Z A A A A A A S A A A A A R W W W { { { { { { } { { { { w O O O O O O O O O * - w w w w w y t.t.t.t.t.t.{ ! T Z Z Z Z A E R R E R E ! ^ ) ^ ^ ^ ^ ^ ^ ^ ^ ^ ^ } } } } } @.#.$.$.$.$.$.$.$.$.$.@.} } } #.$.$.#.$.$.$.$.$.$.#.@.} } X.[ X.X.X.X.^ ~ ^ ^ E Q K K K Q Q K G G G G G G F N N N N N N N N N z z z z z z z z m G G G G G G G G G 6 % % % + + % % % % % % % % % % % % u z z z z z z z z z m z z m z z z F F F J J K K P J J P I I I I I I I I Q ~ ..] ] ] Q Q Q Q ....~ ] ~ ~ ] ....] ..X.X.X.X.X.+.+.+.&.&.&.&.*.=.=.-.=.-.-.=.=.3.h.6.3.s - ; ; ; ; ; 1 2 2 2 2 2 ^ ^ Q ^ ! ^ ! [ N s s 2 % % % % % % % E [ [ [ ^ ^ E E ^ ^ ^ ! ! T T T T T T T T T T T T T T T T T T T T T T ^ ^ E T T T T T T E ^ ! ! ^ ^ ^ ! ^ ^ ^ ! @.k = % % % = = = = 1 c c c c c b b B B B B B B B B B B B B Z Z Z B B B Z Z Z Z B B B Z B B B B Z A R R Z B B B Z Z Z Z B B B B B B Z Z B B B B Z B B Z Z T T T T T S R A r * * * * * * * * * v W W ",
"W W W W W W W W W W W W W W W W W S A A A A S Z Z Z Z Z Z Z Z Z C n n n n v v v v v v v v v n n n n n n n n n n n n n Z Z A A A A A A A A A A A A S W W W W { { { { { { { { { { { n O O O O O O O O O * - w w w w w v t.t.t.t.t.} ) E T Z Z Z Z A R R E E R R R E ! W ^ ^ ^ ^ ^ ^ ^ ^ ^ ^ } } } } $.#.#.$.$.$.$.$.$.$.$.@.@.} } @.$.#.#.$.$.$.$.$.$.#.@.} } } } X.X.X.X.X.^ ^ ^ ^ Q Q K K K Q Q K K G G G G G G G N N N N N N N m z z z z z z z z m G G G G G G G G 6 % % % + + % % % = % % % % % % % % s z z z z m m z z z m z z z z z z N F F J J K J J J J K I I I I I I I I I Q ...._ Q Q Q Q ~ ........~ ~ ........X.X.X.X.X.X.X.X.+.&.&.&.&.*.=.=.=.=.-.=.=.=.d.h.3.3.u ; 1 2 2 2 2 2 2 2 2 2 N d.=.T ^ ^ ^ $.=.$.s s s 2 % % % % % % 2 [ [ [ [ ^ E E ! ! ^ ^ ! T T T T T T T T T T T T T T T T T E T T T T ^ ^ ^ ^ E T T T T T T E ! ^ ^ ^ ^ ^ ^ ^ ^ X.N % % % % = = = = % t k c c m b b B n B Z B B B B B B B B Z Z Z B B B Z Z Z Z B B B B B B B A S R R A B B B B Z Z Z Z B B B B B B B B B B B B B B B B A T T T T A T n * * * * * * * * * * * * n W ",
"W W W W R R R W W W W W R R W W W W R A A A A A Z Z Z Z Z Z Z Z Z n n n n n v v v v v v v v n n n n n n n n n n n n n n Z Z A A Z Z Z A S A A A S W W W W W { { { { { { { { { { { A O O O O O O O O O = - 0 w w w w W t.t.t.w.{ } ^ T A A A Z Z A E T E R E E E R R R R E ! W ^ ^ ^ ^ ^ ^ ^ } } @.$.$.$.$.$.#.$.$.$.$.#.@.@.@.} } @.$.$.$.$.$.$.#.#.$.@.X.X.X.@.X.X.X.} [ ^ ^ ^ ^ E Q Q Q K K K K K K K G G G G G G F N N N N N N z z z z z z z z z N G G G G G G G 6 % % % + + % % % = % % % % % % % % k z z z z z z z z z z z z z z z z N F F J J J J P J J I I I I I I I I I I I I Q I I I I ~ ~ ~ ~ ~ ~ ] ] ] ] ..X.X.X.X.X.X.X.X.X.X.&.&.&.&.-.-.-.*.*.*.=.=.2.d.d.a.2.2 2 2 2 2 2 2 2 2 2 2 2 =.f.a.! ! ! @.=.=.=.s t s s 1 % % % % % % B [ [ [ [ ^ ^ ! ! ^ ^ ^ T T T T T T T T T T T T T T T T T T ^ ^ ^ E ^ ^ ^ E E ! T T T T T T T ^ ^ ^ ^ ^ ^ ^ ^ ^ ^ = = = % % % = = = = w c c B B n B B B B B B Z Z Z B B B Z A A A A A A A A A A B B B B A T R R R T B B B Z Z Z Z Z B B B Z Z Z Z Z B B B B Z A A A A T T S S S S Z * * * - p v v v h p 0 * * v W ",
"W W W W R R W W W W W W R R W W W W W R A A A A Z Z Z Z Z Z Z Z Z Z n n n n n v v v v v v v n n n n n n n n n n n n n n Z Z Z Z Z Z A A S A A S W W W W W ( { { { } { { { { { { { A O O O O O O O O O = - - q w w w %.t.t.t.#.{ } ! T B A A A Z A E E E R E R E R R R R E E E E E ! W ^ ^ ^ ) } } #.$.$.$.$.$.$.$.$.#.#.$.} @.} } } @.$.$.$.$.$.#.#.$.$.$.$.$.$.@.X.@.} [ [ ^ ^ ^ ^ K Q K K Q K K K K K K K G G G G G N N N N N N z z z z z z z z z z N G G G G G G 3 % % % + + % % % = % % % % % % + + z m z z z z z z z z z z z z z z z F F F J J J J P P K I I I I I I I I I I I I I I I I Q ~ ~ ~ ~ ] ~ ] ] ~ ] ..X.X.X.X.X.X.X.X.X.X.&.&.&.*.-.-.-.*.*.=.=.-.3.d.d.3.X.2 2 2 2 2 2 2 2 2 2 2 2 f.f.d.! ! ! =.=.=.=.N = - s s = % % % % % = ^ [ [ [ [ ^ ^ ! ^ ^ ^ T T T T T T T T T T T T T T T T T T E ^ ^ ^ ^ ^ ^ E E ! ^ ^ E E T T E ^ ^ ^ ^ ^ ^ ^ ^ ^ *.% = = % = = = = % = 2 t c B B B B B B B B B Z Z Z Z T T T R R T T T R R T T T A A A T A T T R R A B B B Z Z Z B B B B B Z Z B Z Z Z B B Z T R R T T T T S S S S T T T T A A Z v v v v v v i v W ",
"R W W W W W W W R R W W W R W W W W W W R S A A A Z Z Z Z Z Z Z Z Z B n n n n n v v v v v v n n n n n n n n n n n n n n Z Z Z Z Z Z A A A A A A R W W W W ( { { { { { { { { { { { A O O O O O O O O O = = - = : w y t.t.t.t.%.{ { E T B A A Z Z A R E E E E R R R R E E E E E E E R E E W ^ ^ } } } #.$.$.$.$.$.#.#.$.$.$.@.} } } } } } @.@.$.$.#.#.#.$.$.#.$.$.#.X.X.X.X.} ^ ^ ^ ^ E Q K K Q K Q Q K K K K G G G G G N N N N N N m z z z z z z z z z m G G G G G G 2 % % % % + % % + % + + % % + + + % z z z z z z z m z z z z m z z z N F F F J J J J K K Q Q I I I I I I I I I I I I I I I ~ ~ ~ ....] ..] ..~ ..X.X.+.+.&.&.&.+.+.+.&.&.&.*.-.-.-.-.=.=.=.-.3.d.a.d.3.X.2 2 2 2 2 2 2 2 2 2 2 t d.d.a.! ! ^ =.=.=.=.m % % 2 s i = % % % % % d [ [ [ [ ^ ^ ^ ^ ^ ^ T T T T T T T T T T T T T T T T T T T E ^ ^ ^ ! ^ E E ^ ^ ^ ^ ^ ^ ! ! E E E E ^ ! ^ ^ ^ =.1 % = = = = % % % = 2 2 c b B B B B B B B Z Z Z Z B A A T T T T T R R R T R R R R R R R T T T T T T T A A A A A A A A T Z B Z Z Z Z B B A T T R T A T T S S T A S A T T T T T A Z v v v v v v R ",
"R W W W W W W W R W W W W W W W W W W W W W S A A A Z Z Z Z Z Z Z Z Z n n n n n n v v v v n n n n n n n n n n n n n Z Z Z Z Z Z Z Z A A A S A A A R W W W { { { { { } { { { } } { A O O O O O O O O O O O = = = : v t.t.t.t.w.{ ) E T B B Z Z Z A R E E E R R R R E E E T T E E R E E E E W ^ ) } } } $.$.$.$.$.$.$.$.#.@.} } } } } } } } } @.@.#.#.#.$.$.#.#.#.$.@.X.X.X.[ ^ ^ ^ ^ E K K K Q Q Q K K K K K G G G G G N N N N N N m z z z z z z z z z z G G G G G G 2 % % % % % % % + + + + % % + + + & z z z z z m m z z z z m m z z z N F F F J J J J K K K Q I I I I I I I I I I I I I I I ~ ] ] ] ........X.X.X.X.X.+.+.&.&.&.&.&.&.&.&.&.*.-.-.-.-.=.=.=.3.d.d.3.3.3.&.2 2 2 2 2 2 2 2 2 2 2 d d.d.a.! ! =.=.=.=.=.s % % % t s 4 % % % % % = ^ [ [ [ [ ^ ^ ^ E T T T T T T T T T T T T T T T T T T T T T T E E ! ! ! ! ^ ^ ^ ^ ^ ^ ! ! E E E E E ! ^ ^ ^ ^ 2 % = = = = % = % = 2 2 t B B B B B B B B B B n B B n A A A A A T R W W W W W W W W W W W W W R R R T T A S T T T T T T A B B Z Z Z B A T T T R S A T T R R T T S T T T k.^.t.T S A Z n v v Z R ",
"R R W W W W W W R R W W W W W W W W W W W W W R A A A Z Z Z Z Z Z Z Z Z n n n n n n v v v n n n n n n n n n n n n n n Z Z Z Z Z Z Z A A A R R S A A W W W { { { { { { { { { { { { A O O O O O O O O O O O O O = w v q.t.t.t.e.{ W E T Z B B B B T E E R E E E E E E E E R R R R R E E E E E ^ ^ [ } } @.#.$.$.$.$.#.} } } @.} } } } } } } } } } @.$.#.#.#.#.$.$.#.#.} [ X.X.[ ^ ^ E ^ Q K K K Q Q Q K K K G G G G G G N N N N N N N z z z z z z z z z z G G G G G G = % % % % % % % % % + + % % + % % 2 z z z z z z m z z z z m m z z z N F F F K K J J J J K K K I I I Q Q Q I I I Q Q I I Q ~ ........X.X.X.X.X.X.X.X.X.&.&.&.&.&.*.*.*.*.&.*.=.=.-.-.1.1.=.d.3.3.3.3.3.C.2 2 2 2 2 2 2 2 2 2 2 u d.d.=.^ ^ =.=.=.=.=.% % % % % i s = % % % % % c [ [ [ [ ^ ^ E T T T T T T T T T T T T T T T T T T T T T T T T E E E ^ ^ ^ ^ ^ ^ ! ! ! ! E E E E ^ ^ ^ ^ E E 2 = = = = = = = = = 1 2 2 m b b B B B B B B B B B B Z B B B B Z B Z A R W W W W W W W W W W W W W W R R T T T T A S R R T Z B B B B B A S S S A S S S S T T T T S S T T W.^.^.q.S S T T T T S R ",
"W R W W R W W W W W W W R R W W W W R W W W W W R S A A A Z Z Z Z Z Z Z Z n n n n n n v v n n n n n n n n n n n n n n n Z Z Z Z Z Z A A S W W W W R W W ( { { { { { { { { { { { { A O O O O O O O O O O O O O = i c B w.%.} { { ! E A Z Z Z B B T E E R E R E E E E E E T A Z R R R E E E E ! ^ ^ } } @.} #.@.@.} } } } @.@.} } } } } } } } } } #.#.#.#.#.$.$.$.#.#.[ [ X.X.[ ^ ^ ~ ^ E Q K K Q Q Q K K K G G G G G G F N N N N N N m z z z z z z z z z G G G G G G = % % % % % % % + + + + % % % % % 6 z z z z z z m z z z z z z z z z N F F F K K J K J J K K K K I I Q I I Q ~ ] ~ ~ Q Q ~ ~ ....X.X.X.X.X.X.X.X.X.X.&.&.&.&.&.&.&.&.&.&.&.*.=.=.=.=.-.1.2.h.3.6.d.3.h.'.2 2 2 2 2 2 2 2 ; = % % $.d.=.^ =.=.=.=.=.m % % % % % - s i = % % % % = [ [ [ [ ^ ^ T T T T T T T T T T T T T T T T T T T T T T T T T T ! ! ! ! ^ ^ ^ ^ E E ^ ^ ! ^ E E ^ ^ ^ ^ E E 2 = = = = % = = = = = 2 2 s b b b b B B B B B B B B B B B B n Z B B Z n Z A T R W W W W W W W W W W W W ! R T T S A A R T A B B B B B T S S S T S S R R T T T T S S T T N.^.^.!.S S T T T T S S ",
"W W W W R R W W W W W W R W W W R R R R W W W W W W W R S A A A A A Z Z Z Z n n n n n n v n n n n n n n n n n n n n n n Z Z Z Z Z Z Z A S W W W W W W W ( { { { { { { { { { { { { A O O O O O O O O O O O O = = c c c - - 2 2 c t A Z Z Z Z Z Z Z A T T T R E E T T T Z Z Z Z T E E R E E E E W ^ [ } @.} } } } } } } } @.@.@.} @.@.@.@.} } } #.$.$.$.$.$.$.$.$.#.#.@.X.X.X.[ ^ ^ ^ ~ ^ E K K K Q Q Q K K K K G G G G G N N N N N N N z z z z z z z z m G G G G G G + + % % % % + + + + + + % % % % % 6 z z z z z z z z z z z z z z z z F F F F J K K K J J J J J J I I I I I ~ ~ ~ ] ] ] ~ ~ ..X.X.X.X.X.X.X.X.X.X.X.&.&.&.&.&.&.&.&.&.&.&.*.-.=.=.=.=.-.-.3.h.d.d.d.h.'.'.4 2 2 2 2 2 = % % % % % B d.c c =.=.=.=.$.1 % % % % % % t s t % % % % % Q [ [ [ ^ E T T T T T T T T T T T T T T T T T T T T T T T T T T T ! E E ^ ^ ^ ^ E E ^ ^ ^ ^ ^ ^ ^ ^ ^ ^ @.=.2 = = = = % = = = = = 2 2 2 b b b b b b b b B B B B B B B B B B B B B B Z B B B B Z A T W W W W W W W W W W W R S S T T T T A B B B A R S S T T T T T T T T S S S S R T t.^.^.^.S R R T T S S S ",
"W W W W R R W W W W W W R R W W W R W ( ) { { { { { { { { ( S A A A A Z Z Z Z n n n n n n n n n n n n n n n n n n n n n Z Z Z Z Z Z A A W W W W W W W W ) { { { { { { { { { { { { A O O O O O O O O O O O O c i c c c i O O O O O O c Z Z Z Z Z Z Z Z Z Z Z Z Z B B Z Z Z Z Z T E E E E E ! ! E ^ ^ } } } } } } } [ } } } } @.} @.@.@.@.} } @.$.$.$.$.$.$.$.$.$.#.#.@.X.X.X.[ ^ ^ ^ ^ ~ ^ Q K K Q Q K K K K Q K G G G G G N N N N N N N z z z z z z m F G G G G G G + + + + % % % + + + + + % % % % % s z z z z z z z z z z z z z z z z F F F F F K K K J J J J J J I I I I I ~ ~ ~ ] ] ] ..X.X.X.X.X.X.X.X.X.X.X.&.&.&.&.&.&.&.&.&.&.&.*.*.-.-.=.=.=.=.-.2.6.h.d.d.h.'.'.'.m 2 2 2 2 2 % % % % % % c =.c c T &.=.=.2 2 % % % % % % = s s 2 % % % % u [ [ [ [ T T T T T T T T T T T T T T T T T T T T T T E ^ E E T T E E E ^ ^ [ [ ^ E ^ ^ ^ [ [ [ [ [ [ [ a.j.d = = = = = = % % % = - 2 2 c b b b b b b b B B B B B B B A T T T ! ! ! R T T A B B B B Z B A T W W W W W W W W W S T T T T R A Z B A R S S T T T T T T R R S S S S R T W W.W.W.S S T T T A S S ",
"W W W R W W W W W W W W W W W ( ) { { { { { { { { { { { { W W R Z A A A Z Z Z Z n n n n n n n n n n n n n n n n n n n n Z Z A A A A A R W W W W R R R R { { { { { { { { { { { { { A O O O O O O O O O O O O c c c c c c = O O O O O O 2 c Z Z Z Z Z B B B Z Z B A A A B B B A T ! ! ! E T T T E ! ^ ) } } } ^ ^ ^ ^ [ @.} } } } } } } } @.@.$.$.#.#.#.$.$.$.$.#.#.#.X.X.X.X.^ ^ ^ ^ ^ ^ ^ E Q K K K K K Q Q K K K G G G G G N N N N N N m z z m N N N G G G G G G G % + % % % + + + + + % % % % % % % 6 m m m m z z m z z z z z z z z m F F F F F K J J K K K J J K Q Q I Q I ~ ~ ~ ........X.X.X.X.X.X.X.X.X.X.&.&.&.&.&.&.*.*.*.*.*.-.=.=.=.=.=.=.=.-.3.3.d.d.h.C.'.'.'.'.m 2 2 2 2 2 % % % % % % c c c c c c c t 2 2 % % % % % % % 4 s d = % % % 1 [ [ [ [ T T T T T T T T T T T T T T T T T T T T T T E ^ ^ ^ ! ! E ^ ^ ^ ^ [ [ ^ ^ ^ X.X.X.^ ^ X.X.X.&.j.j.G % = = = = = = = = = 2 2 2 t B B B n B Z Z B A A T ! ! ! ! ! ! ! ! ! ! ^ ^ ^ ^ ^ ! T B B B B A W W W W W W W W W ! T T T T T R T A S S S S T T T T T A S S S S S S S A T w.e.q.A A A A R R R R ",
"W W W R W W W W W W W W W W ) { { { { { { { { W b w - O O O O O O - v A A A Z Z Z C n n n n n n n n n n n n n n Z Z Z Z Z Z A A A A S W W W W W W W R R ( { { { { { { { { { { { { c O O O O O O O O O O O O t i i y 2 - O O O O O O O O O : c Z Z Z Z Z B B A Z Z Z Z Z B B A A ! ! E A B A T E E ! ^ ^ ^ ^ ! W ^ ^ } @.} } } } } } } } @.$.$.$.#.$.#.#.$.$.$.$.#.#.X.X.X.^ ^ ^ ^ ^ ~ ~ ^ ~ ^ Q K K K K Q Q Q K K K G G G G G G N N N N N N N N N N N G G G G G G G % + % % % + + + % + % % % % + % % % 1 k m m z z m z z z z z z z z N F F F F F J J J K K K J J I Q Q I I I ~ ~ ~ ] ] ....X.X.X.X.X.X.X.X.X.&.&.&.*.*.-.=.-.=.=.*.*.-.=.=.=.=.-.2.3.d.3.d.h.C.'.'.'.'.'.'.m 2 2 2 2 2 ; % % % % % c c c i w 2 2 2 2 2 % % % % % % % = s s 2 % % % % [ [ [ [ E T T T T T T T T T T T T T T E E ! ! ^ ! ! ! ^ ^ ^ ^ E E ^ ^ ^ ^ [ [ ^ ^ [ X.X.[ ^ ^ ^ X.@.j.j.h.1 % = = - 2 ; ; ; 2 2 2 2 2 2 B B Z A T T ! ! ! ! ! ! ! ^ } } | #.#.#.#.#.#.#.#.#.#.#.#.) W W W W W W W W W W W W W R T T T R R T T S S S S T T T T S S A T S S S S S A T | e.e.R A A T R R R S ",
"W W R R W W W W W W W W W { { { { { { { ( i - O O O O O O O O O O O O 2 C A A Z Z Z Z n n n n n n n n n n n c c c c c c c i w 2 - O O O O O O Z W W W W ( { { { { { { { { { { { y O O O O O O O O O O O O O O O O O O O O O O O O O O O O O O t n Z Z Z A A A A Z Z Z Z B B B T R T A Z B B A T R R E W ! E T T T ^ @.@.} } } } } } } } #.$.$.$.$.$.$.$.$.$.$.$.#.$.@.X.} ^ ^ ^ ^ ^ ^ ^ ~ ^ ^ ^ E K Q K Q Q K K K K K G G G G G G N N N N N N N N N N G G G G G G G % % % % % % % % % % % % + + + + % % % % 4 k z z z z z z z z z z z N F F F F K K J J K J J J K Q Q Q I I I ] ~ ~ ~ ] ~ ] X.X.X.X.X.X.X.+.&.&.*.*.-.-.*.*.=.-.=.=.*.*.2.2.3.3.d.d.3.d.h.K.'.'.'.'.'.'.'.'.4 2 2 2 2 2 2 % % % % % c y 4 2 2 2 2 2 2 ; % % % % % % % % t s d % % % % [ [ [ [ ^ E T T T T T T T E E ^ ^ ^ ^ ! ^ ^ ^ ^ ^ E ^ ^ ^ E E E E ^ ^ ^ [ [ X.^ ^ [ [ [ [ ^ ^ X.@.h.x.j.d % % % = % 2 2 2 2 2 2 2 2 2 2 B ! W W W ! ! ^ } } #.#.#.#.#.#.#.#.#.#.#.#.#.#.#.#.#.#.#.#.#.#.} ^ W W W W W W W W W W R S S R R T T T T S R T T S S S S T T T T R R T A T W e.e.{ A T A y - * q ",
"Z W R R R W W W W W W W { { { { { { ( y O O O O O O O O O O O O O O O O O y R W R Z Z Z n c p i w w = = O O O O O O O O O O O O O O O O O O O w W W W W W { { { { { { { { { { t O O O O O O O O O O O O O O O O O O O O O O O O O O O O O O % 1 2 c Z Z Z A A A Z Z Z Z B B B B Z B B Z B B B T E R E E E E Z Z T ^ } } } } @.@.} } } @.$.$.$.$.$.$.$.$.$.$.$.$.$.#.X.X.^ ^ ^ ^ ^ ^ ~ ~ ~ ~ ^ ^ ^ E Q Q Q Q K K K K K K G G G G G G N N N N N N N N N F G G G G G G % % % % % % % % % % % + + + + + % % % % % % 2 k z z z z z z z z z N F F F F K K J P J J J K I Q Q Q I I ~ ] ~ ~ ~ ] ~ ..X.X.X.X.X.X.+.&.&.&.-.-.-.-.*.=.=.-.=.h.oX;XK.d.d.d.d.h.D.`.'.'.'.'.'.'.'.'.'.h.2 2 2 2 2 2 2 % % % % % 2 2 2 2 2 2 2 2 1 % % % % % % % % % 2 s s = % % % K [ [ [ ^ ^ ^ ^ ^ ^ ^ ^ ^ ^ ^ ^ ^ ^ ^ ^ ^ ^ ^ E ^ E ! ^ ^ ^ ^ ^ ^ ^ ^ ^ [ X.X.^ [ [ [ [ [ ^ ^ $.h.x.x.m % % % = = % = 2 2 2 2 2 2 2 2 2 B W ^ } } #.#.#.#.#.#.#.#.#.#.#.#.T T T T T T T #.#.#.#.#.#.#.#.#.#.#.} ) ^ W W W W W W W S S S R T T T T S R T T S S S S T T T T R R A A T T q.e.q.A B = O O O O ",
"O Z W W W W W W W R W ) { { { { ) y O O O O O O O O O O O O O O O O O O O 2 %.%.%.@.c 2 O O O O O O O O O O O O O O O O O O O O O O O O O O O O Z W W W W { { { { { { { { ^ 2 O O O O O O O O O O O O O O O O O O O O O O O O O O O O O O = 1 1 1 1 c Z Z B B B Z Z B B B Z B B Z Z B B B Z Z A E E E E E T Z Z T ^ } } @.@.@.@.@.@.} $.#.$.$.$.$.$.$.$.$.$.$.$.$.@.X.X.^ ^ ~ ~ ~ ~ ~ ^ ^ ~ ~ ~ ^ ^ ^ E K K K K K K K K K G G G G G G N N N N N N N N N G G G G G G + % % % % % % % % % % % + + + % % % + + + + % % < s z z z z z z z F F F F F K K K K J J P I I I I I I Q ~ ~ ~ ~ ] ..~ X.X.X.X.X.X.&.&.&.&.*.-.-.=.=.=.=.-.-.h.;X;X;X;X[.h.h.K.'.'.'.'.'.'.'.'.C.I 2.~ 2 2 2 2 2 2 2 2 = % % % % - 2 2 2 2 2 2 - % % % % % % % % % % % i s 1 % % % K [ [ [ ^ ^ ^ ^ ^ ^ ^ E ! ^ ^ ^ ^ ^ ^ ^ ! ^ ^ ^ ^ ^ ^ ^ ^ [ [ [ [ [ ^ ^ [ X.X.[ [ ^ ^ [ [ ^ [ d.j.h.d = % = = % % = = = 2 2 2 2 2 2 2 i B #.#.#.#.#.#.#.} T m u 2 % o X X     X X X X X X   % 2 k T #.#.#.#.#.#.#.#.#.} ^ W W W W W A T T S S R T T T R R R R T A S S T T T T T T R R W q.%.y O O O O O O ",
"O O Z R W W W W W ( { { { { { A = O O O O O O O O O O O O O O O O O O O O = %.%.%.T = O O O O O O O O O O O O O O O O O O O O O O O O O O O O O = S W W ( { { { { { { { ! - O O O O O O O O O O O O O O O O O O O O O O O O O O O O O O = 1 1 1 1 1 1 c Z B B B Z Z B B B B B B Z Z B Z Z Z A A E E R E E T Z Z T ^ } } @.} @.@.@.@.@.@.} @.#.$.$.#.$.$.$.$.$.$.#.X.X.[ ^ ^ ^ ~ ^ ^ ^ ^ ^ ~ ~ ~ ^ ^ ^ ^ E Q K K K K K K K K K G G G G F N N N N N N N N G G G G G G + % % % + + % % + + % % + % % % % % + + + + % % % % , 7 s s z z m F F F F F F K J J J J I I I I I I Q ~ ~ ~ ~ ~ ~ ..~ X.X.X.X.X.&.&.&.&.&.*.-.-.=.=.*.&.&.1.'.;X;X;X;X;XoX'.'.'.'.'.'.'.h.Q , . . . = 2 2 2 2 2 2 2 2 % % % % % 1 2 2 2 2 2 2 = % % % % % % % % % % % % 1 = % % % ^ [ [ [ [ ^ ^ ^ ^ ^ ^ E E ^ ^ ^ ^ ^ [ ^ ! ^ ^ [ [ [ ^ ^ ^ [ [ [ [ [ [ [ [ X.X.[ [ ^ ^ [ [ ^ K B G 1 = % % = = % % = = = = = = = = = = 2 B c c u 4 = % X X X X X X X X X X       X X X X X         O = i ! #.#.#.#.#.#.#.#.#.) W W W R T T S S R T T T T R T T T T S S T T T T T T R R A p = O O O O O O O ",
"O O O c W W ( ) { { { { { ( w O O O O O O O O O O O O O O O O O O O O O O O = w = O O O O O O O O O O O O O O O O O O O O O O O O O O O O O O O O = c B A W { ( A A A n % O O O O O O O O O O O O O O O O O O O O O O O O O O O O O O ; 1 1 1 1 1 1 1 2 B B B B Z Z Z Z Z Z B B Z Z Z Z Z Z Z T R T T T T T Z Z E ) } } } } } } @.} } } } } } } #.#.#.$.$.$.$.@.E E E Q Q Q Q Q Q Q E ^ ^ ^ E E ^ ^ ^ ^ ^ ^ E Q Q Q K Q K K K K G G G G N N N N N N N N G G G G G G o % % % + + % + + + % % % % % % % % + + % % % % % % + . . . . . o < s j F F F z k z z z x x x x x x N Q ~ ~ ] ~ ....X.X...I I ~ +.&.&.&.&.Q _ Q Q Q U _ _ U I N N J X.6.C.'.'.'.'.5.x $ . . . . . . o ; 2 2 2 2 2 2 2 - % % % ; 2 2 2 2 2 2 2 = % % % % % % % % % % % % % % % % % [ [ [ [ [ [ [ ^ ^ ^ ^ ^ ^ ^ ^ [ [ [ K m k z N Q X.[ [ ^ ^ [ [ [ [ [ [ [ Q K K K K d s 2 1 = = = = = = = = = = % % = = = = % % = = = = %   X X X X X X X   X X X X X X X X X X   X X X X X X     o O O O O 2 ^ #.#.#.#.#.#.#.#.#.) W W ! R S S A A T T R R T T T T S S S R A A T A p : O O O O O O O O O O ",
"O O O : { { { { { { { ) c = O O O O O O O O O O O O O O O O O O O O O O O O O O O O O O O O O O O O O O O O O O O O O O O O O O O O O O O O O O O O O O O O O O O O O O O O O O O O O O O O O O O O O O O O O O O O O O O O O O O O = 1 1 1 1 1 1 1 1 ; + o o o o o o o o o o % % & 4 4 c c Z Z Z Z Z Z B B Z A E } } } } } } } } } } } } } } } } @.#.$.$.Q K z m z z z z z z z m m m m z z z z z m m N N N N N m m m m z z z z k k k k s k N N N N N N N G G G G G o o % % % % % + + + % % % % % % % % % % % % % % % % o . . . . . . . . . . . . . . . . . . . . . . . . . . . . . $ < 5 6 7 7 8 8 8 5 $ . . . . . , , , , , , 7 2 7 u s s s s s < . . . . . . . . . . . . = 2 2 2 2 2 2 2 1 - 2 2 2 2 2 2 2 2 2 2 ; = = = % % % % % % % % % % % % = 1 1 1 u u u b b b E E E E E E E T k s u s d d d = = = = = = = = = = = = = = = = = = = = = = = = = = = = = = = % % = = = = = = = = = = % X X X X X   X X   X X X X X X X X X X     X X X X X X o O O O O O O b ^ #.#.#.#.#.#.#.#.#.W W W W W R A A A T R T T T T T S S S Z c w = O O O O O O O O O O O O O ",
"O O O O 2 ( { { { W i = O O O O O O O O O O O O O O O O O O O O O O O O O O O O O O O O O O O O O O O O O O O O O O O O O O O O O O O O O O O O O O O O O O O O O O O O O O O O O O O O O O O O O O O O O O O O O O O O O O O O O O = 1 ; 1 1 1 1 1 = o o o o o o o o o o o o o o o o o o o o o % % 4 4 c c Z Z T } } } } } } } K G B G K K k u 6 % + o o o o o o o o o o o o o o % % % o o o o o o o o o o o o o o o o o o o o o o o o o o o o o o o o o < s N G 6 o o o + + % + % % % + + + + + + % % % % % % % % % + . . . . . . . . . . . . . . . . . . . . . . . . . . . . . . . . . . . . . . . . . . . . . . . . . . . . . . . . . . . . o . . . . . . . . . . . . . o ; 2 2 2 2 2 2 2 2 2 2 2 2 2 2 2 2 2 2 2 2 2 2 2 2 2 = % % % % % % % % ; 1 1 1 1 1 1 1 1 1 1 1 1 1 1 1 1 1 1 1 1 1 1 < = % % % = = = = % % = = = = = = = % % % % % = = = = = = = = = = = = = = = = = = = = = = = % % O + o X X X X X X X X X X X X X X X X X X X X X O O O O O O O O i B n W } #.#.#.#.#.#.) Z v y y w p v v v v v v y w w = = O O O O O O O O O O O O O O O O O O ",
"O O O O O O O - O O O O O O O O O O O O O O O O O O O O O O O O O O O O O O O O O O O O O O O O O O O O O O O O O O O O O O O O O O O O O O O O O O O O O O O O O O O O O O O O O O O O O O O O O O O O O O O O O O O O O O O O O O O O % ; 1 1 1 1 + o o o o o o o o o o o o o o o o o o o o o o o o o o o o o o o o o o o o o o o o o o o o o o o o o o o o o o o o o o o o o o o o o o o o o o o o o o o o o o o o o o o o o o o o o o o o o o o o o o o o o o o o o o o % & < < < & % + + % + + % % % % % % % % % o . . . . . . . . . . . . . . . . . . . . . . . . . . . . . . . . . . . . . . . . . . . . . . . . . . . . . . . . . . . . o o . . . . . . . . . . o o . o 1 2 2 2 2 2 2 2 2 2 2 2 2 2 2 2 2 2 2 2 2 2 2 2 2 2 = % % % % % % % = 1 1 1 1 1 1 1 1 1 1 1 1 1 1 1 1 1 1 1 = = % = % % = = = = = = = % = = = = = = = = % % = % = = = = = = = % = = = = = = 2 w 4 2 = = = = = = = = = = = = = = = = = % % & = % X X X X X X X X X X O O O O O O O * c B B B B B c d w w = O O O O O O O O O O O O O O O O O O O O O O O O O O O O O O O O O O O ",
"O O O O O O O O O O O O O O O O O O O O O ; w w w w w w w w w 2 O O O O O O O O O O O O O O O O O O O O O O O # O O O O O O O O O O O O O O O O O O O O O O O O O O O O O O O O O O O O O O O O O O O O O O O O O O O = 1 = = = = O O O O # 1 1 1 ; + o o o o o o o o o o o o o o o o o o o o o o o o o o o o o o o o o o o o o o o o o o o o o o o o o o o o o o o o o o o o o o o o o o o o o o o o o o o o o o o o o o o o o o o o o o o o o o o o o o o o o o o o o o & 3 3 3 3 6 6 5 5 < & % + + % + + + + % % % % + o . . . . . . . . . . . . . + + + + + + . . . . . . . . . . . . . . . . . . . . . . . . . . . . . . . . . . . . . . . o o . . . . . . . . . . o o o o + 2 2 2 2 2 2 2 2 2 2 2 2 2 2 2 2 2 2 2 2 2 2 2 2 = % % % % % % % % % 1 1 1 1 1 1 1 1 1 1 1 1 1 1 1 1 1 1 1 = = = = = = = = = = = = % % = = = = = = = = = = = = - 1 2 2 2 2 2 2 = % % % = 2 4 4 2 4 2 1 = = = = = = = = = = = = = = = = = 2 2 2 4 1 + X X X X X X X X X o O O O O O O - : : : * O O O O O O O O O O O O O O O O O O O O O O O O O O O O O O O O O O O O O O O O ",
"O O O O O O O O O O O O O O O O O O i %.w.w.w.w.w.w.w.w.w.w.w.w.w.w.w.} } n c w = O O O O O O O O O O O O O ; 2 T T T T m m c t 1 = O O O O O O O O % = 1 1 2 2 2 6 6 6 6 6 6 6 2 2 2 2 2 2 1 1 1 1 1 1 1 1 2 2 2 6 6 6 6 6 1 1 1 1 = % O = 1 1 1 ; & o o o + + % % % & & & & & & % + % % % + o o o o o o o o o o o o o o o o o o o o o o o o o o o o o o o o o o o o o o o o o o o o o o o o o o o o o o o o o o o o o o o o o o o o o o o o o o o o o o o o o o o o o < 3 5 5 3 3 6 6 7 7 7 7 s s 6 & + + + + % % & & % % % % + + % % , < < < < 6 s j x D D D x x F H H L U ..` D + . . . . . . . . . . . . . . . . . . . . % . . . . . . . . o , < 7 k x I I I I I I k , o o . % 2 2 2 2 2 2 2 2 2 2 2 2 2 2 2 2 2 2 2 2 2 = % % % % % % % % % % % % 1 1 1 1 1 1 1 1 1 1 1 1 1 1 1 1 1 1 ; = = = = = = = = = = = % % % % = = = = = - 4 w 2 2 4 4 4 4 2 2 2 2 2 2 - - 2 2 2 4 4 2 2 2 2 = = = = = 2 4 2 1 = = = = = = = 1 2 2 4 4 4 2 + X X X X X X X X X O O * - = O O O O O O O O O O O O O O O O O O O O O O O O O O O O O O O O O O O O O O O O O O O O O ",
"= 0 q : % O O O O O O O O O O O 2 #.w.w.w.w.w.w.w.w.w.w.w.w.w.w.w.w.w.w.q.q.q.%.%.%.} } } O O O O O O O % 2 2 k T T T T K K T T T ^ Q 4 O O O O % 6 6 6 6 6 6 6 6 6 6 6 6 6 6 6 6 6 6 6 6 6 6 6 6 6 6 6 6 6 6 6 6 6 6 6 6 6 4 1 1 1 1 1 ; 1 1 1 1 1 1 1 < < < < 1 1 1 ; ; ; ; ; < < < < ; ; ; ; ; ; 1 ; < & & & + o o o o o o o o o o o o o o o o o + 5 5 5 5 5 3 3 5 5 < , , , , , , , , , , , , , % o o o o o o o o o o o o o o o o o o o o o o o o o o , , < 6 s z F F F D x D F F F F F F F F F D D 6 < < 2 3 < < < < < 3 < < < < < < < 6 x F H H H L H H H H H H H H H H _ ....U . o $ $ o . . . , 3 F F z z N N N N N N N N N N N N N ................................_ 6 . o 1 2 2 2 2 2 2 2 2 2 2 2 2 2 2 2 2 2 2 = % % % % % - d G E @.Q N t 1 1 1 1 1 1 1 1 1 1 1 1 1 1 1 1 1 1 1 1 ; = = = = = = ; ; ; = = = = = = = = t u i i i i i u t t w 4 4 4 4 2 2 4 w 4 4 4 4 4 4 w 2 2 2 ; - 2 2 4 4 4 4 2 = = = % % = = 2 2 4 4 4 4 4 2 + X X X X X X X O O - - - - = O O O O O O O O O O O O O O O O O O O O O O O O O O O O O O O O O O O O O O O O O O O ",
"w w w w w = O O O O O O O O = Z w.w.w.w.w.w.w.w.w.w.w.w.w.w.w.w.%.%.%.%.%.%.%.%.%.} } } } O O O O O O % 2 2 2 i T T K K K K K T T E ^ ^ G # O O 2 6 6 6 6 6 6 6 6 6 6 6 6 6 6 6 6 6 6 6 6 6 6 6 6 6 6 6 6 6 6 6 6 6 6 6 u s k u 1 1 1 1 ; ; 1 1 1 1 1 ; < < 1 1 1 1 1 1 ; ; ; ; < < 2 4 4 u u u k k k k k u 6 2 1 & % + o o o o o o o + % & 1 u u z 2.2.2.2.2.2.2.2.2.~ J J J J J J J J J J x x x x x x x x x x x x x j j s 9 9 9 9 9 9 9 9 9 9 9 6 s l z F F F F F F F F F F F F F F F F F F F F D D D j < 2 2 3 < < < < 3 3 < < < < < < s H H F F H H L H H F H H H H H H H P ......< + $ $ $ . s I I _ +.1.6.6.&.~ I F F N N N N N N N N J ..................................Q u 2 2 2 2 2 2 2 2 2 2 2 2 2 2 2 2 2 2 = % % % % N a.a.;.;.;.;.;.;.;.@.s 1 1 1 1 1 1 1 1 1 1 1 1 1 1 1 1 1 1 1 1 = = = 1 1 1 1 1 1 1 = = = s N B B B b b b m d i i i i i i i i i t u t i i w 4 4 4 w w 2 2 4 4 4 4 4 4 4 4 w = = = % % = = = = % = 1 2 2 2 = O % = % O O X O = - - - - - - = O O O O O O O O O : w f v i y y w q q - = = O O O O O O O O O O O O O O O O O O O ",
"w w w w w w = d T.J.c O w Z w.w.w.w.w.w.w.w.w.w.w.w.w.w.w.%.%.%.%.%.%.%.%.%.#.} } } } } } 2 O O O O O 1 2 2 2 u k T T K K T T T T T ^ ^ ^ K = 1 6 6 6 6 6 6 6 6 6 6 6 s z m F F F F N d d u 6 6 6 6 6 6 k k m Q ~ _ ~ ~ ~ ~ E E u ; 1 1 ; ; 1 1 1 1 ; ; ; 1 1 1 1 1 1 1 ; ; ; u z z z z z z z z z z z z z z z z z k 1 1 1 1 < 1 < < < < ; ; 2 u u ~ 2.2.2.2.2.2.2.2.2.P J J ~ +.+.J j 9 9 9 9 9 9 9 9 9 9 9 9 9 9 9 9 9 9 9 9 9 9 9 9 9 9 9 9 9 9 9 9 9 9 9 s k x J H H F F F F F F F F F F F F F F F F F 3 2 2 < < < < < < < < < < < < 9 H H H F F H H L L F F F F H ..S.@X..L ......, $ $ $ $ + L J P P P +.2.V.V.V.V.V.h.h.C.h.*.o.J F N N N F Q Q I I I Q +.*.&.................F 2 2 2 2 2 2 2 2 2 2 2 2 2 2 2 2 2 = % % Q K.G.C.C.C.d.;.;.;.;.;.;.;.Q 1 1 1 1 1 1 1 1 1 1 1 1 1 1 1 1 1 1 1 1 1 1 1 1 1 1 1 1 1 2 N E E E K B K K K K K K B m d i d d i i i c B E ^ ^ ^ ^ ^ E Q T m b m i i i w 4 4 4 4 = = % % % = = = = % % % = = = = 2 w w w w w w w 2 2 : - - - - - = O = 2 w c b T W W W W W A p p p p p p p p p p p y O O O O O O O O O O * : y e y ",
"w w w w w w y T.Q.Q.T.y.w.w.w.w.w.w.w.w.w.w.w.w.w.w.w.%.%.%.%.%.%.%.%.%.%.} } } } } } } } d O O O O = 2 2 2 2 u u k T T T T T K T T Q ^ ^ ^ E 6 6 6 6 6 6 6 6 6 6 d *.2.<.&.X.X.X.X.X.X.X.X.X...~ &.*.*.*.2.2.2.2.2.2.2.2.2.2.2.2.2.*.&...] N s s s s s s s s 2 1 1 1 1 1 ; 2 s z z z z z z z z z z z ~ *.C.oX;X%Xd.2.2.d.d.3.6 < < < < ; ; 1 u u 1.2.2.2.2.2.2.2.2.2.1.&.6.3X0X9X-X`.S.5.6.*.+...L x x x z j 9 9 9 9 9 9 9 9 9 9 9 z z x x x x x x I I _ U _ I P P P P P P P J F F F F F F F F F F F F F 9 2 2 < < < < < < < < < < < < F H H H F P I I I I I Q +.V.K.;X<X{.H L ......$ $ $ $ $ $ J J P P P +.1.6.V.V.V.V.V.;X0X0X0X0X0X9X'.'.C.C.h.h.h.h.h.h.h.h.h.h.................k 2 2 2 2 2 2 2 2 2 2 2 2 2 2 2 2 2 P }.@X>X@XC.C.C.C.;.;.;.;.;.;.;.;.E 1 1 1 1 1 1 1 1 1 1 1 1 1 1 1 1 1 1 1 1 1 1 1 1 1 2 k K E E E E E E K K K K K K K K K K b m c c c B ^ ^ ^ E ^ ^ ^ ^ ^ ^ ^ ^ ^ ^ ^ ^ E E T B B B K ^ ^ @.$.$.$.$.^ T B t = = = = w w w w w t w w w w w - - - - - 2 E W W W } %.#.{ R Z n c p p p p p p p p p p p p q O O O O O O O O * e i i i y y ",
"w w w w w w #.Q.Q.Q.Q.B.w.w.w.w.w.q.%.%.%.%.w.w.w.%.%.%.%.%.%.%.%.%.%.%.%.} } } } } } } } E O O O % 2 2 2 2 2 u u u K ~ Q T T K Q Q Q Q ^ ^ ^ d 6 6 6 6 6 6 6 6 G a.3.$.~ ~ ~ X.X.X.X.X.X.X.X.X.X...X.X.X.X.X.X.X.X.X.+.&.*.*.*.*.2.2.2.3.d.d.d.d.d.d.d.d.h.C.C.C.C.v.v...K z z z z z Q ~ ~ 3.h..X%X:X:X:X:X:X:XC.d.d.d.d.d.2.u 1 ; 1 ; 1 1 ; 7 z 2.2.2.2.2.1.*.*.2.2.2.-.*.*.`.0X0X0X0X0X0X0X0X0XS.,.,.,.,.,.,.5.6.6.6.6.6.6.6.4.4.4.6.7.7.4.1.,.1.,.,.,.,.,.>.I P P P I I I P L F F F F F F F F F F F F F < < < < < < < < < < < < < 6 H P ..,.4.4.4.4.4.4.4.V.`.`.oX<X<XI H I ......$ $ $ $ % > P P P P P +.1.1.2.h.V.V.V.V.C.;X0X0X0X0X0X0X0X0X0X0X3X:X$X'.'.C.C.h.h.................2 2 2 = & 1 2 2 2 1 = % % % % u ).>X>X>X>XoXC.C.C.C.;.;.;.;.;.;.;.;.;.E 1 1 1 1 1 1 1 1 1 1 1 1 1 6 s s u u u s G G ^ X.*.@.^ ^ E E E ~ ^ Q K G G G G K B V V K K K B B Q ^ E E ^ ^ ^ ^ ^ ^ E E ^ ^ ^ ^ ^ E K B B B B B B G G G B B B B B B B = = = 2 w w w t t t t t w 2 - - - - - - - d E %.y.k.k.k.k.k.f.t.{ W C v i i p p p p p p p q O O O O O O O - e y y e e e y ",
"w w w w w w T.Q.T.Q.T.w.w.w.w.q.%.%.%.%.%.%.%.%.%.%.%.%.%.%.%.%.%.%.%.%.%.%.} } } } } } } } = O O & 2 2 2 2 2 u u u u ~ ^ E T T Q Q Q ^ ^ ^ ^ Q 6 6 6 6 6 6 6 F a.3...~ ~ ~ ~ ~ ..X.X.X.X.X.X.X.....X.X.X.X.X.X.X.X.X.X.*.*.*.*.*.2.2.2.2.d.d.d.d.d.d.d.d.K.'.'.'.'.`.`.'.'.'.'.'.$X:X:X:X:X:X:X:X:X:X:X:X:X;XH.d.d.d.d.d.d.< % 1 ; ; ; 1 1 1 4 ~ 2.2.2.1.*.*.*.*.*.2.2.*.*.*.*.6.<X0X0XwX3X<X-X-X}.{.{.{.{.{.{.{.{.{.{.{.{.{.{.A.A.A.A.A.Z.A.1.1.1.,.,.,.,.,.,._ P I P I I P P P P J H F F F F F F F J P P s < < < < < < < < < < < < l ,.4.4.4.4.4.4.4.4.4.6.I.`.{.<X<X,.H H I ......$ $ $ % > > P P P P x s ..1.1.1.6.z.V.V.V.v.K.3X0X0X0X0X0X0X0X0X0X0X0X0X0X0X0X0X0X0XoXh...........N 2 = $ + + $ % % % % + $ + % 4.>X>X>X>X@XF.C.C.C.j.;.;.;.;.;.;.;.;.;.=.^ ^ ^ ^ j.'.'.'.'.'.'.'.a.*.*.*.*.*.*.*.*.*.*.*.*.' ^ ^ E E E E ^ ^ K K G G K K B B K K K K B B E ^ ^ E ^ ^ ^ ^ ^ ^ ^ ^ ^ ^ ^ ^ ^ T B K K T T K B G G G B B B B B B B 1 = = w w w w t t t t w w : - - - - - - - - v A A A R } %.y.k.k.k.f.k.f.f.k.k.k.k.y.W W R y O O O O O O = y y y y e e e e ",
"w w w w w E T.T.T.T.t.w.w.w.w.%.%.%.%.%.%.%.%.%.%.%.%.%.%.%.%.%.%.%.%.%.%.%.%.} } } } } } } d O O % 1 2 2 2 2 6 u u u m ^ ^ Q T T T Q ^ ^ ^ ^ ^ u 6 6 6 6 6 d 3.3...~ ~ ~ ~ ~ ~ ~ ~ ] ..X.X.X.X...X.X.X.X.X.X.X.X.X.X.*.*.*.*.*.*.2.2.2.2.3.d.d.d.d.d.d.d.I.'.'.C.d.d.d.d.d.h.b.b.d.d.v.C.U.%X:X:X:X:X:X:XoXh.d.d.d.d.d.d.x o % 1 1 ; ; 1 1 1 1 1.2.2.-.*.*.*.*.*.*.2.*.*.*.*.*.+.P P ..+.1.z.Z.Z.Z.].{.{.{.{.{.{.{.{.Z.D.D.D.D.6.V.A.A.A.Z.A.1.>.+.+.+.o....._ I I P P I I I I P I I I P P L F F F L I P P P 5 < < < < < < < < < < 5 >.4.4.4.4.4.4.4.4.4.4.C.I.'.<X<XS.H H H ` ......, $ $ > > > P P P J s s s _ 1.+.I _ h.z.z.C.v.b.K.3X0X0X0X0X0X0X0X0X0X0X0X0X0X0X0X0X0X0X4XK.o....._ 2 & $ + + $ $ % % $ $ % ` @X>X>X>X>X@XK.C.C.C.C.j.;.;.2.2.;.;.;.;.2.;.=.^ ^ ^ j.'.'.'.'.'.Z.H.@.@.@.@.*.*.*.*.*.*.*.*.*.^ ^ ^ E E ~ ~ ^ ~ Q K V V V V B B K V K K K K ^ ^ E E ^ ^ ^ ^ ^ ^ ^ ^ ^ ^ [ [ [ [ ^ ^ ^ ^ ^ E E T G G B B B B G G B 2 = - t t w w w w w w w 2 - - - - - - - - 2 v A A A A A A A A R ) %.t.k.k.k.k.k.k.%.( ( ( v = O O O O = v v i y i y e i i ",
"w w w w i J.Q.Q.T.y.w.w.w.w.w.w.%.%.%.%.%.%.%.%.%.%.%.%.%.%.%.%.%.%.%.%.%.%.%.| } } } } } } ) O O % & 2 2 2 2 2 u u u u Q ^ ^ T T T E ^ ^ ^ ^ ^ m 6 6 6 6 6 *.3.X.~ ~ ~ ~ ~ ~ ~ ~ ~ ~ ~ ~ ~ ] ] ....X.X.X.X.X.X.X.X.*.*.*.*.*.*.*.2.2.2.2.3.d.d.d.d.d.d.d.C.{.{.[.C.d.d.d.d.d.d.d.d.d.d.d.d.d.h.'.:X:X%Xb.d.d.d.d.3.d.d.o.o o % 1 1 ; ; 1 1 1 k 2.2.*.*.*.*.*.*.*.*.*.*.*.*.*.*...P P P P P P P P P P P P P P P P P P P P P P P P P P P P I ~ ~ ~ ~ ~ ~ _ _ _ _ I I I P I I I I I I I I P P P P P L I I P P P z < < < < < < < < < < _ 4.4.4.4.4.4.4.4.4.4.4.D.`.<X<X<XP H H H ` ......9 $ $ > , > P P P s s s s s I P P P _ h.V.C.C.b.b.z.'.0X0X0X0X0X0X0X0X0X0X0X0X0X0X0X0X0X0X0X4X6.....t % $ $ + $ $ $ > L x.@X>X>X>X>X@X'.C.C.C.C.C.C.j.;.;.;.;.;.;.;.;.2.2.2.=.^ ^ X.L.'.'.'.@.^ ^ ^ ^ ^ ^ ^ @.*.*.*.*.*.*.&.E E E E E ~ ^ ^ ~ ~ K V V V V B B B K K K K T ^ ^ ^ ^ ^ ^ ^ ^ ^ ^ [ [ [ [ [ [ [ [ [ [ [ [ ^ ^ ^ ^ ^ T T K B B G G B 2 = 2 t w w w w w w w w - - - - - - - - - y v Z A A A A A A A A A A A A R W } | t.( ( W ( Z i : * O O R t.y.) i y y i i i ",
"w w w w | Q.Q.T.y.w.w.w.w.w.w.w.w.%.%.%.%.%.%.%.%.%.%.%.%.%.%.%.%.%.%.%.%.%.%.%.| } } } } } } 2 O % % ; 2 2 2 2 u u u u i ^ ^ E K K E ^ ^ ^ ^ Q m 6 6 6 6 P pXpX3.~ ~ ~ ~ ~ ~ ~ ~ ~ ~ ~ ~ ~ ~ ~ ~ ] X.X.X.X.X.X.X.&.*.*.*.*.*.*.*.2.2.2.2.d.d.d.d.d.d.d.d.d.;X;X;X;Xb.d.d.d.d.d.d.d.d.d.d.d.d.d.d.v.K.d.d.d.d.2.*.*.*.d.< o o % 1 1 1 1 1 1 1 X.2.-.*.*.*.*.*.*.*.*.*.*.*.*.*.+.P P P P P P P P P P P P P P P P P P P P P P P P P P P P I ~ ~ ~ ~ ~ ~ ~ ~ ~ _ _ I I I I I I I I I I I I P P P P I I I I I I I I s < < < < < < < < D 4.4.4.4.4.1.1.*.1.4.4.4.V.>X<X<XV.H H L ` ........l $ $ > , > J P H s s s k J P P P P P ..V.V.V.V.v.V.V.V.oX0X0X0X0X0X0X0X0X0X0X0X0X0X0X0X0X0X0X0XC._ < $ $ $ $ $ % 4.>X@X@X@X@X@X).C.C.C.C.C.C.C.C.C.j.;.;.;.;.;.;.;.;.;.;.;.;.=.[ ^ ^ C.'.H.^ ^ ^ ^ ^ ^ ^ ^ ^ [ *.*.*.*.*.X.E E E E ~ ^ ^ E E E K V K K G K K K K B K T ^ ^ ^ [ [ [ [ [ [ ^ ^ [ [ [ [ [ [ [ [ [ [ [ [ ^ ^ ^ ^ ^ ^ ^ ^ E Q T K B 2 2 w t t w w w w w w w - - - - - - - - : c v v R A A A A A A A A A A A A A A A A ( ( ( ( ( n p p p Z y.y.y.y.Z e e e i i ",
"w w w A Q.Q.Q.f.w.w.w.w.w.w.w.w.w.w.%.%.%.%.%.%.%.%.%.%.%.%.%.%.%.%.%.%.%.%.%.%.%.} } } } } } E O % % % < 2 2 2 4 u u u u B ^ ^ K T ^ ^ ^ ^ ^ G m t 6 6 6 >XpXpXX.~ ~ ~ ~ ~ ~ ~ ~ ~ ~ ~ ~ ~ ~ ~ ~ ..X.X.X.X.X.X.X.&.*.*.*.*.*.*.-.2.2.2.d.d.d.d.d.d.d.d.d.d.$X;X;X;X;Xb.d.d.d.d.d.d.d.d.d.d.d.d.d.d.d.d.d.3.*.*.*.*.*.X.o o o + 1 1 1 1 1 1 6 2.2.*.*.*.*.*.*.*.*.*.*.*.*.*.*.~ P P P P P P P P P P P P P P P P P P P P P P P P P P I ~ ~ ~ ~ ~ _ ~ _ _ ~ ~ _ _ I I I I I I I P I I I I P P P P I I I I I I I I P 6 < < < < < < s 4.4.4.4.1.,.+.+.+.+.1.4.4.z.<X<X<X..H P ..........` l % $ > , > L P j s l F P P P J P P P P <.V.V.V.v.h.v.V.V.C.;X0X0X0X0X0X0X0X0X0X0X0X0X0X0X0X0X0X3X< $ $ $ $ $ 3 @X>X>X@X@X@X/.*.=.*.=.b.C.C.C.C.C.C.C.j.a.;.;.;.;.;.;.;.;.;.;.;.;.@.^ ^ 2.H.^ ^ ^ ^ ^ ^ ^ ^ ^ E E ^ *.*.*.&.^ E E E E ^ ^ E E E Q V V K K K K K K T ^ ^ ^ ^ [ ^ ^ [ [ [ [ ^ ^ ^ [ [ [ [ [ [ @.@.@.} [ ^ ^ ^ ^ ^ ^ ^ ^ ^ ^ ^ ^ E t w w t w w w w w w w 4 - - - : 2 2 2 : y v v n ) A A A A A A A A A A A A A A A A ( ( ( ( ( ( ( ( | y.y.y.y.y.q.p e e i i ",
"w w C T.Q.Q.k.w.w.w.w.w.w.w.w.w.w.w.q.%.%.%.%.%.%.%.%.%.%.%.%.%.%.%.%.q.q.w.w.w.%.| } } } } } } 2 O % % & 2 2 2 2 u u u u y ^ ^ E E ^ ^ ^ ^ ^ N m u 6 6 F pXpXpX~ ~ ~ ~ ~ ~ ~ ~ ~ ~ ~ ~ ~ ~ ~ ~ ~ ..X.X.X.X.X.X.X.&.*.*.*.*.*.*.2.2.2.d.d.d.d.d.d.d.d.d.d.d.L.;X;X;X;X;XC.d.d.d.d.d.d.d.d.d.d.d.d.d.d.d.2.*.*.*.*.*.*._ o o o o ; ; 1 ; < 1 I 2.*.+.&.*.*.*.*.*.*.*.*.*.*.*.X.P P P P P P P P P P P P P P P P P P P P P P P P P P I _ ~ ~ ~ _ ~ _ _ _ _ ~ ~ ~ ~ I I I I I I I P I I I I I I P I I I I I .........._ s < < < < s 1.4.4.1.+.o.+.+.+.+.+.+.1.4.6.<X<X<XL ` ............` l , $ % , > J F j H P P P P P J P J P P I h.V.V.V.*.&.2.v.V.V.K.4X0X0X0X0X0X0X0X0X0X0X0X0X0X0X3X6 $ $ $ $ $ $ A.>X>X>X>X).,.:.O.O.&.*.=.H.L.G.C.C.b.b.C.C.a.;.;.;.;.;.;.;.;.2.2.2.a.*.[ $.b.^ ^ ^ ^ ^ ^ ^ ^ E E E E E ^ @.*.@.E ~ E ~ ^ ^ E E E Q K K K K K K B K E ^ ^ ^ ^ [ ^ ^ [ [ [ [ [ [ ^ [ @.#.@.@.#.#.#.#.#.@.^ ^ E E ^ ^ ^ ^ ^ ^ ^ ^ ^ w w w w w w w w w t t 2 - - 2 w w w 4 4 c v v #.) A A A A A A A A A A A A A A A A ( W W W ( ( ( q.t.y.t.y.y.y.y.R e e i i ",
"y | Q.Q.Q.k.w.w.w.w.w.w.w.w.w.w.w.w.q.%.%.%.%.%.%.%.%.%.%.%.%.%.%.%.w.w.w.w.w.w.q.%.} } } } } } ! O % % % < 2 2 2 2 u u u u B ^ ^ ^ ^ ^ ^ ^ ^ k m u 6 6 `.pXpXpX~ ~ ~ ~ ~ ~ ~ ~ ~ ~ ~ ~ ~ ~ ~ ~ ~ ..X.X.X.X.X.X.X.$.*.*.*.*.*.-.2.2.2.d.d.d.d.d.d.d.d.d.h.h.C.;X;X;X;X;X[.K.h.h.d.d.d.d.d.d.d.d.d.d.d.=.*.*.*.*.*.*.*.k o o o o + ; ; ; 6 +.h.1.....X.*.*.*.*.*.*.*.*.*.*.+.P P P P P P P P P P P P P P P P P P P P P P P P P P P I _ ~ ~ ~ _ _ _ _ _ _ ~ ~ ~ ~ I I P P P P I I I I I I I I I I I I I +.:.:.,.4.4.4.7.7.5.7.(.).(.1.+.........+.+.+.+.+.+.1.6.`.`.`.....O.4.4.4.4.4.4.l , $ % , > x J P P P P J P P J J J J P P o.V.V.V.3.&.&.&.h.V.V.V.[.0X0X0X0X0X0X0X0X0X0X0X0XoX6 % $ $ $ $ $ 8 >X>X>X[.<.:.:.:.O.O.O.*.=. X X X XG.b.b.C.C.C.b.j.a.a.a.a.j.j.b.C.C.C.C.C.C.C.@.^ ^ ^ ^ ^ ^ ^ ^ E E E E E E ^ @.@.~ ~ ~ ^ ^ E E E Q K K K K K K B B E E ^ ^ ^ ^ [ ^ [ [ [ [ [ [ [ #.@.@.@.@.#.#.#.#.#.#.} ^ ^ ^ ^ ^ ^ ^ ^ ^ ^ ^ ^ w w w w w t t w w w t 2 - - w w w 4 4 w v v W #.) A A A A A A A A A A A A A A A R W W ( ( ( ( q.t.t.t.t.t.y.y.+X*XJ.%.Z i ",
"T.Q.Q.T.y.%.w.w.w.w.w.w.w.w.w.w.q.%.%.%.%.%.%.%.%.%.%.%.%.%.%.%.%.%.w.t.w.w.w.w.w.%.| } } } } } } i O % % ; 2 2 2 2 w u u u u ~ ^ ^ ^ ^ ^ ^ Q s m u 6 6 eXpXpX7X~ ~ ~ ~ ~ ~ ~ ~ ~ ~ ~ ~ ~ ~ ~ ~ ~ ~ X.X.X.X.X.X.X.$.*.*.*.*.*.2.2.2.3.d.d.d.d.d.d.h.h.b.b.b.b.$X;X;X;X;X$X.X'.C.d.d.d.d.d.d.d.d.d.3.*.*.*.*.*.*.*.*.*.< o o o o o 1 z *.C.C.C.X.......&.*.*.*.*.*.*.+.+.X.I P P P P P P P P P P P P P P P P P P P P P P P P P P P I ~ ~ ~ ~ _ _ _ _ ~ ~ ~ _ _ _ I I J J L L J L P P P P P I I I P P P ,.A.(.).`.}.[.(.(.(.(.).).S.o.............o.+.+.+.+.+.5.`.`.`.,.....O.4.4.4.4.4.l , $ $ % > l J J P P P P J H F J P P P P P h.V.V.h.&.&.&.&.3.V.V.V.Z.:X0X0X0X0X0X0X0X0X0Xh.6 < $ $ $ $ $ 3 O.>X@X5.:.O.O.O.O.O.O.O.*.=.L. X X X XU.F.C.C.C.C.C.C.C.C.C.C.C.C.b.b.C.C.C.C.C.;.^ ^ ^ ^ ^ ^ ^ ^ ^ E E E E E E E E @.@.@.@.@.@.@.^ Q V V B B B B V V T ^ ^ ^ ^ ^ ^ ^ ^ [ [ [ [ [ #.#.#.#.@.@.#.$.%.=.=.=.=.@.} ^ ^ ^ ^ ^ ^ ^ @.@.E t w w w w t t w w w w - - # : w w w w w v T #.#.W A A A A A A A A A A A A A A A W ( ( W W ( q.t.t.t.y.t.e.t.t.k.*X*X*X*X*X",
"Q.Q.T.q.%.%.%.w.w.w.w.w.w.w.w.w.%.%.%.%.%.%.%.%.%.%.%.%.%.%.%.%.%.q.w.t.w.w.w.w.w.%.%.} } } } } } E O % % = 2 2 2 2 2 u u u u b ^ ^ ^ ^ ^ ^ G u m t 6 ` pXpXpX;X~ ~ ~ ~ ~ ~ ~ ~ ~ ~ ~ ~ ~ ~ ~ ~ ~ ~ ..X.X.X.X.X.X.$.*.*.*.*.-.2.2.2.3.d.d.d.h.h.v.v.b.b.b.b.b.U.;X;X;X;X;X$X.X.XI.h.d.d.d.d.d.d.d.*.*.*.*.*.*.*.*.*.X.o o o o o < _ C.C.C.C.o...X.X...+.*.*.*.*.+.X.......P P P P P P P P P P P P P P P P P P P P P P P P P P P P I ~ ~ ~ ~ _ _ _ _ ~ ~ ~ _ _ _ Q I J J L J J J J L J P P I I I P I P I 7.(.).dXjXjXjXdXwX7X).+.~ ~ ..............X.+.+.+.+.+.).`.`.,...........O.o.` l , $ $ $ > 5 P J P J J F D D F F F F J P P o.V.V.2.&.&.&.&.&.2.V.V.V.V.'.0X;XC.&._ ~ ~ I 6 6 1 $ $ $ $ $ _ O.z.O.:.:.O.O.O.O.O.O.O.=.=.a. X X X X X XU.L.'.U.C.C.j.d.=.=.@.@.@.@.@.@.@.$.=.a.^ ^ ^ ^ ^ ^ ^ ^ ^ E E E E E E E E ^ @.@.@.@.$.$.@.T K K B B K T K K V K E ^ ^ ^ ^ [ ^ ^ [ [ [ @.#.=.%.#.@.@.$.=.=.=.=.=.=.=.=.$.@.^ ^ ^ [ [ F.H.H.t 2 w w w t t w w w 2 - = # = 4 w w w w T #.#.#.A A A A A A A A A A A A A A A R ( ( ( ( W | t.t.t.y.y.t.r.t.y.y.k.*X*X*X*X",
"Q.l.%.%.%.%.%.%.w.w.w.w.w.w.w.w.q.%.%.%.%.%.%.%.%.%.%.%.%.%.%.q.w.w.t.t.w.w.w.w.w.q.%.} } } } } } } O % % = 2 2 2 2 2 w u u u u ^ ^ ^ ^ ^ X.s 6 c 6 6 [.pXpXpX].~ ~ ~ ~ ~ ~ ~ ~ ~ ~ ~ ~ ~ ~ ~ ~ ~ ~ ~ X.X.X.X.X.X.&.*.*.*.*.2.2.2.2.2.d.d.h.b.b.v.v.v.v.b.v.b.b.;X;X;X;X;X;X;X.X[.[.C.d.d.d.d.d.d.*.*.*.*.*.*.*.*.*.u o o o o o N Q 2.h.2.X.....X.X.X.X.*.*.*.+.......~ P P P P P P P P P P P P P P P P P P P P P P P P P P P P P P _ _ ~ _ _ _ _ _ ~ ~ ~ ~ _ _ ~ I J J J J J J J J J J L L L L J P I I P >.(.eXjXjXjXdX-X+._ _ ~ ~ _ ................+.+.+.,.z.`.`.,...............I l , $ $ $ % > F J F F F F D D D D D D F F P P &.&.&.&.&.&.&.&.&.*.h.V.V.V.&.Q Q Q Q Q F 6 6 6 & $ $ $ $ F O.O.O.O.O.O.O.O.O.O.O.O.*.=.=.=.j. X X X X X X XG.;.@.^ ^ ^ ^ ^ ^ ^ ^ ^ ^ ^ ^ ^ ^ ^ ^ ^ ^ ^ ^ ^ ^ ^ ^ ^ E E E E E E E E ^ @.@.$.*.@.@.K K K K K K Q Q Q K K T E ^ ^ [ [ [ [ [ } #.@.@.=.=.%.$.$.=.=.=.=.=.=.=.=.=.=.=.=.@.[ [ #.d.H.H.t ; w w w t w w w w : = # # # = w w w w #.#.#.) A A A A A A A A A A A A A A A W ( ( ( ( { t.t.t.t.t.t.t.t.t.t.t.y.y.N.T.~.",
"q.%.%.%.%.%.%.%.%.w.w.w.w.w.w.w.w.%.%.%.%.%.%.%.%.%.%.%.%.w.w.w.w.w.w.w.w.w.t.t.w.w.%.} } } } } } } O % % = 2 2 2 2 2 2 u u u u N ^ ^ ..2.2.N 6 u 6 6 eXpXpXpXh...~ ~ ~ ~ ~ ~ ~ ~ ~ ~ ~ ~ ~ ~ ~ ~ ~ ~ ..X.X.X.X.&.*.*.*.*.-.2.2.2.2.2.d.d.b.b.b.v.v.v.v.v.v.b.b.K.;X;X;X;X;X;X;X.X.X[.K.h.d.d.d.d.*.*.*.*.*.*.*.*.*.1 + o o o o F F ............X.X...X.+.&.X.X.....I P P P P P P P P P P P P P P P P P P P P P P J P P P ` ....P P I _ ~ ~ _ _ _ _ ~ ~ ~ ~ _ _ _ I J J J J J J J J J J L L L L J P I I I I _ 1.6.6.~ ~ ~ ~ _ _ ~ ~ ~ ................+.+.*.1.5.`.`.,...............I l % $ $ $ % > j F F F D D D D D F D D D D F J I &.&.&.&.&.&.&.&.&.&.2.h.2.Q Q Q Q Q k 6 6 6 2 $ $ $ $ 6 O.O.O.O.O.O.O.O.O.O.O.O.*.=.=.=.=.=.a. X X XL.b.=.^ ^ ^ ^ ^ ^ ^ ^ ^ ^ ^ ^ ^ ^ ^ ^ ^ ^ ^ ^ ^ ^ ^ ^ ^ ^ ^ ^ E E E E E E E E E E [ j.j.j.*.K K K K K K Q Q Q Q Q Q Q ^ ^ [ [ [ [ @.#.$.@.$.=.=.=.=.=.=.=.=.=.=.t.t.=.=.=.=.=.=.%.=.=.=.H.H.4 - w t t t w 2 : - = % # # # # = 4 w w #.#.#.A A A A A A A A A A A A A A A R ( ( ( ( ) w.t.t.t.y.t.t.t.t.t.t.t.t.0.| | | ",
"%.%.%.%.%.%.%.%.%.q.w.w.w.w.w.w.w.q.%.%.%.%.%.%.%.%.%.%.w.w.w.w.w.w.w.w.w.w.w.w.w.w.q.| } } } } } ! O % % % 2 2 2 2 2 2 6 u u u i ^ ^ =.2.=.6 6 6 6 _ pXpXpXpX&.X.] ~ ~ ~ ~ ~ ~ ~ ~ ~ ~ ~ ~ ~ ~ ~ ~ ~ ..X.X.X.&.*.*.*.*.*.2.2.2.2.2.3.d.h.v.v.v.b.v.v.v.v.b.b.b.b.'.;X;X;X;X;X;X;X[.[.[.C.h.d.d.d.=.*.*.*.*.*.*.*.E ; % o o o o N F Q ........X.......X.........I P P P P P P P P P P P P P P P P P P P P P P N 7 7 7 J ......P k F P I _ _ _ _ _ _ ~ ~ ~ ~ ~ _ _ I L L J J J J J J J J J J J J L L I I I I P P I ~ _ _ ~ ~ _ _ ~ ~ ~ _ ............+.+.+.1.1.1.`.`.z...` ` ........I l $ $ $ $ > , 3 x F F D D D D D D D D F F D D F ~ &.&.&.&.&.&.&.&.&.&.X.Q Q Q Q Q k 6 6 4 & $ $ $ % 7 O.O.O.O.O.O.O.:.:.:.O.*.=.=.*.*.=.=.=.=.;.;.[ ^ ^ ^ ^ ^ ^ ^ ^ ^ ^ ^ ^ ^ ^ ^ ^ ^ ^ ^ ^ ^ ^ ^ ^ ^ ^ ^ ^ ^ ^ ^ ^ E E E E E E E E E E @.j.j.j.K K K G V K K Q Q Q Q Q E E ^ ^ [ [ @.#.#.#.$.=.=.=.=.=.=.=.=.=.=.t.t.t.t.t.=.=.=.=.=.=.=.=.j.H.2 - t w 2 : - - - - # # O # # # # # - 4 #.#.} A A A A A A A A A A A A A A A R ( ( ( ( q.t.y.y.y.y.t.t.y.y.t.t.t.0.| | | | ",
"%.%.%.%.%.%.%.%.%.%.q.q.%.w.w.w.w.w.%.%.%.%.%.%.%.%.%.%.%.w.w.w.w.w.w.w.w.w.w.t.w.w.w.#.} } } } } ! O % % % < 2 2 2 2 2 2 u u u u =.2.2.2.~ 6 6 6 6 [.pXpXpXwXX.X.X.] ~ ~ ~ ~ ~ ~ ~ ~ ~ ~ ~ ~ ~ ~ ~ ~ X.X.X.+.*.*.*.*.*.-.2.2.2.2.2.d.d.h.b.v.v.b.v.v.v.v.b.b.b.b.b.oX;X;X;X;X;X;XoX.X[.H.C.h.d.d.2.*.*.*.*.*.*.*.m ; = o o o o s F Q ........X.......X....._ P P P P P P P P P P P P P P P P P P P P P P P j 7 7 7 7 P ....P l k k z J I _ _ _ _ _ ~ ~ ~ ~ ~ _ _ I J J J L J J J J J J J J J J J L P I I P I ~ _ _ _ _ ~ ~ _ _ ~ ~ _ _ ..........X.+.+.+.1.1.1.`.`.z...` ..........U l $ $ $ $ , , > s x F D D D D D D D F F F D D F F ~ &.&.&.&.&.&.&.&.&._ Q Q J s < & & % $ $ $ $ 6 ~ h.S.O.:.O.O.O.O.O.:.*.=.=.=.=.*.*.*.=.=.=.$.@.^ ^ ^ ^ ^ ^ ^ ^ ^ ^ ^ ^ ^ ^ ^ ^ ^ ^ ^ ^ ^ ^ [ @.} ^ ^ ^ ^ ^ ^ ^ ^ ^ E E E E E E E E E E @.j.j.K K K K G K K T Q Q Q T ^ ^ ^ [ [ @.#.%.=.%.=.=.t.a.t.t.w.=.=.=.a.t.t.t.t.t.t.=.=.=.=.=.=.=.=.N - - - - - - - - - - = # O # # # # # # c #.#.R A A A A A A A A A A A A A A A ( ( ( ( { w.t.y.y.y.y.t.t.t.y.t.t.q.{ | | | | ",
"%.%.%.%.%.%.%.%.%.%.%.%.%.%.%.w.w.w.%.%.%.%.%.%.%.%.%.%.%.w.w.w.w.w.w.w.w.w.w.w.w.w.w.%.} } } } } B O % % % % < 2 2 2 2 2 w u u u 2.2.2.2.d 6 6 6 6 eXpXpXpXoXX.X.X.X...~ ~ ~ ~ ~ ~ ~ ~ ~ ~ ~ ~ ~ ~ ] X.X.X.*.*.*.*.*.*.2.2.2.2.2.3.d.d.h.b.b.b.b.b.v.v.b.b.b.b.b.b.b.'.;X;X;X;X;XoX.X.XU.C.C.d.d.d.*.*.*.&.X.@.*.4 ; ; o o o o < F _ .................._ ~ I P P P P P P P P P P P P P P P P P P P P P J 7 6 7 7 6 s ` ` x 6 7 k k k k J I _ _ ~ ~ ~ ~ ~ ~ ~ ~ ~ I L J L L L J J J J J J J J J L L L I P P ~ ~ _ _ _ _ ~ ~ ~ ~ _ _ _ _ _ ........o.+.+.+.1.1.1.D.`.z...` ` ........` l $ $ $ > > > > 5 s x N N D F D D F F F F D D D F F J ..&.&.&.&.&.o.Q z < $ $ $ $ $ $ $ $ $ < ~ &.=.D.D.O.:.:.O.O.O.O.:.*.=.=.=.=.*.*.=.=.=.=.@.@.^ ^ ^ ^ ^ ^ ^ ^ ^ ^ ^ ^ ^ ^ ^ ^ ^ ^ ^ ^ ^ @.@.@.@.@.@.^ ^ ^ ^ ^ ^ ^ ^ E E E E E E E T T E T K K B K B G V V K Q Q Q E ^ ^ ^ [ [ #.%.=.=.=.t.t.a.a.a.t.t.t.t.a.a.t.t.t.t.t.t.t.=.=.%.=.=.=.=.- - - - - - - - - - - - # # # # # # # # R #.#.A A A A A A A A A A A A A A R W W ( ( ( | | q.e.y.t.t.t.t.y.y.y.q.| | | | | | ",
"%.%.%.%.%.%.%.%.%.%.%.%.%.%.%.%.q.w.%.%.%.%.%.%.| } | %.%.%.w.w.w.w.w.w.w.w.w.w.w.w.w.%.} } } } } d O % % % % % & 2 2 2 2 4 u u u 2.2.2.*.6 6 6 6 _ pXpXpXpXV.X.X.X.X.X.X...~ ~ ~ ~ ~ ~ ~ ~ ~ ~ ~ ~ X.X.X.*.*.*.*.*.*.-.2.2.2.2.3.d.d.d.b.b.b.b.b.b.v.b.b.b.b.b.b.b.b.b.L.;X;X;X;XoX.X.X'.C.C.j.d.d.2.*.*.@.X.X.X.u ; ; + o o o o F X.X.X.............~ ~ ~ I P P P P P P P P P P P P P P P P P P P P J 7 6 6 7 6 s ` U s 6 6 7 k k k k l x Q ~ ~ ~ ~ ~ ~ ~ ~ ~ ~ ~ P L L L L J J J L L J J J J L L L I I I ~ ~ ~ _ ......_ ~ ~ _ _ _ _ _ ........o.+.+.+.+.<.1.V.`.z.................l $ $ % , > > > , s s x N N F D F F F F F x x x x x F D D F N 7 < $ $ $ $ $ $ $ $ $ $ $ & N &.&.*.S.D.S.:.:.:.O.O.O.O.*.=.=.=.=.=.*.*.=.=.=.$.@.@.[ ^ ^ ^ ^ ^ ^ ^ ^ ^ ^ ^ ^ ^ ^ ^ ^ ^ ^ @.@.@.@.@.@.@.@.@.^ ^ ^ ^ ^ ^ ^ ^ E E E E E E T V K K K K B B B B V V V K Q Q E ^ ^ ^ [ X.@.=.=.t.t.t.t.a.a.a.t.t.t.t.a.a.a.t.t.t.t.t.t.t.%.%.=.=.=.=.- - - - - - - - - - - - = # # # # # # = A A A A A A A A A A A A A A A R ( W W W ( ( ( ( | | { | | | { | q.q.| | | | | | | | ",
"%.%.%.%.%.%.%.%.%.%.%.%.%.%.%.%.%.%.%.%.%.%.%.} } } } } #.%.q.w.w.w.w.w.w.w.w.w.w.w.w.%.} } } } } 2 O % % % % & 2 2 2 2 2 2 u u i 2.2.2.N 6 6 6 6 @XpXpXpXrXX.X.X.X.X.X.X.X.X.......~ ~ ~ ~ ~ ~ ~ ] X.X.X.*.*.*.*.*.*.2.2.2.2.3.d.d.d.h.b.b.v.v.v.v.b.b.b.C.C.C.b.b.b.b.b.b.'.;X;XoX[.[.K.C.C.C.j.d.d.*.*.X.X.X...; ; ; % o o o o ..X.X..........._ ~ _ _ _ I I P P P P P P P P P P P P P P P P P P x 6 6 7 7 7 z ..U 7 6 6 7 l z z k k s 6 z _ ~ ~ ~ ~ ~ ~ _ _ ~ ~ P L L L L J J J J J J J J J J J L I I I ~ ~ ............_ ~ _ ~ ~ ~ ............o.+.+.+.,.1.h.`.< x ..............z $ $ % > > > > > , s s z x F F x x k l s s s s s 7 2 , $ $ $ $ $ $ $ $ $ $ $ $ $ $ $ 6 X.$.$.$.oX3XK.6.O.O.O.O.O.+.*.=.=.=.*.*.*.=.=.=.=.*.@.@.@.@.^ ^ ^ ^ ^ ^ ^ ^ ^ ^ ^ ^ ^ ^ ^ [ @.@.@.@.@.@.@.@.@.@.@.@.[ ^ ^ ^ ^ ^ ^ E E E E E T K B K K K K B B B B V V V V Q Q T ^ ^ ^ [ @.#.=.=.t.t.t.a.a.s.s.s.a.t.t.t.t.s.s.f.f.a.t.t.t.=.=.%.=.=.=.y - - - - - - - - - - - = # # # # # # ; A A A A A A A A A A A A A A W ( ( W ( W W W W W ( | | | | | | | | | | | | | | | | | ",
"%.%.%.%.%.%.%.%.%.%.%.%.%.%.%.%.%.%.%.%.%.%.} } } } } } } } #.%.%.w.w.w.w.w.w.w.w.w.w.#.} } } } } 2 O + % % % ; 2 2 2 2 2 2 6 t m 2.2.2.u 6 6 6 z pXpXpXpX@XX.X.X.X.X.X.X.X.X.X.X.X.X.] ~ ~ ~ ~ ~ ..X.X.&.*.*.*.*.*.-.2.2.2.3.d.d.d.d.v.b.b.v.v.v.v.b.C.C.C.C.C.C.C.b.b.b.b.b.b.U..X[.K.C.C.C.C.C.d.d.*.*.X.X.X.J ; ; ; % o o o o X...X.X.X.....~ ~ ~ ~ _ _ _ _ _ P P P P P P P P P P P P P P P P J 6 6 7 7 7 z ..U 7 6 6 6 s z z z k k 9 6 6 J ~ ~ ~ ~ ~ ~ _ _ ~ ~ I L L L J J J L J J J J J L J J L I I ~ ~ _ ..............~ ~ ~ ~ _ ..............+.+.+.1.1.5.`.< , < D ..........H $ $ % > > > > > > 5 s s s s s s s s s s s s 2 % $ $ $ $ $ $ $ $ $ $ $ $ $ $ $ $ < Q &.&.$.*.oX7X2Xh.*.O.O.O.*.*.=.=.=.=.*.*.*.*.=.=.=.=.$.@.@.@.@.^ ^ ^ ^ ^ ^ ^ ^ ^ ^ ^ [ [ @.@.@.@.@.@.@.@.@.@.@.@.@.@.@.@.^ ^ ^ ^ ^ ^ E E E E E T B B B K K K V B B B K V V V T Q Q ! ^ ^ [ @.#.=.=.t.t.t.d.j.j.j.j.j.j.j.j.j.j.j.j.j.f.t.t.t.=.=.=.=.=.=.y - - - - - - - - - - - = # # # # # # t Z B Z A A A A A A A A A A W ( ( ( ( ( ( W W ( ( ( { | | | | | | | | | | | | | | | | ",
"%.%.%.| ) ) ) { %.%.%.%.%.%.%.%.%.%.%.%.%.| } } } } } } } } } } | #.%.q.w.w.w.w.w.%.| } } } } } } = X o % % % 2 2 2 2 2 2 2 2 2 G 2.2.N 6 6 6 6 `.pXpXpX<XX...X.X.X.X.X.X.X.X.X.X.X.X.X.~ ~ ~ ~ ~ X.X.X.*.*.*.*.*.*.2.2.2.3.d.d.d.d.h.v.b.b.b.b.b.C.C.C.C.C.C.C.C.C.C.b.b.b.b.b.b.K.[.U.C.C.C.C.C.j.d.*.@.X.X.X.F ; < < % o o o o ......X.X...~ ~ ~ ~ ~ ~ ~ _ _ _ ~ P P P P P P P P P P P P P P J 7 5 6 7 7 x ....7 7 7 6 l k z k k k l 6 6 6 l ~ ~ _ _ _ _ _ _ ~ ~ I L J J J J L L J J J J J L J J L I I ~ ~ ..................~ ~ ~ ................+.+.<.1.1.1.`.s , , , < s H ` ..L $ $ $ > > > > > > > 5 s s s s s s s s 6 > $ $ $ $ $ $ $ $ $ % $ $ $ $ $ $ $ < N $.&.$.$.*.;X7X2Xd.=.=.=.=.*.=.=.=.=.=.=.=.=.*.*.*.*.*.*.@.@.@.@.@.^ ^ ^ ^ ^ ^ ^ [ } X.@.@.@.@.@.$.$.$.$.*.*.$.$.$.@.@.@.@.@.@.^ ^ ^ ^ ^ E E E E Q K K K B B K K V K K B K K V V T Q Q E ^ ^ [ @.#.=.=.t.t.t.f.j.j.j.j.j.j.j.j.j.j.j.j.j.j.a.t.t.=.=.=.=.=.=.y - - - - - - - = = # # # # # # # # # p Z B n Z A A A A A A A R R ( ( ( ( W ( ( ( ( ( ( ( ) | | | | | | | | | | | | | | | | ",
"%.%.| ) ) ) ) ) ) %.%.%.%.%.%.%.%.%.%.%.%.} } } } } } ) ) { } } } } } } #.#.#.#.| } } } } } } } } O X o % % % ; 2 2 2 2 2 2 2 2 _ 2.~ 6 6 6 6 z pXpXpX<X~ I I X.X.X.X.X.X.X.X.X.X.X.X.X...~ ~ ~ ..X.X.X.*.*.*.*.*.2.2.2.2.d.d.d.d.d.h.v.b.b.b.b.b.C.C.C.C.C.C.C.C.C.C.C.b.b.b.b.h.d.C..XH.C.C.C.C.C.3.*.X.X.X.Q F 1 < < % o o o o ........X._ ~ ~ ~ ~ ~ ~ ~ _ _ _ _ P P P P P P P P P P P P P P 7 6 5 5 6 J ....j 7 7 7 s k k k k k k 9 6 7 6 9 _ _ _ _ _ _ _ _ ~ _ I P J J J J L L L J J J L L J J L I I ~ _ ...................._ ..................o.*.1.1.1.1.).+., , , , , , , , , $ $ $ > > > > > > > > 5 s s s 9 5 , $ $ $ $ $ $ < s X.h.b.b.b.b.b.b.2.*.Q $.2.&.$.$.$.a.2X7X7Xj.=.=.=.=.=.=.=.=.=.=.=.=.=.=.=.=.$.@.@.@.@.@.@.@.@.@.@.@.@.@.@.@.@.@.@.@.$.$.=.=.=.=.=.=.*.=.=.=.=.*.*.*.$.@.@.@.^ ^ ^ ^ E E E T K K K K B B K K K K K K K K V V T Q Q E ^ ^ [ @.#.=.=.;.t.t.f.j.j.j.j.j.j.j.j.j.j.j.j.j.j.d.t.t.a.;.=.=.=.=.y - - - - - - - = # # # # # # # # # # c Z B n n A A A A A W ( ( ( ( ( ( ( ( ( ( ( ( ( ( ( { | | | | | | | | | | | | | | | | ",
"%.%.) ) ) ) ) ) ) ) %.%.%.%.%.%.%.%.%.%.} } } } } } { ) ) ) } } } } } } } } } } } } ) ) ) ) ) { i X X X % % % ; 2 2 2 2 1 1 2 2 *.K 6 6 6 6 6 >XpXpX<X~ I I I ..X.X.X.X.X.X.X.X.X.X.X.X...~ ~ ~ X.X.X.&.*.*.*.*.*.2.2.2.2.d.d.d.d.d.v.v.v.b.b.b.C.C.F.C.C.C.C.C.C.C.C.C.C.b.b.b.h.d.d.C.L.C.C.C.C.C.2.&.X.X.X.~ F k ; ; + o o o o ~ ........~ ~ ~ ~ ~ _ ~ ~ ~ ~ ~ ~ I P P P P P P P P P P P P s 6 6 6 6 J ..` J 6 6 6 7 l z k k k k s 6 6 7 6 7 ~ _ _ _ _ _ _ _ _ _ Q I J J J L J J J J J J J J L J P I Q _ _ ........................................o.<.1.1.1.1.D.K.< , , , , , & & % $ $ $ > , , , , % $ $ $ $ $ $ $ $ % $ $ $ 2 J X.*.*.d.b.b.b.b.b.b.b.b.b.b. X.X.XU.C.h.2X7X7XH.=.=.=.=.=.=.=.=.=.=.=.=.=.=.=.*.$.@.@.@.@.@.@.@.@.@.@.@.@.@.@.@.@.@.$.$.*.=.=.*.*.*.*.=.=.=.=.=.=.=.=.=.=.=.=.@.@.@.^ ^ ^ E E E K K V K K B V V V K K K K K K K K Q Q Q E ^ ^ ^ @.#.=.=.=.t.t.f.j.j.j.j.j.j.j.j.j.j.j.j.j.j.j.s.t.t.t.a.;.=.=.u - - - - - - - = # # # # # # O O # * b Z B n n Z A A A ( ( ( ( ( ( ( ( ( ( W ( ( ( ( ( ( { | | | | | | | | | | | | | | | | ",
"%.) ) ) ) ) / R / ) ) %.%.%.%.%.%.%.%.} } } } } } } ) ) ) ) } } } } } ) ) ) { { ) ) ) ) ) ) ) ( + X X X % % % & 2 2 1 2 1 2 2 6 6 6 6 6 6 6 z.pXpX@X~ I I I I X.X.X.X.X.X.X.X.X.X.X.X.X...~ ~ ~ X.X.X.*.*.*.*.*.2.2.2.2.2.d.d.d.d.h.v.v.b.b.b.C.C.C.C.C.C.C.C.C.C.C.C.C.C.b.b.b.h.d.d.d.2.-.*.*.*.*.*.X.X.X._ ~ F F F F 3 o o o o x ......_ ~ ~ ~ ~ ~ _ ~ ~ ~ ~ ~ ~ Q P P P P P P P P P P P N 6 6 6 6 x P P P P 6 6 6 s z k k k k l 6 6 6 7 7 7 P ~ _ _ _ _ _ _ _ _ ~ I P J L L J J J J J J J J L J P I _ _ ..........................................+.<.1.1.1.1.V.`.x , , , , , $ $ $ $ $ $ , , , > $ $ $ $ $ $ $ $ $ % $ & s X.*.*.*.*.*.=.b.b.b.b.b.b.b.b.b. X.X.X.X.X.X.X;X7XoX=.=.=.=.*.*.=.=.=.=.=.=.=.=.=.=.*.*.$.$.@.@.@.@.@.@.@.@.@.@.@.@.@.$.*.=.*.*.=.=.=.=.=.=.=.;.;.;.;.;.;.;.;.=.=.=.@.@.@.[ ^ ^ E E Q K V V K V B B K K K K K K K K K K Q Q Q E ^ ^ [ @.#.%.=.=.t.t.s.j.j.j.j.j.j.j.j.j.j.j.j.j.j.j.j.f.t.t.a.a.a.=.u - - - - - - - - # # # # # # O # # * A Z B n B n A A S ( ( ( ( ( ( W W W W W W ( ( ( ( ( | | | | | | | | | | | | | | | | | ",
") ) ) ) ( S R R S / ) ) %.%.%.%.%.| } } } } } } } } ) ) ) ) } } } { ) ) ) ) ) ) ) ) ) ) ) ) R = X X X X O % % % ; 2 2 1 2 6 6 6 6 6 6 6 6 ,.pXpX[.I I I I I ..X.X.X.X.X.X.X.X.X.X.X.X.X.] ~ ~ ..X.X.X.*.*.*.*.*.2.2.2.2.3.d.d.d.d.h.b.v.b.C.C.C.C.C.C.F.C.C.C.C.C.C.C.C.C.C.b.b.h.d.d.3.2.-.*.*.*.*.&.X.X...~ ~ Q Q G F N o o o o j X.X...~ ~ ~ ~ ~ _ _ _ _ ~ ~ ~ ~ ~ I P P P P P P P P P P 7 6 6 6 x P P P P P 6 6 9 k z z k k s 6 6 6 7 7 7 7 ~ ~ ~ ~ _ ~ _ _ ~ ~ ~ I I J J J J J L L J J J J L L I I ~ ~ ..........................................+.*.1.1.1.1.6.`.1., , , , , % $ $ $ $ $ , , , $ $ $ $ $ $ $ $ $ $ & N &.*.*.*.*.*.*.*.&.2.d.d.h.b.b.b.b.L.L..X XL.L.b.b.d.d.;.;.;.;.=.=.*.*.*.*.*.=.=.=.=.=.=.=.*.=.=.=.=.*.=.=.$.*.*.*.$.$.$.=.=.=.=.=.=.=.*.=.=.;.;.;.;.;.;.a.a.a.;.;.;.=.*.@.@.@.^ ^ ^ E T K K V V B V K K K K K K B B B B B K Q Q Q T ^ ^ [ @.#.$.=.=.t.t.t.f.j.j.j.j.j.j.j.j.j.j.j.j.j.j.j.j.s.t.t.t.a.a.2 - - - - - - - - = # # # # # # * * # A A B B B B B Z R ( ( W W ( ( ( ( ( ( W W ( ( ( ( ( | | | | | | | | | | | | | | | | | ",
") ) ) ( S S S S S S / ) ) | | | } } } } } } } } } { ) ) ) ) } } ) ) ) ) ) ) ) ) ) ) ) ) ) n O X X X X X + % % % & 2 2 1 6 6 6 6 6 6 6 6 _ -X<X[.I I I I I ..X.X.X.X.X.X.X.X.X.X.X.X.X...~ ~ ~ X.X.X.X.*.*.*.*.-.2.2.2.3.d.d.d.d.d.h.b.b.b.C.C.C.C.C.C.C.C.C.C.C.C.C.C.C.C.C.b.b.h.d.d.2.2.-.*.*.*.*.X.X.X.~ ~ ~ ~ ~ ~ F F 2 o o o s ..X...~ ~ ~ ~ ~ _ _ _ _ _ _ ~ ~ ~ ~ I P P P P P P P P z 6 6 6 x P P P P P P 9 6 s k z l s 7 7 7 6 7 7 7 j ~ ~ ~ ~ ~ ~ ~ _ ~ ~ ~ ~ I I P J J P P I P L L J J J L I ~ ~ _ ........................................o.+.+.+.,.1.1.2.`.6., , , , , % $ $ $ $ $ , , > $ $ $ $ $ $ $ $ $ s *.*.*.*.*.&.X.~ _ Q Q X.X.X.X.X.X.X.*.*.*.*.*.;.;.;.;.;.;.;.;.;.;.;.;.=.=.*.*.=.=.=.*.*.=.=.*.*.=.=.=.=.;.;.;.=.=.=.=.=.=.=.=.=.=.=.=.=.=.;.;.;.;.;.;.a.a.a.a.a.a.a.;.;.=.*.@.@.@.^ ^ ^ E K K K V V B B K K K K K V V B B B B K Q Q Q T ^ ^ [ [ #.$.=.=.=.t.t.t.s.j.j.j.j.j.j.j.j.j.j.j.j.j.j.j.f.t.t.t.a.@.- - - - - - - - - = # # # # # # # # # A A B B B B B B B S R W W ( ( ( ( W W W ( ( ( ( ( ) | | | | | | | | | | | | | | | | { ",
"( ) ) W R R S S R R R ( ) { } } } } } } } } } } ) ) ) ) ) ) ) ) ) ( W R R W ( ( ) ) ) ) i X X X X X X X + % % % 1 2 2 2 6 6 6 6 6 6 6 ..-X-X-X..I I I I ..X.X.X.X.X.X.X.X.X.X.X.X.X.X.~ ~ ~ ..X.X.X.&.*.*.*.*.2.2.2.3.d.d.d.d.d.d.h.b.b.C.C.C.C.C.C.C.C.C.C.C.C.C.C.C.C.C.b.b.b.d.d.d.2.2.-.*.*.*.@.X.X.X.~ ~ ~ ~ ~ ~ F F F o o o s Q ....~ ~ ~ ~ ~ _ _ ~ ~ ~ ~ ~ ~ ~ _ _ I P P P P P P P 7 6 7 J P P P P P P P j 6 s j s 6 6 6 7 7 7 7 s J _ ~ ~ ~ ~ ~ ~ ~ ~ ~ ~ ~ ~ P I I I I I I I P P L J J J P P ~ ~ ..........................................+.+.+.+.+.+.,.1.K.V., , , , , , % $ $ $ $ % % % , , % + + + + < F J I ~ ~ Q K J J J E E E X.X.X.X.X.X.&.*.*.*.*.*.*.=.;.;.;.;.;.;.a.;.;.;.;.;.=.=.=.=.=.*.*.=.=.=.=.=.=.;.;.;.;.;.;.=.=.=.=.=.=.=.=.=.=.=.;.;.;.;.;.;.a.a.a.a.a.a.a.a.a.;.;.=.$.@.@.X.^ ^ ^ T K K K V B K B K K K K K K K K K K K T Q Q Q T ^ ^ [ ^ @.$.=.=.=.=.=.t.t.s.f.j.j.j.j.j.j.j.j.j.j.j.j.j.j.a.t.a.t.i - - - - - - - - - = # # # # # # * * O A Z n n B B B B B Z S A A R W ( W W ( ( ( ( ( ( ( { | | | | | | | | | | | | | | | | ) ",
") ) ) ( R S S S R R R R ( ) } } } } } } } } ) ) ) ) ) ) ) ) ) ) ( R R R R R R R W ( ( ; X X X X X X X X + % % & 2 2 2 2 2 6 6 6 6 6 ..-X-X-X+.I I I ~ X.X.X.X.X.X.X.X.X.X.X.X.X.X.X...~ ~ ] X.X.X.X.&.*.*.*.-.2.2.d.d.d.d.d.d.d.d.b.b.C.C.C.C.C.C.C.C.C.C.C.C.C.C.C.C.C.C.b.b.b.d.d.d.2.2.=.*.*.*.X.X.X._ ~ ~ ~ ~ ~ ~ J F F & o o s Q ....~ ~ ~ ~ ~ _ _ ~ ~ ~ ~ ~ ~ _ _ _ I P P P P P P P F J P P P P P P P P P J 6 6 6 7 7 6 6 7 7 j P _ _ _ _ ~ ~ ~ ~ ~ ~ ~ ~ ~ ~ ~ I I I I I I I P P P L L J J P I ~ ~ ........................................+.+.+.+.+.+.+.+.1.C.C.2 , , , , , & % $ $ $ $ $ % , , , & $ + < J J J J G J J J J J J Q Q ~ X.X.X.X.$.*.*.*.*.*.*.*.*.*.;.;.;.;.;.a.a.;.;.;.;.;.;.=.=.=.=.*.*.=.=.=.=.;.;.;.;.;.;.;.;.=.=.=.=.=.*.=.=.;.;.;.;.;.;.a.a.a.a.a.a.a.a.a.a.a.a.;.=.=.$.@.@.[ ^ ^ ^ T Q K K K V B B N N N N N B K K K K V T Q Q Q T ^ ^ ^ ^ X.#.=.=.=.=.=.=.t.t.a.f.j.j.j.j.j.j.j.j.j.j.f.j.f.a.a.t.^ - - - 2 2 2 2 - - - - # O # # # # * * O A Z n n n n B B B B A A A A A R ( ( ( ) ( ( ( ( ( | | | | | | | | | | | | | | | | { ) ",
") ) ) ) R S R R R R R R R ) ) } } } } } } ) ) ) ) ) ) ) ) ) R S R R R R S S S S S y # X X X X X X X X X + % % ; 2 2 2 2 2 2 6 6 6 N -X-X-X5.I I I ~ ..X.X.X.X.X.X.X.X.X.X.X.X.X.X.X.~ ~ ~ X.X.X.X.X.*.*.*.*.2.2.3.d.d.d.d.d.d.d.h.b.C.C.C.C.C.C.C.C.C.F.C.F.C.C.C.C.C.C.C.b.b.j.d.d.3.2.2.=.*.*.*.X.X.X.~ ~ ~ ~ ~ ~ Q x F F s o o s Q ....~ ~ ~ _ _ _ _ _ ~ ~ ~ ~ ~ ~ ~ _ _ I P P P P P P P P P P P P P P P P P P j 6 6 7 7 7 7 z I _ _ _ _ ~ ~ _ _ ~ ~ ~ ~ _ _ _ _ ~ P I I I I I I P P P J L J P I I ~ ~ ........_ _ ~ _ ......................+.+.+.+.+.+.+.+.*.1.C.C.s , , , , , , & % $ $ $ $ % , , , , , , J J F x z F F F J J J I Q Q _ X.X.X.*.*.*.*.*.$.*.$.*.*.=.;.;.;.;.a.a.a.a.;.;.;.;.;.;.;.=.=.=.*.=.=.=.;.;.=.;.;.;.;.;.;.;.=.=.=.;.;.;.;.;.;.;.;.;.a.a.a.a.a.a.a.a.a.a.a.a.a.;.=.=.$.@.@.^ ^ ^ ^ E E K K K B N N b b b b b b N K K K K K Q Q Q T ^ ^ ^ ^ [ @.$.%.=.=.=.=.=.t.t.t.s.j.j.j.j.j.j.j.j.f.j.j.s.a.t.t.2 - - : 2 2 q q 2 : - - = # # # # # * # O v B B v c c c n n n n A S A A R ( { q.%.W ( ( ( ( | | | | | | | | | | | | | | | { ) ) ",
") ) ( ) ( R R R R R R R R / ) ) } } } } ) ) ) ( ) ) ) ) ) R R R R R S C n n n n O X X X X X X X X X X X + % % & 2 2 2 2 2 2 6 6 6 +.#X#X1.I I I _ X.X.X.X.X.X.X.X.X.X.X.X.X.X.X.X.] ~ ~ ..X.X.X.X.X.*.*.*.-.2.2.3.d.d.d.d.d.d.h.b.b.F.C.C.C.C.F.C.C.C.C.C.F.C.C.C.C.v.v.b.b.b.h.d.d.2.2.2.=.*.*.*.X.X.X.~ ~ ~ ~ ~ ~ x s x F s o % s Q X..._ ~ ~ _ _ _ _ _ ~ ~ ~ ~ ~ ~ ~ _ _ Q P P P P P P P P P P P P P P P P P P P j 6 7 s F _ ~ ~ ~ _ _ _ _ ~ _ ~ ~ ~ ~ ~ ~ _ _ _ ~ I I P I I I I I P P J J J I I I ~ ~ _ ~ _ ~ ~ ~ ~ _ ....................X.+.+.+.+.+.+.+.+.1.1.C.C..., , , , , , , & $ $ $ $ $ & , , , 2 7 k k 7 j z F F F J J J K Q Q _ X.X.X.*.*.*.$.$.*.$.*.=.;.;.;.;.;.a.a.a.a.a.;.a.a.a.a.;.;.;.=.*.*.=.=.;.;.;.=.;.;.;.;.;.;.;.;.;.;.;.;.;.;.;.;.;.;.a.a.a.a.a.a.a.a.a.a.a.a.a.a.=.=.=.@.@.@.^ ^ ^ ^ ^ T Q K K N N N b b b b b b N B K K K T Q Q Q T ^ ^ E ^ [ [ #.#.$.$.=.=.=.=.=.t.t.d.j.j.j.j.j.j.j.j.j.j.a.a.t.c - - : 2 2 2 2 q 2 2 : - = # # # # # # # O B B c c c c c n n n n B A A A W { q.q.%.( ( ( ( ) | | | | | | | | | | | | | | | ) ) ) ",
") ( ) ) ) R R R S S R R R R ( ) } } } { ) ) ) ) ) ) ) ) ( R R R S Z n n n n C 2 X X X X X X X X X X X X % % % % 1 2 2 2 2 2 2 6 s I I I I I I ..X.X.X.X.X.X.X.X.X.X.X.X.X.X.X.X.X.~ ~ ..X.X.X.X.X.X.*.*.*.2.2.2.d.d.d.d.d.d.h.b.b.C.C.C.C.C.C.F.C.C.C.C.C.C.C.C.C.b.b.v.v.v.b.h.d.d.2.2.2.=.*.*.&.X.X...~ ~ ~ ~ ~ ~ s s d F s o % l Q X...~ ~ ~ ~ _ .............._ _ _ ~ ~ ~ P P P P P P P P P P P P P P P P P P P P J P ~ ~ _ ~ ~ _ _ _ _ ~ ~ _ _ ~ ~ ~ ~ _ _ _ _ ~ P P P I I I I I I P L J P I I I ~ ~ ~ _ _ ~ ~ _ _ _ ....................X.+.+.+.+.+.+.+.1.1.6.C.C.z., , , , , , , , % $ $ $ $ % , , < 7 7 7 7 7 s z F F F F J J K E E ..X.X.X.$.$.$.*.*.=.=.=.=.=.;.;.;.a.a.a.a.a.a.a.a.a.a.a.;.;.;.=.=.=.=.;.;.;.;.;.=.;.;.;.;.;.;.;.;.;.;.;.;.;.;.;.a.a.a.a.a.a.a.a.a.a.a.a.a.a.a.;.=.=.*.@.@.@.^ ^ ^ ^ ^ ^ E K K N N N N N N N N N N N V V V T Q Q Q Q E ^ ^ ^ [ [ @.#.@.@.@.$.$.%.=.=.t.a.j.j.j.j.j.j.j.j.f.a.t.t.$.- - 2 2 2 2 2 2 q 2 2 2 - - * # # # # # # * B v c c c c c c n n n B B Z S ( q.q.q.| W ( ( ( ) | | | | | | | | { { ) ) { { ) ) ) ) ",
"( ( ) ) ) W R R S S R R R R R ) ) } { ) ) ) ) ) ) ) ) ) W R S S C C n C n n C y X X X X X X = m #.; X o % % & % & 2 2 2 2 2 2 6 6 I I I I I ~ X.X.X.X.X.X.X.X.X.X.X.X.X.X.X.X.X...~ ..X.X.X.X.X.X.$.*.*.*.2.2.2.d.d.d.d.d.d.b.b.C.C.C.C.C.C.C.C.C.C.C.C.C.C.C.C.b.b.b.v.v.b.b.h.d.d.2.2.2.=.*.*.@.X.X._ ~ ~ ~ ~ ~ J s s s F s + % l Q X..._ ......X.X.X............._ _ ~ ~ ~ P P P P P P P P P P P P P P P P P P P P ~ ~ ~ ~ ~ ~ ~ _ _ _ _ ~ ~ _ _ ~ ~ ~ ~ _ _ _ _ I P P P I I I I P P I P P I I I ~ ~ _ ~ _ _ ~ ~ _ _ ~ ~ ~ ~ _ ............X.+.+.+.+.+.*.1.1.1.V.C.C.C.F , , , , , , , % $ $ $ $ $ , , 5 7 7 7 7 7 k z F F F F J J K E E ..X.X.X.$.$.*.=.;.;.=.=.=.=.;.a.a.a.a.a.a.a.a.a.a.a.a.2.;.;.=.=.=.=.-.;.;.;.=.;.;.;.;.;.;.;.;.;.;.a.a.a.a.a.a.a.a.a.a.a.a.a.a.a.a.a.a.a.a.a.2.=.=.=.@.@.@.@.^ ^ ^ ^ ^ ^ ! T K B N N N N N N N N N N V V V T Q Q Q Q Q E ^ ^ ^ [ [ @.@.@.@.@.@.@.$.$.=.t.s.j.j.d.a.a.s.t.t.t.t.t.i - 2 2 2 2 2 2 2 2 2 2 2 - - = # # % # # # * v c c c c c c c c n n B B C S ) q.q.q.) W ( ( ( { | | | | | | | { ) ) ) ) ) ) ) ) ) ) ",
"( ) ) ) ) ( R S S R R R R S R ) ) ) ) ) ) ) ) ) ) ( ( ) R R S C C C C n v v n n % X # i #.n.B.B.#.% X % % % % % % 2 2 2 2 2 2 6 6 P ..I I I I X.X.X.X.X.X.X.X.X.X.X.X.X.X.X.X.X.X.X.X.X.X.X.X.&.*.*.*.*.2.2.2.2.d.h.h.d.d.h.b.b.C.C.C.C.C.C.C.C.C.F.C.C.C.C.C.C.b.b.b.b.v.v.b.d.d.d.2.2.2.=.*.*.@.X.X._ ~ ~ ~ ~ ~ z s s s F s % % l ..X.............X.X...............~ ~ ~ ~ P P P P P P P P P P P P P P P P P P P P I ~ ~ ~ ~ ~ ~ ~ _ _ ~ ~ ~ _ _ _ ~ ~ _ _ _ _ ~ ~ I I I I I I I I P I I I I I I _ _ ~ ~ _ _ ~ _ _ _ ~ ~ ~ ~ _ ............o.+.+.+.+.+.1.6.z.V.C.C.C.C.z.2 , , , , , , & $ $ $ $ % , 6 7 7 7 7 7 7 k k F F F F J J J E E X.X.X.X.@.$.*.*.;.;.;.;.a.a.a.a.a.a.a.a.a.a.a.a.a.a.a.;.;.;.=.=.=.;.;.;.;.;.;.;.;.;.;.;.;.;.a.a.a.a.a.a.a.a.a.a.a.a.a.a.a.a.a.a.a.a.a.a.a.2.=.=.=.$.@.@.@.@.^ ^ ^ ^ ^ ^ ^ ^ K B N N N N N N N N N N V V V T Q Q Q Q Q Q E E ^ ^ [ [ @.@.@.@.#.#.@.$.#.=.t.t.a.a.a.t.t.t.t.t.a.;.- : 2 2 2 2 2 2 2 2 2 2 : - - - = # % # # # * c c c c c c c c c c v B B n A ) q.| ( A S R ( ( { | | | | | | | { ) ) { { ) ) ) ) ) ( ",
"W R R R / / R R R R R R S / ) ) ) ) ) ) ) ) ) ) ) ) ( ( R R C n C C n c c c c v ( f.B.B.B.B.B.f.1 & & & % % % % % < 2 2 2 2 2 6 6 d 2.X.I I I ..X...^ X.X.X.X.X.X.X.X.X.X.X.X.X.X.X.X.X.X.*.*.*.*.*.*.*.2.2.2.2.d.d.b.h.h.b.b.C.C.C.C.C.C.C.C.C.C.F.C.C.C.C.C.b.b.b.b.b.b.v.h.d.d.d.2.2.2.=.*.*.X.X.X._ ~ ~ ~ ~ Q s s s l F s % % l X.X.............X.X...............~ ~ ~ I P P P P P P P P P P P P P P P P P P P P P I ~ ~ ~ ~ ~ ~ _ ~ ~ ~ ~ _ _ ~ ~ ~ ~ _ _ _ ~ ~ ~ _ I I I I I I I I I I I I I _ _ ~ ~ .._ ~ _ _ _ ~ ~ ~ ~ ..............+.+.+.+.+.,.1.V.C.C.C.C.C.C.C.Q , , , , , , & $ $ & , , < 7 7 7 7 7 7 s k k F F F F J J J Q E ^ X.X.X.@.$.*.*.;.;.;.;.a.a.a.a.a.a.a.a.a.a.a.a.a.a.;.;.;.=.=.=.;.;.;.;.;.;.;.;.;.;.;.a.a.a.a.a.a.a.a.a.a.a.a.a.a.a.a.a.a.a.a.a.a.a.a.a.;.=.=.=.$.@.@.@.@.@.^ ^ ^ ^ ^ ^ ^ ^ ^ B N N N N N N N N N N V V V K Q Q Q Q Q Q Q E ^ ^ [ [ [ @.#.#.#.#.#.#.#.#.$.=.t.a.t.t.t.t.t.t.t.=.- : 2 2 2 2 2 2 2 2 2 2 : - - - - = % # # # # c c c c c c c c c c c B B n B A S A A A A A W ( { | | | | | | | | | | | { ) ) ) ) / S ",
"R R S S R R R R R R R R ( ) ) ) ) ) ) ) ) ) ) ) ) ) ( R R S Z C n n n c c c c c B N.B.B.B.f.c 1 % % % % % % % % % & 2 2 2 2 2 2 6 u 2.*.I I I ....] ^ X.X.X.X.X.X.X.X.X.X.X.X.X.X.X.X.X.*.*.*.*.*.*.*.2.2.2.2.2.d.d.h.b.b.b.b.C.C.C.C.C.C.C.C.C.C.C.C.C.C.b.b.b.b.b.b.v.v.v.h.d.d.d.2.2.2.-.*.*.X.X.X.~ ~ ~ ~ ~ x 6 s s s F s % % s _ ..............X.X...............~ ~ I P P P P P P P P P P P P P P P P P P P P P P P I ~ ~ ~ ~ ~ _ ~ ~ ~ ~ ~ _ _ _ ~ ~ ~ ~ ~ ~ _ _ ~ ~ ~ P I I I I I I I I I _ ~ ~ ~ ~ ...._ _ _ _ ~ ~ ~ _ ............+.+.+.+.+.+.<.1.5.C.V.z.z.z.z.V.V.s , , , , , % $ & , & < 7 7 7 7 7 7 7 k k k N F F F F J J Q E ~ X.X.X.X.*.*.*.=.=.;.;.a.a.a.a.a.a.a.a.a.a.a.a.a.;.;.;.;.=.;.;.;.;.;.;.;.;.;.;.;.a.a.a.a.a.a.a.a.a.a.a.a.a.a.a.a.a.a.a.a.a.a.a.a.a.a.;.;.*.*.=.@.@.@.@.@.[ ^ ^ ^ ^ ^ ^ ^ ^ ^ Q B b b b N N N N N N B B B K Q Q Q Q Q Q Q Q ! ^ ^ [ [ [ @.#.#.#.#.#.@.@.@.@.@.*.=.t.t.t.t.a.t.=.2 2 q q 2 2 2 2 q q 2 2 - - - - - = # # O O = c c c c c c c c c c c B B B B C A S A A A A R ( { | | | | | | | | | | | ) ) ) ) ( / / ",
"R R R S R R R R R R ( ) ) ) ) ) ) ) ) ) ) ) ) ) ) ) ( R R S Z C n n n n c c c c c v n n h 2 2 ; % % % % % & & % % % 2 2 2 2 2 2 6 6 2.2.I I I ~ ] ] ^ ..X.X.X.X.X.X.X.X.X.X.X.X.X.X.X.X.&.*.*.*.*.*.*.2.2.2.2.2.d.d.h.b.v.b.b.C.C.C.C.C.C.C.C.C.C.C.C.C.C.C.b.b.b.b.b.b.v.v.h.d.d.d.2.2.2.-.*.*.X.X.X._ ~ ~ ~ Q 6 6 8 s s N s % + s J Q Q ......X...X.X.............~ ~ I P P P P P P P P P P P P P P P P P P P P P P P I ~ ~ ~ _ ....X.X...~ ~ ~ _ _ _ ~ ~ ~ ~ ~ ~ ~ _ _ ~ ~ I I I I I I I I I Q _ _ ~ ~ _ _ ...._ _ _ ~ ~ ~ _ ..........o.+.+.+.+.+.+.1.1.1.2.6.h.6.6.6.6.h.2.2 , , , % $ % , , < 7 7 7 7 7 7 7 j k k k N F F F F J J I E E X.X.X.X.*.*.*.*.=.;.;.a.a.a.a.a.d.d.a.a.a.a.a.;.;.;.;.;.;.;.;.;.;.;.;.;.a.a.a.a.a.a.a.a.a.a.a.a.a.a.a.a.a.a.a.a.a.a.a.a.a.a.a.a.;.;.;.=.=.=.$.@.@.@.@.@.[ ^ ^ ^ ^ ^ ^ ^ ^ ^ E Q N N N N N N N N B B V B B Q Q Q Q Q Q Q Q T ! ^ ^ [ [ [ @.#.#.#.#.@.@.@.@.@.@.#.$.=.;.a.a.t.%.t 2 q 2 2 2 2 q q 2 2 2 - - - - = # # O O O : c c c c f c c c c c c B B B B n C A A A A A R ( { | | | | | | | | | | { ) ) ) ) / / / ",
"R R S S R R R R R W ( ) ) ) ) ) ) ) ) ( S / ) ) ) ) W R S S C C n n C C v c c c c c c c 2 2 2 2 ; & % % % % % % % % ; 2 2 2 2 2 2 6 2.2.I I I ~ ] ] ] ] X.X.X.X.X.X.X.X.X.X.X.X.X.X.X.X.X.*.*.*.*.*.2.2.2.2.2.3.d.d.h.v.v.b.b.C.C.C.C.C.F.F.C.C.C.C.F.C.C.C.b.b.b.b.b.b.v.b.h.d.d.d.2.2.2.-.*.*.X.X.X...~ ~ ~ N 6 6 6 s s s s % o s s s s s l ~ +.&.&.X..........._ _ I P P P P P P P P P P P P P P P P P I ~ ~ _ ~ ~ _ ~ ~ ~ ..X.X.X.X.X.X._ ~ ~ ~ _ _ ~ ~ ~ ~ ~ ~ _ _ _ _ ~ ~ P P I I I I I I _ _ ~ ~ ~ ~ _ ........_ ~ ~ ~ ............o.+.+.+.+.+.+.*.,.1.1.1.2.6.6.6.6.6.6.*., , % $ $ % , & 6 7 7 7 7 7 7 s k k k k z F F F F J J I Q E X.X.X.X.@.*.*.*.=.;.;.a.a.a.a.a.j.j.j.d.a.a.a.;.;.;.;.;.;.;.;.a.a.a.a.a.a.a.a.a.a.a.a.a.a.a.a.a.a.a.a.a.a.a.a.a.a.a.a.a.a.a.a.a.;.;.=.=.=.=.$.@.@.@.@.@.^ ^ ^ ^ ^ ^ ^ ^ ^ ^ E Q K N N N N N N B K K K K K Q Q Q Q Q Q Q Q Q T ! ^ ^ [ [ [ X.@.#.@.#.#.#.#.@.#.#.#.$.@.$.=.t.#.t 2 q 2 2 2 2 2 2 2 2 : - - - - = # # * O O : f i i f c c c c c c c v B B B n n B A A A A W ( ( | | | | | { ) { { { ) ) ) ) / / / / ",
"R R R R R R S S R R ( ) ) ) ) ( ) ) ) ( R R R ( ( ( R R S S C C n n C C C v c c c c c c 2 2 2 2 2 2 & % % % % % % % & 2 2 2 2 2 1 2 2.2.I I I ~ ] ] ] ^ ..X.X.X.X.X.X.X.X.X.X.X.X.X.X.X.X.&.*.*.*.-.2.2.2.2.2.d.d.d.h.v.v.v.b.C.C.C.C.C.C.C.C.C.C.C.F.C.C.C.C.C.b.b.b.b.b.v.b.d.d.d.2.2.2.-.*.&.X.X.X.X.~ _ _ 6 6 6 6 s s s s % o o % , l _ &.*.+.+.+.X.X......._ _ I P P P P P P P P P P P P P P P P P I _ ~ ~ ~ _ ~ ~ ~ ~ ..X.X.X.X.X.X.X...~ ~ ~ _ _ _ _ ~ ~ ~ ~ _ _ _ _ ~ ~ I P I I I I I ~ _ _ ~ ~ ~ ~ _ ..........~ ~ ~ ............o.+.+.+.+.+.+.+.+.*.1.1.1.6.6.6.6.6.6.6._ % $ $ $ & , & 6 7 7 7 7 7 s k k k k k z F F F F J J J Q E ^ X.X.X.X.*.*.*.=.;.;.a.a.a.a.d.j.j.j.j.d.a.a.;.;.;.;.;.a.a.a.a.a.a.a.a.a.a.a.a.a.a.a.a.a.a.a.a.a.a.a.a.a.a.a.a.a.a.a.a.a.a.a.;.;.;.=.=.=.=.@.@.@.@.@.@.^ ^ ^ Q Q E ^ ^ ^ ^ E Q K B N N N N N N B K K K K Q Q Q Q Q Q Q Q Q Q T E ^ ^ [ [ [ [ @.@.#.#.#.#.@.@.#.#.@.@.@.@.$.#.t 2 2 2 2 2 2 2 2 2 2 - - - - - = # * * O O = - - - - 2 p c c c c c c n n B n n B A A A A W ( ( { | | | | ) ) ) ) ) ) ) ) ) / / / / ",
"R R R R R R R S R S / ) ) ) ) ( ) ) ( ( R R R R S R R R S S Z C n C C C C C c c c c c c 2 2 2 2 2 2 2 % % % % % % % % 1 2 2 2 2 1 1 *.*.I I I I ] ] ^ ^ ^ X.X.X.X.X.X.X.X.X.X.X.X.X.X.X.X.X.*.*.*.*.2.2.2.2.2.d.d.d.h.v.b.b.C.C.C.C.C.C.C.C.C.C.C.C.C.C.C.C.C.C.C.C.b.b.b.b.v.h.d.d.3.2.2.-.*.&.X.X.X.X.X.X.Q 6 6 6 6 7 s s s % o o $ J 1.1.1.1.&.&.+...X.X.X...~ _ I P P P P P P P P P P P P P P P P P ~ ~ ~ ~ ~ ~ ~ ~ ~ ..X.X.X.X.X.X.X.X.X.~ ~ ~ ~ ~ ..X._ ~ ~ ~ ~ _ _ _ _ ~ ~ I I I P P P I Q _ _ ~ ~ ~ _ .............._ ............o.+.+.+.+.+.+.+.+.*.1.1.1.2.6.6.6.6.6.6.6.7 $ $ $ & , & 7 7 7 7 7 9 k k k k k k k F F F F F J J Q Q ^ X.X.X.X.X.$.$.*.;.;.a.a.a.a.d.j.j.j.j.j.d.a.a.a.a.a.a.a.a.a.a.d.d.j.a.a.a.a.a.a.a.a.a.a.a.a.a.a.a.a.a.a.a.a.a.a.a.a.a.a.a.a.;.;.;.=.=.=.=.@.@.@.@.@.@.^ ^ E Q Q E E E ^ ^ Q T V K B N N N N N N B K K K K Q T T Q Q Q Q Q T Q Q T E ^ ^ [ [ [ @.@.@.@.@.@.@.@.@.@.#.@.@.@.@.w 2 2 2 2 2 2 2 2 2 : - - - - - = # * * * = - - - - - - - y c c c c c v n n B B B A S A A A S ( ) | | | { ) ) ) ) ) ) ) ) ) / / / / ",
"R R S R R R S S R R R ) ) ( ) ( ) ) ) ) R S R R S R R R S S S C n n C C C C v c c c c c 2 2 2 2 2 2 2 = % % % % % % % = 2 2 2 2 2 1 ..*.I I I I ~ ] ] ^ ^ ..X.X.X.X.X.X.X.X.X.X.X.X.X.X.X.X.&.*.*.*.2.2.2.2.2.d.d.d.h.v.b.b.b.C.C.C.C.C.C.C.C.C.C.C.C.C.C.Z.C.C.C.C.C.C.b.b.b.b.h.d.3.2.2.-.*.&.X.X.X.X.X.X.F 6 6 6 6 6 7 9 7 % o , +.1.1.1.1.*.&.&.o...X.X.X.~ ~ ~ I P I I I I I P P P P P P P P P P I ~ ~ ~ ~ ~ ~ ~ ~ ..X.X.X.X.X.X.X.X.X.X._ ~ ~ ~ _ X.X.X...~ ~ _ _ _ _ ~ ~ _ I I I P P P I I I ~ ~ ~ ~ ................................+.+.+.+.+.+.+.+.,.1.1.1.2.6.6.6.6.6.6.6.2.$ $ $ & , , 7 7 7 7 7 k k k k k k k k N F F F F J J Q Q ~ X.X.X.X.X.@.$.$.=.;.a.a.a.a.d.j.j.j.j.j.j.j.d.d.a.a.a.a.d.d.j.j.j.j.d.a.a.a.a.a.a.a.a.a.a.a.a.a.a.a.a.a.a.a.a.a.a.a.a.a.a.a.;.;.;.=.=.*.*.@.@.@.@.@.@.^ ^ E Q Q E E Q Q Q Q K V K B N N N N N N N V K K V Q T Q Q Q Q Q Q Q Q Q Q Q Q ^ ^ [ [ [ @.@.@.@.@.@.@.@.@.#.@.@.@.@.2 2 2 2 2 2 2 2 2 2 2 2 2 - - - = # * * # = - - - - - - - - w c c c c c n n B B Z A S S A A S S { | | | { ) ) ) ) ) ) ) ) / / / / / ",
"R R S S R R R R R R S ) ) ) ) ) ) ) ) ) S S S R R R R R S S S S Z Z S S C C v c c c c c y 2 2 2 2 2 2 ; & % % % % % % % < 2 2 2 2 2 ] *.I I I I I ~ ^ ^ ^ ^ ..X.X.X.X.X.X.X.X.X.X.X.X.X.X.X.+.*.*.*.2.2.2.2.2.d.d.d.h.b.b.b.b.v.b.C.C.C.C.C.C.C.C.C.C.H.L.L.L.H.C.C.C.C.C.v.b.b.h.d.2.2.2.=.*.$.X.X.X.X.X.X.z 6 6 6 6 6 6 6 6 $ o l 1.1.1.1.*.+.&.&.o.........~ ~ ~ ~ ~ ~ ~ _ _ ~ ~ I P P P P P P P P P ~ ~ _ _ _ _ ~ _ X.X.X.X.X.X.X.X.X.X.X..._ _ _ ..X.X.X.X._ _ _ _ _ _ ~ ~ _ I I I P P I I Q ~ ~ ~ ~ ~ ................................+.+.+.+.+.+.+.+.1.1.1.1.2.6.6.6.6.6.6.6.6.x $ $ % , , 7 7 7 7 j z z z z k k k k x F F F F J J Q Q Q X.X.X.X.X.X.*.*.*.;.a.a.a.a.d.j.j.j.j.j.j.j.j.j.j.j.j.j.j.j.j.j.j.j.d.a.a.a.d.j.j.d.a.a.d.j.j.d.d.a.a.a.a.a.a.a.a.a.a.a.a.a.;.;.;.=.*.*.*.@.@.@.@.@.[ ^ ^ E Q Q E Q Q Q Q K V V B N N N N N N N N B V V V K Q Q Q Q Q Q T Q Q Q Q Q Q ^ ^ ^ ^ [ [ [ @.#.@.@.@.#.@.#.#.@.@.@.m : q q 2 2 2 2 2 2 2 2 2 : - - = * % % # = - - - - - - - - - 2 c c c c n n B Z A A A A A A R { | | | | { ) ) ) ) ) ) ) ) S / / / / ",
"R R S S R R R R R S S ) ) ) ) ) ) ) ) ) S S S R R R R R R R S S S S S S C C v c c c c c h 2 2 2 2 2 2 ; % % % % % % % % & 2 2 2 2 2 ..-.I I I I I I I ~ ^ ^ ^ ..X.X.X.X.X.X.X.X.X.*.*.*.&.X.X.*.*.*.2.2.2.2.3.d.d.d.d.b.b.b.b.v.b.b.b.C.C.C.C.C.C.C.H.K.L.L.L.L.H.C.C.C.C.b.b.b.b.d.2.2.2.*.*.@.X.X.X.X.X.X.s 6 6 6 6 6 6 6 6 % o z 1.1.1.1.&.+.&.&.+.........~ ~ ~ ~ ~ ~ ~ _ _ ~ ~ ~ P P P P P P P P P I _ _ _ _ _ ~ ..X.X.X.X.X.X.X.X.X.X.X.X..._ ..X.X.X.X.X..._ _ _ _ _ ~ ~ _ I I I I I I I _ ~ ~ _ ~ ~ ..............................X.+.+.+.+.+.+.+.+.1.1.1.1.5.6.6.6.6.6.6.6.6.6., $ % , < 7 7 7 7 k k z z z k k k k z F F F F J K Q Q E ^ X.X.X.X.X.@.*.*.;.;.a.a.a.j.j.j.j.j.j.j.j.j.j.j.j.j.j.j.j.j.j.j.j.j.d.d.j.j.j.j.j.d.d.j.j.j.j.d.a.a.d.j.j.a.a.a.a.a.a.a.a.;.;.;.=.=.=.*.@.@.@.@.@.[ ^ ^ E Q Q E Q Q Q K V V B N N N N N N N N N N B V V V Q Q Q Q Q Q Q Q Q Q Q Q Q ^ ^ ^ ^ ^ [ [ [ @.#.#.@.@.@.#.#.#.@.@.N - - - : 2 2 2 2 2 2 2 2 2 - - = * % % % # = - - - - - - - - - 2 f c c c n C S S A R W ( ) { | | | | | { ) ) ) ) ) ) ) S S / / / / ",
"R R S S S R R R R R R ) ) ) ) ) ) ) ) ) R R R R R R R R R R R S S S S S n n v c c c c c h y 2 2 2 2 2 2 % % % % % % % & & 1 2 2 2 2 ..*.~ I I I I I I ~ ] ^ ^ ] X.X.X.X.X.X.X.X.X.&.*.*.*.&.X.*.*.*.2.2.2.3.d.d.d.d.d.h.b.b.v.v.b.b.b.C.C.C.C.C.C.C.L.L.L.K.K.K.K.H.C.C.C.b.b.b.j.d.2.2.2.*.*.@.X.X.X.X.X.X.s 6 6 6 6 6 6 6 6 $ + z 1.1.1.*.+.+.+.+.+.X........._ ~ ~ ~ ~ ~ _ _ ~ ~ ~ P P P P P P P P P P I I _ ~ ~ ~ X.X.X.X.X.X.X.X.X.X.X.X.X.X.X.X.X.X.X.X.X...~ ~ ~ ~ ~ ~ ~ _ I I I I P I _ _ _ ~ ~ ~ _ ............+.+.o.o.X.X.......o.+.+.+.+.+.+.+.,.1.1.1.1.5.6.6.6.6.6.6.6.6.6.J $ $ , < 7 7 7 s k k k k k k z z z z F F F J J I E E E ~ ..X.X.X.X.X.*.*.=.;.a.a.a.d.f.j.j.j.j.j.j.j.j.j.j.j.j.j.j.j.j.j.j.j.j.j.j.j.j.j.j.j.j.j.j.j.j.d.a.a.j.j.j.j.d.d.d.d.a.a.a.;.;.;.;.=.=.=.$.@.@.@.@.^ ^ ^ E Q Q Q Q Q T K K K N N N N N N N N N N N N K G K K Q Q Q Q Q Q Q Q Q Q Q E ^ ^ ^ E ^ [ [ [ [ @.#.@.@.@.#.#.#.@.@.^ - - - - - : 2 2 2 2 2 2 2 2 - - * # # # # # = - - - - - - - - - - w f c B A S W ) ) ) ) ) | | | | | { ) ) ) ) ) ) ) / / / / / / / ",
"R R S S R R R R R S ( ) ) ) ( ) ) ) ) ( R R R R R S R R R R R S S S S C n n v c c c c c h h 2 2 2 2 2 2 % % % % % % < 2 2 2 2 2 2 2 X.*.^ ~ Q Q ~ ~ ~ ] ^ ^ ] ] ] X.X.X.X.X.X.X.X.X.*.*.*.*.&.*.*.-.2.2.d.d.d.d.d.d.d.h.b.b.v.v.b.b.b.C.C.C.C.C.C.C.L.L.K.K.K.K.K.K.C.C.C.b.b.b.h.d.2.2.2.*.*.@.X.X.X.X.X.X.7 6 6 6 6 6 6 6 6 $ , z 1.1.1.*.+.&.+.+.+.X..............._ ~ ~ ~ _ ~ ~ ~ P P P P P I ~ ~ P P P P I ~ ~ _ X.X.X.X.X.X.X.X.X.X.X.X.X.X.X.X.X.X.X.X.X...~ ~ ~ ~ ~ _ _ _ ~ I I P P _ _ ~ _ ~ ~ ~ ..............+.+.+.+.+.+.+.+.+.+.+.+.+.+.+.+.+.1.1.1.1.1.6.6.6.6.6.6.6.6.6.6.6.$ $ & 2 7 7 7 s k k k k k k k z z z F F F J J Q E E E Q Q _ X.X.X.X.@.*.*.;.;.a.a.a.d.j.j.j.j.j.j.j.j.j.j.j.j.j.j.j.j.j.j.j.j.j.j.j.j.j.j.j.j.j.j.j.j.j.a.d.j.j.j.j.j.j.j.j.d.a.a.2.;.;.;.=.=.=.$.@.@.@.@.^ ^ ^ E Q Q Q Q Q B K V K N N N N N N N N N N N N B K G K Q Q Q Q Q Q Q Q Q Q E ^ ^ ^ ^ E ^ [ [ [ [ [ } #.#.@.#.#.#.@.@.@.- - - - - - - : 2 2 2 2 2 2 2 - = # # # # # - 2 f i : - - - - - - - - t B A ( ) ) ) ) ) { | | | | { ) ) ) ) ) ) ) / / / / / / / / ",
"R R R R R R R R R S ) ) ) ) ) ) ) ( ( ( S S R R S S S R R R S S S S C n n n v c c c c c c c w 2 2 2 2 2 % % % % % ; 2 2 2 2 2 2 2 2 2.*.^ ^ ~ ^ ] ^ ^ ] ] ] ] ^ ] ..X.X.X.X.X.X.X.X.*.*.*.*.*.*.*.-.2.d.d.d.d.d.d.d.d.v.b.b.v.b.b.b.C.C.C.C.C.C.C.C.L.L.K.K.K.K.K.H.C.C.b.b.b.h.d.3.2.2.2.*.*.@.X.X.X.X.X.X.6 6 6 6 6 6 6 6 6 $ , z 1.1.1.&.+.&.+.+.+.+.X...............~ ~ ~ _ ~ _ I P P I Q _ ~ ~ ~ I P P P P ~ ~ ..X.X.X.X.X.X.X.X.X.X.X.X.X.X.X.X.X.X.X.X.X.X._ ~ ~ _ _ _ _ _ _ P P P I _ _ _ _ _ _ _ ..............o.+.+.+.+.+.+.+.+.+.+.+.+.+.+.+.1.1.1.1.1.1.6.6.6.6.6.6.h.6.6.6.6.k $ % 2 7 7 7 s k k k k k k k z k z F F J J K Q Q E E E Q Q ..X.X.X.X.$.*.=.;.;.a.a.a.a.d.d.d.d.j.j.j.j.j.j.j.j.j.j.j.j.j.j.j.j.j.j.j.j.j.j.j.j.j.j.j.j.j.j.j.j.j.j.j.j.j.j.j.d.a.a.;.;.;.=.=.*.$.@.@.@.@.^ ^ ^ E Q Q Q Q K V K K B N N N N N N N N N N N N N G G K K Q Q Q Q Q Q E E E ^ ^ ^ ^ ^ ^ ^ [ [ [ [ [ [ @.#.@.@.@.#.@.@.#.w - - - - - - - - 2 2 q 2 2 q : - = # O = - - c M M M 2 - - - - - - - - n S ( W R R ) ) | | | | { ) ) ) ) ) ) ) / / / / / / / / / ",
"R R R R R R R R R / ) ) ) ) ) ) ) ( ( ( S S R R S S S R R S S S Z C n n C n c c c c c c c c p 2 2 2 2 2 % % % % % 1 2 2 2 2 2 2 2 2 2.*.] ^ ] ] ] ^ ^ ] ^ ] ^ ^ ] ] ..X.X.X.X.X.X.X.+.*.*.*.*.*.*.2.2.d.d.d.d.d.d.d.h.v.b.b.b.b.b.b.C.C.C.C.C.C.C.C.H.L.K.K.K.K.K.C.C.b.b.b.b.h.d.2.2.2.2.*.*.@.X.X.X.X.X.X.6 6 6 6 6 6 6 6 6 + , z 1.1.1.*.+.+.+.+.+.+.&.X.............~ ~ ~ ~ _ _ ~ ~ ~ ~ _ _ ~ ~ ~ I P P P P ~ ~ ..X.X.X.X.X.X.+.+.X.X.X.X.X.X.X.X.X.X.X.X.X.X...~ ~ _ _ _ _ _ _ I P I ~ ~ _ _ _ _ ~ ~ ................+.+.+.+.+.+.+.+.+.+.+.+.+.+.,.1.1.1.1.1.1.6.6.h.6.6.6.6.h.6.6.6.6 $ $ 6 7 7 7 6 k k k k k k k z z x F G J J J Q E E E E E E ~ X.X.X.X.X.*.*.=.;.;.=.;.a.a.a.a.a.a.d.d.j.j.j.j.j.j.j.j.j.j.j.j.j.j.j.j.j.j.j.j.j.j.j.j.j.j.j.j.j.j.j.j.j.j.j.j.j.d.a.a.;.;.;.=.*.*.@.@.@.@.^ ^ ^ E Q Q Q Q K K K N N N N N N b N N N N N N N N B V V V Q Q Q Q Q E ^ ^ ^ ^ ^ ^ ^ E ^ ^ [ [ [ [ [ [ #.#.@.@.@.@.@.@.#.T - - - - - - - : q 2 2 2 2 2 2 - - = = - - - d M M M m 2 - - - - - - - Z A S A A R ) ) | { { ) ) ) ) ) ) ) ) / S / / / / / / / / ",
"S S S R R S S S R ( ) ) ) ) ) ) ) ) ) ( S R R R R R R R S S S Z C C C C C n c c c c h h c c c 2 2 2 2 2 % % % % % 2 2 2 2 2 2 2 2 2 2.*.] ] ] ] ^ ^ ] ] ^ ^ ^ ^ ^ ^ ^ X.X.X.X.X.X.X.X.*.*.*.*.*.*.2.2.3.d.d.d.d.d.d.h.v.v.v.b.b.b.C.C.C.C.C.H.K.K.C.C.H.K.K.K.K.C.C.b.b.b.b.h.d.d.2.2.2.=.*.*.@.X.X.Q E X.X.7 6 6 6 6 6 6 6 6 o , z 1.1.1.1.+.+.+.+.+.+.&.&.&.X......._ _ _ ~ ~ _ ~ ~ ~ _ _ _ _ ~ _ _ _ P P P I ~ ~ ..X.X.X.X.X.X.+.+.+.+.X.X.X.X.X.X.X.X.X.X.X.X.X._ _ _ ~ ~ ~ ~ ~ ~ ~ _ _ ~ ~ _ _ _ _ ~ ................o.+.+.+.+.+.+.+.+.+.+.+.*.1.1.1.1.1.1.1.2.6.6.6.6.6.6.6.6.6.6.6., $ $ 7 7 7 % + k k k k k k k k z F F J J J J J K Q Q Q Q Q Q _ X.X.X.X.@.*.*.=.=.=.=.;.;.;.a.a.a.a.a.a.d.d.d.j.j.j.j.j.j.j.j.j.j.j.j.j.j.j.j.j.j.j.j.j.j.j.j.j.j.j.j.j.j.j.j.j.j.a.a.a.;.;.=.*.=.@.@.@.[ ^ ^ ^ Q Q Q Q Q K V K B N N N N N N N N N N N N N N N K V K T Q Q Q T ^ ^ ^ ^ ^ ^ ^ ^ ^ [ [ [ [ [ [ X.@.@.@.@.@.@.@.@.@.#.@.2 - - - - - - : 2 2 2 q 2 2 2 - - - - - - - : m M M M c - - - - - - w A A A S S / ) ) ) ) ) ) ) ) ) ) ) ) / S S / / / / / / / / ",
"R S S R S S R R R ) ) ) ) ) ( / R R / / S R R R R R R S S S S C C C C C C v c c c c h h c c c t 2 2 2 1 % % % % % 2 2 2 2 2 2 2 2 u 2.*.] ] ] ] ^ ^ ] ] ] ] ^ ^ ^ ^ ^ ..X.X.X.X.X.X.X.&.*.*.*.*.*.2.2.2.d.d.d.d.d.d.h.v.b.b.b.b.C.C.C.C.H.K.K.K.K.H.C.C.K.K.K.H.C.b.b.b.b.b.h.d.d.2.2.2.=.*.*.@.X._ Q Q Q X.F 6 6 6 , 6 6 6 6 o , z 1.1.1.1.*.+.+.+.+.+.&.&.+.X......._ _ ~ ~ ~ ~ ~ _ _ _ ~ _ _ _ _ _ ~ I P I ~ ~ ..X.X.X.X.X.X.+.+.+.+.+.+.X.X.X.X.X.X.X.X.X.X.X.X..._ _ ~ ~ ~ ~ ~ ~ ~ _ ~ ~ ~ ~ _ _ _ ~ ~ ~ _ ............+.+.+.+.+.+.+.+.+.+.+.1.1.1.1.1.1.1.6.6.6.6.6.6.6.6.6.6.6.6.6., $ $ 7 6 3 + + k k k k k k z N F F F J J J J J J J K Q Q Q Q E ..X.X.X.X.@.*.*.*.*.=.=.;.;.;.;.;.;.a.a.a.a.a.d.d.j.j.j.j.j.j.j.j.j.j.j.j.j.j.j.j.j.j.j.j.j.j.j.j.j.j.j.j.j.j.j.j.a.a.a.;.;.=.*.=.@.@.@.[ ^ ^ Q Q Q Q Q Q T V K K K B N N N N N N N N N N N N N B V K V Q Q Q E E ^ ^ ^ ^ ^ ^ ^ [ [ [ [ @.@.@.@.@.@.@.@.@.@.@.@.@.#.#.b - - - - - - 2 2 2 2 2 2 2 2 : - - - - - - - : d c i 2 - - - - - - p A A A S S / ) ) ) ) ) ) ) ) ) ) ) S S / S / / / / / / / / ",
"R R R R R R R R S ( ) ) ( R R R R R S S R R R R R R S S S S S n n n C C v c c c c c c c c c c c w 2 2 ; % % % % % 2 2 2 6 u 2 2 6 u 2.*.] ] ^ ^ ^ ^ ] ] ] ^ ^ ] ^ ^ ^ ..X.X.X.X.X.X.X.X.*.*.*.*.*.2.2.2.3.d.d.d.d.d.h.v.b.b.b.C.C.C.C.H.L.K.K.K.K.H.C.H.K.K.K.C.C.b.v.v.b.h.d.d.d.2.2.2.*.*.*.X.X.~ Q Q Q Q Q 7 6 < , 2 6 6 6 o > z 1.1.1.1.1.&.+.+.+.+.+.+.+.X.....~ ~ _ _ _ _ ~ ~ _ _ ~ ~ ~ ~ _ _ ~ ~ ~ ~ ~ ~ ..X.X.X.X.X.X.X.+.+.+.+.+.+.X.X.X.X.X.X.+.+.X.X.X.X.X._ ~ ~ ~ ~ ~ ~ _ _ _ _ ~ ~ ~ ~ ~ ~ _ ~ ~ ~ ~ _ ..........+.+.+.+.+.+.+.+.+.*.1.1.1.1.1.1.5.6.6.h.h.6.6.6.6.6.6.6.6.6., $ % , , , + + k k k k k x F F F F F F F J J J J J J J I E E E E ..X.X.X.X.*.*.*.*.*.*.*.*.=.;.;.;.;.;.;.;.a.a.a.a.d.j.j.j.j.j.j.j.j.j.j.j.j.j.j.j.j.j.j.j.j.j.j.j.j.j.j.j.j.j.j.a.a.a.;.;.=.=.=.@.@.@.^ ^ Q Q Q Q Q Q Q K V B B B B B N N N N N N N N N N N N N K V V T Q Q E E E ^ ^ ^ ^ ^ [ ^ [ [ @.#.#.#.@.@.@.@.#.#.@.@.@.@.@.@.$.w - - - - - 2 2 2 2 2 2 2 2 2 2 - - - - - - - - - - - - - - - - - B A A A A A / ) ) ) ) ) ) ) ) ) ) / / / / / / / / / / / / / ",
"R R R R R R R R S R ( / R R R R R R R R R R R R R S S S S S Z n n n n v c c c c c c c c c c c c c w 2 ; % & % % % 2 2 2 6 u 6 2 u u 2.2.^ ^ ^ ^ ^ ^ ^ ] ] ^ ^ ] ^ ^ ^ ] X.X.X.X.X.X.X.X.X.*.*.*.*.2.2.2.2.d.d.d.d.d.h.v.b.b.C.C.C.C.C.K.K.K.K.K.K.K.K.K.K.K.K.H.C.C.b.v.v.h.d.d.d.2.2.-.*.*.*.X.X.~ Q Q Q Q Q k 5 , , < 6 6 6 o > z 1.1.1.1.1.1.&.+.+.+.+.+.X.X..._ _ ~ ~ ~ _ _ ~ ~ ~ ~ ~ ~ ~ ~ _ _ ~ ~ ~ ~ ~ ..X.X.X.X.X.X.X.+.+.+.+.+.+.+.X.X.X.X.X.+.+.+.X.X.X.X.X...~ ~ ~ ~ ~ _ _ _ _ _ ~ ~ ~ ~ _ _ _ ~ ~ ~ ~ ~ _ ........X.+.+.+.+.+.+.+.+.*.1.1.1.1.1.1.6.6.6.h.h.6.6.6.6.6.6.6.6.6., $ % , , , + % k k k z N F F F F F F F F F F J J J J J J Q E E E Q ..X.X.X.X.*.*.*.*.$.$.*.*.*.*.=.=.;.;.;.;.;.;.2.a.a.d.j.j.j.j.j.j.j.j.j.j.j.j.j.j.j.j.j.j.j.j.j.j.j.d.d.d.d.d.a.a.a.;.;.=.=.$.@.@.} ^ E Q Q Q Q Q Q T V V N N N N N N N N N N N N N N N N N N V K V K Q Q E E E ^ ^ ^ [ [ [ [ [ } #.#.#.#.@.@.@.#.#.$.#.#.@.@.@.@.#.N - - - - - 2 2 2 2 2 2 2 2 2 2 - - - - - - : i c y w : - - - - : A A A A A A / ) ) ) ) ) ) ) ) ) ) / / / / / / / / / / / / / ",
"R R R R R R R R R R S R R R R R R S S R S S R R S S S S S S Z n n n n c c c c c c c c c c c c c c 2 2 = % % % % = 2 2 2 6 u u 6 u u -.-.~ ~ ^ ^ ^ ] ] ] ] ] ^ ^ ^ ^ ] ] X.X.X.X.X.X.X.X.X.*.*.*.*.2.2.2.2.2.d.d.d.d.h.b.b.b.C.C.C.C.C.L.K.K.K.K.K.K.K.K.K.K.K.K.C.C.b.b.b.h.d.d.d.2.2.=.*.*.*.X.X.Q Q Q Q Q Q K < , , , 6 6 6 o + z 1.1.1.1.1.1.2.*.+.+.+.+.X.....~ _ ~ ......~ ~ ~ ~ ~ _ _ ~ ~ _ ~ ~ ~ ~ ~ ..X.X.X.X.X.X.X.+.+.+.+.+.+.+.+.+.X.X.X.+.+.+.+.X.X.X.X.X.X._ ~ ~ ~ ~ ~ _ _ _ ~ ~ ~ _ _ _ _ _ _ ~ ~ ~ ~ _ ..........o.o.........+.+.*.1.1.1.1.1.2.6.6.6.6.6.6.6.6.h.h.6.6.6.6., $ & , , % + % k k k N F F F F F F F F F F F F F J J J J J Q E Q Q Q ^ X.X.X.X.*.*.*.$.$.$.*.*.*.*.$.$.*.=.;.=.=.;.;.a.a.d.j.j.j.j.j.j.j.j.j.j.j.j.j.j.j.j.j.j.j.j.j.a.a.a.a.a.a.a.a.;.;.=.*.*.@.@.@.^ ^ E Q Q Q Q Q Q K V B N N N N N N N N N N N N N N N N N N K K V V Q Q E ^ ^ ^ ^ [ [ [ [ [ [ @.#.#.@.@.@.@.@.@.=.=.=.#.#.#.@.@.#.T - - - - - 2 2 2 2 2 2 2 2 2 ; - - - - - ; B A Z f f f i 2 - - i A A A A A A W ) ) ) ) ) ) ) ) ) ) S S S / / / / / / / / / / ",
"R R R R S S R R R R S S R R R R R R R R R R R S S S S S S S C n n n n c c c c c c c c c c c c c c 2 2 = % % % % = 2 2 2 6 u u u u u -.-.~ ~ ^ ^ ^ ^ ] ] ] ] ^ ^ ^ ^ ] ] X.X.X.X.X.X.X.X.X.*.*.*.*.2.2.2.2.2.2.d.d.d.h.b.b.b.C.C.C.C.C.K.K.K.K.K.K.K.K.K.K.K.K.K.H.C.b.b.b.h.d.d.3.2.2.*.*.*.*.X.X.Q Q Q Q Q Q Q < , , , 6 6 6 + o z 1.1.1.1.1.1.2.2.1.*.+.+.X..._ ~ _ _ +.+.+.+...~ ~ ~ _ _ ~ ~ ~ ~ ~ ~ _ X.X.X.X.X.X.X.X.+.+.+.+.+.+.+.+.+.+.+.+.+.+.+.+.+.+.X.X.X.X.X.X._ ~ ~ ~ ~ _ _ _ ~ ~ ~ ~ ~ _ _ _ _ ~ ~ ~ ~ _ _ ................_ _ _ +.*.1.1.1.1.1.5.6.6.6.h.h.6.6.6.6.h.6.6.6.6., $ & , , % + < k k z F F F F F F F F F F F F F F J J J J J K E E Q Q Q ~ ..X.X.X.*.*.@.@.X.@.@.*.*.*.*.*.*.$.=.=.;.;.a.a.a.d.j.j.j.j.j.j.j.j.j.j.j.j.j.j.j.j.j.j.j.d.a.a.a.a.a.a.;.;.;.=.=.=.@.@.@.^ ^ ^ Q Q Q Q Q Q Q V V B N b N N N N N N N N N N N N N N N N K K V V Q Q T ^ ^ ^ [ [ [ [ [ [ [ @.#.#.@.@.@.@.@.$.=.=.=.$.#.#.@.@.#.T 2 - - - - : 2 2 2 2 2 2 2 : - - - - - - t A A Z f f f f f 2 2 A A A A A A A / ) ) ) ) ) ) ) ) ) ) / S S / / / / / / / / / / ",
"S S R R S S R R R R R S R R R R R R R R R R R S S S S S S S C C C C n v c c c c c h h c c h c c c 2 2 = % % % % ; 2 2 2 u u u u u u -.-.] ] ] ^ ^ ^ ^ ^ ] ^ ^ ^ ^ ] ] ] X.X.X.X.X.X.X.X.X.&.*.*.*.2.2.2.2.2.2.3.d.d.h.b.b.b.C.C.C.C.C.C.H.K.K.K.K.K.K.K.K.K.K.K.L.C.C.b.b.h.d.d.3.2.2.*.*.*.*.X.X.~ Q Q Q Q Q I , , , , 5 6 6 % $ z 1.1.1.1.1.1.2.2.1.1.&.+.X..._ ~ _ _ X.+.+.+.+.~ ~ ~ _ _ _ _ ~ ~ ~ ~ ..X.X.X.X.X.X.X.X.+.+.+.+.+.+.+.+.+.+.+.+.+.+.+.+.+.+.+.+.X.X.X.X.X...~ ~ ~ ~ _ ~ ~ ~ ~ ~ ~ ~ ~ _ ~ ~ ~ _ _ _ _ ........_ _ _ _ ~ ~ ~ ..*.1.1.1.1.1.5.6.6.6.6.6.6.6.6.6.6.6.6.6.6., % & , , $ + 2 k k z F F F F F F F F F F F F F F F J J J J J K E E E Q Q E ^ X.X.X.X.X.X.X.X.X.@.*.*.$.*.$.$.=.;.;.;.a.a.a.d.j.j.j.j.j.j.j.j.j.j.j.j.j.j.j.j.j.j.j.a.a.a.a.a.a.;.;.;.=.=.=.$.@.@.^ ^ ^ E Q Q Q T T Q T V V B N b N N N N N N N N N N N N b b N N K K V V T Q Q ^ ^ ^ [ [ [ [ [ [ [ @.#.#.@.@.#.#.#.=.=.=.=.=.%.$.#.#.@.T w - - - - - 2 2 2 2 2 2 2 - - - - - - - - v S A c f f f c v A A A A A A A A / ) ) ) ) ) ) ) ) ) ) ) / S S / / / / / / / / / ",
"S S S R S R R R R R R S S R R R R R R R R R S S S S S S S Z n n C C C n c c c c c h h h c h h c c 4 2 % % % % % 1 2 2 2 u u u u u u 2.-.] ] ] ] ^ ^ ^ ^ ] ] ^ ^ ] ] ] ..X.X.X.X.X.X.X.X.X.&.*.*.*.-.2.2.2.2.2.2.d.d.b.b.b.b.b.C.C.C.C.C.C.Z.K.K.K.K.K.K.K.K.K.K.L.C.C.b.v.h.d.d.2.2.2.*.*.*.@.X.X.~ Q Q Q Q Q F , , , , 5 6 6 % 5 ..1.1.1.1.1.1.1.1.1.1.*.+.+.....~ ~ ~ _ +.+.+.o.~ ~ _ ~ _ ~ _ _ ~ ~ ~ ..X.X.X.X.X.X.X.X.+.+.+.+.+.+.+.+.+.+.+.&.*.*.*.*.*.*.+.+.+.+.+.X.X.X.X..._ _ _ ~ ~ ~ ~ ~ ~ ~ ~ _ ~ ~ ~ _ _ _ _ ~ ~ ~ ~ ~ _ _ _ ~ ~ ~ _ *.1.1.1.1.1.2.6.6.6.6.6.6.6.6.6.6.6.6.6.o., % & , , + + u z z x F F F F F F F F F F F F F F F J J J J J J Q E E Q Q Q E ~ ^ X.X.X.X.X.X.X.X.X.*.*.*.$.$.=.;.;.;.a.a.a.a.d.j.j.j.j.j.j.j.j.j.j.j.j.j.j.j.j.j.j.a.a.a.a.a.;.;.;.=.=.=.$.@.@.^ ^ ^ ^ Q Q Q Q T Q Q K V V V N N N N N N N N N N N N N N b b b b K K V V K Q Q E ^ ^ [ [ [ [ [ [ [ #.#.#.@.@.#.#.#.=.=.=.=.=.=.=.#.#.@.T t - - - - - : 2 2 2 2 2 : - - - - - - - - 2 A A A n n Z A A A A A A A A A A W ) ) ) ) ) { | { ) ) ) ) / / / / / / / / / / / ",
"R R R R S S R R R R S S S S R R S R R S R R S S S S S S S Z n n C C n n n c c c c c c c c c c c c w 2 % % % % % 2 2 2 4 7 7 u u u u 2.2.] ] ] ^ ] ] ] ^ ^ ^ ^ ^ ^ ^ ^ ..X.X.X.X.X.X.X.X.X.X.*.*.*.*.2.2.2.2.2.3.d.d.h.b.b.b.b.b.b.b.C.C.C.C.H.K.K.K.K.K.K.K.K.K.F.C.C.b.v.h.d.d.2.2.-.*.*.*.@.X.X...Q Q Q Q Q z , , , , 5 6 6 % 2 *.2.2.1.2.2.1.1.1.1.1.1.+.+.....~ ~ ~ ~ +.+.+._ _ _ _ ~ ~ _ _ _ _ ~ ~ ..X.X.X.X.X.X.X.X.+.+.+.+.*.-.-.*.*.*.*.*.*.-.-.-.-.*.*.&.+.+.+.+.+.X.X.X.X....._ _ _ _ _ _ ~ ~ ~ ~ ~ ~ ~ ~ _ _ _ _ ~ ~ ~ ~ _ _ _ _ ~ ~ ,.1.1.1.1.1.1.6.h.h.h.6.6.h.6.6.6.6.6.6.o., , & , , + + j F F F F F F F F F F F F F F F F F J J J J J J J J Q E E E E E E Q E _ X.X.X.X.X.X.X.@.*.*.*.*.*.;.;.;.;.a.a.a.d.j.j.j.j.j.j.j.j.j.j.j.j.j.j.j.j.j.d.a.a.a.a.;.;.;.=.=.=.$.@.@.[ ^ ^ ^ Q Q Q Q Q Q Q K K K B B B b N N N N N N N N N N N N N N b N B K V V K Q Q T E [ [ [ [ [ [ [ [ @.@.@.#.#.@.@.@.=.=.=.=.=.=.=.#.#.@.T w - - - - - - : 2 2 2 2 : - - - - - - - - - c A A A A A A A A S A A A A A A S ) ) ) ) | | | | ) ) ) ) ) / / / / / / / / / / ",
"R R R R S S R R R S S S S S R R S S R R R R S S S S S S S Z n n C C n n C c c c c c c c c c c c c i 2 % % % % & 2 2 2 6 7 7 u u u u 2.2.] ] ^ ^ ] ] ^ ^ ^ ^ ^ ^ ^ ^ ^ ..X.X.X.X.X.X.X.X.X.X.&.*.*.*.2.2.2.3.d.d.d.d.d.h.b.b.b.b.b.b.C.C.C.C.H.L.K.L.L.K.K.K.K.H.C.C.C.b.v.h.d.d.2.2.=.*.*.*.X.X.X.X.Q Q Q Q Q k , , , , 5 6 6 % 2 1.2.1.2.2.1.1.1.1.1.1.1.+.+.X.....~ ~ ~ X.+.o._ _ _ _ ~ _ _ _ _ _ ~ ~ ..X.X.X.X.X.X.X.X.+.+.+.+.-.-.-.*.*.*.-.*.*.-.-.-.-.*.*.*.&.+.+.+.+.X.X.X.X.X.X.X..._ _ _ _ ~ ~ ~ ~ ~ ~ ~ ~ ~ ~ ....~ ~ ~ ~ _ _ _ _ ~ ..1.1.1.1.1.1.1.6.6.6.6.6.6.h.h.6.h.h.6.6..., , , , , + + z F F F F F F F F F F F F F F F F G K J J J K K J J J K K I I K E E Q Q ~ ^ X.X.X.X.X.X.@.*.*.*.*.;.;.;.;.a.a.a.a.j.j.j.j.j.j.j.j.j.j.j.j.j.j.j.j.j.d.a.a.a.a.;.;.;.=.=.=.@.@.@.^ ^ ^ E Q Q Q Q Q Q K V K K B V B B N N N N N N N N N N N N N N b N B V V V K Q Q Q ^ [ [ [ [ [ [ [ [ @.@.@.@.#.@.@.$.=.=.=.=.=.=.=.#.#.#.T w - - - - - - - 2 2 2 2 2 - - - - - - - - - 2 A A A A A A S A A A A S S A A / ) ) ) | | | | | | ) ) ) ) ) ( / / / / / / / / ",
"R R R R S R R R R R R R R R R R R S R R R S S S S S S S S Z n n n n n n C v c c c c c c h c c c c c 4 % % % % & 2 2 2 7 7 u u u u u 2.*.^ ^ ^ ^ ] ] ] ] ^ ^ ] ^ ^ ^ ^ ..X.X.X.X.X.X.X.X.X.X.*.*.*.*.2.2.3.d.d.d.d.d.d.d.h.b.b.b.b.C.C.C.H.L.L.L.K.K.K.K.K.K.K.Z.C.C.C.v.v.h.d.d.2.-.=.*.*.*.X.X.X.X.^ Q Q Q Q s , , , , 5 6 6 $ 2 1.1.1.1.1.1.1.1.1.1.1.1.*.&.+....._ ~ ~ _ +.+.~ _ ~ ~ ~ ~ _ _ _ _ _ ~ ..X.X.X.X.X.X.X.+.+.+.+.+.-.-.*.*.*.-.-.*.-.-.-.*.*.*.*.*.*.&.+.+.+.+.X.X.X.X.X.X.X..._ _ _ _ _ ~ ~ ~ ~ ~ ~ ~ ~ X.X...~ ~ ~ ~ ~ _ _ ~ ,.1.1.1.1.1.1.1.5.6.6.6.6.6.6.6.6.6.6.6.6.J , , , , & + + J J J J J J F F F F F F F F F F F J J J J K K K J J J J J J J J I Q Q Q Q Q E ^ X.X.X.X.X.$.*.*.=.;.;.;.;.;.a.a.a.d.j.j.j.j.j.j.j.j.j.j.j.j.j.j.j.j.d.a.a.a.;.;.;.=.=.=.@.@.@.^ ^ ^ E Q Q Q Q Q Q K V V K K K K B K K B N N b N N N N N N N N N b B K K V K Q Q Q T ^ [ [ [ [ [ [ [ [ @.@.@.#.#.@.#.=.=.=.=.=.=.=.=.@.@.$.T w - - - - - - - - : 2 2 2 - - - - - - - - - - Z A A A A S A A A A A S A A S ) ) ) ) 9.9.| | | | | ) ) ) ) ) / / / / / / / / ",
"R R R R R R R R R R R R R R R R R R R R R S S S S S S S S S n n n n n n C v c c c c h h h c c c c c p % % % % = 2 2 2 u 7 u u u u s 2.X.^ ^ ^ ^ ] ] ] ^ ^ ^ ] ] ^ ^ ^ ..X.X.....] ] X.X.X.&.*.*.*.*.2.2.2.3.d.d.d.d.d.d.h.b.b.b.C.C.C.H.L.L.L.K.K.K.K.K.K.K.K.Z.C.C.C.v.v.h.d.d.2.2.*.*.*.*.X.X.X.X.X.E Q Q Q z , , , , 5 6 6 $ 2 <.1.1.1.1.1.1.2.1.2.1.1.1.+.+.X.........X.+.+...~ ~ ~ ~ ~ _ _ _ _ _ _ X.X.X.X.X.X.X.X.+.+.+.+.+.&.-.*.*.*.-.-.*.-.-.-.*.*.*.*.*.*.*.+.+.+.+.X.X.X.X.X.X.X.X.X._ _ _ _ ~ ~ _ _ ~ ~ ~ ~ X.X.X...~ ~ ~ ~ _ _ X.1.1.1.1.1.1.1.1.1.6.6.6.6.6.6.6.6.6.6.6._ F , , , , % + & J J J J J J J J F F F F F F F F J J K K J K K K J J J J J J J J J Q Q Q Q Q Q E X.X.X.X.X.$.*.*.*.;.;.;.;.;.;.a.a.a.d.j.j.j.j.j.j.j.j.j.j.j.j.j.j.j.a.a.a.;.;.;.=.=.=.$.@.@.[ ^ ^ ^ Q Q Q Q Q Q Q K V V K K K K B B K K B N N N N N N N N N N N b B B K T Q Q Q Q T ^ [ [ [ [ [ [ ^ [ @.@.@.#.#.$.=.=.=.=.=.=.=.=.=.@.@.$.T : - - - - - - - - - : 2 2 - - - - - - - - - - v A A A A A S A A A A S S A ( ) ) ) ) 9.9.| | | | | | ) ) ) ) ) / / / / / / / ",
"R R S S R R R R R R R R R R R R R R R S S S S S S S S S S S Z n n n n n C v c c c c c c c c c c c c c = % % % = 2 2 4 u u u u u u K *.~ ^ ] ] ] ] ] ] ^ ] ] ] ] ^ ^ ] ] ....] ] ] ..X.X.&.*.*.*.*.-.2.2.2.2.2.d.d.d.d.h.b.b.b.C.C.C.C.K.K.K.K.K.K.K.K.K.K.K.K.Z.C.C.C.b.b.h.d.d.2.2.=.*.*.@.X.X.X.X.X.X.~ Q Q N , , , , 6 6 6 $ < *.1.1.1.2.2.1.1.1.1.1.1.1.*.+.+.X.....X.+.+.+.X.~ ~ ~ ~ ~ ~ _ ~ ~ ~ _ X.X.X.X.X.X.X.X.X.+.+.+.+.+.+.*.-.*.-.-.*.-.*.-.*.*.*.*.*.*.-.*.+.+.+.+.+.X.X.X.X.X.X.X.X.~ ~ ~ ~ ~ _ _ ~ ~ ~ _ X.X.X.X..._ _ _ ~ _ 1.1.1.1.1.1.1.1.1.1.6.6.6.6.6.6.6.6.6.6.2.F F , , , , $ + 6 J I Q ~ Q I J J J F F F F F F J J J J J J J J J K K J J J J J J K Q E E E E E E _ X.X.X.X.$.$.$.*.=.=.;.;.;.;.;.a.a.d.j.j.j.j.j.j.j.j.j.j.j.j.j.j.j.a.a.a.;.;.;.*.*.*.@.@.@.^ ^ ^ E Q Q Q Q Q Q Q V V V B B V K K K B B K B N B N b b N N N N N N G K K Q Q Q Q Q T ! ^ [ [ [ [ [ [ [ @.@.@.@.@.=.=.=.=.=.=.=.=.=.=.@.@.@.T - - - - - - - - - - - - : - - - - - - - - w w B A A A A A A A A A A S S R ) ) ) ) ) ) | | | 9.9.9.| | ) ) ) ) ( / / / / / / ",
"R R R S R R R R R R S S R R R R R S S S S S S S S S S S S S S n n n n n C v c c h h c c c c c c c c c 2 % % % ; 2 2 6 u u u u u u ~ ..~ ^ ^ ] ] ] ] ^ ^ ] ] ] ] ] ] ] ] ^ ^ ] ] ] X.X.X.*.*.*.*.*.-.2.2.2.2.2.2.d.d.h.v.v.b.C.C.C.C.H.K.K.K.K.K.K.K.K.K.K.K.K.H.C.C.C.b.b.h.d.d.2.2.=.*.*.X.X.X.X.X.X.X.X._ E K , , , , 6 6 6 % o &.1.1.1.1.2.2.1.1.1.1.1.1.1.+.+.+.+.+.+.+.+.+.o.~ ~ ~ ~ ~ _ _ ~ ~ ~ ..X.X.X.X.X.X.X.X.X.+.+.+.+.+.+.*.*.*.-.-.*.*.*.-.3.3.2.*.*.-.-.*.*.&.+.+.+.+.+.+.X.X.X.X.X...~ ~ ~ ~ _ _ ~ ~ ~ _ X.X.X.X.X.X.....~ *.1.1.1.1.1.1.1.1.1.1.1.6.6.6.6.6.6.6.6.6.2.P x , , , , + + j ~ ~ ~ ~ ~ ~ I J J J F F F F F J J J J J J J J J K K K J J J J J K K Q E E E Q Q ~ X.X.X.X.@.*.$.$.$.*.;.;.;.;.;.;.a.a.d.j.j.j.j.j.j.j.j.j.j.j.j.j.d.a.a.;.;.;.=.=.*.@.@.@.[ ^ ^ ^ Q Q Q Q Q Q Q Q V V V B B B K K K V B K K B V B B B B N N N N N B K K Q Q Q Q Q E ^ ^ [ [ [ [ [ [ [ @.@.@.#.@.=.=.=.=.=.=.=.=.=.=.@.@.@.K - - - - - - - - - - - - - - - - - - % - i A A A A A A A n h i y y i S S ) ) ) ) ) ) ) ) | | 9.9.9.| | { ) ) ) ) / / / / / / ",
"R R S S R R R R R R R S S R R R R S S S S S S S S S S S S S S Z n n n n C n c c h c v v c c c c c c c t % % % ; 2 2 6 u u u u u K ^ ~ ~ Q ~ ^ ^ ^ ^ ^ ^ ] ] ~ ^ ^ ] ] ] ^ ^ ^ ^ ..X.X.&.*.*.*.*.*.2.2.2.2.2.2.2.d.d.v.v.b.C.C.C.C.C.H.K.K.K.K.K.K.K.K.K.K.K.K.H.C.C.C.b.b.h.d.3.2.2.=.*.*.X.X.X.X.X.X.X.X.~ X.Q , , , , 6 6 6 & o +.*.1.1.1.1.1.1.1.1.1.1.1.1.*.+.&.&.&.+.+.+.+.o._ _ _ ~ ~ ~ ~ ~ ~ ~ X.X.X.X.X.X.X.X.X.+.+.+.+.+.+.+.*.*.*.*.-.*.*.-.-.3.3.3.-.*.*.-.-.-.-.*.&.+.+.+.+.+.X.X.X.X.X..._ ~ ~ ~ _ ~ ~ ~ ..X.X.X.X.+.+.+.+.+.1.1.1.1.1.1.1.1.1.1.1.1.1.1.1.6.6.6.6.6.6.1...x , , , & + + Q ~ ~ ~ ~ ~ ~ ~ J J J K F F F J J J J J J J K J J K J J J K K J J J K J I Q Q Q Q E X.X.X.X.X.*.*.$.$.$.*.=.;.;.;.;.a.a.a.j.j.j.j.j.j.j.j.j.j.j.j.j.a.a.a.;.;.;.=.=.$.@.@.@.^ ^ ^ E Q Q Q Q Q Q Q Q V V V B B K K K K B B K K K V K K K K V B b b N K K K Q Q Q Q Q E E E ^ [ [ [ [ [ [ @.@.@.#.#.=.=.=.=.=.=.=.=.=.=.#.#.@.G - - - - - - - - - - - - - % - - = @ @ 2 Z A A Z v y i y y y y y y y Z ) ) ) ) ) ) ) ) ) ) { | | | | | | { ) ) ) ) ) / / / / ",
"R R S R R R R S R R S S S R R R S S S S S S S S S S S S S S S S Z n C C C C n n C C C n c c c c c c c p % % % ; 2 2 u u u u u m ^ ^ ~ ~ Q E ^ ^ ^ ^ ^ ^ ] ~ ~ ^ ^ ] ] ] ^ ^ ^ ^ X.X.X.*.*.*.*.*.*.2.2.2.2.2.2.2.d.d.v.b.b.C.C.C.C.C.K.K.K.K.K.K.K.K.K.K.K.K.K.H.C.C.C.b.b.h.d.d.2.2.=.*.*.X.X.X.X.X.X.X.J z m X.< , , , 2 6 6 < o +.+.1.1.1.1.1.2.1.1.1.1.1.1.1.+.&.&.&.+.+.+.+...~ ~ _ ~ ~ ~ ~ ~ ~ ..X.X.X.X.X.X.X.X.+.+.+.+.+.+.+.+.*.*.*.-.-.-.*.*.2.3.3.3.3.*.*.-.-.-.-.*.*.*.+.+.+.+.X.X.X.X.X.X.X..._ _ _ ~ ~ ~ ..X.X.X.X.+.+.+.+.,.1.1.1.1.1.1.1.1.1.1.1.1.1.1.1.1.6.6.6.6.5.1.*.z , , , % + < ~ ~ ~ ~ ~ ~ ~ ~ I J J J K F G J K J J J J K K J J J J J J K K J J J J J J J Q Q Q Q _ X.X.X.X.*.*.$.$.$.$.*.=.;.;.;.;.a.a.a.j.j.j.j.j.j.j.j.j.j.j.d.a.a.;.;.;.=.=.=.#.@.@.[ ^ ^ ^ Q Q Q Q Q Q Q Q Q V V V V B K K K K B B K K V V K K K K V V V B N K K K Q Q Q Q Q Q T Q E ^ [ [ [ [ [ } @.#.#.#.=.=.=.=.=.=.=.=.=.=.#.#.$.b - - - - - - - - - - - - = @ = = @ @ - y A A n y y y y y y y R k.k.k.y.) ) ) ) ) ) ) ) ) ) ) { | | | | | | { ) ) ) ) ) ( / / ",
"R R R R R R S S R S R S S R R R R S S S S S S S S S S S S S S S S Z C C C n n n n n C v c c h h c c c c % % % & 2 2 7 u u u z ] ^ ] ^ Q Q Q ^ ^ ^ ^ ] ] ] ] ^ ^ ^ ^ ] ] ] ] ^ ..X.X.&.*.*.*.*.*.-.2.2.2.2.2.2.d.d.d.b.b.b.C.C.C.C.C.L.L.L.K.L.K.K.L.L.K.K.K.K.H.C.C.C.b.b.h.d.a.2.2.=.*.*.X.X.X.X.X.X.I I z z K 7 , , , < 2 , & o o.+.*.1.1.1.1.2.2.1.1.1.1.1.1.+.+.+.+.+.o.X..._ _ ~ ~ ~ ~ _ ~ ~ _ X.X.X.X.X.X.X.X.+.+.+.+.+.+.+.+.+.+.&.*.*.*.-.-.-.3.3.3.3.3.2.-.-.-.*.*.*.*.-.*.&.+.+.+.X.X.X.X.X.X.X.X....._ _ _ X.X.X.X.X.X.+.+.+.+.<.1.1.1.1.1.1.1.1.1.1.1.1.1.1.1.1.6.6.6.2.1.1.s , , , + + 2 ~ ~ ~ ~ ~ ~ ~ ~ ~ K J J J K K K K J K K K K K J J J J J J J J J K K K J J J J Q E E ^ X.X.X.X.@.$.*.*.*.$.*.*.=.=.=.=.a.a.a.d.j.j.j.j.j.j.j.j.j.j.a.a.a.;.;.;.=.=.=.@.@.@.^ ^ ^ ^ Q Q Q Q Q Q Q Q Q K B B K K K K K K V B V V V V K K K K V V V V B V V K Q Q Q Q Q Q Q Q Q Q ^ [ [ [ [ [ @.@.#.#.$.=.=.=.=.=.=.=.=.=.#.#.$.c - - - - - - - - - - - - - @ @ @ @ @ - y A Z y y y y y y y y ) k.k.k.k.| ) ) ) ) ) ) ) ) ) ) { | | | | | | | ) ) ) ) ) / / / ",
"R R S R R R S S S R R S S S R R R R S S S S S S S S S S S S S S S S S Z C C n n n n n c c c h h c c c c % % % & 2 2 6 u u z ^ ^ ] ] ~ Q Q Q ] ] ~ E Q Q Q E ^ ^ ^ ^ ] ] ] ] ] X.X.X.*.*.*.*.*.*.-.2.2.2.2.2.2.d.d.d.h.b.b.b.C.C.C.C.C.C.C.H.L.L.K.L.L.K.K.K.H.C.C.C.C.b.b.h.d.2.2.2.-.*.*.X.X.X.X.X.Q I I z z m x , , , , , , , o P +.+.+.*.1.1.1.2.1.1.1.1.1.*.+.+.+.+.X.X...~ _ _ ~ ~ _ ~ _ _ ~ ..X.X.X.X.X.X.+.+.+.+.+.+.+.+.+.+.+.+.+.*.-.*.-.*.-.3.3.3.3.3.3.2.-.-.*.*.*.*.-.*.*.+.+.+.+.X.X.X.X.X.X.X.X.X.X.X.X.X.X.X.X.X.X.+.+.+.+.+.,.1.1.1.1.1.1.1.1.1.1.1.1.1.1.1.6.6.6.2.1.1.6 , , % + + k ~ ~ ~ ~ ~ ~ ~ ~ ~ I J J J J J K K J K K K K K J J J J J J J J J J K K J J J J Q E E E X.X.X.X.@.$.*.*.*.*.*.*.=.;.=.=.;.a.a.a.d.j.j.j.j.j.j.j.j.d.a.a.a.;.;.;.=.=.=.@.@.@.^ ^ ^ E Q Q Q Q Q Q T Q Q K V B K K K K K K V B V V V V K K B G V K V V V V V K Q Q Q Q Q Q Q Q Q Q Q ^ [ [ [ [ @.@.#.@.#.=.=.=.=.=.=.=.=.=.#.#.#.i - - - - - - - - - - - - - @ @ % @ @ = y A c y y i y y y y y ) q.k.k.k.p.) ) ) ) ) ) ) ) ) ) | | | | | | | | | ) ) ) ) / / / ",
"R R S S R R R R R R R S R R S %.| S S R R R S S S S S S S S S S S S S S S Z C C n n c c c c c c c c c c 1 % % & 2 2 6 u K ~ ^ ^ ] ] Q Q Q E ~ Q Q Q Q Q Q Q ^ ^ ^ ^ ^ ^ ] ] ..X.X.+.*.*.*.*.*.*.2.2.2.2.2.2.2.3.d.d.d.b.b.b.C.C.C.C.C.C.C.C.C.H.K.K.K.K.K.H.C.C.C.C.C.b.b.h.d.2.-.-.-.*.*.X.X.X.X.X.I I I z z z Q , , , , , , , o J +.+.+.+.&.1.1.1.1.1.1.2.*.+.+.+.X.X.X...~ ~ _ ~ ~ ~ _ _ _ _ ..X.X.X.X.X.+.+.+.+.+.+.+.+.+.+.+.+.+.+.+.-.*.*.*.-.-.3.3.3.3.3.3.3.3.-.-.-.-.-.-.-.*.*.+.+.+.+.X.X.X.X.X.X.X.X.X.X.X.X.X.X.X.X.X.X.+.+.+.+.+.,.1.1.1.1.1.1.1.1.1.1.1.1.1.1.5.6.6.6.1.1.6 , , + + + k ~ ~ ~ ~ ~ ~ ~ ~ ~ ~ K J J J J J J J J J J J J J J K J K K J J J J K J J J J J Q E E Q ..X.X.X.@.$.*.*.*.*.*.=.;.;.;.;.;.;.a.a.a.j.j.j.j.j.j.j.d.a.a.a.;.;.;.=.=.=.$.@.@.@.^ ^ ^ E Q Q Q Q Q Q Q Q Q K B B V K K K K K K V V V K K T T Q Q Q Q Q Q T T T Q Q Q Q Q Q Q Q T Q Q Q Q ^ [ [ [ @.@.@.@.#.=.=.=.=.=.=.=.=.=.#.#.@.t - - - - - - - - - - - - - @ @ @ @ @ @ y A y y y i y y y y y S { k.k.k.k.{ ) ) ) ) ) ) ) ) | 9.9.9.9.9.| | | | | ) ) ) / S S ",
"R R R S R R R R R R R R c = = %.t.R S S R R R R R S S S S S S S S S S S S C n C n c c c v n C n c c c c 1 % % % 2 2 4 N Q Q ~ ^ ] ^ Q Q Q ~ Q Q Q Q Q Q Q Q ~ ^ ^ ^ ^ ^ ] ..X.X.X.&.*.*.*.*.*.*.2.2.2.2.2.2.2.2.d.d.d.h.b.b.b.C.C.C.C.C.C.C.C.C.C.C.H.H.C.C.C.C.C.C.b.b.b.h.d.2.2.-.-.*.*.X.X.X.X...I I I m z z X.< , , , , , , + J +.+.+.+.+.+.&.<.1.1.*.&.+.+.X.X.X.X._ ~ ~ ~ ~ ~ ~ ~ _ _ _ ..X.X.X.X.+.+.+.+.+.+.+.+.+.+.+.+.+.+.+.+.&.-.*.*.*.-.2.3.3.3.3.3.3.3.3.3.2.-.-.-.-.-.*.*.*.+.+.+.+.X.X.X.X.X.X.X.X.X.X.X.X.X.X.X.X.X.o.+.+.+.+.*.1.1.1.1.1.1.1.1.1.<.<.1.1.1.2.6.6.6.1.1.6 , % + + + J ~ ~ ~ ~ ~ ~ ~ ~ ~ ~ Q J J J J J J J J J J J J J J K K K K J J J J K K J J J J Q ~ E Q ~ X.X.X.@.$.*.*.*.*.*.=.;.;.;.;.;.;.a.a.a.a.d.j.j.j.d.d.a.a.a.a.;.;.;.=.=.=.$.@.@.[ ^ ^ ^ E Q Q Q Q Q Q Q Q Q Q B B B K K K K K K T Q Q Q Q Q Q Q Q Q Q Q Q Q Q Q Q Q Q Q Q Q Q Q Q Q Q Q Q E [ [ [ @.@.@.@.$.=.=.=.=.=.=.=.=.=.=.%.@.t - - - - - - - - - - - - - % @ @ @ @ @ i A y y y p y y y y y Z ) f.k.k.k.| ) ) ) ) ) ) ) | 9.9.9.9.9.| | | 9.9.| | ) ) / / S ",
"R R S S S R R R R S i = = = * M t.) S S S R R R R R S S S R R R S S S S C C n n c c v n C n n v c c c c 1 % % % ; 2 6 Q Q Q Q Q ~ ~ Q Q Q ~ Q Q Q Q Q Q Q Q ^ ] ^ ^ ^ ^ ] X.X.X.X.*.*.*.*.*.*.*.2.2.2.2.2.2.2.2.d.d.d.d.h.v.b.b.C.C.C.C.C.C.C.C.C.C.C.C.C.C.C.C.C.C.b.v.v.h.d.2.2.2.-.*.*.@.X.X.X.X.I I I N z z X.s , , , , , , o J +.+.+.X.X.X.+.+.+.+.+.+.X.X.X.X.......................X.X.X.X.+.+.+.+.+.+.+.+.+.+.+.+.+.+.+.+.+.+.+.*.-.-.-.-.-.3.3.3.3.3.3.3.3.3.3.3.3.-.*.*.*.*.*.*.*.+.+.+.+.X.X.X.X.X.X.X.X.X.X.X.X.X.X.X.X.X.+.+.+.+.+.1.1.1.1.1.1.1.<.+.+.+.+.<.1.1.6.6.6.2.1., , + + + + P ~ ~ ~ ~ ~ ~ ~ ~ ~ ~ ~ J J J J K K K J J J K K K K J J J J J J J J K K J J J J Q Q E E Q X.X.X.X.*.*.*.$.$.*.=.;.;.;.;.;.=.;.a.a.a.a.a.d.a.a.a.a.a.a.a.;.;.;.=.=.=.@.@.@.^ ^ ^ ^ T Q Q Q Q Q Q Q T Q Q T V V V V K T Q Q Q Q Q Q Q Q Q Q Q Q Q Q Q Q Q Q Q Q Q Q Q Q Q Q Q Q Q Q Q E [ [ @.#.#.#.#.=.=.=.=.=.=.=.=.=.=.=.=.$.2 - - - - - - : 2 w w w 2 - = @ @ @ @ @ i A i y y y y y y y y h ) i.k.k.k.| ) ) ) ) ) ) ) | | | | 9.| | | | | | | | { ) ( / / ",
"R R S S R R R S i = = = = = * = t.q.S S S S R R R R S S R R R S S S S C C n n n n n C C C C n c c c c c 1 % % % & 2 k Q Q Q Q Q Q Q Q Q Q ~ Q Q Q Q Q Q Q Q ^ ] ] ^ ^ ^ ..X.X.X.X.*.*.*.*.*.*.*.2.2.2.2.2.2.2.d.d.d.d.d.h.v.b.v.b.b.C.C.C.C.C.C.C.C.C.C.C.C.C.C.C.C.b.b.b.h.d.2.2.2.2.*.*.@.X.X.X.X.Q I I J z z X.F , , , , , , < J +.+.+.X.X.X.X.X.X.X.X.X.X.X.X.X.X.X.X.X.X.X.X.X.X.X.X.X.+.+.+.+.+.+.+.+.+.+.+.+.&.&.*.*.*.*.*.*.*.-.*.*.-.-.-.1.3.3.3.3.3.3.3.3.3.3.3.3.3.2.*.*.*.*.*.-.+.+.+.+.+.X.X.X.X.X.X.X.X.X.X.X.X.X.X.X.X.X.+.+.+.+.1.1.1.1.1.1.1.<.+.+.+.+.*.1.1.6.6.6.6.1., , + + + + ~ ~ ~ ~ ~ ~ ~ ~ ~ ~ ~ ~ J J J J K K K J J J J J K K J J J J J J J J K K J J J J Q Q E E Q ^ X.X.X.*.*.*.*.$.*.*.*.=.;.;.;.=.;.;.a.a.a.a.a.a.a.a.a.a.a.a.;.;.=.=.=.=.@.@.@.^ ^ ^ ^ Q Q Q Q Q Q Q Q Q Q Q Q Q K K Q Q Q Q Q Q Q Q Q Q Q Q Q Q Q Q Q Q Q Q Q Q Q Q Q Q Q Q Q Q E E E E ^ [ X.#.#.#.#.=.=.=.=.=.=.=.=.=.=.=.=.=.$.- - - - - : 2 w w w w w w 2 - @ @ @ @ @ y A C y y y y y y y y p ) ) { | { ) ) ) ) ) ) ) ) | | | ) R R R R | | | | | | ) ) / / ",
"R R R S R S i = * * * * = = * * T t.R S S S S R R R R S R R S S S Z C n C n n n n n C C n C n c c c c c 1 % % % % ; K Q Q Q Q Q Q Q Q Q E E Q Q Q Q Q Q Q Q ] ] ] ] ^ ^ ..X.X.X.~ Q ~ X.+.*.*.*.2.2.2.2.2.3.d.d.d.d.h.h.d.h.v.v.b.b.b.C.C.C.C.C.C.C.C.C.C.C.C.C.C.b.b.b.b.d.d.2.-.2.2.*.*.*.X.X.X.X.X.I I I k k X.~ , , , , , & o J +.+.+.X.X.X.X.X.X.X.X.X.X.X.X.X.X.X.X.X.X.X.X.X.X.X.+.+.+.+.+.+.+.+.+.+.+.&.-.-.-.-.*.*.-.-.-.-.*.*.*.*.*.*.-.3.3.3.3.3.3.3.3.3.3.3.3.3.3.3.2.-.*.*.-.-.*.+.+.+.+.X.X.X.X.X.X.X.X.X.X.X.X.X.X.X.X.o.+.+.+.+.,.1.1.1.1.1.1.1.+.+.+.+.,.1.1.2.6.6.6.1.< , + + + + ~ ~ ~ ~ ~ ~ ~ ~ ~ ~ ~ ~ J J J J J K J J J J J J J J J J J J J J J J K K J J J K Q Q E E Q ~ X.X.X.*.*.*.$.$.*.*.*.*.=.;.=.=.;.;.;.a.a.a.a.a.a.a.a.a.a.;.;.;.=.=.=.$.@.@.@.^ ^ ^ E Q T Q Q Q Q Q Q Q Q Q Q Q Q Q Q Q Q Q Q Q Q Q Q Q Q Q Q Q Q Q Q Q Q Q Q Q Q Q Q Q Q E ^ @.#.#.@.@.@.@.#.#.#.#.$.=.=.=.=.=.=.=.=.=.=.=.=.=.%.- - - - - w w w w w w w w w - @ @ @ @ @ w A A y y y y y y y y h ) ) ) ) ) ) ) ) ) ) ) ) ) ( 2 @ @ @ @ @ @ @ = t ) | | | ( / / ",
"R R R S i = = = * * * * = = * * 2 t.} S S S S S R R R R S S S S Z n n n C n n n n n C C C n n c c c c c 1 % % % % ; Q Q Q Q Q Q Q Q Q Q Q Q Q Q Q Q Q Q Q Q ] ] ] ] ^ ^ ^ ^ ^ N N N N N N F Q Q ~ X.2.d.d.d.d.d.d.h.h.h.d.d.h.v.b.b.b.b.b.b.C.C.C.C.C.C.C.C.C.b.b.b.b.b.h.d.d.2.-.2.2.*.*.*.X.X.X.X.X.X.I I m k ^ X.2 , , < , % o J +.+.+.X.X.X.X.X.X.X.X.X.X.X.X.X.X.X.X.X.X.X.X.X.+.+.+.+.+.+.+.+.+.+.+.+.+.*.-.*.*.*.*.*.-.-.-.-.*.*.*.*.*.*.2.3.3.3.3.3.3.3.3.3.3.3.3.3.3.3.3.3.-.*.-.-.*.+.+.+.+.+.X.X.X.X.X.X.X.X.X.X.X.X.X.X.X.+.+.+.+.+.+.,.1.1.1.1.1.1.,.+.+.+.*.1.1.1.6.6.6.1.6 , + + + + ~ ~ ~ ~ ~ ~ ~ ~ ~ ~ ~ ~ J J J J J J J J J J J J J J J J J J J J J J K K J J J I Q Q Q Q Q _ X.X.X.*.*.*.$.$.$.*.*.*.*.=.=.=.;.;.;.;.a.a.a.a.a.a.a.;.;.;.;.;.=.=.=.$.@.@.[ ^ ^ ^ Q Q Q Q Q Q Q Q Q Q Q Q Q Q Q Q Q Q T Q T Q Q Q Q Q Q T T Q Q Q Q Q Q Q Q T Q Q Q E [ #.@.@.#.#.@.@.@.@.#.#.#.$.=.=.=.=.=.=.=.=.=.=.=.=.=.=.=.m % % - - w w w w w w w w w - = @ @ @ @ : S A y y y y y y y y ) ) ) ) ) ) ) ) ) ) ) ) ) S = @ O O @ @ @ @ @ @ @ @ B | | ( / / ",
"R Z w = = * = = = = = * * * * * = @.w.S S S S S S S S S S S S S Z Z Z S S S S S S Z C n n n v c c c c c 1 % % % % % s Q Q K N m m Q Q Q Q Q Q Q Q Q Q Q Q Q ] ] ] ] ] ~ s 2 % % & % % % % % % & 2 J I *.d.d.d.d.h.h.h.d.d.d.d.h.b.b.v.b.b.b.v.v.v.v.v.b.C.C.b.b.v.v.v.b.h.d.3.2.-.-.2.*.*.*.@.X.X.X.X.X.Q I N z K X.s % , , , + o J +.+.+.X.X.X.X.X.X.X.X.X.X.X.X.X.X.X.X.X.X.X.X.+.+.+.+.+.+.+.+.+.+.+.+.+.&.*.*.*.-.-.-.-.-.-.-.-.*.*.*.*.-.2.3.3.3.3.3.3.3.3.3.3.3.3.3.3.3.3.3.3.3.*.*.*.-.&.+.+.+.+.+.X.X.X.X.X.X.X.X.X.X.X.X.X.+.+.+.+.+.+.+.+.+.+.*.,.1.1.1.+.+.+.+.1.1.1.2.6.2.1.6 % + + + + 2 J ~ ~ ~ ~ ~ ~ ~ ~ ~ Q J J K K J J J K K K J J J J J J J J K K K J J J J J J Q E E Q Q ~ X.X.X.X.$.*.*.$.$.$.*.*.$.$.$.*.=.;.;.;.;.;.;.a.a.a.;.;.;.;.;.;.;.*.*.=.@.@.@.^ ^ ^ ^ Q Q Q Q Q Q Q Q Q Q Q Q Q Q Q T Q Q Q Q Q Q Q Q Q Q Q Q Q Q Q Q Q Q Q Q Q Q E ^ } #.#.#.@.@.#.#.#.#.#.#.Q T Q Q Q Q T Q Q Q b c m ^ =.=.=.=.=.m % % % - w w w w w w w w 2 - - @ @ @ @ @ S S i y y y y y y v ) ) ) ) ) ) ) ) ) ) ) ) / = @ @ @ @ @ @ @ @ @ @ @ @ @ B | ) / / ",
"- : - = * * * = = = = * * * * * = i y.( S S S S S S S S S S S S S S S S S S S S S S S Z n n c c c c c c = % % % % % % 4 z m m m m V Q Q Q Q Q Q Q Q Q Q ~ ~ ] ] ] ] k & % % % % & % % % % % % & % J J s &.d.d.d.h.d.h.d.d.d.d.d.h.b.v.v.b.b.b.b.v.v.v.b.b.b.b.b.v.v.v.h.d.d.3.2.2.-.2.=.*.*.&.X.X.X.X.X...I J z K X.I o , , , o o s +.+.+.X.X.X.X.X.X.X.X.X.X.X.X.X.X.X.X.X.X.X.X.X.X.~ ..+.+.+.+.+.+.+.+.+.+.&.*.*.-.-.-.-.-.-.-.-.*.*.-.-.2.3.3.3.3.3.3.3.3.3.3.3.3.3.3.3.3.3.3.3.3.-.*.*.-.&.+.+.+.+.+.X.X.X.X.X.X.X.X.X.X.X.X.+.+.+.+.+.+.+.+.+.+.+.+.+.+.*.,.*.+.+.+.*.1.1.1.1.1.*.% + + + + + + + & z Q ~ ~ ~ ~ ~ ~ K J J K K J J J K K K K K J J J J J J K K J J J J J J I ~ E E Q Q ..X.X.X.X.$.*.*.$.$.*.*.$.$.$.*.$.*.=.=.;.;.;.;.;.;.;.;.;.;.;.;.;.;.*.*.$.@.@.@.^ ^ ^ T Q Q Q Q Q Q Q Q Q Q Q Q Q Q Q Q Q Q Q Q Q Q Q Q Q Q Q Q Q Q Q Q Q Q Q Q ~ @.#.#.#.#.#.#.@.@.#.#.Q 6 = % % % % % % % # # % % % % % % % 4 k B t % % % % = 2 w w w w w w w 2 - - @ @ @ @ - i v h y y y y y y n ) ) ) ) ) ) ) ) ) ) ) / - O @ @ @ @ @ @ @ @ @ @ @ @ @ = ) / / Z ",
"- : : : : = * * = = = = * * = = = = y.%.S S S S S S S S S S S S S S S S S S S S S S S S C v c c c c c c % % % % % % & 2 4 u m m m m Q Q Q Q Q Q Q Q Q ^ ~ ^ ^ ^ ~ u % % % % & % % % % % % % % % % k J z & ~ *.*.*.*.2.d.d.d.d.d.d.h.h.v.b.b.b.b.v.b.b.b.b.b.b.b.b.v.h.d.d.d.2.2.2.-.2.=.*.*.*.X.X.X.X.X.X.I I I I X.Q o % , % o o o o.+.+.+.X.X.X.X.X.X.X.X.X.X.X.X.X.X.X.X.X.X.X.X.J k j P +.+.+.+.+.+.+.+.+.+.+.+.&.*.*.*.*.*.*.-.-.*.-.-.2.3.3.3.3.3.3.3.3.3.3.3.3.3.3.3.3.3.3.3.3.2.*.*.*.*.+.+.+.+.X.X.X.X.X.X.X.X.X.X.X.o.+.+.+.+.+.+.+.+.+.+.+.+.+.+.+.+.+.+.+.+.+.+.*.1.1.1.*., + + + + + + + + + + + 6 J ~ ~ ~ Q J J J K K J J J J J J K K J J J J J J J J J J J J J J Q Q E E Q ~ X.X.X.X.X.@.*.*.*.*.*.*.$.*.*.*.*.*.=.;.;.;.;.;.;.;.=.;.;.;.;.;.;.=.*.=.@.@.@.@.^ ^ ^ ^ E Q Q Q Q Q Q Q Q Q Q Q Q Q Q Q Q Q Q Q Q Q Q Q Q Q T T Q Q Q Q Q Q Q X.#.$.@.@.#.#.#.#.@.@.^ 2 % % % % % % O # % % # # O O % % % % % % % % O O % % % % - w w w w w w w : - - = @ @ @ = y y y y y y y y y v ) ) ) ) ) ) ) ) ) ) ) 2 @ @ @ @ @ @ @ @ @ @ @ @ @ @ @ @ 2 y = % ",
"- - : : : : : = = = = = = * = = = = ! y.R S S S S S S S S S S S S S S S S S S S Z Z Z n n v c c c c c i % % % % % % 4 4 4 4 u m m m K Q Q Q Q Q Q Q ^ ^ ~ ~ ^ ^ u % % % % % % % % % % % % % % % % 2 J N % k *.*.*.*.*.-.3.d.d.d.d.d.d.d.d.h.b.b.b.b.b.b.b.b.b.b.b.h.d.d.d.d.2.2.2.-.2.=.*.*.*.X.X.X.X.X.X.I I I I X...o o , + o o o z +.+.+.+.X.X.X.X.X.X.X.X.X.X.~ z < $ o % s _ F j k j z ~ ..X.X.+.+.+.+.+.+.+.+.+.+.X.X.X.X.X.X.&.*.-.-.3.3.3.3.3.3.3.3.3.3.3.3.3.3.3.3.3.3.3.3.3.3.*.*.-.*.+.+.+.X.X.X.X.X.X.X.X.X.X.o.+.+.+.+.+.+.+.+.+.+.+.+.+.+.+.+.+.+.+.+.+.+.+.+.+.+.,..., + + + + + + + + + + + + + + , J ~ K J J J J K J J J J J J K K K J J J J J J J J J J J J K Q E E E Q ~ X.X.X.X.X.X.*.*.*.*.*.$.$.$.*.*.*.*.*.;.;.;.;.;.;.;.;.;.;.;.;.;.;.=.*.$.@.@.@.^ T T T T T T T K K Q Q Q Q Q Q Q Q Q T Q Q Q Q Q Q Q T Q Q Q Q Q Q Q Q Q Q Q X.@.#.#.@.@.#.#.#.@.@.E & % % % % % % % O % % % O O O + % % % % % % % % O O % % % % % % w w w w w w 2 - - - @ @ @ @ = w y y y y y y y y R ) ) ) ) ) ) ) ) / q O @ @ @ @ % = = % @ @ @ @ @ @ @ @ @ @ % - ",
"- : : : : : : - - = = = = = = = = = i t.| S S S S S S S S S S S S S S S S Z p 2 % % 2 p n c c c c c c w & & % % % % ; 4 4 4 4 s m m N Q Q Q Q Q Q E ^ ^ ^ ] ~ k % % & % % % % % % & & % % % % % % % F J % % &.*.*.*.*.*.2.d.h.d.d.d.d.d.d.d.h.v.b.b.v.v.v.b.b.b.h.d.d.d.d.d.2.2.2.2.2.=.*.*.*.@.X.X.X.X.X.I I I Q X.X.o o o o o o o $ +.+.+.+.o.X.X.X.X.X.X...x , o o o o o o o $ 9 j j z Q ~ ~ ~ ~ ~ ~ ~ ~ ~ ~ ~ ~ ~ ~ ~ ~ ~ ~ ~ ~ ~ *.-.-.3.3.3.3.3.3.3.3.3.3.3.3.3.3.3.3.3.3.3.3.3.3.1.-.-.*.+.+.+.X.X.X.X.X.X.X.X.X.+.+.+.+.+.+.+.+.+.+.+.+.+.+.+.+.+.+.+.+.+.+.+.+.+.+.+.+.+.9 + + + + + + + + + + + + + + + + + 6 z J J J J J J J J J J J J J J J J J J J J F F F F F F J Q Q Q Q Q Q ~ ..X.X.X.X.*.*.*.*.*.*.*.*.$.$.*.*.*.=.;.;.;.;.;.;.;.;.;.;.;.;.;.=.E K K K m k k k k k k s s 6 2 % % < u k m Q Q Q Q Q Q Q Q Q Q Q Q Q Q Q T T T Q Q Q Q ^ #.#.#.#.@.@.#.#.^ b 4 ; ; ; ; ; ; ; ; ; = % % % % % % % % % % % % % # # O # # % % % % # O 2 w w w w w 2 - - % @ @ @ @ @ = y y y y y y y i Z ( ) ) ) ) ) Z - @ @ @ @ @ @ = - - - - % @ @ @ @ @ @ @ @ = - ",
": : : : : : - - - - : - = = = = = = = t.t.S S S S S S S S S S S S S n y ; % % % % % % % % 1 2 t p p c = % % % % % % % ; 4 4 4 4 s m m Q Q Q Q Q Q ~ ^ ^ ] ^ ~ % % % % % % % % % % % % % % % & % % % 2 J % % N *.*.*.*.*.*.3.d.d.d.d.d.d.d.d.h.v.b.b.v.v.b.b.h.d.d.d.d.d.d.d.2.2.2.2.2.-.*.*.*.&.X.X.X.X.X.I I I Q X.X.o o o o o o o o < +.+.+.+.X.X.X.X.~ 7 $ o o o o o o o o o o o 6 j I ~ ~ ~ ~ ~ ~ ~ ~ ~ ~ ~ ~ ~ ~ ~ ~ ~ ~ ~ ~ ~ *.*.-.3.3.3.3.3.3.3.3.3.3.3.3.3.3.3.3.3.3.3.3.3.3.3.2.-.-.*.+.+.X.X.X.X.X.X.X.X.X.X.+.+.+.+.+.+.+.+.+.+.+.+.+.+.+.+.+.+.+.+.+.+.+.+.+.+.+.+...+ + + + + + + + + + + + + + + + + + + + 2 z J J J J J F z z 7 6 6 7 s s j j j j j j j j j j j j j k u k N N N F F G K @.*.*.*.*.*.*.*.*.$.*.*.*.*.;.;.;.;.;.;.;.;.X.K s < $ + + + + + + + + + + + + + + + + + + + + + + + % & 6 u m m N Q Q Q Q Q Q Q T T T Q Q K K E ^ #.#.#.@.E m 4 ; ; ; ; ; ; ; ; ; ; ; ; ; ; ; ; = & % % % % % % % % O O O O % % % % % # O O = w w w w w w : = @ @ @ @ @ % 4 y y y y y y y y y i i i w : @ @ @ @ @ @ @ @ = - - - - - = % @ @ @ @ @ = - - ",
": : : : : : : : : : : : : : - = = - : y y y y y y y y y i i i t 2 % % % % % % % % % % % % % % & % % % % % % % % % % % % = 2 4 4 4 u k N Q Q Q Q Q Q ] ^ ] ~ 2 % % % % % % % % % % % % % % % % % % % % < % % % X.*.*.*.+.+.*.-.2.d.d.d.d.d.d.d.h.b.b.b.b.h.h.d.d.d.d.d.d.d.d.2.2.2.2.2.-.*.*.*.&.X.X.X.X...I I I I X.X.o o o o o o o o o & x Q ~ I J s % o o o o o o o o o o o o o o o 7 ~ ~ ~ ~ ~ ~ ~ ~ ~ ~ ~ ~ ~ ~ ~ ~ ~ ~ ~ ~ X.*.*.*.2.3.3.3.3.3.3.3.3.*.....X.X.X.2.3.3.3.3.3.3.3.3.3.*.-.*.+.X.X.X.X.X.X.X.X.X.X.X.X.o.+.+.+.+.+.+.+.+.+.+.+.+.+.+.+.+.+.+.+.+.+.+.+.+.+.+.< + + + + + + + + + + + + + + + + + + + + + + + % & + + + + + + + + + + + + + + + + + + % % + + + + + + + + + + + + + + + % s ~ *.*.*.*.$.$.@.X.X.X.@.;.;.*.Q k < + + + + + + + + + + + + + + + + + + + + + + + + + + + + + + + + + + + ; ; ; ; ; ; ; ; ; 2 t u u u u u u u u t 2 ; ; ; 1 ; ; ; ; ; ; ; ; ; ; ; ; ; ; ; ; ; ; ; = & % % # O O O % % % % % % % % % % # % w w w w w w 2 @ @ @ @ @ % = - - - - - - - - - - = @ @ @ @ @ @ @ @ @ @ @ @ - - - - - - - = % @ @ = - - - ",
": : : : : : : : : : : : : : : - : : : : 2 ; ; ; ; ; = % % % % % % % % % % % % % % % % % % % % % % % % % % % % % % % % % % % = 2 2 4 4 4 4 4 4 4 6 u k 6 2 & & & % % % % & % % % % % % % % % % % % % % % % % % & s P P P P P P P P P P P I Q ..2.h.j.h.d.d.d.d.d.d.d.3.-.-.-.&.&.*.2.2.2.*.*.*.*.X.X.X..._ I I I I Q X.o o o o o o o o o o o o o o o o o o o o o o o o o o o o o o o o o 5 Q ~ ~ ~ ~ ~ ~ ~ ~ ~ ~ ~ ~ ~ ~ ~ I _ X.X.X.X.+.*.*.*.*.*.*.X.x , % % % % % % > % % < 5 5 s J ~ ~ ~ I P P J z k l k s s s s s s 7 , % s D I ..o.+.+.+.+.+.+.+.+.+.+.+.+.+.+.+.+.+.+.+.s + + + + + + + + + + + + + + + + + + + + + + + + + + + + + + + + + + + + + + + + + + + + + + + + + + + + + + + + + + + + + + + + % s z N N N N N N N N z < + + + + + + + + + + + + + + + + + + + + + + + + + + + + + + + + + + + + + + + = ; ; ; ; ; ; ; ; ; ; ; ; ; ; ; ; ; ; ; ; ; ; ; ; ; ; ; ; ; ; ; ; ; ; ; ; ; ; ; 2 2 4 4 w t w w w w 4 2 2 2 = = = % % % % % % % = w w w w w w - @ @ @ @ % % @ @ @ @ @ @ @ @ @ @ @ @ @ O @ @ @ @ @ @ @ @ @ - - - - - - - - - - - - - - - ",
"- - : : : : : : : : : : : : - - : : - - : : - & % % % % % % % % % % & w 1 % % % % % & & % % % % % % % % % % % % % % % % % % % % % & % % % % % % % % % % % % % % % % % % % % % % & % % % % % % % % % % % % % % o o o o o o o o o o o o o o o o o $ s j N F F I I I I I I I I I I I I I I I I I I I I I I I I I I I I I o o o o o o o o o o o o o o o o o o o o o o o o o o o o o o o o o o o 6 J ~ ~ ~ ~ ~ ~ ~ ~ ~ ~ ~ J x x x x x x x x x x x x x 7 % o $ % % % % % % > > % % % % % % % % % % % % % % > , > , & % % + + + + + + + + + + + + , 6 6 6 6 6 6 6 5 5 6 6 6 < + + + + + + + + + + + + + + + + + + + + + + + + + + + + + + + + + + + + + + + + + + + + + + + + + + + + + + + + + + + + + + + + + + + + + + + + + + < < + + + + + + + + + + + + + + + + + + + + + + + + + + + + + + + + + + + + + + + + + + + + & ; ; ; ; ; ; ; ; ; ; ; ; ; ; ; ; ; ; ; ; ; ; ; ; ; ; ; ; ; ; ; ; ; ; 2 2 w t t t t t t t t t t t t t t t t t t t t t w w 2 2 = = 2 w w w w w % @ @ @ @ @ @ @ @ @ @ @ @ @ @ @ @ @ @ @ @ @ @ @ @ @ @ @ @ @ = - - - - - - - - - - - - - - ",
"- - : : : : - - - - : : : : - - : : - - : : : : - & % % % % % % % % 2 y y u w 1 & % % % % % % % % % % % % % % % % % % & % % & % % % % % % % % % % % % % % % % % % % % % % % % % % % % % % % % % % % % % % % + o o o o o o o o o o o o o o o o o o o o o o o o o o o % < < < < < < < < < < < < < < < < < o o o o o o o o o o o o o o o o o o o o o o o o o o o o o o o o o o o o o o o o o o o o o o < < < < < o o o o o o o o o o $ , , , , , o o o o o o % % % % % % % > % % % % % % % % % % % % % % % + + + + + + + + + + + + + + + + + + + + + + + + + + + + + + + + + + + + + + + + + + + + + + + + + + + + + + + + + + + + + + + + + + + + + + + + + + + + + + + + + + + + + + + + + + + + + + + + + + + + + + + + + + + + + + + + + + + + + + + + + + + + + + + + + + + + + + + + + + + + + + + + + + + + + % = ; ; ; ; ; ; ; ; ; ; ; ; ; ; ; ; ; ; ; ; ; ; ; ; ; ; ; ; ; ; ; ; 2 4 w t t t t t t t t t t t t t t t t t t t t t t t t t t t t t t t - ; 2 2 2 = @ @ @ @ @ @ @ @ @ @ @ @ @ @ @ @ @ @ @ @ @ @ @ @ @ @ % = = @ @ - - - - - - - - - - - - - - ",
"- - : : : - - - - - - : : : : - : : - - : : : : : : = % % % % % % & u y y y y y y t t w 2 2 4 w t y t 4 1 % % % % % % & % % % % % % % % % % % % % % % % % % & & % % % % % % % % % % % % % % % % % % % & % % o o o o o o o o o + $ $ o o o o o o o o o o o o o o o o o o o o o o o o o o o o o o o o o o o o o o o o o o o o o o o o o o o o o o o o o o o o o o o o o o o o o o o o o o o o o o o o o o o o o o o o o o o o o o o o o o o o o o o o o o + % % % % % % % > > % % % % % % % % % % % % % % $ + + + + + + + + + + + + + + + + + + + + + + + + + + + + + + + + + + + + + + + + + + + + + + + + + + + $ % % % + + + + + + + + + + + + + + + + $ $ % % % % % % % % % % % % % % % $ + + + + + + + + + + + + + + + + + + + + + + + + + + + + + + + + + + + + + + + + + + + + + + + + + + + + + + + % & ; ; ; ; ; ; ; ; ; ; ; ; ; ; ; ; ; ; ; ; ; ; ; ; ; ; ; ; ; ; ; ; 2 4 w t t t t t t t t t t t t t t t t i c c c c y t t t t t t t t t i c B T K u - @ @ @ @ @ @ @ @ @ @ @ @ @ @ @ @ @ @ @ @ @ @ @ @ @ @ @ @ % - - - - = - - - - - - - - - - - - - - ",
"- - : : : : - - - - - - : : : - : : - - : : : w w w w 2 ; % % % % w y y y y y y y y i i y y y t y y y y y t 4 = % % % % % % % % % % % % % % % % % % % % % & 2 2 2 < & & % % % % % % % % % % % % % % % % % % o o o o o o + % % & % % % % % + + o o o o o o o o o o o o o o o o o o o o o o o o o o o o o o o o o o o o o o o o o o o o o o o o o o o o o o o o o o o o o o o o o o o o o o o o o o o o o o o o o o o o o o o o o o o o $ $ $ % % % o o o % % % % % % % % % > % % % % % % % < < < < < < , % % , , & & & & & & & & , , , , & & $ + + + + + + + + + + + + + + + + + + + + $ $ % % % % % % % % % % % % 6 6 u s s s s u 6 7 s < & + + + + & 2 2 2 2 2 2 2 2 2 2 2 2 2 2 2 2 2 2 2 2 2 2 2 < 1 < & & % % + + + + + + + + + + + + + + + + + + + + + + + % & = 1 % = = = = & % + & & % 1 1 i 6 4 ; ; ; ; ; ; ; ; 2 d d d i i s s t ; ; ; ; ; ; ; ; ; ; ; ; ; 2 2 4 w t t t t t t t t t t t t t t t t Q ;.#.^ ^ $.$.%.%.%.%.$.#.#.$.@.E B T T T T T T T T B 2 @ @ @ @ @ 2 u u u u s 6 6 6 6 6 6 6 6 = @ @ @ @ @ = - - - - - - - - 2 2 2 2 - - - - - - - - ",
"2 : : : : : : : - - - - m m m *.T Q ^ ^ X.X.X.@.@.<.j.H.L. Xg.z 2 y y y y y y i c c c c c c c c c i i y y y y y w 1 & % % % 7 7 4 % % % % % % % % % % % % 2 2 2 2 2 < % % % % % % % & 6 < % % % % % % % & % o o o + $ % % % % % % % % & % & & % $ + o o o o o o o o o $ , < 6 9 j k 7 < < < < < < < < < < < < < < < < < < % o o o o o o o o o o o o o o o o + , 3 6 6 6 3 < % o o o o o o o o o o o o o o o + < u u 4 % o o o o % 2 6 6 6 6 7 s s s s u 6 6 6 6 5 5 5 5 < % % % % % , s s s s s s s s s s s s s s s s s s s s s s s j N D D D D N N D x x z k 7 2 2 2 + + + + $ % % $ $ $ $ % $ % % % % % % $ $ $ 7 J I K I I K K K P P I I I F 7 < 2 2 2 2 2 2 2 2 2 2 2 2 2 2 2 2 2 2 2 2 2 2 2 2 2 2 2 2 2 2 2 2 2 < , 6 < 1 % + + + + + % & % = 1 2 6 6 u t t t t t 2 ; ; ; ; ; ; ; i i m T V V m c b a.a.a.a.a.a.a.s.s.s.d.d.a.a.a.s.s.s.s.a.2.X.Q 4 2 4 4 w t t t t t t t t t u d c d t t t t t t t C. X X'.L.G.G.G.G.G.G.H.H.H.H.G.G.G.F.=.T T T T T T T T 2 2 = % 1 z h.h.h.h.h.3.@.@.@.$.$.$.$.@.@.&.*..X*X*Xd - - - - - - - 2 q q q q q 2 2 2 - - - - ",
"i y y t w w 2 2 &._..XoXOXOXOXoXoXoXoXoXoXoXoXoXOXOXoXoXoXoXOXOXT y y y y y y g c c c c c c c c c c c k i y y y y ^ OXOXH.*.*.*.*.*.*.*.&.' Q N t = % % % 2 2 2 2 2 2 < % % % 1 j N Q ~ ~ Q 6 % % % % % % % % % % % % % % % % % % % % & % % % % % & < < , , > > > % < < < :.).........................................o.,.,..........._ o o o o o o + $ $ < 6 5 6 6 6 6 6 6 6 5 3 & + o o o o < 6 6 6 6 6 7 J z j j j N ..L < < 6 6 6 6 6 6 u s s s s s s s s s s s s s s s , % z o.h.C.C.2.2.*.*.o.o.o.X.1.2.2.2.2.2.2.2.2.2.2.2.2.-.*.*.*.*.*.*.*.*.*.o.X.~ ~ ~ ~ ....~ ~ 9 % % % $ % $ $ $ % % % % % % % $ $ $ s I I K I I K K P P P K I I I _ 2 2 2 2 2 2 2 2 2 2 2 2 2 2 2 2 2 2 2 2 2 2 2 2 2 2 2 2 2 2 2 2 2 2 2 u K K K K K K B b u t t u t t t t u u t t t t t t ; ; ; ; ; ; ; u i b T V A m c c m ;.a.a.a.s.a.s.s.s.s.d.a.a.a.s.s.t.=.$.#.#.#.B t t t t t t t t t t t t i c c c c t t t t t t m 7X3X X X X X X X X'.U.U.U.U.U..X X X X XF.*.$.$.$.=.=.T 2 2 2 2 2 2 h.h.C.z.h.3.@.&.@.$.@.$.$.&.@.@.&.&.G.$Xa.- - - - - - 2 q q q q q q q w i y y y y ",
"i i y y y y i K qXqXiX0X.XOXoXoXoXoXoXoXoXL.G.F.F.j.j.j.j.j.j.j.G y y y y u u i i g c c c c c h c k c c i y y y d oXOXL.*.$.@.@.@.@.@.@.$.$.$.*.*.*.X.G 6 2 2 2 2 2 2 2 2 < 1 2 x N N Q ~ ~ Q 4 u u u F J N Q Q ..X.&.*.*.6.6.h.`.`.`.`.`.`.D.L D l l l l l l l l 6 < < < S.`.X...................................6.).).).S.X..........., o o o o % < < < 6 5 5 6 6 6 6 6 6 6 5 5 6 6 6 6 +.v.v.v.v.v.v.v.v.v.v.v.v.V.K.K.K.K.P 6 6 6 6 6 6 s s s s s s s s s s s s s s s s s O.fXpXC.C.C.C.C.C.C.C.C.C.C.C.C.V.V.v.h.h.h.3.2.2.2.2.*.*.*.*.*.*.*.*.*.+.X.X.~ ~ ~ ..C.C...~ Q F < % % , 6 % % % $ $ $ $ % $ $ $ % s I ~ I K K P K K P P K K I I z.J 2 2 2 2 2 6 u u u 7 6 2 2 2 2 2 2 2 2 5 6 7 u u u u u u u 7 6 6 2 2 N K K K K K K K K K s t u u t t t t t t t t t t t 1 ; ; ; ; ; ; 4 i c T A A m c m m m E ^ ^ ^ ^ ^ ^ ^ ^ [ ^ ^ ^ ^ [ } #.@.@.#.#.^ t t t t t t t t t t t y c c c c d t t t t t t g.7X3XF.L.U. X X X X X X X X.X X.X.X X X X=.=.=.=.=.=.=.B 2 2 2 2 2 4 h.h.'.U.K.g.&.&.*.*.=.-.2.2.2.3.3.d.d.XXOX- : - - - 2 q q q q q q q y v T T T T T ",
"i i y y y y i ~ qXqXiXoXw.w.=.=.=.=.=.=.=.=.w.w.w.=.=.=.=.=.=.w.=.d y y y y u y i k c c c c c i k k c i y y y y L.OXL.#.) ) ^ ^ ^ ^ ^ ^ ^ ^ ^ ^ ^ ^ @.@.@.k 2 2 2 2 2 2 2 2 2 2 j N N N Q Q ~ 3.6.6.6.6.6.3.X.......X.*.*.*.6.6.h.K.`.`.`.`.oX{.4.:.H l l l l l l 9 < < < S.`.1...............................o.D.).).).5...............x o o o % < < < 5 6 6 6 6 6 6 6 6 6 7 7 u 7 6 6 I v.v.6.h.6.6.6.6.6.h.v.v.v.C.D.K.K.K.`.F 6 6 6 6 6 s s s s s s s s s s s s s s s s 5.gXgXfXC.C.C.C.C.C.C.C.C.C.C.C.C.C.C.V.h.h.h.h.3.3.2.2.1.*.*.*.*.*.*.*.*.X.X.X._ ~ ~ X.V.C.2.Q Q ~ ~ I z 7 9 2 % % $ $ $ $ $ $ $ $ % s I ~ I K K P K K P P P P I I h.V.F 2 2 2 2 u u u u u u u u u 6 6 7 u u u u u u u u u u u u u u u u 7 K K K K K K K K K K K k u u t t t t t t t t t t t 4 ; ; ; ; ; ; 2 i k T A A B m m m m T T T T T A V V T T E E ^ ^ ^ ^ [ @.@.#.#.#.i t t t t t t t t t t d c c c i t t t t t t d 2X7Xb.t.;.;.;.a.j.G.U. X X X.X.X.X.X X X X=.=.=.=.=.=.=.B 2 2 2 2 2 2 2.z.'.L.L.K.&.a.a.2.2.2.2.a.3.3.P.P.P.OX*Xd - - - 2 q q q q q q q w y Z T T T T T ",
"y y y y y y i x.qXqX.X=.=.=.=.=.w.w.=.=.=.=.t.w.w.=.=.=.=.=.=.=.=.=.d y y y y y y i c c c c i i h h y y y y y =.OXU.} ^ ) ^ ^ ^ ) ) ^ ^ ^ ^ ^ ^ ^ ^ ^ E E Q K 7 2 2 2 2 2 2 2 2 s N N K K Q ~ ..3.6.6.2.&...~ ~ ......X.*.*.,.6.6.6.C.`.`.eXdXdX>X4.4.L l l l l l 9 < < < ,.'.h.............................+.).).`.V.o................._ o o + < < < 3 6 6 6 6 6 6 6 6 u k k k k k k s *.h.X.X.o.+.1.2.2.6.6.h.v.v.Z.Z.K.K.K.<X<Xx 6 6 6 6 s s s s s s s s s s s s s s s 5.gXgXgX-XC.C.C.C.C.C.C.C.C.C.C.C.C.V.v.h.h.h.h.h.3.3.2.2.2.*.*.*.*.*.*.*.+.X.X.X...~ ~ o.V.V.V.+.~ ~ ~ ~ ~ J 9 6 $ $ % $ $ $ $ $ $ $ % s I ~ I P K K K K K K K K K I ..V.V.s 2 2 u u u u u u u u u u u u u u u u u u d s d d s s u u u u u u K K K K T T T T T T T T K u t t t t t t t t t t t t ; ; ; ; ; ; ; i i V T T b m c c m T T T A A A A K K T T T E [ [ [ ^ ^ @.@.#.@.b t t t t t t t t t t k c c y t t t t t t t C.9X$X;.;.;.;.;.t.t.;.;.a.b.G. X X X X X X X*.@.$.=.=.=.=.m 2 2 2 2 2 4 _ C.'.'.'.'.&.2.2.a.a.2.2.2.2.2.H.P.P.*X*Xj.- - - 2 q q q q q q q y y T T T T Z p ",
"y y y y y y i 3XqX0X=.=.=.=.=.=.w.w.=.w.=.=.t.t.w.w.=.=.=.=.=.=.=.=.=.c y y y y t y c c c c i i i y y y y y X.OXU.} ^ ^ ) } ^ ^ ) ) ^ ^ [ [ ^ ^ ^ ^ ^ ^ E Q E E s 2 2 2 2 2 2 2 z N N K Q Q ~ ~ ~ ~ ~ ~ ~ ~ ~ ~ ~ ~ ....o.*.*.<.2.6.6.h.D.9XdXdXdX`.4.>.l l l l l 5 < < < j '.D...........................+.).).K.,......................., o & < < < 6 6 6 6 6 6 6 6 s k k k k k k k k X.1.X.X.X.+.+.+.1.1.6.6.v.V.Z.Z.K.K.K.<X3X<XN 6 6 5 s s s s s s s s s s s s s s *.gXgXgXpXC.C.C.C.C.C.C.C.C.C.C.C.C.v.v.v.h.h.h.3.3.3.3.2.2.2.*.*.*.*.*.*.*.X.X.X.X...~ ~ ~ V.V.V.V...~ ~ ~ ~ ~ F 9 % $ % % $ $ $ $ $ $ % 2 I ~ P P K K Q ~ ~ I K K K K P o.V.h.7 4 u u u u u u u u u u u u u u u s s k k k d d k k k u u u u s ^ @.$.$.$.$.$.$.$.$.$.$.@.E t t t t t t u u t t t t ; ; ; ; ; ; ; u i B K K b m c m b T K T A V T A K K T T T T ^ [ [ [ ^ [ @.#.@.^ t t t t t t t t t t k i t t t t t t t t &.7X9Xa.;.;.;.;.;.;.;.;.;.;.;.;.t.d.F.U. X X Xh.K K Q ^ =.=.k 2 2 2 2 2 4 F C.'.'.'.'.&.*.a.a.a.2.2.2.2.a.d.P.P.*X*X$Xt 2 2 q q q q q q q q y y v T Z f i i ",
"i y y y y y M qXqXL.=.=.=.=.w.t.w.w.w.w.=.;.;.t.w.w.=.=.=.=.=.=.=.=.=.=.T y y y t y y i i i y t y y y y y X.OX X} ^ ^ ^ } } } } ) ^ ^ ^ [ } } ^ ^ ^ ^ ^ ^ E E E Q s 2 2 2 2 2 4 N N K K Q ~ ~ ~ ~ ~ ~ ~ ~ ~ ~ ~ ~ ~ ......o.*.*.1.2.6.6.6.V.3XdXdXdX>X:.l l l l l < < < < < V.'.........................X.).).V.X.........................x + < < < 4 6 6 6 6 6 6 6 u k k k k k k k k k h.X.X.X.X.+.+.+.1.1.6.6.v.V.Z.Z.K.K.K.oX3X3X<Xx 6 6 s s s s s s s s s s s s s I fXgXgXfXD.C.C.C.C.C.C.C.C.C.C.C.C.C.v.v.h.h.h.6.3.3.3.2.2.2.2.<.*.*.*.*.*.+.X.X.X.X.X._ ~ ~ <.C.V.C.V...~ ~ ~ ~ J 7 < $ % % % % $ $ $ $ % 2 I ~ P P K ~ ~ ~ ~ ~ K K K K I ~ *.C.3.u u u u u u u u u u u u u u s k k k k k k k k k k k u u u u G @.$.$.=.2.2.2.2.2.2.2.2.2.2.K t t t t t u t t t t u ; ; ; ; ; ; ; w i b K K B c c c T T K V V V T T T K T T T T E ^ ^ ^ ^ ^ } #.@.@.i t t t t t t t t t t t t t t t t t t B 2X7XC.*.;.;.;.;.;.;.;.;.;.;.;.;.;.;.;.;.s.G. X.XE K K K K Q s 4 4 2 2 2 4 z h.U.U.U.U.@.@.2.a.a.a.a.2.a.a.a.H.XX*X*X*X^ 2 2 q q 2 q q q q q i i i i y y y y ",
"i y y y y y h.qX0X=.=.=.=.w.w.w.w.w.w.w.;.;.;.;.w.w.=.=.=.=.=.=.=.=.=.=.=.#.d y t t y y y y u t y y y y X.OX X} ^ ) ^ ^ } } } } ) ) ) ) [ } } ^ ^ ^ ^ ^ ^ E E E Q Q 7 2 2 2 2 u N F K K ~ ~ ~ ~ ~ ~ ~ ~ ~ ~ ~ ~ ~ ~ ......+.*.*.1.1.2.6.6.6.6.C.3XdX7X`.>.H l l 9 < < < < < x ).+.....................+.D.).2.........o.X................._ < < < < 6 6 6 6 6 6 6 6 k k k k k k k k k m 6.X.X.X.X.+.+.+.1.1.6.6.v.C.C.D.K.K.K.K.<X3X3X<XN 6 s s s s s s s s s s s s z dXgXgXgX'.C.C.C.C.C.C.C.C.C.C.C.C.C.C.v.h.h.h.h.3.3.3.3.2.2.2.2.*.*.*.*.*.*.o.X.X.X.X.X...~ ~ ~ *.C.C.C.V...~ ~ ~ z 9 6 $ % % % % % % $ % % 2 I Q P P Q ~ ~ ~ ~ ~ Q K I Q ~ ~ ~ 3.C.u u u u u u u s k k k k k k k k k k k k k k k k k k u u u u X.j.H.L.L.L.L.L.L.L.L.L.L.L.L.L.F.*.K B t u t t t t u ; ; ; ; ; ; ; 2 i B K V V c c d.G.T K V V V T T T K T T T T E E ^ [ ^ ^ [ #.@.@.T t t t t t t t t t t t t t t t t t B 2X7X'.$.$.=.;.;.;.;.;.;.;.;.;.;.;.;.;.;.;.;.;.L..XH.K K K K B 2 4 4 2 2 2 4 4 Q K.U.U.U.=.@.&.a.a.a.a.a.a.2.2.d.XX*XOXb.*.2 2 q q q q q q q w i i i i y y y i ",
"i i y y y d 0XqX'.=.=.=.=.=.w.w.=.=.=.=.t.t.t.=.w.w.;.;.t.t.=.=.=.=.=.=.=.=.=.T y y y y u u y y u y i b .XOX=.^ ) ) ) } ) ) [ [ ) ) ) ) ^ ^ ^ ^ ^ ^ ^ ^ ^ T T T T T T 6 2 2 2 z G Q Q Q ~ ~ ~ ~ ~ ~ ~ ~ ~ ~ ~ ~ ~ ~ ....o.*.*.*.1.1.1.2.h.6.6.6.6.D.{.}.}.}.(.O.5 < < < < < < ..1...................+.).).,.........o.+.+.+.+...............< < < < 4 5 5 5 5 6 6 6 7 k k k k k k k k ~ ,.X.X.X.X.+.+.,.1.1.6.6.v.C.C.K.K.K.K.K.'.3X3X3X<Xu 6 u s s s s s s s s s s eXgXgXgX-XC.C.C.C.C.C.C.C.C.C.C.C.C.C.C.V.h.h.h.h.3.6.6.2.2.2.2.*.*.*.*.*.*.*.X.X.X.X.X.X.X._ ~ ~ ~ 2.V.V.V.V...~ I 9 7 7 , $ $ $ $ $ $ % % % 5 I Q K K ~ ~ ~ ~ ~ ~ ~ ~ ~ ~ ~ ~ ~ ~ 3.2.u u u u u u k k G ~ *.X.k d k k k k k k k k k k k u u u k L.U.U.L.L.L.L.L.L.L.L.L.L.L.L.L.L.L.L.L.L.L.L.L.G.Q N ; ; ; ; ; ; ; 2 i B A A A V K L.L.T K K K K A A A A T T T T T T ^ ^ [ [ [ #.$.$.@.u t t t t t t t t t t t t t t t m 3X9X;X*.$.$.$.;.;.;.t.t.;.;.;.;.;.;.;.;.;.;.;.;.t.U. X@.K K K u 2 2 2 2 1 2 2 2 Q j.'.'.U.2.@.@.*.2.2.3.a.a.a.a.a.a.a.a.a.d.t w q q q q q q q y y y y y y y i i ",
"i i y y y Z.qXqXt.=.=.=.=.=.w.w.=.=.=.=.t.t.t.=.=.w.;.;.t.t.w.w.=.=.=.=.=.=.=.=.=.T c c k k b T } =.=.=.=.$.[ ^ ) ) ) ) ^ ^ ^ ^ ) ) ) ) ^ ^ ^ ^ ^ ^ ^ ^ ^ T T T T T E T 6 u m K Q Q Q Q ~ ~ ~ ~ ~ ~ ~ ~ ~ ~ ~ ~ ~ _ ..o.*.*.*.*.1.1.1.2.6.6.6.6.6.6.z.{.}.}.}.}.s < < < < < < D h...............X.6.).).2.........X.+.+.+.+.+...............k < < < < 6 5 5 6 6 6 6 6 s k k k k k k k 1.X.X.X.X.o.+.+.1.1.1.6.6.V.Z.Z.K.K.K.K.K.K.-X3X3X3X'.6 6 u s s s s s s s s ].gXgXgX9XC.C.C.C.C.C.C.C.C.C.C.C.C.C.C.C.V.h.h.v.h.3.3.3.2.2.2.*.*.*.*.*.*.+.X.X.X.X.X.X.X.X...~ ~ ~ ~ 2.V.V.C.V.+.s 7 7 7 7 $ $ $ $ $ $ % % % 5 I ~ K Q ~ ~ ~ ~ ~ ~ ~ ~ ~ ~ ~ ~ ~ ~ ~ h.C.=.*.*.*.6.b.C.C.C.C.C.3.k d d k k d d k k k k d u u u a.L.U.U.L.L.L.L.L.L.F.F.F.b.s.s.s.d.d.a.2.2.2.2.2.^ E m ; ; ; ; ; ; ; ; i T A A A A ^ L.L.K T K K K A A A A T T T T T T T ^ ^ ^ [ } $.$.@.b t t t t t t t t t t t t t t B U.;XoX*.$.$.$.$.$.;.;.t.t.;.;.;.;.;.;.;.;.;.;.;.;.;.a. XL.K K K 2 2 2 2 2 = & , 2 Q &.'.'.U.2.@.@.@.2.3.3.3.a.a.a.a.a.a.a.h.H.a.w q q q q q q t i y y y y i i i i ",
"i i i y X.qXqXoX=.=.=.=.=.=.=.w.=.=.=.=.t.t.=.=.=.=.=.;.=.=.w.=.w.=.=.=.=.=.%.=.=.=.=.=.=.=.=.=.=.%.#.#.#.@.^ ^ ) ) ^ ^ ^ ^ ^ ^ ^ ^ ) ) ^ ^ W ^ ^ ^ ^ ^ E T T T T T E E Q Q Q Q Q Q Q Q ~ ~ ~ ~ ~ ~ ~ ~ ~ ~ ~ ~ _ ..X.*.*.*.*.*.1.1.1.3.6.6.6.6.6.6.6.h.`.@X}.}.J < < < < < < D z...........+.V.).).).z...........o.+.+.+.+.+.X...............2 < < < < 5 6 6 6 6 6 5 6 k k k k k k k 6...X.X.X.+.+.,.1.1.2.6.h.V.Z.D.K.K.K.K.K.K.K.;X3X3X3X..6 6 5 s s s s s s *.gXgXgX9XC.C.C.C.C.C.C.C.C.C.C.C.C.C.C.C.C.V.h.v.h.h.3.3.2.2.2.-.*.*.*.*.*.o.X.X.X.X.X.X.X.X.X.X._ ~ ~ ~ ~ *.V.C.V.6.s 7 7 7 7 < % % % % % % % % 2 I ~ ~ ~ ~ ~ ~ ~ ~ ~ ~ ~ ~ ~ ~ ~ ~ ~ ~ ..b.C.C.C.C.C.h.h.2.;.;.2.h.&.k k k k d d k k k k k u u ~ L.L.U.U.L.L.L.L.L.L.F.F.F.F.s.s.s.s.d.d.=.$.$.$.@.E E k ; ; ; ; ; ; ; 1 i T A A T T ^ L.j.K T T K K A V T T T T T T T T T ^ ^ ^ ^ [ $.#.#.#.m m m m m m d b G G G G ^ j.OXoX X-.$.$.$.$.$.*.;.;.;.t.;.;.;.;.;.;.t.t.t.t.;.;.;.;.j. X^ K m 2 2 2 2 2 2 & & = I ~ L.U.U.a.@.@.@.&.2.-.-.2.a.a.a.a.a.a.G.G.d.4 2 q q q q q i i i y i i i i i i ",
"i i i K qXqXqXt.=.=.=.=.=.=.=.w.t.t.=.=.w.w.=.=.=.=.=.=.=.=.=.=.w.=.=.=.=.=.%.#.#.#.#.#.#.#.#.@.#.#.#.#.#.) ^ ^ ) ^ ^ ^ ^ ^ ^ ^ ^ ^ ^ ^ ^ ^ ^ ^ ^ ^ ^ ^ E T T T Q Q Q E E Q Q Q Q Q Q Q ~ ~ ~ ~ ~ ~ ~ ~ ~ ~ ~ ~ ....+.*.*.*.*.*.1.1.1.6.6.6.6.6.6.6.6.6.h.S.}.}.,.< < < < < 5 D z.......+.S.).).).).V.o...........+.+.+.+.+.+.o...............I < < < < < 5 6 6 6 6 6 6 s k k k k k P 1.....X.o.+.,.1.1.1.6.6.h.V.Z.D.K.K.K.K.K.K.K.K.<X3X3X-X6 6 6 6 5 u s s P fXgXgXdXD.C.C.C.C.C.C.C.C.C.C.C.C.C.C.C.C.C.V.h.v.v.h.3.3.2.2.2.*.*.*.*.+.X.X.X.X.X.X.X.X.X.X.X.X...~ ~ ~ ~ ~ o.V.V.C.*.7 7 7 7 6 % % % % % % % % 2 I ~ ~ ~ ~ ~ ~ ~ ~ ~ ~ ~ ~ ~ ~ ~ ~ ~ ~ ~ &.C.x.C.C.2.;.;.;.;.;.;.a.C.&.k k d d d d k k k k d N L.L.L.L.L.L.L.L.L.L.L.G.F.F.F.b.s.s.s.d.d.s.=.$.$.X.E E k 2 ; ; ; ; ; ; 2 i B A A A K E F.E K A A K V V V T T T T T T T T T E ^ ^ ^ ^ #.#.#.s.j.j.j.j.j.j.F.OX%XoXOXOXOXOXoXb.$.$.$.$.$.$.$.;.;.;.;.;.;.;.;.;.;.;.t.t.t.t.;.;.;.;.;.d.=.T u 2 4 2 2 2 2 & & & s Q b.U.'.j.@.@.@.@.@.@.@.@.=.a.2.2.a.d.G.G.H.4 1 2 q q q q t i i i i i i i i i ",
"y y Q 0XqXqXoX=.=.=.=.=.t.t.t.t.t.t.t.w.=.=.=.=.w.=.=.=.=.=.w.w.=.=.=.=.=.=.$.@.#.#.#.#.@.@.#.@.#.#.#.#.^ ^ ) } ^ ^ ^ ^ ^ ^ W ^ ^ ^ ^ ^ ^ ^ ^ ^ ^ ^ ^ E E E E E Q Q Q Q Q Q Q Q Q Q Q Q ~ ~ ~ ~ ~ ~ ~ ~ ~ ~ ~ ....o.*.*.*.*.*.1.1.1.1.6.6.6.6.6.6.6.6.6.h.6.S.}.V.< < < < < 6 D V.......2.).).).K.V.+.+.o.........+.+.+.+.+.+.+.................N < < < < < 6 6 7 s s u u k k k k k 1.+...X.X.+.*.1.1.1.2.6.6.h.V.C.K.K.K.K.K.K.K.K.K.K.<X3X3X6 6 6 6 6 6 6 k +.gXgXfXD.C.C.C.C.C.C.C.C.C.C.C.C.C.C.C.C.C.C.v.v.h.h.h.3.3.2.2.2.*.*.*.+.X.X.X.X.X.X.X.X.X.X.X.X.X...~ ~ ~ ~ ~ ~ ..h.V.V.<.s 7 7 6 % % % % % % % % 2 I ~ ~ ~ ~ ~ ~ ~ ~ ~ ~ ~ ~ ~ ~ ~ ~ ~ ~ ~ ~ h.x.C.h.;.;.-.*.*.$.$.*.=.h.3.m k k k k k k k k G L.L.L.L.L.L.L.L.L.L.L.L.G.F.F.F.F.M.f.s.s.s.s.s.$.$.X.E E k 4 ; ; ; ; ; ; t i s m K K K A A T K A A A A K K K T A T T T T T T E ^ [ ^ ^ @.@.#.j.j. XOX1X4XiXiXiXiXiXiX4X.Xj.=.$.$.$.$.$.$.$.$.;.;.;.;.;.;.;.;.;.t.;.;.;.;.;.;.;.;.;.;.;.;.X.s 2 4 4 4 4 2 & & & 6 ~ X.U.'.h.&.&.&.&.&.@.@.@.$.*.2.2.2.b.G.G.G.K 1 1 2 q q q q y i i i i i i i i ",
"f Z.qXqXqX3X=.=.=.=.=.=.t.t.t.=.t.t.w.w.=.=.=.=.=.=.=.=.=.=.t.t.=.=.=.=.=.=.#.@.#.#.#.#.@.@.#.#.#.#.#.^ ^ ^ ) } ^ W ^ ^ ^ ^ ^ ^ ^ ^ ^ ^ ^ ^ ^ ^ ^ ^ E E E E E Q T T Q Q Q Q Q Q Q Q K Q ~ ~ ~ ~ ~ ~ ~ ~ ~ ~ ....X.*.*.*.*.*.<.1.1.1.2.2.6.6.6.6.6.6.6.6.h.6.h.S.V.< < < < < 2 D ].+...o.1.h.h.2.1.1.*.+.+.......X.+.+.+.+.+.+.+...................x < < < < < 2 u k k k k k k k k z h.X.....o.+.1.1.1.1.6.6.6.h.V.C.D.K.K.K.K.K.K.K.K.K.`.<X3XJ 4 6 6 6 6 6 j +.gXgX'.C.C.C.C.C.C.C.C.C.C.C.C.C.C.C.C.C.C.C.v.h.h.h.3.3.3.2.2.2.*.*.*.X.X.X.X.X.X.X.X.X.X.X.X.X.X.X.~ ~ ~ ~ ~ ~ ~ _ 6.C.C.2.z 7 5 $ % % % % % % % 5 J ~ ~ ~ ~ Q ~ ~ ~ ~ ~ ~ ~ ~ ~ ~ ..X.X.~ ~ X.x.x.a.;.;.*.*.*.$.$.*.*.*.2.h.&.m k k k k k _ L.L.L.L.L.L.L.G.F.G.L.L.L.G.F.F.F.F.F.F.j.s.s.s.s.$.$.^ E K k t ; ; ; ; ; ; i i k B K K K A A T K A A A A K K K T A T T T T T E E E [ ^ ^ [ #.#.#.#.#.=.;.;.;.;.t.;.;.;.;.$.$.$.$.$.$.$.$.$.$.=.;.;.;.;.;.;.a.a.a.s.;.;.;.;.;.;.;.t.t.;.;.;.;.X.2 4 4 4 4 1 & & & 6 ~ ~ K.'.h.&.&.&.&.&.@.@.@.@.$.2.2.2.b.G.G.H.b.1 1 1 2 q q q q w y y i i y t w ",
"0XqXqX7XL.=.=.=.=.=.=.=.t.w.=.=.=.=.=.=.t.w.t.t.=.=.=.=.w.t.t.t.=.=.=.=.=.=.#.@.@.#.#.#.@.@.#.#.#.#.} ^ ^ ^ } ^ ^ ^ ^ ^ ^ ^ ^ ^ ^ ^ ^ ^ ^ ^ ^ ^ ^ E E E E E E Q T T K K Q K Q Q T K Q Q ~ ~ ~ ~ ~ ~ ~ ~ ~ ~ ....+.*.*.*.*.*.1.1.1.1.2.2.2.3.6.6.6.6.h.6.6.6.6.6.6.6 < < < < < D ].*...*.1.1.1.1.1.1.1.+.+.......+.+.+.+.+.+.+.+.....................j 2 < < < < < u k k s u s k k *.1.X...X.+.+.1.1.1.4.6.6.6.h.V.C.C.D.K.K.K.K.K.K.K.K.K.`.<Xu 4 4 6 6 6 6 j +.fXwXC.C.C.C.C.C.C.C.C.C.C.C.C.C.C.C.C.C.C.C.v.h.h.h.3.3.3.2.2.2.*.*.*.X.X.X.X.X.X.X.X.X.X.X.X.X.X.X.~ ~ ~ ~ ~ ~ ~ ~ Q 2.V.C.C.*.% $ $ $ $ $ % % $ < x ~ ~ K N N Q ~ ~ ~ ~ ~ ~ ] X.X.X.X.X.~ F I K.V.2.;.;.*.*.$.$.$.*.*.*.*.*.d.C.h.*.~ =.j.L.L.F.F.F.F.F.F.F.F.F.F.G.L.F.F.F.F.F.F.F.F.j.s.s.a.$.$.^ E K k s ; ; ; ; ; 4 i k K K K A A A A K K K K A V V K V V A A T T E E T T E ^ ] [ [ @.#.#.@.#.;.;.;.;.;.;.;.t.;.;.$.*.$.$.*.$.$.$.$.$.;.;.;.;.t.t.a.s.s.a.s.t.t.t.;.;.;.;.t.t.;.;.;.;.;.G 2 2 4 2 = & & & 6 ~ ~ d.U.H.&.&.&.&.&.&.@.@.$.$.-.a.a.G.G.G.G.G.m 1 1 1 2 q q q q q q q q q w G ",
"7X'.d.=.=.=.=.=.=.=.=.=.=.=.=.=.=.=.=.=.t.t.t.t.w.w.=.=.=.=.=.=.=.=.=.=.=.=.$.@.@.#.#.#.@.#.#.#.#.@.) ) ^ ^ ^ ^ ^ ^ ^ ^ ^ ^ ^ ^ ^ ^ ^ ^ ^ ^ ^ ^ E E E E E Q Q Q T T T K K K Q Q T K Q Q ~ ~ ~ ~ ~ ~ ~ ~ ~ ~ ..X.*.*.*.*.*.*.1.1.1.1.2.2.2.2.3.6.6.6.6.6.6.6.6.6.6.j < < < < < H `.5...<.1.1.1.1.1.1.1.*.+.X...X.+.+.+.+.+.+.+.o.....................+...2 < < < < < < < < 1 k k K v.o.X...+.+.,.1.1.1.5.6.6.6.h.V.C.C.C.D.K.K.K.K.K.K.K.K.K.K.4 4 4 6 6 6 6 j +.7XD.C.C.C.C.C.C.C.C.C.C.C.C.C.C.C.C.C.C.C.C.v.h.h.6.3.3.3.2.2.2.*.*.*.X.X.X.X.X.X.X.X.X.X.X.X.X.X...~ ~ ~ ~ ~ ~ ~ ~ Q Q h.C.C.C.$ $ $ $ $ $ % % $ < x ~ Q N N N ~ ~ ~ ~ ~ ] X.X.X.X.X.X.~ N N S.9Xz.;.;.;.*.*.$.$.$.*.*.*.*.*.*.*.2.b.F.F.F.C.d.a.j.b.M.F.F.F.F.F.F.F.F.F.F.F.F.F.F.F.F.b.s.s.;.$.$.[ E E k s ; ; ; ; ; t s V T K V A A A A K K K K K V V V V V A A T T E E E E T E ^ ^ ^ @.@.$.@.#.;.;.;.;.;.;.;.;.;.;.*.$.$.$.$.$.$.$.$.=.;.;.;.;.;.t.a.s.s.a.a.a.t.t.;.;.;.;.;.;.;.;.;.;.;.$.E 6 2 2 & & & & 6 ~ ~ ~ U.H.&.&.&.&.&.&.@.@.$.&.a.a.a.H.G.G.G.G.;.1 1 1 1 2 q q q q q d &.K.;X;X",
"=.=.=.=.=.=.%.=.=.=.=.%.%.%.%.=.=.=.=.=.=.=.w.w.w.=.%.=.=.=.=.=.=.=.=.=.=.=.%.#.#.#.#.#.#.#.#.@.[ } } } ^ ^ ^ ^ ^ ^ ^ ^ ^ ^ ^ ^ ^ ^ ^ ^ ^ ^ ^ E E E E E Q K K K T T Q K K K K K Q Q Q ~ ~ ~ ~ ~ ~ ~ ~ ~ ~ ....X.*.*.*.*.*.,.1.1.1.1.1.1.1.1.1.6.6.6.6.6.h.h.h.6.6.P < < < < < U '.h...1.1.1.1.1.1.1.1.1.+.+.+.+.+.+.+.+.+.+.+.o...................X.+.+.X.u < < < < < < < 6 k N v.h.X.X...+.+.,.1.1.1.6.6.6.3.h.v.C.C.C.C.Z.D.K.K.K.K.K.K.K.V.6 4 4 4 4 4 6 j +.{.C.C.C.C.C.C.C.C.C.C.C.C.C.C.C.C.C.C.C.C.C.V.h.h.6.6.3.3.2.2.2.*.*.*.o.X.X.X.X.X.X.X.X.X.X.X.X..._ ~ ~ ~ ~ ~ ~ ~ ~ ~ ~ ..V.C.C.% $ $ $ $ $ $ $ $ < x Q F N N K ~ ~ ~ ~ X.X.X.X.X.X.X.~ N N I rXdXh.-.;.;.*.*.*.*.*.*.*.*.*.*.*.$.$.*.*.*.*.-.a.a.d.b.b.F.F.F.F.F.F.F.F.F.F.F.F.F.F.F.F.b.s.s.=.$.$.X.E E Q N ; ; ; ; ; 2 m A A A T T T V V V V V V T T T V V V T T T T T T E E E E ^ [ ^ @.@.@.@.#.;.;.;.;.;.;.t.t.t.;.=.$.$.$.$.$.$.$.$.;.;.;.;.;.t.t.s.s.s.s.s.a.;.;.;.;.;.;.;.;.;.;.;.;.;.$.$.~ 6 1 & & & & u ~ ~ ~ b.H.@.@.&.@.@.&.@.@.&.2.2.2.a.=.K m u u u 2 1 1 1 1 6 G 2.F.OX:X;X.Xj.=.",
"=.=.=.=.=.=.%.%.=.=.=.=.%.%.=.=.=.=.=.=.=.=.=.=.=.=.=.=.=.=.=.=.=.=.=.%.=.=.%.#.#.#.#.#.@.@.^ ^ ^ ^ } ^ ^ ^ ^ ^ ^ ^ ^ ^ ^ ^ ^ ^ ^ ^ ^ ^ ^ Q T T E E E Q Q Q K K T T Q Q K K T K Q Q ~ ~ Q ~ ~ ~ ~ ~ ~ ~ ......+.*.*.*.*.*.*.1.1.1.1.1.1.1.1.1.2.6.6.6.6.h.6.6.6.6.F < < < < < U [.S...1.1.1.1.1.1.1.1.1.+.+.+.+.+.+.+.+.+.+.+.o...................o.+.+.+.+.N < < < < < < ~ Z.{.].6.X.X.o.+.+.1.1.1.2.6.6.6.6.v.v.C.C.C.C.Z.C.C.D.K.K.K.K.K.*.6 4 6 4 4 6 6 j +.V.C.C.C.C.C.C.C.C.C.C.C.C.C.C.C.C.C.C.C.C.C.V.h.h.6.3.3.3.2.2.2.*.*.*.+.X.X.X.X.X.X.X.X.X.X.X...~ ~ ~ ~ ~ ~ ~ ~ ~ ~ ~ ~ ~ 2.C.C.2 $ $ $ $ $ % $ $ < N J N N N ~ ~ ..X.X.X.X.X.X.X.X.K N N N 9XdXwXC.-.-.;.*.*.*.*.*.*.*.*.*.*.*.$.$.*.*.*.*.-.a.a.d.j.b.M.F.F.F.F.F.F.F.F.F.F.F.F.F.F.M.s.s.a.$.$.$.@.E E E G ; ; ; ; ; ; m A A T T T T V A V V V V T T T K V V K K T T T T E T E E ^ ^ ^ [ @.@.#.#.$.;.;.;.;.;.t.t.;.;.;.$.$.$.$.$.$.$.;.;.;.;.;.;.t.t.a.s.a.s.s.a.;.;.;.;.;.;.;.;.t.;.;.;.*.$.Q 2 2 1 & & & & s Q ~ ~ X.C.@.@.@.a.3.2.-.-.2.2.2.2.B u u u u u u 1 1 1 1 1 _.;X;X:X:XU.;.=.=.=.",
"=.=.=.=.=.=.=.=.=.=.=.=.=.=.=.=.=.=.=.=.=.=.=.=.=.=.=.=.=.=.=.=.=.%.%.%.=.#.#.#.#.#.#.@.^ ^ ^ ^ ^ ^ ^ ^ ^ ^ ^ ^ ^ ^ ^ ^ ^ ^ ^ ^ ^ ^ ^ E T T T T E E Q Q Q Q Q Q T T Q Q Q Q T T T T ~ ~ Q ~ ~ ~ ~ ~ ~ ......X.*.*.*.*.*.*.*.1.1.1.1.1.1.1.2.1.1.2.h.6.6.6.6.6.6.6.x < < < < < x [.D.o.1.1.1.1.1.1.1.1.1.*.+.+.+.+.+.+.+.+.+.+.X...................+.+.+.+.+.*.1.x s < s D.<X<X<X<XV.X.X.X.+.+.1.1.1.6.6.6.6.6.v.v.V.C.C.Z.Z.Z.Z.C.D.K.K.K.K.o.6 6 6 6 6 6 6 6 +.h.C.C.C.C.C.C.C.C.C.C.C.C.C.C.C.C.C.C.C.C.C.C.h.h.h.3.6.3.3.2.2.1.*.*.*.X.X.X.X.X.X.X.X.X.X.X.~ ~ ~ ~ ~ ~ ~ ~ ~ ~ ~ ~ ~ ~ ..C.C.s % % $ % % % % $ < x N N N I ..X.X.X.X.X.X.X.X.] N N N N {.dXdXK.a.;.;.;.*.*.*.*.*.*.*.*.*.*.*.*.$.$.*.$.$.-.a.a.d.j.b.b.F.F.F.F.F.F.F.F.F.F.F.F.F.b.s.s.s.;.$.$.$.$.E E E E ; ; ; ; ; ; 1 V T V K K K T T T T A T T T A A V V V T T T T T T T T T ^ ^ ^ ^ $.#.#.$.$.=.;.;.;.;.;.;.;.;.;.*.*.$.$.$.$.=.;.;.;.;.;.;.;.t.a.a.a.a.s.s.a.;.;.;.;.;.;.;.t.t.;.;.$.$.$.u 2 1 & & & & 6 ~ Q Q ~ h.$.@.&.3.3.3.a.a.a.a.@.u u u u k N m u 1 1 1 1 *.;X;X:XoX;.=.=.=.=.=.",
"%.=.=.=.=.=.=.=.=.=.=.=.=.=.=.=.=.=.=.=.=.=.=.=.%.%.#.#.#.$.%.=.=.%.%.%.#.#.#.#.#.#.@.^ ^ ^ ^ ^ ^ ^ ^ ^ ^ ^ ^ ^ ^ ^ ^ ^ ^ ^ ^ ^ ^ ^ E E T T T T E Q Q Q Q Q Q Q T T Q Q Q Q T T T Q ~ ~ ~ ~ ~ ~ ~ ~ ..........*.*.*.*.*.*.*.1.1.1.1.1.1.2.2.1.1.1.6.6.6.6.6.6.6.6.z < < < < < j [.[.+.1.1.1.1.1.1.1.1.1.*.+.+.+.+.*.2.+.+.+.+.X...................+.+.+.+.1.A.C.A.A.A.;X<X<X<X<X,XX.X.X.X.+.+.1.1.1.6.6.6.6.6.h.v.v.C.C.Z.Z.Z.Z.C.Z.K.K.K.K.z.6 6 6 6 6 6 6 6 +.h.C.C.C.C.C.C.C.C.C.C.C.C.C.C.C.C.C.C.C.C.C.C.h.v.h.h.6.3.3.2.2.2.*.*.*.+.X.X.X.X.X.X.X.X.X.X.~ ~ ~ ~ ~ ~ ~ ~ ~ ~ ~ ~ ~ ~ ~ C.V.s % % $ % % % % $ < x x N K X.X.X.X.X.X.X.X...K N N N N {.dXdX<Xa.a.;.;.;.;.;.;.;.;.;.-.=.*.*.*.*.$.$.$.$.$.;.2.a.d.j.b.b.F.F.F.F.F.F.F.F.F.F.F.F.c.s.s.s.s.=.$.$.$.$.^ E E B ; ; ; ; ; ; ; s T V K K K T T T T T T T T A V V V V V T T T T T T T T ^ ^ [ [ @.#.$.$.$.$.;.;.;.;.;.;.;.;.;.;.*.$.$.$.=.;.;.;.;.;.;.;.;.t.a.a.a.a.s.s.s.;.;.;.;.;.;.;.t.t.;.*.$.$.$.N 4 2 & & & & & K Q Q Q _ @.@.*.3.3.3.a.a.a.^ u u u s N F F F 6 1 1 1 k ;X;X;XoX=.=.=.=.=.=.=.",
"%.%.=.=.=.=.=.=.=.=.=.=.=.=.=.%.=.=.=.=.=.=.%.#.#.#.#.@.@.@.#.$.%.%.%.#.#.#.@.@.#.} ^ ^ ^ ^ ^ ^ ^ ^ ^ E E E E ^ ^ ^ ^ ^ ^ T T ^ ^ E E E E E E E E Q Q Q T K T Q Q Q Q Q Q Q Q Q Q Q ~ ~ ~ ~ ~ ~ ~ ~ ........X.*.*.*.*.*.*.*.1.1.1.1.1.1.1.1.1.1.1.2.6.6.6.6.6.6.6.j < < < < < < ].].*.1.1.1.1.1.1.1.1.1.<.+.+.+.+.1.2.1.+.+.+...................X.+.+.+.+.A.Z.Z.`.-X,X<X<X<X<X<X2.X.X.X.X.+.+.1.1.1.6.6.6.6.6.h.v.v.V.C.C.C.Z.Z.C.C.Z.K.K.K.K.x 6 6 6 6 6 6 6 +.h.C.C.C.C.C.C.C.C.C.C.C.C.C.C.C.C.C.C.C.C.C.C.h.h.h.v.h.6.6.3.2.2.1.*.*.*.&.X.X.X.X.X.X.X.X.X...~ ~ ~ ~ ~ ~ ~ ~ ~ ~ ~ ~ ~ ~ V.V.s % % % % % $ $ % < N N Q X.X.X.X.X.X.X...J N N N N J {.dXdXrXd.a.a.;.;.;.;.-.-.;.;.;.;.;.;.-.=.*.*.*.*.$.*.;.2.a.d.j.b.b.F.F.F.F.F.F.F.F.F.F.F.c.s.s.s.s.s.;.$.$.$.$.$.E E B ; ; ; ; ; ; ; 1 B B d d d K a.^ T T A A A T T T T A A T T E T T T T T ^ [ [ [ } #.#.#.#.;.;.t.t.t.;.;.;.;.;.;.;.;.;.;.;.;.;.t.;.;.;.a.a.a.a.a.a.a.a.a.a.a.;.;.;.;.;.;.t.;.;.$.$.$.X.m k 2 & & & & & , u F F F J @.2.a.a.a.2.2.^ u u u s F F F F d 1 1 1 6 oX;X;X;Xj.=.=.=.=.=.=.=.",
"=.=.=.=.%.%.=.=.$.#.#.#.#.#.#.#.$.$.$.#.#.#.#.#.#.#.#.#.@.@.#.#.#.#.#.#.#.#.@.@.) ) ^ ^ ^ ^ ^ ^ ^ E E E E E E E ^ ^ ^ ^ T T T T E E E E E E E E Q Q Q Q Q T T T K Q Q Q Q Q K K Q Q ~ ~ ~ ~ ~ ~ ~ ~ ..........*.*.*.*.*.*.*.*.<.*.*.*.<.1.1.1.1.1.2.6.6.6.6.6.6.6.j < < < < < < D.].1.1.1.1.1.1.1.1.1.1.*.+.+.+.+.1.2.1.*.+.+.............X.X.o.+.+.+.+.1.C.I.<X<X<X<X<X<X<X,XV.X.X.X.X.X.o.+.1.1.1.6.6.6.6.6.h.V.v.v.V.C.C.Z.Z.C.C.C.C.D.K.K.K.1.F 6 6 6 6 6 +.h.C.C.C.C.C.C.C.C.C.C.C.C.C.C.C.C.C.C.C.C.C.C.v.h.h.v.h.6.6.3.2.2.2.*.*.*.*.*.+.X.X.X.X.X.X.X.X._ ~ ~ ~ ~ ~ ~ ~ ~ ~ ~ ~ ~ _ V.V.s % % % % % $ $ % < N I X.X.X.X.X...~ F N N N N N ..9XdXdXdXC.a.a.a.a.;.;.;.-.-.;.;.;.;.;.;.-.-.;.-.=.*.*.*.;.2.a.d.j.b.b.F.F.F.F.F.F.F.F.F.F.b.s.s.s.s.s.s.s.=.$.$.$.$.X.E B ; ; ; ; ; ; ; ; ; - - ; ; s h.=.T T A A V T T T T T T A T E T T T T T ^ [ ^ [ } #.#.#.%.;.;.;.t.t.;.;.;.;.;.;.;.;.;.;.;.;.t.t.;.;.a.a.a.a.a.a.s.a.a.s.a.a.a.;.;.;.;.;.t.t.=.$.$.&.E m m 6 & & & & & & z F F F F X.2.a.a.a.a.~ u u u s F F F F N 1 1 1 1 6.;X;X;Xb.d.=.=.=.=.=.=.=.",
"=.=.=.=.%.%.%.#.@.@.#.#.#.#.#.#.#.#.#.#.#.#.#.#.#.#.#.#.@.@.@.#.#.@.#.#.#.#.[ ^ ) ) ^ W ^ ^ ^ ^ T T E E E E E E E ^ E E E T T T E E E E E E E E Q Q T Q T K K K K K T Q T T K K Q Q ~ ~ ~ ~ ~ ~ ~ ~ ~ ....X.X.&.*.*.*.*.*.*.*.*.*.*.*.1.1.1.1.1.1.2.6.6.6.6.h.6.6.j < < < < < < N D.1.1.1.1.1.1.1.1.1.1.*.+.+.+.*.2.2.1.<.+.+.+.o.X.X.o.+.+.+.+.+.+.+.+.+.A.D.<X<X<X<X<X<XK...~ _ ..X.X...o.+.1.1.1.1.6.6.6.6.h.V.v.v.v.C.C.C.C.Z.Z.C.C.D.K.K.K.K.K.5.6 6 6 6 +.h.C.C.C.C.C.C.C.C.C.C.C.C.C.C.C.C.C.C.C.C.C.C.V.h.h.h.v.6.3.3.3.2.2.1.*.*.*.*.*.*.&.X.X.X.X.X.X...~ ~ ~ ~ ~ ~ ~ ~ ~ ~ ~ ~ o.V.V.s % % % $ $ $ $ % % N ~ _ _ I J N N N N x x x J D.dXdXdXdX'.a.a.a.a.d.a.2.;.-.-.;.;.;.;.;.;.;.;.;.;.;.;.;.-.;.;.a.d.j.b.b.F.F.F.F.F.F.F.F.M.F.s.s.s.s.s.d.d.s.s.;.$.$.$.$.E s ; ; ; ; ; ; ; ; ; - - - ; s h.<.T T T V V V V T T T T T T E E T T T T ^ [ ^ ^ } #.#.$.;.;.;.;.;.;.t.t.;.;.;.;.t.t.;.;.;.;.t.;.;.a.a.a.s.s.a.a.s.d.d.d.s.s.s.s.a.;.;.;.;.;.$.$.$.$.G m m 2 & & & & = d F F F F F ~ a.a.a.a.X.u u u k F F F F N 1 1 1 1 N ;X;X;Xb.j.2.=.=.=.=.=.=.=.",
"=.=.=.=.%.#.#.#.@.@.#.#.#.#.#.#.#.#.#.@.@.@.#.#.#.#.#.#.@.[ @.@.@.@.#.#.@.^ ^ ^ ^ ^ ^ ^ ^ ^ ^ E T E E E E E E E E E E E E T T T E E E E E E E E E Q T T K K K K K K T T T T K K Q Q Q ~ ~ ~ ~ ~ ~ ~ ~ ........+.*.*.*.*.*.*.*.*.*.*.*.2.2.1.1.1.1.2.6.6.6.6.6.6.6.k < < < < < < k <.1.1.1.1.1.1.1.1.1.1.+.+.+.+.1.1.2.2.1.+.+.+.+.+.+.+.+.+.+.+.+.+.+.+.+.+.5.v.v.v.v.6.*...~ ~ _ _ ~ ....X.+.,.1.1.1.5.6.6.6.h.v.v.v.v.C.C.C.C.Z.Z.C.C.D.K.K.K.K.K.6.6 6 4 2 +.h.C.C.C.C.C.C.C.C.C.C.C.C.C.C.C.C.C.C.C.V.v.h.h.h.h.v.v.h.6.3.3.2.2.2.*.*.*.*.*.*.*.*.+.X.X.X.X...~ ~ ~ ~ ~ ~ ~ ~ ~ ~ ~ ~ o.V.V.9 $ % $ $ $ $ $ % % N N z k x N N N N N x J V.rXdXdXdXdX;Xa.a.a.a.d.d.a.d.a.2.2.;.;.;.;.;.;.;.;.;.;.;.;.;.;.;.2.a.f.j.b.b.F.F.F.M.F.F.F.F.M.F.j.s.s.s.d.d.d.d.s.s.a.$.$.$.$.i ; ; ; ; ; ; ; ; ; - - - - s h.g.T T T V V V K K K T T T T T E T T T E ^ [ ^ ^ } #.#.=.;.;.$.E } ;.;.t.;.;.;.;.;.;.;.;.;.;.;.a.s.s.a.a.s.s.a.s.d.j.j.j.d.s.s.s.s.a.;.;.;.;.$.$.$.$.m m m & & & & & s F F F F F F I a.a.&.G F N N N F F F F N 4 1 1 1 6 oX:X:XG.j.d.=.=.=.=.=.=.=.=.",
"=.=.=.=.#.#.#.#.@.@.#.#.#.#.#.#.#.#.#.#.#.#.#.#.#.#.#.@.^ ^ ^ ^ [ @.@.} ^ ^ ^ ^ ^ ^ ^ W ^ ^ T T E E E E E E E E E E E E E E E E E E E E E E E E E E Q T K K Q Q K T T T Q Q T K K K Q ~ ~ ~ ~ ~ ~ ~ ~ ........X.*.*.*.*.*.*.*.*.*.*.1.1.1.1.2.1.1.1.6.6.6.6.6.6.6.z < < < < < 6 k I 1.1.1.1.1.1.1.1.1.<.+.+.+.+.1.2.2.2.1.+.+.+.+.+.+.+.+.+.+.+.+.+.+.+.+.+.D.v.v.7.+._ ~ ~ ~ ~ ~ _ ~ ~ ..X.+.1.1.1.1.1.6.6.6.6.v.v.v.v.C.C.C.C.Z.Z.Z.Z.D.K.K.K.K.D.s < ; ; ; +.h.C.C.C.h.h.V.C.C.C.C.C.C.C.C.C.C.C.V.v.v.v.h.h.h.h.h.h.3.3.3.3.2.2.2.<.*.*.*.*.*.*.*.*.+.X.X.X._ ~ ~ ~ ~ ~ ~ ~ ~ ~ ~ ~ ~ _ V.V.s $ $ $ $ $ $ $ % % $ % % % % s N N N <.@XrXdXdXdXdXdX7Xa.a.a.a.a.a.a.a.a.a.a.a.a.a.2.a.a.a.2.2.2.2.2.2.2.2.a.a.d.f.j.b.b.F.F.F.F.F.F.F.F.F.F.F.M.h.s.s.s.s.s.s.s.s.a.*.$.$.4 ; ; ; ; ; ; ; ; ; ; ; - - s h.g.A B T V T T T T T A V V V T T T T E E ! ^ ^ [ } @.$.;.;.@.A A T =.;.;.;.;.;.;.a.a.a.a.a.a.a.a.a.a.a.a.s.a.a.d.d.d.j.j.j.s.s.a.a.a.;.;.;.;.$.$.&...b b u & & & & 6 F F F F F F F F ~ J F F F F F F F F F F 6 1 1 1 1 h.;X;X Xj.j.;.=.=.=.=.=.=.=.=.",
"=.=.=.#.#.#.#.#.#.#.#.#.#.#.#.#.#.@.@.} ^ ) ^ ^ ) } } } ^ ^ ^ ) ^ ^ ^ ^ ^ ^ ^ ^ ^ ^ ^ ^ ^ E T T E E E E E E E E T E E E E E E E E E E E E E E E E E E T K Q Q Q K T T T Q Q Q Q K K Q ~ ~ ~ ~ ~ ~ ~ ~ ..X.......+.*.*.*.*.*.*.*.*.<.1.1.1.1.2.2.1.1.6.6.6.6.6.6.6.j < < < < < 5 k P 1.1.1.1.1.1.1.1.1.*.+.+.+.1.1.2.2.2.1.,.+.+.+.+.+.+.+.+.+.+.+.+.+.+.*.,X3X<X6..._ _ ~ ~ ~ ~ _ _ ~ ~ ..X.+.,.1.1.1.1.6.6.6.6.h.v.v.v.C.Z.Z.C.Z.Z.Z.Z.D.K.K.K.D.s ; ; ; ; & +.h.C.C.V.h.h.h.V.C.C.C.C.C.C.C.C.V.h.h.h.v.v.h.h.h.h.h.h.3.3.3.3.2.2.2.<.*.*.*.*.*.*.*.*.o.X.X.X._ ~ ~ ~ ~ ~ ~ ~ ~ ~ ~ ~ ~ _ h.C.z $ $ $ $ $ $ $ % % % % % % 2 o.D.;XrXdXdXdXdXdXdXdX9Xd.a.a.a.a.a.a.a.a.a.a.a.a.a.a.a.a.a.a.a.a.a.a.a.a.a.a.a.a.d.f.j.b.b.F.F.F.F.F.F.F.F.F.F.F.F.F.M.f.s.s.s.s.s.s.s.s.=.$.; ; ; ; ; ; ; ; ; ; ; ; - - s h.a.B B B V V T T T T A A V V K T T T E T E ^ ^ [ @.@.=.;.=.T A A A %.=.=.;.;.;.;.a.a.a.a.s.s.s.a.a.a.s.a.s.s.d.d.d.j.d.j.j.s.a.a.a.a.a.;.;.;.=.$.&.E b b 2 & & & 2 F F F F F F F F F F F F F F F F F F F F u 1 1 1 1 ~ ;X;XOXj.j.;.=.=.=.=.=.=.=.=.=.",
"=.=.$.#.#.#.#.@.@.} } } [ [ ^ ^ ^ ^ ^ ^ ^ ^ ^ ^ ) ) [ } ^ ^ ) ) ^ ^ ^ ^ ^ ^ ) } ) ^ ^ ^ ^ T T T E E E E E E E E T T E E E E E E E E E E E E E E E E T T K K Q Q Q Q Q Q Q Q Q Q Q Q ~ ~ ~ ~ ~ ~ ~ ~ ~ ..X.X.....X.o.+.*.*.*.*.*.*.1.1.1.1.1.1.1.1.1.6.6.6.6.3.6.6.j < < < < < s j ..<.1.1.1.1.1.1.1.1.+.+.+.+.1.1.1.2.2.2.2.1.+.*.1.+.+.+.+.+.+.+.+.+.6.<X3X3X3X6.~ _ _ _ _ ~ ~ ~ ~ ~ ~ ....+.+.1.1.1.1.6.6.6.6.6.v.v.v.V.Z.Z.C.C.C.Z.C.Z.K.K.K.I ; ; ; & ; & +.h.C.C.v.h.v.h.h.V.C.C.C.C.V.V.h.h.h.h.h.v.h.h.6.6.3.3.3.3.3.3.3.2.2.2.1.*.*.*.*.*.*.*.o.X.X.X...~ ~ ~ ~ ~ ~ ~ ~ ~ ~ ~ ~ ~ _ 2.C.F % $ $ % $ $ $ $ % % l A.9XdXdXdXdXdXdXdXdXdXdXdX9Xd.a.a.a.a.a.a.a.a.a.a.a.a.a.a.a.a.a.a.a.a.a.a.a.a.a.a.a.a.d.f.f.j.b.b.F.F.F.F.F.F.F.F.F.F.F.F.F.F.F.b.d.s.s.d.d.d.d.a.^ ; ; ; ; ; ; ; ; ; ; ; ; ; ; s h.X.n B B V V V V T T A A T T K K T T E E T ^ ^ ^ @.@.;.;.T T A A T [ =.=.=.;.;.;.;.s.a.a.a.a.a.s.s.s.s.s.s.d.j.j.j.j.j.j.j.s.a.a.a.a.a.;.;.;.;.*.&.Q N k & & & = N F F F F F F F F F F F F F F F F F F F u 1 1 1 1 k ;X;X$Xj.d.;.=.=.=.=.=.=.=.;.a.a.",
"=.=.#.@.} ^ [ [ ^ ^ ^ ^ ^ ^ ^ ^ ^ ^ ^ ^ ^ ^ ^ ^ ^ ^ [ ^ ^ ^ ) } ^ ^ ^ ^ ^ ) ) } ) ^ ^ ^ ^ ^ ^ ^ E E E E E E E E T T E E E E E E E E E E E E E E E E Q T K K Q T Q Q Q Q Q Q T Q ~ ~ ~ ~ ~ ~ ~ ~ ~ ~ ~ ~ X.X...........X.+.*.*.*.1.1.1.1.1.1.1.1.1.1.2.6.3.2.2.6.6.j < < < < < j j X.1.1.1.1.1.1.1.1.<.+.+.+.*.1.1.1.2.2.2.2.1.1.2.2.2.*.+.+.+.+.+.+.5.I.`.<X3XD.~ ~ _ _ _ _ ~ ~ ~ ~ ~ ~ ....+.+.1.1.1.2.6.6.6.6.6.v.v.v.V.C.Z.Z.C.C.C.C.Z.K.K.D.; & & ; & & & 2.V.C.v.v.v.v.h.h.h.h.h.h.h.h.h.h.h.h.h.6.6.6.3.3.6.3.3.3.3.3.3.2.2.2.2.1.*.*.*.*.*.*.+.X.X.X.X._ ~ ~ ~ ~ ~ ~ ~ ~ ~ ~ ~ ~ ~ _ 2.C.F $ $ $ % % $ % $ 6 ~ eXdXdXdXdXdXdXdXdXdXdXdXdX9Xd.a.a.a.a.a.a.a.d.d.j.j.j.j.j.f.d.j.d.d.d.a.a.a.a.a.a.a.d.d.f.f.f.j.b.M.F.F.F.F.F.M.M.F.F.G.G.F.F.F.F.F.b.d.s.d.d.d.s.s.Q ; ; ; ; ; ; ; ; ; ; ; ; - ; s h.@.n B B B V V A T T A A A T K K T T E E T E ^ [ @.@.#.^ T T A T T E =.=.=.=.;.;.;.u.a.a.a.s.s.d.j.d.s.d.d.j.j.d.j.j.j.j.j.d.a.a.s.a.a.;.;.;.;.$.&.Q N 6 & & & s F F F F F F F F F F F F F F F F F F N 4 1 1 1 1 k ;X;X;Xj.=.=.=.=.=.=.=.=.a.L.'.oX.X",
"=.%.^ ^ ^ ^ ^ ^ ^ ^ ^ ^ ^ ^ ^ ^ } } ) ) ^ ^ ) ) ^ ^ ^ ^ } } } } ) ) ^ ^ ^ ^ } } ) W ^ ^ ^ ^ ^ ^ ^ ^ E E E E E E E E E E E E E E E E E E E T T T E E Q Q T T T T Q K Q Q Q Q Q ~ ~ ~ ~ ~ ~ ~ ~ ~ ~ ~ ~ ~ X.X.............*.*.*.*.1.1.1.1.1.1.1.1.1.2.2.2.1.1.1.3.6.7 < < < < 5 j j X.1.1.1.1.1.1.1.1.+.+.+.+.,.2.1.1.1.1.2.2.2.1.2.2.1.2.+.+.+.+.+.+.K.I.I.K.*.~ ~ ~ ~ ~ _ _ _ ~ ~ _ ~ ~ ..X.+.+.1.1.1.2.6.6.6.6.6.v.v.v.v.C.C.Z.C.C.Z.D.K.K.K.+.; ; & & ; ; 2 3.v.h.h.h.v.v.v.h.h.h.h.h.h.h.h.h.h.6.3.3.3.3.3.3.2.2.2.3.2.2.2.2.2.2.2.1.*.*.*.*.*.+.X.X.X.X...~ ~ ~ ~ ~ ~ ~ ~ ~ ~ ~ ~ ~ ~ ~ *.C.F % $ $ $ $ % % 6 Q ~ +.7XdXdXdXdXdXdXdXdXdXdX9Xd.a.a.a.a.a.a.a.a.j.f.j.f.f.f.f.f.f.f.f.f.f.f.d.d.d.d.f.f.j.f.f.f.f.b.b.F.F.F.F.F.F.F.F.G.J.L.P.L.L.G.F.F.F.j.s.s.s.s.s.s.B ; ; ; ; ; ; ; ; ; ; ; ; ; ; s h.X.B B B B B V V V V K K T T T T T T E E E T c E @.@.^ T T A A A T T =.=.=.=.=.=.t.t.a.a.a.a.s.d.j.j.j.j.j.j.j.j.j.j.j.j.j.j.s.s.s.s.s.;.;.;.=.@.@...k & & & & N F F F F F F F F F F F F F F F F F N 2 1 < 1 1 N ;X;X;XOX=.=.=.=.=.=.=.=.j.'.oX8X0X8X",
"@.E E E ! ! ! ! ! ! ! ! ^ ^ ^ ^ } } ) ) ^ ^ ^ ) ^ ^ ^ ^ } ^ } } ^ ) ^ } ^ ^ } } ^ ^ ^ ^ ^ ^ ^ ^ ^ ^ ^ E E E E E E E E E E E E E E E E E E T T T E Q Q Q K K T T K K T T Q Q Q Q Q Q Q Q Q ~ ~ ~ ~ ~ ~ ~ ..X...........X.*.*.*.*.1.2.1.1.1.1.1.1.1.2.1.1.1.1.1.2.6.< < < < < s k j X.1.1.1.1.1.1.1.+.+.+.+.+.1.2.1.1.2.2.2.2.2.2.1.2.1.,.+.+.+.+.+.+.D.I.6...~ ~ ~ ~ ~ ~ _ _ _ ~ ~ ~ ~ _ ....+.+.,.1.1.2.6.6.6.6.h.v.v.v.v.V.C.C.C.C.D.K.K.K.K.x & & & & ; ; s 3.h.h.v.h.v.v.v.v.h.h.h.v.h.h.v.h.6.3.3.3.2.2.2.2.2.2.2.2.-.-.2.2.2.2.2.2.*.*.*.*.*.X.X.X.X.X...~ ~ ~ ~ ~ ~ ~ ~ ~ ~ ~ ~ ~ Q Q *.C.H % $ $ % % % % I Q ~ ~ ~ _ 1.{.eXdXdXdXdXdX9Xd.a.a.a.a.a.a.a.a.a.f.f.j.f.j.j.j.j.j.j.f.f.f.f.f.f.f.f.j.d.j.f.f.f.j.b.b.F.F.F.F.F.F.F.L.L.L.L.P.L.L.L.F.F.F.M.s.s.s.s.s.a.2 ; ; ; ; ; ; ; ; ; ; ; ; ; ; s h.X.B B B B B B V V V K K T T A T T T E E n r y @.@.[ T T T T A A T =.XX;.%.%.=.=.=.;.t.a.a.a.s.d.j.j.j.j.j.j.j.j.j.j.j.d.j.j.s.s.s.s.a.;.;.;.$.$.@.@.2 & & & & F N N F F F F F F F F F F F F F F z 1 1 < < t 2.F.G..X;Xj.=.=.=.=.=.=.=.;.'.'.8X0X:XL.",
"! ! E E ! ! ! ! ! ! ! ! ! ! ^ } } } ^ ^ ^ ^ } ) } } ^ ^ ^ ^ ^ ^ ) } } } ^ ^ ^ ) ^ ^ ^ ^ ^ ^ ^ ^ ^ ^ ^ ^ E E E E E E E E E E E E E E E E E E T T Q Q Q Q K K Q Q K K T T Q K K K Q Q Q Q Q Q ~ ~ ~ ~ ~ ~ ..X...........o.*.*.*.*.2.2.1.1.1.1.1.*.*.1.1.1.1.1.1.1...< < < < < s k k +.1.1.1.1.1.1.+.+.+.+.+.+.2.2.2.2.2.2.1.1.2.2.1.1.1.+.+.+.+.+.+.X.+.o.~ _ ~ ~ _ _ ~ ~ _ _ ~ ~ ~ ~ _ _ ..X.+.+.*.1.1.1.6.6.6.6.6.v.v.v.v.v.C.C.C.Z.K.K.K.K.K.j & & & ; ; ; s 3.h.h.v.v.v.v.v.h.h.h.v.v.v.v.v.h.3.3.3.3.2.2.2.2.2.2.-.-.-.-.-.2.2.2.2.2.*.*.*.*.o.X.X.X.X.X.~ ~ ~ ~ ~ ~ ~ ~ ~ ~ ~ ~ ~ ~ ~ Q *.V.H % % $ % $ $ & Q Q Q ~ ~ ~ ~ X.@.b.-X7X7X;Xd.a.a.a.d.a.a.a.a.a.a.d.f.f.j.b.b.b.b.b.b.j.j.f.f.f.f.j.j.j.j.j.j.j.b.b.b.F.F.F.F.F.F.F.L.L.L.L.L.L.L.L.L.F.F.F.F.d.s.s.s.s.K ; ; ; ; ; ; ; ; ; ; ; ; ; ; ; s h.T B B B B B B B B B B B B V A A T T T g r r T } ^ A T T A A A T [ XXXX=.#.#.=.=.=.=.;.a.s.s.s.s.d.d.j.j.j.j.d.d.d.d.d.d.d.d.d.s.s.s.a.;.;.=.@.@.@.s & & & & & N N N F F F F F F F F F F F F N u 1 1 < 1 K C.F.F.F.F.d.*.@.[ [ [ X.$.$.$.X.@.*.^ Q Q ",
"! E E E ! ! ! ! ! ! ! ! ! ! ! ^ } [ [ ^ ^ ^ } } } } [ [ ^ ^ ^ ^ } } } } ^ ^ ^ ^ ^ ^ ^ ^ ^ ^ ^ ^ ^ ^ ^ ^ E E E E E E E E E E E E E E E E E E T Q T Q Q Q K K Q Q K K T T Q Q K K Q Q Q Q K T Q Q Q ~ ~ ~ ~ X...........+.*.*.*.,.2.2.1.1.1.1.1.&.&.&.*.1.1.1.1.1...< < < < < 5 k k 6.2.1.1.1.<.+.+.+.+.+.+.+.2.h.C.K.K.{.V.2.2.2.1.,.+.+.+.+.+.X.....~ ~ ~ ~ ~ ~ _ _ _ _ _ _ _ _ ~ ~ ~ ~ ..X.o.+.+.1.1.1.1.6.6.6.6.v.v.v.v.v.C.C.C.Z.K.K.K.K.K.2 & & & & ; ; s 3.h.h.h.v.v.v.v.h.h.h.v.v.v.v.h.6.3.3.3.3.3.2.2.2.2.-.-.-.-.-.-.2.2.2.2.2.*.*.*.*.X.X.X.X.X.X.X..._ ~ ~ ~ ~ ~ ~ ~ ~ ~ ~ _ ....*.V.H % % % $ $ % 5 Q Q Q ~ ~ ~ Q X.@.@.;.a.a.a.a.a.a.a.a.a.a.a.a.a.a.d.j.f.j.b.b.b.b.b.b.b.b.j.f.f.f.j.b.b.b.b.b.b.b.b.b.F.F.F.F.F.F.G.L.L.L.L.L.L.L.L.L.F.F.F.F.b.s.s.s.a.2 ; ; ; ; ; ; ; ; ; ; ; ; ; ; ; G h.T B B B B B B B B B B B B V V V T B r r r g A A A T T T A A A =.XXXXN.#.#.#.=.=.=.=.=.;.s.s.a.a.d.d.d.j.j.j.j.j.j.j.d.d.d.d.d.d.s.s.a.;.;.=.@.@.Q & & & & & & u N N F F F F F F F F F F F k 1 1 1 1 2 K ^ ^ ^ ^ Q Q Q Q Q T T T Q Q Q Q Q Q Q Q Q T ",
"! ! ! ! ! ! ! ! E ! ! ! ! ! ^ ^ ^ ^ ) } ) ^ ^ ^ ^ ^ ^ ) ) } ^ ^ ) ) ^ ^ ^ ^ ^ ^ ^ ^ ^ ^ ^ ^ ^ ^ ^ ^ ^ ^ ^ E E E E E E E E E E E E E Q Q Q T Q T T K K K Q Q Q Q K K Q Q T T K K K Q Q Q K K K Q Q Q Q ~ Q ~ ......X.X.+.*.*.*.*.1.1.1.1.1.1.1.&.&.&.&.&.*.1.1.1...< < < < < < j j 6.6.1.1.1.+.+.+.+.+.+.+.6.K.K.K.K.;X3X$X2.1.1.*.+.+.+.+.+.X.......~ ~ _ _ _ _ _ _ _ _ ~ ~ ~ ~ ~ ~ _ _ ....X.+.+.,.1.1.1.3.6.6.6.h.v.v.V.V.C.Z.C.D.K.K.K.K.K.7 & & & & & & s 3.h.v.h.h.h.h.h.h.h.h.h.h.h.h.3.3.3.3.3.3.3.3.2.2.2.2.-.-.-.-.-.-.2.2.2.2.*.*.*.+.X.X.X.X.X.X.X.X.X...~ ~ ~ ~ _ _ ......X.X.X.+.V.H $ % % $ $ $ 5 F 6.*.~ Q ~ Q X.@.$.=.=.2.a.a.a.a.a.a.a.a.a.a.a.a.d.d.f.j.b.b.b.b.b.b.b.b.b.b.j.b.b.b.b.b.b.b.b.b.b.M.F.F.F.F.F.M.L.P.P.P.L.L.L.L.L.G.F.M.M.F.F.j.d.s.B ; ; ; ; ; ; ; ; ; ; ; ; ; ; ; ; B j.B B B B B B B B B B B B B B V T c r r r b A A A A T T T T T f.XXXXN.| | #.#.=.=.=.=.=.;.a.a.a.a.d.d.d.d.j.j.j.j.j.j.j.j.j.d.d.d.s.s.a.;.;.;.@.@.< & & & & & & 6 u N F F F F F F F F F k 2 1 1 1 1 6 V T T T T T T T T T Q Q Q T T T T Q Q Q Q Q T T ",
"! ! ! ! ! ! ! ! E T ! ! ! ^ ^ ^ ^ ^ ) } ) ^ ^ ^ ^ ^ ) ) } } ^ ^ ) ) ^ ^ ^ ^ ^ ^ ^ ^ ^ ^ ^ ^ ^ ^ ^ ^ ^ ^ ^ E E E E E E E E E E E E E Q Q Q Q T T K K K K T T Q Q K T Q Q T K K K K Q Q Q T K K Q Q Q Q ~ Q Q ~ ......X.X.*.*.*.*.1.1.1.1.1.1.1.&.&.&.&.&.&.*.1.1...< < < < < < s j 6.6.2.1.*.+.+.+.+.+.+.2.{.K.K.K.oX3X3X3XV.*.+.+.+.+.+.+.X.X.....~ ~ ~ _ _ _ ~ _ _ ~ ~ _ _ ~ ~ ~ ~ _ _ _ ....+.+.*.1.1.1.1.6.6.6.h.v.v.V.V.V.Z.C.Z.K.K.K.K.K.l & & & ; ; & s 3.h.v.6.6.3.6.h.h.h.h.h.h.3.3.3.3.3.3.3.3.3.3.2.2.2.2.2.-.-.-.-.-.2.2.2.2.1.*.*.&.X.X.X.X.X.X.X.X.X.X.......X.X.X.X.X.X.X.X.X.*.C.H , $ % $ % $ , 6 6.5.~ Q ~ ~ @.@.*.=.=.;.;.a.a.a.a.a.a.a.a.a.a.a.d.f.f.f.b.b.b.b.b.b.b.b.b.b.b.b.b.b.b.b.M.F.F.F.F.F.F.F.F.F.F.G.L.L.P.L.L.L.L.L.L.F.F.M.M.F.F.F.d.=.; ; ; ; ; ; ; ; ; ; ; ; ; ; ; ; ; B ^ B B B B B B B B B B B B B B B B y y g B T T T T A A T T ^ P.XXXXP.| | | #.#.=.=.=.=.=.;.;.a.s.s.a.d.d.d.j.j.j.j.j.j.j.j.j.j.j.d.s.s.a.;.;.;.;.m & & & & & & & 6 7 u N F F F F F N d 2 1 1 1 1 1 d X.T T T T T T T Q T T Q Q Q Q T T T T Q Q T T T T ",
"! ! ! ! ! ! ! ! E T ! ! ^ ) ^ ^ ^ } } } ^ ^ ^ ^ ^ ^ ^ ^ } } } ^ ) ^ ^ ^ ^ ^ ^ ^ ^ ^ ^ ^ ^ ^ ^ ^ ^ ^ ^ ^ ^ E E E E E E E E E E E E E Q T Q Q Q Q Q Q K T T T K K T T Q Q Q Q K K K K K T T T Q Q Q Q Q ~ ~ ~ ~ ..........&.*.*.*.1.1.1.1.1.1.1.&.&.&.&.&.&.&.*.1...< < < < < < 5 k 6.6.3.1.+.+.+.+.+.+.2.;X<X;XK.K.;X3X3X'.*.+.+.+.+.+.+.X.X......._ ~ ~ ~ ~ _ ~ ~ ~ ~ ~ _ _ _ _ ~ ~ _ _ ~ ....X.+.+.1.1.1.1.6.6.6.6.v.v.v.V.C.C.C.C.D.K.K.K.K.l & & ; ; ; ; s 3.h.6.3.6.3.3.3.3.3.3.3.3.3.6.6.6.3.3.3.3.3.3.3.2.2.2.2.-.-.-.-.-.-.2.2.2.2.*.*.*.*.*.*.*.*.+.o.X.X.X.X.X.X.X.X.X.X.X.X.X.&.*.2.C.H < % % % % $ % 6 6.5.Q Q Q ~ @.@.*.=.=.;.;.=.a.a.a.a.a.a.a.a.a.a.a.j.j.j.j.b.b.b.b.b.b.b.b.b.b.b.b.b.b.M.F.F.F.F.F.F.F.M.F.F.F.M.P.P.P.L.L.L.L.L.L.F.F.M.M.F.F.F.M.i ; ; ; ; ; ; ; ; ; ; ; ; ; ; ; ; 4 B B B B B B B B B B B B B B B B B B B B B T T T T T T T T s.XXXXXXP.| | | | #.#.=.=.=.=.=.;.;.a.a.s.a.s.d.d.j.j.j.j.d.d.j.j.j.j.j.d.s.s.a.;.;.;.@.& & & & & & & & 6 7 7 7 s N z s 2 1 1 1 1 1 1 1 d [.@.T T Q Q T Q Q Q T T T T T T T T T T T T T T T T ",
"! ! ! ! ! ! ! ! E E ! ^ ) ) ^ ^ [ } } } ^ ^ ^ ^ ^ ^ ^ } @.#.#.#.#.#.#.) ^ ^ ^ ^ ^ ^ ^ ^ ^ ^ ^ ^ ^ ^ ^ ^ ^ E E E E E E E E E E E E E Q T Q Q Q Q Q Q Q T T K K K T T Q Q K K K K K K T T T T Q Q Q Q Q Q ~ ~ ~ ~ ........X.*.*.*.1.1.1.1.1.1.1.&.&.&.&.&.&.&.*.1._ < < < < < < 3 x 6.6.3.*.+.+.+.+.+.2.;X<X<X-XK.K.'.'.h.+.+.+.+.+.+.+.+...X.........~ ~ ~ ~ _ _ ~ ~ ~ ~ _ _ _ _ ~ ~ _ _ ~ ~ ....+.+.,.1.1.1.6.6.6.6.v.v.v.v.C.C.C.C.C.K.K.K.K...& & ; ; ; ; s 3.6.6.6.6.3.3.3.3.3.3.3.3.6.6.6.6.3.3.3.3.3.3.3.2.2.2.-.-.-.-.-.-.2.2.2.2.2.2.*.*.*.*.*.*.*.*.*.+.X.X.X.X.X.X.X.X.X.X.X.*.*.*.2.C.H < % % % % $ % 6 6.5.Q Q Q ..@.@.*.*.=.=.=.=.;.;.a.a.a.a.a.a.a.a.a.d.j.f.f.j.j.b.b.b.b.b.b.b.b.b.b.b.b.F.F.F.F.F.F.F.F.F.F.F.F.M.G.P.P.L.L.L.L.L.L.F.F.M.M.F.F.F.X.; ; ; ; ; ; ; ; ; ; ; ; ; ; ; ; ; d B B B B B B B B B B B B B B B B B B B B B B B B B B T [ Q.XXXXXXM.} | | | | #.#.=.=.=.=.=.;.;.;.s.s.s.a.d.j.j.j.j.j.j.j.j.j.j.j.j.s.s.s.a.;.;.;.2 & & & & & & & & 6 7 7 7 6 1 1 1 1 1 1 1 1 1 1 d [.oX@.Q Q Q Q Q Q Q Q T T T T T T T T T T T T T T T T ",
"! ! ! ! ! ! ! ! ^ ^ ^ ) } } } } ^ ^ ^ ^ } } } } } #.%.%.%.%.%.%.%.%.%.#.^ ^ ^ ^ ^ ^ ^ ^ ^ ^ ^ ^ ^ ^ ^ ^ E T E E T E E E E E E E T T K T T T K K Q Q T T T T K K T T K K K K K K K J T T T Q Q Q Q Q Q Q ~ ~ ~ ~ ..........X.*.*...+.1.1.1.1.1.&.&.&.&.&.&.&.*.1.F < < < < < < < P 6.6.3.<.+.+.+.+.h.;X<X<X;Xh.1.*.+.+.+.+.+.+.+.+.+.+.+...............~ ~ ~ ~ _ ~ ~ _ _ ~ ~ _ _ _ ~ _ _ ~ _ ......+.+.1.1.1.6.6.6.h.v.v.v.V.C.C.C.C.C.C.D.K.K.6.& ; ; ; ; ; s 3.3.3.3.3.3.6.3.3.3.3.3.3.3.3.3.3.3.3.3.3.3.3.3.2.2.1.-.-.-.-.2.2.2.2.2.2.2.2.2.*.*.*.*.*.*.*.*.*.+.X.X.X.X.X.X.X.X.X.+.*.*.*.2.V.H < $ % % % % , 6 6.5.Q Q Q X.@.@.*.*.=.=.=.=.=.;.;.a.a.a.a.a.a.a.a.a.d.j.j.j.f.j.j.b.b.b.b.b.b.b.b.b.M.F.F.F.F.F.F.F.F.F.F.F.F.F.F.F.G.L.L.L.L.L.L.L.F.F.F.F.F.M.2 ; ; ; ; ; ; ; ; ; ; ; ; 1 1 1 1 1 B B B B B B B B B B b c c c c c B B B B B B B B B B B T XXXXXXJ.#.[ [ } | | #.%.%.=.=.=.=.;.;.t.;.a.s.a.s.d.j.j.j.j.j.j.j.d.d.d.j.d.a.a.a.s.a.a.b & & & & & & & & & 6 7 7 7 2 1 1 1 1 1 1 1 1 1 d [.oXoXX.T T T Q Q Q T T Q Q T T T Q Q Q Q Q T T T T T Q ",
"! ! ! ! ! ! ! ! ^ ^ ^ ) ) } } } ^ ^ ^ ^ } } #.%.%.%.%.%.%.%.%.%.%.%.%.@.^ ^ ^ ^ ^ ^ ^ ^ ^ ^ ^ ^ ^ ^ ^ ^ E T E T E E E E E E E E T Q K K T K K K Q Q K K T T K Q T K K K K K K K K K T T T T Q Q Q Q Q Q ~ ~ ~ ~ ~ ..........N 5 3 6 X.1.1.1.<.&.&.&.&.&.&.&.*.1.F < < < < < < < ..6.6.2.1.+.+.+.V.<X<X<X;X2.+.+.+.+.+.+.+.+.+.+.+.+.+.+.o...............~ ~ ~ ~ ~ ~ _ _ ~ ~ ~ ~ _ _ _ ~ ~ _ ~ ....o.+.,.1.1.2.6.6.v.v.v.v.C.C.C.C.C.Z.Z.C.D.K.D.& & ; ; ; ; s 3.3.3.3.3.2.2.3.3.3.3.3.3.3.3.3.3.3.3.3.2.2.2.2.2.2.-.-.-.2.2.2.2.2.2.2.2.2.2.2.2.2.2.*.*.*.*.*.*.*.*.*.*.*.+.+.o.X.o.*.*.*.*.3.V.F < % % % < 6 5 6 6.6.Q Q ~ @.@.@.*.*.=.=.=.=.=.;.;.;.a.a.a.d.a.a.a.a.a.d.d.j.f.f.f.j.j.j.b.b.b.b.b.b.F.F.F.F.F.F.F.F.F.F.F.F.F.F.F.F.F.F.F.G.L.L.L.L.F.F.F.F.F.K ; ; ; ; ; ; ; ; ; 1 2 4 6 6 6 w w t B B B B B B B B B B B c c c c c c B B B B B B B B B V T !.P.=.^ ^ [ [ } | } #.%.%.%.=.=.=.;.;.t.t.t.s.a.a.s.j.j.j.j.j.j.j.d.d.d.d.s.a.a.a.s.s.;.& & & & & & & & & & 7 7 7 7 1 1 1 1 1 1 1 1 1 3 ).oXoXoXQ T T T T Q T T T Q Q T T T Q Q Q Q Q T T T T T Q ",
"E ! ! ! ! ! ! ! E ^ ^ ^ ) ) } } ^ ) ^ ^ @.%.%.%.%.%.%.%.%.%.%.%.%.%.%.^ ^ ^ ^ ^ ^ ^ ^ ^ ^ ^ ^ ^ ^ ^ ^ ^ E T T T E E E E E Q Q T E Q Q Q T T Q K Q T T K T Q Q Q K J J J K K K K J K T Q K T K K Q Q Q Q Q ~ ~ ~ ~ ~ ~ ~ z 6 3 5 3 3 6 +.1.1.*.&.&.&.&.&.&.&.*.1.z < < < < < < < 2.6.6.1.<.*.1.{.<X<X<X<X6.+.o.o.+.+.+.+.+.+.+.+.+.+.+.+.+.o.X.X.X.X.......~ ~ ~ _ _ _ _ ~ ~ ~ ~ _ _ ~ ~ _ ~ ~ ....X.+.*.1.1.1.6.6.v.v.v.v.C.C.C.Z.Z.Z.Z.C.C.D.K.s ; ; ; ; ; s 3.3.3.3.2.2.2.2.3.3.3.3.3.3.2.2.2.2.2.2.2.2.2.2.-.-.-.-.2.2.2.2.2.2.2.2.2.2.2.2.2.2.2.2.2.*.*.*.*.*.*.*.*.*.*.*.*.*.*.*.*.*.2.2.C.F < % 2 6 6 6 6 5 6.6.&...X.@.@.@.*.*.*.=.=.=.=.=.=.=.=.;.;.=.;.=.2.a.a.a.a.d.f.f.f.f.f.f.j.f.j.b.b.b.M.F.F.F.F.F.M.F.F.F.F.F.F.F.F.F.F.F.b.b.b.b.M.F.M.M.b.b.j.; ; ; ; ; ; ; ; 1 4 w w 4 4 t 6 w w k B B B b c c B B B B B c c c c c c B B B B B B B B B A T E ^ [ ^ ^ ^ ^ [ } } | $.$.%.=.=.=.;.;.;.t.;.a.a.a.s.j.j.j.d.d.j.j.d.d.j.d.s.s.a.a.s.s.N & & & & & % & % & & 7 7 7 6 1 1 1 1 1 1 1 < < z.oXoXoX'.Q T T T T Q Q T T Q Q T T T T Q T Q Q T T T T Q Q ",
"! ! ! ! ! ! E ! ^ ^ ^ ^ ^ ^ ^ ^ ) ) ^ #.%.%.%.%.%.%.%.%.%.%.%.%.%.%.$.^ W ^ ^ ^ ^ ^ ^ ^ ^ ^ ^ ^ ^ ^ ^ ^ ^ T T T E E E E E Q Q Q Q Q Q Q T T Q Q Q Q K K T Q Q Q K J J J K K K K K T Q Q K K K K K T Q Q Q Q ~ ~ ~ Q z 6 3 3 3 3 3 3 3 s 1.2.*.&.&.&.&.&.&.&.*.1.z 2 < < < < < J 6.6.3.1.1.C.;X<X<X<X<XV.+.+.+.+.+.+.+.+.+.+.+.+.+.+.+.+.+.+.+.X.X.......X...~ ~ _ _ _ _ ~ ~ ~ ~ _ ~ ~ ~ ~ ~ ~ ~ ....+.+.1.1.1.5.6.6.v.v.v.V.C.C.Z.Z.Z.Z.C.C.C.K.I ; ; ; ; ; s 3.3.3.2.2.2.2.2.2.3.3.2.2.2.2.2.2.2.2.2.2.2.2.-.-.-.-.-.2.2.2.2.2.2.2.2.2.2.2.2.2.2.2.2.2.2.1.*.*.*.*.*.*.*.*.*.*.*.*.*.2.2.2.2.C.F 2 6 6 6 6 6 5 5 6.6.*.@.@.@.@.@.*.*.=.=.=.=.=.;.=.=.=.=.=.=.=.=.=.=.;.a.a.a.a.d.f.f.f.f.j.f.j.b.b.b.b.M.F.F.F.F.F.F.F.F.F.F.F.F.F.F.F.M.b.b.b.b.b.b.b.b.b.b.=.; ; ; ; ; ; ; 2 w w w w w w w w w w B B B c c c c c b B B c c c c B B B B B B B B B B B V A T ! ! ^ ^ ^ ^ ^ ^ } } } $.$.%.=.=.=.=.;.;.t.;.t.a.a.s.s.d.d.d.d.d.d.j.j.j.s.s.s.a.a.s.s.1 & & & & & & & & & & 7 7 7 6 1 1 1 1 1 1 1 1 O.oXoXoXoX2.Q T T T T Q Q T T Q Q T T T T T T Q T T T T T Q Q ",
"! ! ! ! ! ^ ^ } } ) ^ ^ ^ ^ ^ ^ } } %.%.%.%.%.%.%.%.%.%.%.%.%.%.%.$.@.^ ^ ^ ^ ^ ^ ^ ^ ^ ^ ^ ^ ^ ^ ^ ^ ^ ^ E T T E E E E E Q Q Q Q Q K K K K Q Q Q Q Q Q K K K K K K K K K K K K K K K K K K K K K K K T Q Q Q ~ N 6 3 3 3 3 3 3 3 3 3 3 ~ 1.&.&.&.&.&.&.&.&.&.1.z 6 < < < < 5 2.6.6.1.1.1.V.<X<X<X<XV.o.+.+.+.+.+.+.+.+.+.+.+.+.+.+.+.+.+.+.+.+.X.............~ ~ ~ _ _ ~ ~ ~ ~ _ ~ _ _ _ _ _ _ ....o.+.*.1.1.1.6.6.6.h.v.v.V.C.Z.Z.C.C.C.Z.Z.D.Q ; ; & & & s 3.3.2.2.2.2.2.2.2.2.2.2.2.2.2.2.2.2.2.2.2.2.-.-.-.-.-.-.2.2.2.2.2.2.2.3.h.3.2.2.2.2.2.2.2.2.2.1.*.*.*.*.*.&.&.*.*.*.-.2.2.2.2.2.C.F 5 6 6 6 6 6 6 6 6.6.<.@.@.@.@.@.$.*.*.%.=.=.=.;.=.=.=.=.=.=.=.=.=.=.=.=.;.a.a.a.a.d.d.f.j.j.j.j.b.b.b.b.b.F.F.F.F.F.F.F.F.F.F.F.F.F.F.b.b.b.b.b.j.j.j.b.b.b.^ ; ; ; ; ; ; 2 4 w w w w w w w w w c B B c c c c c c c c c c c c B B B B B B B B B B B B A A T ! ! ! [ [ [ [ [ | } } #.#.%.=.=.=.=.t.;.;.;.;.s.s.s.s.d.d.d.j.j.j.d.d.s.s.s.s.a.a.s.@.& & & & & & & & & % % 7 7 7 6 1 1 1 1 1 1 1 N oXoXoXoXoXE T T Q Q Q T T T T T T T T T Q Q Q Q T T T T T T Q ",
"! ! ! ! ^ ^ } } } ) ^ ) ^ ^ ^ ^ } %.%.%.%.%.%.%.%.%.%.%.%.%.%.%.#.#.@.^ ^ ^ ^ ^ ^ ^ ^ ^ ^ ^ ^ ^ ^ ^ ^ ^ ^ E E T E E E E Q Q Q Q Q Q K K K K Q Q T Q Q Q K K K K K K K K K K K K K K K K K K K K K K K K K Q N 6 3 3 3 3 3 3 3 3 3 3 3 3 s C.&.&.&.&.&.&.&.&.&.*.z 6 < < < < _ 6.6.6.1.1.1.2.-X<X<XV.o.+.+.+.+.+.+.+.+.+.+.+.+.+.+.+.+.+.+.+.+.+.+.+.X...........~ ~ ~ _ _ ~ ~ ~ ~ ~ ~ ~ _ _ _ _ ....X.+.+.1.1.1.2.6.6.6.h.v.v.C.C.Z.C.C.Z.Z.D.D.J ; ; & & & j 3.3.2.2.2.2.2.2.2.2.2.2.2.2.2.2.2.2.2.2.2.-.-.-.-.-.-.-.-.2.2.2.2.2.2.h.h.h.3.2.2.2.2.2.2.2.2.2.2.1.*.*.*.&.&.*.1.2.2.2.2.2.2.3.C.H 5 6 5 6 6 6 6 6 6.6.<.@.@.@.@.@.$.*.*.%.%.=.=.=.=.=.=.;.=.;.=.=.=.=.=.=.=.=.;.a.a.a.a.d.j.j.j.j.b.b.b.b.b.b.b.M.F.F.M.b.b.b.b.b.b.M.M.b.b.b.b.j.f.f.f.j.b.b.^ ; ; ; ; ; ; w 6 w w w w w w w w i B B c c c c c c c c c c c c B B B B B B B B B B B B B T A E ! ! ! W [ [ [ [ | } } #.#.%.=.=.=.=.;.;.;.;.;.a.s.a.a.a.d.j.j.j.j.d.d.a.a.s.s.a.a.s.N & & & & & & & & & & & 6 7 7 2 1 1 1 1 1 1 u {.oXoXoXoXj.T T T T Q Q Q Q T T T T T T T T Q Q Q Q T T T T T Q ",
"! E ! ! ^ ^ ^ ^ ^ ^ ^ ^ ^ ^ ) } #.%.%.%.%.%.%.%.%.%.%.%.%.%.%.#.#.#.@.^ ^ ^ ^ ^ ^ ^ ^ ^ ^ ^ ^ ^ ^ ^ ^ ^ ^ E T T E E E E Q Q Q Q Q Q T T T T T Q T T Q Q K K K K K K K K K K K K K K K K K K K K K K K K G s 3 3 3 3 3 3 3 3 3 3 3 3 3 3 x D.2.&.&.&.&.&.&.&.&.X.k 2 , % % 5 6.6.6.2.1.1.1.1.1.h.h.o.o.+.+.+.+.+.+.+.+.+.+.+.+.+.+.+.+.+.+.+.+.+.+.+.o.........X...~ _ _ _ _ ~ ~ ~ ~ ~ ~ ~ ~ _ _ ......+.+.,.1.1.1.6.6.6.6.v.v.V.C.C.C.C.D.K.K.K.F ; ; ; & & j 3.2.2.2.2.2.2.2.2.2.2.2.2.2.2.2.2.2.2.-.-.-.-.-.-.&.*.-.-.2.2.2.2.2.2.h.h.h.h.3.2.3.3.6.3.2.2.2.2.2.2.2.1.1.2.2.2.2.2.2.2.2.2.3.z.:.5 5 5 5 5 6 5 6 O.6.2.@.@.@.@.@.$.*.*.=.=.=.=.=.=.=.=.=.=.=.=.=.=.=.=.=.=.;.=.=.;.a.a.a.d.j.j.f.j.b.b.b.b.b.b.b.b.b.b.b.b.b.b.b.b.b.b.b.b.b.b.f.f.f.f.f.j.b.^ ; ; ; ; ; 2 w w w t w w w w 4 t B B B c c c c c c c c c c c B B B B B B B B B B B B B A A A E E ! ! ! ^ ^ ^ [ } } } $.%.%.=.=.=.=.=.;.;.;.;.;.a.a.a.a.d.j.j.j.j.d.a.a.a.s.s.s.a.s.2 & & & & & & & & & & & 1 6 7 1 1 1 1 1 1 1 ).oXoXoXoX'.T Q Q T T Q Q Q Q Q T T T T T T T T T T T T T T T T T ",
"! ! ! ! ! ^ ^ ^ ^ ^ ^ ^ ^ ^ ) #.%.%.%.%.%.%.%.%.%.%.%.%.%.%.%.#.#.#.#.} ^ ^ ^ ^ ^ ^ ^ ^ ^ ^ ^ ^ ^ ^ ^ ^ ^ E T T E E E T K Q Q Q Q T T T T T Q Q T T K K K K K K K K K K K K K K K K K K K K K K K K K N 6 3 3 3 3 3 3 3 2 3 2 3 6 6 6 6 x D.S.&.&.&.&.&.&.&.&...k $ $ $ $ 6 *.6.6.2.1.1.1.1.1.1.1.&.o.o.+.+.+.+.+.+.+.+.+.+.+.+.+.+.+.+.+.+.+.+.+.+.+.X.......X....._ _ _ _ ~ ~ ~ ~ ~ ~ ~ ~ ~ ~ _ ....+.+.*.1.1.1.2.6.6.6.h.v.v.C.C.C.C.Z.D.K.K.F ; ; ; < & k 3.2.-.-.-.2.2.2.-.-.-.-.2.2.2.2.2.-.-.-.-.-.-.-.*.&.&.*.-.2.2.2.2.2.2.3.h.h.h.h.h.h.h.h.h.h.2.2.2.2.2.2.2.2.3.3.h.h.2.2.2.2.2.3.h.:.5 5 5 5 5 5 5 6 O.6.2.@.@.@.@.@.$.*.*.=.=.*.*.*.*.*.*.=.=.=.=.*.*.*.*.*.*.=.=.=.=.=.2.a.a.a.j.f.f.b.b.b.b.b.b.b.b.b.b.b.b.b.b.b.b.b.b.b.b.b.j.f.f.f.f.f.j.s.^ ; ; ; ; ; 2 w w 6 4 w w w 4 t B B B c c c c c c c c c c c c B B B B B B B B B B B B B T A A T E ! ! ! ! ^ ^ ^ } } } $.#.%.=.=.=.=.=.;.;.;.;.;.;.a.a.a.a.d.j.j.j.d.a.a.a.s.s.s.s.a.& & % % & & & & & & & = 1 1 1 1 1 1 1 1 1 6.oXoXoXoXoXE Q Q T T Q Q Q Q Q Q T Q T T T T T T T T T T T T T T T ",
"! ! E ! ! ! ! ^ ^ ^ ^ ^ ^ ^ } #.%.%.%.%.%.%.%.%.%.%.%.%.%.%.$.#.@.$.#.#.) ^ ^ ^ ^ ^ ^ ^ ^ ^ ^ ^ ^ ^ ^ ^ ^ ^ ^ T T T T Q K K K K K K K T Q T K K T K K K K K K K K K K K K K K K K K K K K K K K K K z 3 3 3 3 3 3 3 3 3 3 3 7 z K K K K ~ D.D.K.*.&.&.&.&.&.&...s $ $ $ $ s 1.6.6.1.1.1.1.1.1.1.1.<.+.+.+.+.+.+.+.+.+.+.+.+.+.+.+.+.+.+.+.+.+.+.+.+.+.X.....X.X.......~ _ _ _ ~ ~ ~ ~ ~ ~ ~ ~ ~ _ X.X.+.+.+.,.1.1.1.6.6.6.h.v.v.C.C.C.C.C.1.~ K.F & & & ; ; j 3.2.-.-.-.-.2.2.-.-.-.-.2.2.-.-.-.-.-.-.-.-.-.*.&.&.&.*.-.-.2.2.2.2.2.2.h.h.h.h.h.h.h.h.h.h.h.3.3.3.3.h.h.h.h.h.h.h.3.2.2.2.3.h.h.O.5 5 5 5 5 5 5 5 o.6.2.@.@.@.@.@.$.=.*.*.*.*.*.*.*.*.*.=.=.*.*.%.%.%.*.=.=.=.=.=.=.=.=.;.a.a.a.d.f.j.j.j.j.j.j.j.j.b.b.b.b.b.b.b.b.b.b.b.b.j.f.f.f.d.d.d.d.;.^ ; ; ; ; ; 2 w w 6 6 w w w t b B B B c c c c c c c c c c c B B B B B B B B B B B B B B T T T T E E E E E ^ ^ ^ } } } #.#.#.=.=.=.=.=.;.;.;.;.;.t.;.a.a.a.s.d.d.d.s.s.s.s.a.a.s.s.$.& & & & & % & & & & & = 1 1 1 1 1 1 1 1 _ oXoXoXoX].E Q T Q Q T T Q Q Q Q T T Q Q T T T T T T T T T T T T Q T ",
"! ! ! ! ! ! ! ! } } ^ ) ^ ^ } %.%.%.%.%.%.%.%.%.%.%.%.%.%.%.%.%.#.$.$.#.@.^ ^ ^ ^ ^ ^ ^ ^ ^ ^ ^ ^ ^ ^ ^ ^ ^ ^ ^ T T T Q K K T T K K T T Q T K K K K K K K K K K K K K K K K K K K K K K K K K K K z 3 2 5 3 3 3 3 3 3 3 6 z K K K K K K ..oX;X;XoX&.&.&.&.....X.k $ $ $ $ z h.6.6.1.1.1.1.1.1.1.1.1.+.+.+.+.+.+.+.+.+.+.+.+.+.+.+.+.+.+.+.+.+.+.+.+.+.+...X.X.X........._ _ ~ ~ ~ ~ ~ ~ ~ ~ ~ ~ _ X.X.o.+.+.*.1.1.1.2.6.6.h.v.v.V.C.C.V...P P V.F & & & ; ; j 3.2.-.-.-.-.-.-.-.-.-.-.-.-.-.-.-.-.-.-.-.-.-.*.&.&.&.*.-.-.-.2.2.2.2.2.3.h.h.h.h.h.h.h.h.h.h.h.h.h.h.h.h.h.h.h.h.h.3.2.2.3.h.h.h.O.5 5 5 5 5 6 5 5 o.6.*.@.@.@.@.@.@.$.*.*.*.*.*.*.*.*.*.$.*.*.*.$.$.=.=.*.=.=.=.=.=.=.=.=.;.a.a.a.d.j.f.f.f.f.f.f.f.d.f.j.j.j.j.j.j.b.b.b.j.f.f.f.j.j.j.d.d.a.^ ; ; ; ; ; ; 4 w 6 6 w w t B B B B B c c c c c c c c c c c B B B B B B B B B B B B B T T T T T ! ! E E ! ^ ^ ) } | | | #.#.=.=.=.=.=.;.;.;.;.;.t.;.;.a.s.a.a.d.s.s.s.s.s.a.s.s.s.T & & & & & & % & & & & & 1 1 1 1 1 1 1 I oXoXoX[.3.Q Q T T T T T T Q T T Q T T Q Q T T T T T T Q Q T T T T Q Q ",
"! ! ! ! ! ! ! ^ } } } ) ^ ^ } %.%.%.%.%.%.%.%.%.%.%.%.%.%.%.%.%.%.%.#.#.#.} ^ W ^ ^ ^ ^ ^ ^ ^ ^ ^ ^ ^ ^ ^ ^ ^ ^ T T Q Q Q Q T T T T Q Q Q Q K K J K K K K K K K K K K K K K K K K K K K K K K K K 5 2 2 5 5 5 5 3 3 3 u G K K K K K I h.;X;X;X;Xh.&.&.X.] ] ] ] N $ $ $ $ x v.h.6.2.1.1.1.1.1.1.1.1.*.+.+.+.+.+.+.+.+.+.+.+.+.+.+.+.+.+.+.+.+.+.+.+.+.+.X...X.X...X......._ _ ~ ~ ~ _ _ _ _ _ _ _ X.X.o.+.+.+.1.1.1.1.6.6.h.v.v.V.V.+.P P P _ K.J & & ; ; 2 j 3.2.-.-.-.-.-.-.-.-.-.-.-.-.-.-.*.&.&.*.-.-.*.&.&.&.*.*.-.-.-.-.2.2.2.2.2.3.h.h.h.h.h.h.h.z.h.h.h.h.h.h.h.h.h.h.h.h.h.2.6.h.h.h.h.O.5 6 5 6 6 6 6 5 I o...@.@.@.@.@.@.@.@.@.$.$.$.$.$.@.@.@.@.@.$.$.$.*.*.*.*.=.=.*.=.=.=.=.=.;.a.a.a.a.d.d.d.f.f.f.f.f.d.f.j.f.f.f.f.f.j.j.f.f.f.j.j.j.j.d.f.f.d.b ; ; ; ; ; ; 4 6 4 w w B B B B B B c c c c c c c c c c c B n n B B B B B B B B B V A T T T T ! ! ! ! ! ! } } } | | | #.#.%.=.=.=.;.;.;.;.;.;.;.;.;.;.a.s.s.s.s.a.a.a.a.a.a.s.s.K & & & & & & & & & & & & = 1 1 1 1 1 d oXoXoXK.Q Q Q Q T T T T T T T T T T T T Q T T T T Q Q Q Q Q Q T T T Q Q ",
"! ! ! ! ! ! ^ ^ } } } } ^ ^ #.%.%.%.%.%.%.%.%.%.%.%.%.%.%.%.%.%.%.%.$.#.#.@.) ^ ^ ^ ^ ^ ^ ^ ^ ^ ^ ^ ^ ^ ^ ^ ^ ^ T T Q Q Q Q T T Q Q Q Q Q Q T K K K K K K K K K K K K K K K K K K K K K K K K K N 2 2 2 5 5 5 5 3 3 k K K K K K K 2.;X;X;X;X'.*.&.X...] ] ] ] ] z $ $ $ , x v.h.6.2.1.1.1.1.1.1.1.1.1.+.+.+.+.+.+.+.+.+.+.+.+.+.+.+.+.+.+.+.+.+.+.+.+.+.+.X.X.X.X........._ _ ~ ~ ~ _ _ _ _ _ _ _ X.X.o.+.+.+.,.1.1.1.6.6.h.v.v.1.P P P ..X.D.K...& & ; ; < j *.2.-.-.-.-.-.-.-.-.-.-.-.-.-.-.&.&.&.*.-.-.*.&.&.&.*.*.-.-.-.2.2.2.2.2.2.2.3.h.h.h.h.z.V.C.C.C.C.V.V.C.C.z.h.h.h.h.h.h.h.h.h.V.h.O.5 6 6 6 6 6 6 5 < 2 5 5 @.@.@.@.@.@.@.@.@.@.@.@.@.@.@.@.@.@.@.@.@.@.$.*.*.*.*.*.*.=.=.=.=.=.;.a.a.a.a.a.a.a.a.d.d.d.j.j.f.f.f.f.f.f.f.j.f.f.f.j.j.j.j.d.d.f.f.a.; ; ; ; ; ; ; 2 4 w c B B B B B B c c c c c c c c c c c B n n B B B B B B B B V T A A T A A E ! ! ! ! ! } } } | | | #.#.%.=.=.=.=.t.t.;.;.;.;.;.;.;.;.a.s.s.s.a.a.a.a.a.a.s.s.u & & & & & & & & & & & & & = , < , u {.oXoXoXoXQ Q Q Q T T T T T T T T T T T T Q T T T Q Q Q Q Q Q T T T T Q Q ",
"E ! ^ ^ ^ ^ ^ ^ ^ ^ ^ ^ ^ #.%.%.%.%.%.%.%.%.%.%.%.%.%.%.%.%.%.%.%.%.$.@.@.@.^ ^ ^ ^ ^ ^ ^ ^ ^ ^ ^ ^ ^ ^ ^ ^ ^ E T Q Q Q Q K K K T Q Q Q Q Q T K K K K K K K K K K K K K K K K K K K K K K K K K N 3 3 3 3 3 3 3 5 N K K K K K X.'.;X;X;XoX3.&.X.] ^ ^ ^ ....] ] z $ $ $ < x v.v.6.6.1.1.1.1.1.1.1.1.1.+.+.+.+.+.+.+.+.+.+.+.+.+.+.+.+.+.+.+.+.+.+.+.+.+.+.+.X............._ _ ~ ~ ~ _ _ _ ~ ~ ~ ..X.X.o.+.+.+.+.1.1.1.6.6.6.h.*.P P I D.0X9XK.K.V., & & & , j +.2.2.-.-.-.-.-.-.-.-.-.-.-.-.*.*.*.*.*.-.-.*.*.*.*.*.*.-.*.-.2.2.2.2.2.2.2.2.h.h.h.h.C.C.V.V.C.C.C.C.C.C.C.C.C.h.h.h.h.h.h.C.C.z.O.7 6 6 6 5 5 5 5 & + + + @.@.@.@.@.@.@.@.@.@.@.@.@.@.@.@.@.@.@.@.@.@.@.@.@.$.*.*.*.*.=.=.=.=.=.=.=.=.=.;.2.a.a.a.a.a.a.a.d.d.f.d.d.j.j.f.f.f.f.f.f.f.f.j.j.j.j.f.b ; ; ; ; ; ; ; ; w B B B B B B B B c c c c c c c c c c c B B B B B B B B n A T T T T T B B T ! ! ! ! ! [ [ [ } | | | #.#.=.=.=.=.;.;.t.t.t.;.;.;.t.;.t.s.s.s.a.a.a.a.a.a.s.a.u & & & & & & & & & & & & & & & & & z.oXoXoXoX].Q Q T T T Q Q Q T Q Q Q T E E E E E E E ! T T T T T T T T T E E ",
"E ^ ^ ^ ) ^ ^ ^ ^ ^ ^ ^ #.%.%.%.%.%.%.%.%.%.%.%.%.w.w.w.w.w.%.%.%.%.$.#.@.@.) ^ ^ ^ ^ ^ ^ ^ ^ ^ ^ ^ ^ ^ ^ ^ ^ Q T T Q Q K K K K T T Q Q Q Q K K K K K K K K K K K K K K K K K K K K K K K K K K N 3 3 3 3 3 6 s K K K K K ~ K.;X;X;X;Xh.&.$...^ ^ ^ ^ ^ ..] ] ^ z $ $ $ < x v.v.6.6.1.1.1.1.1.1.1.1.,.+.+.+.+.+.+.+.+.+.+.+.+.+.+.+.+.+.+.+.+.+.+.+.+.+.+.+.X..............._ _ ~ ~ ~ ~ _ _ _ _ ..X...o.+.+.+.+.1.1.1.1.6.6.2.Q P 6.9XeXeXeX{.K.K.6 & & , , s &.2.2.-.-.-.-.-.-.-.-.-.-.-.*.*.*.*.*.*.*.*.*.*.*.&.*.-.-.*.-.2.2.2.2.2.2.2.3.h.h.h.h.C.C.V.V.V.C.C.C.C.C.C.C.C.C.V.z.z.z.C.V.C.V.*.s 6 6 5 5 5 6 5 3 % % + Q @.@.@.@.@.@.@.@.@.@.@.@.@.@.@.@.@.@.@.@.@.@.@.@.@.@.*.*.*.*.=.=.=.=.=.=.=.=.=.=.=.=.;.a.a.a.d.a.a.d.d.j.j.j.f.f.f.d.j.f.f.f.d.j.j.j.f.a.; ; ; ; ; ; ; ; ; 1 i B B B B B B b c c c c c c c c c c c B B B B B B B b c c c b T B B B V ! ! ! ! ! [ [ [ ) } | } #.#.%.=.=.=.;.;.t.t.;.;.;.;.t.;.;.a.s.s.a.a.a.a.a.a.s.s.u & & & & & & & & & & & & & = & & F oXoXoXoX[.X.Q T T T T Q Q Q T Q Q T ! ! ! E ^ ^ ^ ^ ^ ^ ^ ^ ^ ^ ^ ^ ^ ^ ^ ^ ",
"E ^ } } ) ) ^ ^ ^ ^ } %.%.%.%.%.%.%.%.%.%.%.%.=.w.w.w.w.w.w.=.%.%.%.#.$.@.@.@.^ ^ ^ ^ ^ ^ ^ ^ ^ ^ ^ ^ ^ ^ ^ ^ E Q T T T Q Q K K K K K K Q T K K K K K K K K K K K K K K K K K K K K K K K K K K K N s 6 s z K K K K K I h.;X;X;X;XC.&.&.&...] ^ ^ ^ ^ ^ ....^ ^ z $ $ $ < x v.v.h.6.3.1.1.1.1.1.1.1.*.+.+.+.+.+.+.+.+.+.+.+.+.+.+.+.+.+.+.+.+.+.+.+.+.+.+.+.X.......X.X.....~ ~ I ~ ~ ~ ~ ~ _ ~ ..X.X.X.+.+.+.+.*.1.1.1.2.6.6.6.[.dXdXdXeXeXD.z.K.Q & ; , ; s 2.2.2.-.-.-.-.-.-.-.-.-.*.*.&.*.*.*.*.&.*.&.&.*.*.&.*.-.-.*.1.2.2.2.2.2.2.2.h.h.h.h.C.V.C.C.C.C.C.C.C.C.C.C.C.C.C.V.V.C.C.C.C.C.C.*.s 6 6 5 5 5 5 6 5 % % % K @.@.@.@.@.@.@.@.@.@.@.@.@.@.@.@.@.@.@.@.@.@.@.@.@.@.$.*.*.*.*.*.=.=.=.=.;.;.=.;.=.=.=.=.2.d.d.a.a.a.d.d.j.j.f.f.d.d.j.j.d.d.f.f.f.f.f.f.X.2 ; ; ; ; ; ; ; ; ; 1 c B B B B B c c c c c c c c c c c c c c c c c c c c c c B T B B B B E ! ! ! ! W [ [ ) ) } | | #.#.=.=.=.=.;.;.t.;.;.;.;.;.;.;.a.s.s.s.s.s.s.a.s.s.s.u & & & % & & & & % % & & & & % 2 [.oX'.C.*.Q Q Q Q T T T T Q Q T T Q E ! ^ E E ^ ^ ^ ^ ^ ^ ^ ^ ^ ^ ^ ^ ^ ^ ^ ^ ",
"^ ^ } } } ) ^ ^ } #.%.%.%.%.%.%.%.%.%.%.%.%.=.w.w.w.w.w.w.w.w.w.%.%.%.#.#.@.@.^ ^ ^ ^ ^ ^ ^ ^ ^ ^ ^ ^ ^ ^ ^ ^ E T T T T Q T T T K K K K Q Q K K K K K K K K K K K K K K K K K K K F K K K K K K K K K K K K K K K I h.;X;X;X;XC.&.&.&.&.&...] ....^ ^ _ ....^ ^ z $ $ $ < J v.v.h.6.6.2.1.1.1.1.1.1.+.+.+.+.+.+.+.+.+.+.+.+.+.+.+.+.+.+.+.+.+.+.+.+.+.+.+.+.X...X...........~ Q I I ~ ~ ~ ~ ~ _ ......X.+.+.+.+.+.,.1.1.1.2.6.jXlXlXlXlXlX9XZ.6.K.*.; ; ; ; s 2.2.2.-.-.-.-.-.-.-.*.&.&.&.&.*.*.*.*.&.&.&.&.*.*.*.-.-.-.-.2.2.2.2.2.2.3.h.h.h.h.z.C.V.V.V.C.C.C.C.C.C.C.C.C.Z.C.V.V.C.C.C.C.C.K.*.s 6 6 6 5 5 5 6 5 % % < ~ X.X.X.@.@.@.@.@.@.@.@.@.@.@.@.@.@.@.@.@.@.@.@.@.@.@.@.$.*.*.*.*.=.%.=.=.=.=.=.;.=.=.=.=.=.a.a.a.a.a.d.d.j.j.j.f.d.d.j.j.d.d.f.d.f.j.j.G.G.j.; ; ; ; ; ; ; ; ; ; ; t B B B B B c c c c c c c c c c c c c c c c c c c c c B B B B B B T ! ! ! ! ! ^ [ ^ ^ } | } #.#.%.%.=.=.=.=.=.;.;.;.;.;.;.;.a.a.s.s.s.s.s.a.a.s.s.u & & & % & & & & & & & & & & 1 B T T T Q Q Q Q Q Q T T T T T T T T T ^ ! ^ ^ ^ ^ ^ ^ ^ ) ) ^ ^ ) ) ^ ^ ^ ^ ^ ^ ",
"^ ^ ^ ) } @.#.%.%.%.%.%.%.%.%.%.%.%.%.%.%.%.w.w.w.w.w.w.w.w.w.w.%.%.%.#.#.#.$.^ } ^ ^ ^ ^ ^ ^ ^ ^ ^ ^ ^ ^ ^ ^ Q Q Q T T Q Q Q Q Q Q Q K Q Q K K K K K K K K K K K K K K K K K F s s s N K K K K K K K K K K K ~ K.;X;X;X;XV.&.&.&.&.&.&.&..............._ _ ^ ^ z $ $ $ < I v.v.v.6.6.6.2.1.1.1.1.1.*.+.+.+.+.+.+.+.+.+.+.+.+.+.+.+.+.+.+.+.o.X.......X.+.+.+.X.X.X.........~ I I I I I ~ _ _ ~ ......X.X.+.+.+.+.+.1.1.1.1.`.lXlXlXlXlXlX`.D.6.D.+.; ; ; & s 2.2.2.-.-.-.-.-.*.*.&.&.&.*.*.*.*.*.&.&.&.&.&.*.*.-.-.-.-.2.3.h.h.h.h.h.h.h.h.h.z.C.V.V.V.C.C.C.C.V.C.C.C.D.D.D.Z.V.C.C.C.C.C.V.K.*.s 5 5 6 6 6 6 6 < % & *.^ ^ ^ ^ ] X.@.@.@.@.@.@.@.@.@.@.@.@.@.@.@.@.@.@.@.@.@.@.$.*.*.*.*.%.%.%.%.*.*.=.=.=.;.;.;.;.;.;.a.a.a.d.f.f.f.j.j.j.d.j.j.j.d.f.f.f.j.G.G.G.F.; ; ; ; ; ; ; ; ; ; ; ; 2 B B B B c c c c c c c c c c c c c c c c c c c B B B B B B B B A ! ! ! ! ! ! ^ ^ ^ ^ } } } #.#.#.#.=.=.=.=.=.=.=.=.=.;.;.a.a.a.a.a.a.a.s.s.a.a.u & & & & & & & & & & & & & 4 T Q Q Q T T T T Q T T T T T T T T T T ! ! ! ^ ^ ^ ^ ^ ^ ^ ^ ^ ^ ^ ) } $.$.$.#.@.[ ",
"#.#.%.%.%.%.%.%.%.%.%.%.%.%.%.%.%.%.%.%.%.w.w.w.w.w.w.w.w.w.w.w.w.%.%.#.#.#.#.@.) ) ^ ^ W ^ ^ W ^ W W W W ^ ^ Q Q Q Q T Q Q Q Q T T Q T Q Q Q K K K K K K K T K Q K K K K K x s s s s s N K K K K K ..3.3.3.3.oX;X;X;XK.*.&.&.&.&.&.&.&.&..........._ .._ _ ^ ^ 7 $ $ $ , I v.v.v.6.6.6.6.2.3.3.2.1.<.+.+.+.+.+.+.+.+.+.+.+.+.+.+.+.+.+.X.X.........X.X.X.+.+.+.X.X.....X.X.~ ~ I I I I I ~ ~ ~ ......X.X.X.+.+.+.+.*.1.1.1.6.dXlXlXlXlX<XZ.S.6.C...2 ; ; & s 2.2.2.-.-.-.-.*.&.*.&.&.&.*.*.*.*.*.*.&.&.&.&.*.*.-.-.-.2.2.h.h.h.h.h.h.h.h.h.V.V.C.V.C.V.C.C.C.V.D.Z.C.C.Z.Z.D.D.C.C.C.C.C.C.K.K.<.s 6 5 6 6 6 6 3 % % <.*.^ ^ ] ^ ^ ^ ] X.@.@.@.@.@.@.@.@.@.@.@.@.@.@.@.@.@.@.@.@.$.*.*.*.*.%.%.%.%.*.*.=.*.=.;.=.=.;.;.=.a.a.a.d.f.f.f.j.j.j.j.j.j.d.d.f.f.j.L.G.G.G.k ; ; ; ; ; ; ; ; ; ; ; ; ; 1 c B B B B c b B B b c c c c c c c c c c c B B B B B B B B B A T ! ! ! ! ! ! [ [ ^ ) } } } #.#.#.#.%.=.=.=.=.=.=.=.;.;.a.a.a.a.a.a.a.s.a.a.a.T & & & & & & & & & & & & t Q T Q Q T T T T T Q T T T T T T T T T T ! ! ! ^ ^ ^ ^ ^ ^ ^ ) ) ^ ^ @.$.$.$.$.$.$.$.",
"%.%.%.%.%.%.%.%.%.%.%.%.%.%.%.%.%.%.%.%.%.w.w.w.w.=.w.w.w.w.w.=.w.=.%.%.#.@.@.@.) ) ^ ^ ^ ^ ) ^ ^ ^ ^ ^ ) ^ ^ Q Q E ^ ^ ^ K Q T T T Q Q K K T K K J K K Q Q Q T Q Q K K F j s s s s s s s N K K K K 2.3.3.h.;X;X;XK.*.&.&.&.&.&.&.&.&.&.&...^ ^ ^ ^ ^ ^ _ _ _ ^ s $ $ $ $ I v.v.v.h.6.6.6.6.6.6.6.2.1.*.+.+.+.+.+.+.+.+.+.+.+.+.o.X.X...................X.X.X.X.........X.X.~ ~ I I I I I I _ _ ........X.X.X.+.+.+.+.,.1.1.1.5.,XlXlX}.Z.Z.z.6.V...6 & & & s 2.2.2.-.-.-.*.*.*.*.*.&.*.&.*.&.&.*.*.&.&.&.&.&.*.-.-.-.2.2.h.h.h.h.h.h.h.h.z.C.C.C.C.C.C.C.C.C.Z.D.D.C.C.C.C.C.C.C.V.C.C.C.V.K.K.2.s 5 5 5 5 6 3 % % F C.X.^ ] ] ^ ^ ^ ^ ] ..X.@.@.@.@.@.@.@.@.@.@.@.@.@.@.@.@.@.@.$.%.*.*.*.*.%.%.%.=.*.*.*.=.=.=.=.=.=.=.;.a.a.d.f.f.j.j.j.f.f.f.f.d.d.d.d.G.G.G.G.k ; ; ; ; ; ; ; ; ; ; ; ; ; ; ; ; d B B B B B B n n c c c c c c c c c c B B B B B B B B B A A A ! ! ! ! ! ! ^ [ [ [ [ } | | $.#.#.#.%.=.=.=.=.=.;.;.;.a.a.a.a.a.a.a.s.s.a.a.Q & & & & & & & & & & & t T T T Q Q T T T T Q Q T T T T T T Q Q Q T ! ^ ! ^ ^ ^ ) ^ ^ ^ ) ) ) @.$.$.$.$.#.#.#.#.",
"%.%.%.%.%.%.%.%.%.%.%.%.%.%.%.%.%.%.%.%.%.w.w.w.w.=.w.w.w.w.w.=.w.=.%.%.#.@.@.@.} ^ ) ^ ^ ^ ) ) ^ ^ ^ ^ ) } @.@.@.} ^ ^ ^ ^ K K T T Q Q K K T T K K K K Q Q Q Q Q Q K F s s s s s s s s s s N K K K &.3.h.;X;X;X*.K Q &.&.&.&.&.&.&.&.&.X.^ ^ ^ ^ ^ ^ ^ _ ....^ s $ $ $ $ J v.v.v.v.6.6.6.6.6.6.6.6.1.1.+.+.+.+.+.+.+.+.+.+.+.+.X.........................X...........X.X.X.~ ~ Q I I I I I _ _ ..X.X...X.X.X...+.+.+.+.1.1.1.5.6.A.(.D.Z.A.5.6.V...6 & & & s 2.2.2.-.-.*.*.*.*.*.*.*.*.&.&.&.&.*.*.*.&.&.&.&.*.-.-.2.2.2.h.h.h.h.h.h.h.h.C.C.C.C.V.C.C.Z.Z.Z.Z.D.Z.Z.C.C.C.C.C.C.C.C.C.C.S.K.K.2.s 5 5 5 5 5 % % 2 z.h.^ ^ ] ] ^ ^ ^ ^ ] ] ^ ^ X.@.@.@.@.@.@.@.@.@.@.@.@.@.@.@.$.%.%.*.*.*.%.%.%.%.*.*.*.*.*.*.=.=.=.=.=.=.a.d.a.d.d.f.j.f.f.f.f.f.f.d.d.d.G.G.2.2 ; ; ; ; ; ; ; ; ; ; ; ; ; ; ; ; ; ; t B B B B n n n B c c c c c c c c B B B B B B B B B B A A A T ! ! ! ! ! ! ^ [ [ ^ [ | | | #.#.#.#.%.=.=.=.=.;.;.;.s.s.a.a.a.a.s.s.s.a.a.%.& & & & & & & & & & & T T T T T T T T T T Q Q Q T T T T T T Q Q E ^ ^ ! ! ! ^ ) ^ ^ ^ ) ) #.$.$.$.$.$.#.#.#.#.",
"%.%.%.%.%.%.%.%.%.%.%.%.%.%.%.%.%.%.%.%.%.w.w.w.w.w.w.=.w.w.w.w.w.w.=.%.%.$.#.@.@.} ^ ^ ^ ^ ^ ) ^ ^ ^ ^ @.@.@.@.#.#.@.^ ^ ^ ^ T T T T Q Q Q T T Q T T T Q Q Q Q T K x s s s s s s s s s s 7 7 F K K Q 3.3.3.2._ K K J ..&.&.&.&.&.&.&.&...] ] ] ........] Q ~ ^ k $ $ $ $ s v.v.v.v.h.h.6.6.6.6.6.6.2.1.1.*.+.+.+.+.+.+.+.+.+.+.X.......X.X.X.X.X.................X.X.X.....~ _ ~ I I I I I _ ~ ..X.X.X.X.X.....+.+.+.+.,.1.1.6.6.6.V.Z.V.6.6.6.V...6 , & & 7 2.2.2.-.*.&.&.&.&.&.&.&.&.*.*.*.&.*.*.&.&.&.*.*.*.-.-.-.2.2.h.h.h.h.h.h.h.h.V.V.C.V.Z.Z.Z.Z.Z.Z.Z.D.D.Z.Z.Z.Z.Z.Z.C.V.C.C.C.K.K.K.2.s 6 6 6 6 < % % &.C.2.] ] ] ] ^ ^ ^ ^ ] ] ^ ^ ^ ..@.@.@.@.@.@.@.@.@.@.@.@.@.@.*.*.*.*.%.%.*.*.%.*.*.*.*.*.*.$.$.=.=.=.;.;.;.a.a.a.a.a.d.j.j.j.f.f.f.d.j.d.B b 1 ; ; ; ; ; ; ; ; ; ; ; ; ; ; ; ; ; ; ; ; t A T A B B B B c c c b b c c b B B B B B B B B B A A A A A E ! ! ! ! ! ! ^ [ ) ) } | } } $.#.#.#.%.=.=.=.;.t.a.s.s.s.a.a.a.a.a.a.a.a.s.& & & & & & & & & & & Q Q Q Q T Q Q T Q Q Q Q Q Q T T T T T Q T E ^ ! ! ! ^ ^ ^ } ^ ^ } #.$.$.#.#.#.$.$.$.#.#.",
"%.%.%.%.%.%.%.%.%.%.%.%.%.%.%.%.%.%.%.%.%.w.w.w.w.w.=.=.w.w.w.w.w.w.w.%.%.%.#.#.@.#.@.} ^ ^ ^ ) ^ ^ ^ @.@.@.@.@.@.@.@.@.^ ^ ^ Q T T T Q Q Q T K Q T T K K Q Q Q K k s s s s s s s s s s 7 7 7 k K K K J Q Q K K K K K K K o.&.&.&.&.&.+.] ] ] ] ^ ^ ...._ Q K K s $ $ $ $ $ h.v.v.v.v.v.h.h.6.6.6.6.6.1.1.1.<.+.+.+.+.+.+.+.+.+.X.......X.X.X.X...................X.X.X.....~ _ ~ Q I I I I _ _ ..X.X.X.X.X...X.+.+.+.+.+.1.1.5.6.6.6.6.6.6.6.6.V...6 , ; ; ; 2.2.2.-.*.&.&.*.&.&.&.&.&.*.*.*.*.*.*.&.&.&.*.*.*.-.-.-.2.2.3.h.h.h.h.h.h.h.V.V.V.Z.Z.Z.Z.Z.Z.Z.Z.D.D.Z.Z.Z.Z.Z.Z.C.V.C.C.C.K.K.K.2.s 6 6 6 2 % % k C.z.X.] ^ ] ] ^ ^ ^ ] ] ^ ^ ^ ^ ^ X.@.@.@.@.@.@.@.@.@.@.@.@.*.*.*.*.*.%.*.*.*.*.*.*.*.*.*.*.$.$.$.=.=.;.;.;.;.2.a.a.a.a.a.d.j.f.f.f.d.f.=.T b i ; ; ; ; ; ; ; ; ; ; ; ; ; ; ; ; ; ; ; ; 4 k A T A B B B B B B n n B B B B B B B B B B V T A A A A T T ! ! ! ! ! ! ! [ ) ) ) | } } #.#.#.#.#.%.=.=.;.t.a.s.s.s.a.a.a.a.s.s.a.a.s.6 & & & & & & & & & & T Q Q Q T T T T T K K T Q Q T T T T Q Q Q E ^ ! ! ! E E ^ } ^ } #.$.$.$.$.#.=.=.%.%.%.#.",
"%.%.%.%.%.%.%.%.%.%.%.%.%.%.%.%.%.%.%.%.%.%.w.w.w.w.w.w.w.w.w.w.w.w.w.w.%.%.%.#.@.@.@.@.@.^ ^ ^ ^ ^ ) @.@.@.@.@.@.@.@.@.} ) ^ ^ K T K K Q K K K Q T T T K K K G s s s s s s s s s s s s 7 7 6 7 K K K K K K K K K K K K K K &.&.&.&.&.X.] ] ^ ^ ~ ^ ^ _ ^ Q K K s $ $ $ $ $ +.v.v.v.v.v.v.v.h.6.6.6.6.2.1.1.1.1.*.+.+.+.+.+.+.+.+.X.......X.................X.X............._ _ ~ Q I I I I ~ ~ ..............+.+.+.+.+.+.,.1.5.6.6.6.6.5.6.6.6.D...2 , ; ; ; 2.2.2.-.&.*.*.*.*.*.&.*.*.*.*.*.*.*.*.*.&.*.*.*.*.-.-.-.-.2.3.h.h.h.3.3.h.h.C.V.C.Z.Z.Z.Z.Z.Z.Z.Z.D.D.Z.Z.Z.Z.Z.Z.C.V.V.C.K.K.K.K.2.s 6 2 < % % u X.h.*.^ ^ ^ ^ ^ ^ ^ ] ] ] ] ^ ^ ^ ^ ^ X.@.@.@.@.@.@.@.@.@.@.*.*.*.*.=.*.%.%.*.*.*.*.*.*.=.*.=.=.=.=.=.=.=.=.=.=.=.;.a.a.a.a.d.f.f.f.f.f.a.%.%.B b 4 ; ; ; ; ; ; ; ; ; ; ; ; ; ; ; ; ; ; ; t k c A A A B B B B B n B B B B B B B B B B V T T T A T T T T ! ! ! ! ! ! ! W ) ) ^ } } } } $.#.#.#.#.=.=.=.t.a.a.s.a.a.a.s.s.s.s.s.a.s.K & & & & & & % & & & s K Q Q T T K B B B B B Q T T T T T Q Q T E ^ ^ ^ ! ! ! ^ ) ) #.$.#.$.$.#.%.w.w.=.=.=.=.",
"%.%.%.%.%.%.%.%.%.%.%.%.%.%.%.%.%.%.%.%.%.%.w.w.w.w.w.w.w.w.w.w.w.w.w.w.w.%.%.%.@.@.@.@.@.@.@.^ ^ ^ @.@.@.@.@.@.@.@.@.@.@.^ ^ ^ K K K T Q K K K K K Q Q Q Q G s s s s s s s s s s s s s 7 6 6 6 K K K K K K K K K K K K K K ~ &.&.&.+.] ^ ] ~ I Q ^ ^ _ ^ ~ K K s $ $ $ $ $ o.v.v.v.v.v.v.v.v.h.6.6.6.6.1.1.1.1.1.1.*.+.+.+.+.+.+.X...........................X............._ _ ~ I I I I I Q ~ _ ..........o.+.+.+.+.+.+.*.1.4.6.6.6.6.5.5.6.6.D..., , ; ; ; 2.2.2.-.&.*.*.*.*.*.*.*.*.*.*.*.*.*.*.*.&.*.*.*.*.-.-.-.-.2.2.h.h.2.2.2.h.h.V.V.C.Z.Z.Z.Z.Z.Z.Z.Z.D.D.Z.Z.Z.Z.Z.Z.V.V.V.C.K.K.K.K.,.% % % + + + E ^ ^ ^ ^ ^ ^ ^ ^ ^ ^ ] ] ] ] ^ ^ ^ ^ ^ X.@.@.@.@.@.@.@.@.@.*.*.*.*.*.=.%.%.%.*.*.*.*.*.*.*.=.=.=.=.=.=.=.=.=.=.=.=.=.;.a.a.a.d.f.j.j.j.f.%.%.%.%.! B ; ; ; ; ; ; ; ; ; ; ; ; ; ; ; ; ; ; ; t k k c A A A B B B B n n B B B B B B B B B B T T T A T T T T E ! ! ! ! ! ! ! ^ ^ [ ^ } } } } %.%.#.#.#.=.=.t.a.a.a.a.a.a.a.s.s.s.s.a.s.=.& % & & & & & & & & 2 B B K K B B B B B B G Q T T T T Q Q Q Q T ^ ! ! ^ ! ^ ^ ) @.#.$.$.$.$.#.=.w.w.=.=.=.=.",
"%.%.%.%.%.%.%.%.%.%.%.%.%.%.%.%.%.%.%.%.%.%.=.w.w.=.=.w.=.=.w.w.w.w.=.=.w.=.%.%.#.#.#.$.$.@.@.@.@.#.#.$.@.@.#.@.#.#.#.#.@.) ^ ^ Q Q Q Q K T T Q K K Q K K G s s s s s s s s s s s s s s 7 7 7 6 K K K K K K K K K K K K K K K X.&.&...^ ^ ^ Q I Q _ _ ^ ^ ^ I I 7 $ $ $ $ $ o.h.v.v.v.v.v.v.v.v.v.h.6.6.6.1.1.1.1.1.1.*.+.+.+.+.+.+.X...........X.X.........X.X...........~ _ ~ I I I I I I I _ _ ..X...X.X.+.+.+.+.+.+.+.+.1.1.6.6.6.6.6.6.6.6.D...; ; ; & & 2.2.2.-.*.*.*.*.*.*.*.*.*.*.*.*.*.&.&.*.*.*.&.&.*.-.-.-.-.2.2.2.2.2.2.3.h.h.C.C.C.Z.Z.Z.D.Z.Z.D.D.Z.C.C.Z.Z.Z.Z.C.C.C.C.V.K.K.K.K._ % + + + + % ^ ^ ^ ] ] ] ] ^ ^ ^ ] ] ] ] ^ ^ ^ ^ ^ ^ ^ @.@.@.@.@.@.@.@.@.*.*.*.$.%.%.%.*.*.*.*.%.%.*.*.*.*.=.=.=.=.=.;.;.;.=.=.=.=.a.a.a.a.d.d.d.d.d.a.%.%.%.%.%.%.T 2 ; ; ; ; ; ; ; ; ; ; ; ; ; ; ; ; ; w k k k n T T T V B B B B B B B B B B B B B B B T A A T T A A E E ! ! ! ! ! ! ^ [ [ ^ } | | | #.%.%.#.#.%.=.;.a.a.a.a.a.a.s.s.s.s.s.s.s.s.6 & & & & & & & & % 2 B B B B B B B B B B K T T T T T T T T T Q E ! ^ ^ ^ ^ ^ ^ #.$.$.$.#.#.#.=.=.=.w.w.w.w.",
"%.%.%.%.%.%.%.%.%.%.%.%.%.%.%.%.%.%.%.%.%.%.%.w.w.w.w.w.w.=.w.w.w.w.w.w.w.w.=.%.%.%.$.#.#.#.@.@.#.$.$.$.@.@.#.#.#.$.$.#.@.) ) ^ Q Q Q Q K T T T K K K K J s s s s s s s s s s s s s s 7 7 7 7 7 K K K K K K K K K K K K K K K Q &...^ ^ ^ ~ I I I _ ^ ^ ^ ^ I I 6 $ $ % $ $ o.6.v.v.v.v.v.v.v.v.v.v.v.h.6.6.6.2.2.1.1.1.+.+.+.+.+.+.+.o.X.......X.X.........X.X...........~ _ I I I I I I I I ~ _ ......X.+.+.+.+.+.+.+.+.+.1.1.6.6.6.6.6.6.6.6.D._ ; ; & & & 2.2.2.-.*.*.*.&.&.*.*.*.*.*.*.*.*.&.&.*.*.*.&.&.*.-.-.-.-.2.2.2.2.2.2.h.h.z.C.C.C.Z.Z.D.Z.Z.Z.C.C.Z.C.Z.Z.Z.Z.C.C.C.C.C.V.K.K.K.K.F % % + % + % K ^ ^ ^ ^ ] ] ^ ^ ^ ^ ] ] ] ] ^ ^ ^ ^ ^ ^ X.@.@.@.@.@.@.@.@.*.*.*.$.%.%.%.%.%.*.*.%.%.*.*.*.*.=.=.=.=.=.=.;.;.=.=.=.=.a.a.a.a.f.f.d.d.d.%.%.%.%.%.%.%.%.! ; ; ; ; ; ; ; ; ; ; ; ; ; ; ; ; ; ; c k k c A } T T B B B B B B B B B B B B B B B B A T T T A E E E ! ! ! ! ! ! W [ [ [ [ } } | } %.%.%.#.%.=.;.a.a.a.a.a.a.s.s.s.s.s.s.s.s.^ & & & & & & & & 1 4 b B B B B B B B B B T T T T T T T T T T T E ! ^ ^ ^ ^ ) } #.$.$.$.$.$.%.=.=.=.w.w.w.=.",
"%.%.%.%.%.%.%.%.%.%.%.%.%.%.%.%.%.%.%.%.%.%.%.=.w.w.w.w.w.w.w.w.w.w.w.w.w.w.w.=.%.%.%.#.#.@.@.@.#.#.#.#.@.@.@.$.%.%.$.$.@.^ ) E Q Q T K K K Q Q Q Q Q K s s s s s s s s s s s s s s 7 7 7 7 7 u K K K K K K K K K K K K K K J J I ^ ^ ^ _ Q I I I ~ ^ ^ ^ ^ I I 2 $ $ $ $ $ o.6.v.v.v.v.v.v.v.v.v.v.v.v.6.6.6.6.6.1.1.1.+.+.+.+.+.+.+.+.+.X.....X.X..._ ~ ~ ....X.X.....~ ~ Q I I I I I I I I I _ ..X.X.o.+.+.+.+.+.+.+.+.*.1.1.5.6.6.6.6.6.6.6.D.I ; ; & & & 2.2.2.*.*.*.&.&.&.&.&.&.&.*.*.*.*.&.&.*.*.*.*.*.-.-.-.-.2.2.2.2.2.2.3.h.h.z.C.C.C.Z.Z.Z.C.Z.C.C.C.Z.Z.Z.Z.Z.Z.C.C.C.C.C.V.K.K.K.K.7 + + + % % % 4 ^ ^ ^ ^ ] ] ] ^ ] ] ] ] ] ] ] ] ^ ^ ^ ^ X.@.@.@.@.@.@.@.@.$.*.*.$.$.=.=.%.%.%.%.%.%.=.*.*.=.=.=.=.=.=.=.;.;.;.=.=.=.a.a.a.d.d.j.d.d.d.%.%.%.%.%.%.%.%.%.K ; ; ; ; ; ; ; ; ; ; ; ; ; ; ; ; ; i k k k A ^ } T T B B B B B B B B B B B B B B B B T A A E E E ! ! ! ! E E ! ! [ [ [ [ [ | | | $.#.#.#.#.=.=.a.s.s.s.a.a.a.a.s.a.a.s.a.a.a.< & & & & & & & 4 4 s B B B B B B B B B Q T T Q T Q Q T T T Q E ^ ^ ^ ^ ^ ^ #.$.$.#.$.$.$.=.=.=.w.w.w.=.=.",
"%.%.%.%.%.%.%.%.%.%.%.%.%.%.%.%.%.%.%.%.%.%.%.%.w.w.w.w.w.w.w.w.w.w.w.w.w.w.w.w.w.%.%.%.%.#.@.@.@.#.#.#.#.#.%.%.%.#.$.#.@.^ ^ Q Q Q T K K T Q Q Q Q Q z s s s s s s s s s s s s s 9 7 7 7 7 7 k K K K K K K K K K K K K K K J P I ~ ^ _ ~ I I I I Q ^ Q Q I I I 2 $ $ $ $ $ o.6.v.v.v.v.v.v.v.v.v.v.v.v.6.6.6.6.6.1.1.1.+.+.+.+.+.+.+.+.+.+.X...X.X...~ ~ ~ ~ ~ ..X...~ ~ ~ I I I I I I I I I I ~ _ X.X.o.+.+.+.+.+.+.+.+.1.1.1.1.6.6.6.6.6.6.6.D.P ; ; & & & *.6.2.-.*.*.&.&.&.&.&.&.*.*.*.&.&.&.&.*.*.*.&.-.-.-.-.-.2.2.2.2.2.2.h.h.h.h.C.C.C.C.Z.Z.C.C.C.C.C.Z.Z.Z.Z.Z.C.C.C.C.C.C.C.K.K.K.K.& + % + % % % % G ^ ^ ^ ] ] ] ] ^ ] ] ] ] ] ] ] ] ^ ^ ^ ] X.@.@.@.@.@.@.@.@.@.@.@.@.*.=.%.%.=.%.%.%.=.*.=.=.=.=.=.=.=.=.;.;.=.=.=.=.;.a.a.d.f.j.d.d.t.%.%.%.%.%.%.%.%.%.%.s ; ; ; ; ; ; ; ; ; ; ; ; ; ; ; ; 2 c k k B ! } ^ T T A V B B B B B B B B B B B B B A A A E E E ! ! ! ! ! ! ! ! [ [ [ ^ [ } | | #.#.#.#.#.%.=.t.s.s.s.a.a.a.a.a.a.a.a.a.a.a.G & & & & & & & 4 4 t B B B B B B B B B Q T T Q Q Q Q T T T ! ! ^ ^ ^ ^ ) ) $.$.$.$.$.$.%.=.=.=.w.w.w.=.=.",
"%.%.%.%.%.%.%.%.%.%.%.%.%.%.%.%.%.%.%.%.%.%.%.%.w.w.w.w.w.w.w.w.w.w.w.w.w.=.w.w.w.w.=.%.%.%.%.%.#.#.#.%.%.%.%.%.%.$.@.@.} ^ ^ K K K K T T T K K K K F s s s s s s s s s s s s s s 6 7 7 7 7 6 _ K K K K K K K K K K K K K K K J I I ~ ~ I I I I I I ^ Q I I K K , $ $ $ $ $ o.6.v.v.v.v.v.v.v.v.v.v.v.6.6.6.6.6.1.1.1.1.+.+.+.+.+.+.+.+.+.+.X......._ _ ~ _ ~ ~ ~ ~ ~ ~ ~ I I I I I I I I I I I ~ _ ..X.+.+.+.+.+.+.+.+.,.1.1.1.1.6.6.6.6.6.6.6.Z.z ; ; ; & & 6.C.2.*.&.&.*.*.*.&.&.*.*.*.*.&.&.*.*.*.*.*.*.-.-.-.-.-.2.2.2.2.2.2.h.h.h.h.V.V.V.V.V.C.C.C.C.C.V.C.C.C.Z.V.C.C.C.C.V.V.V.V.K.K.K.% + + + % % % % & ^ ] ] ^ ^ ^ ^ ^ ^ ^ ^ ^ ] ] ] ] ] ^ ^ ^ ^ X.@.@.@.@.@.@.@.@.@.@.@.$.*.*.*.*.*.*.=.=.=.=.=.=.=.=.=.=.=.;.;.=.=.=.=.=.a.a.d.d.j.j.f.=.%.%.%.%.%.%.%.%.%.%.#.2 ; ; ; ; ; ; ; ; ; ; ; ; ; ; ; ; 4 k k c A } } T A T T T A B B B B B B B B B B B A A A T ! E E E E ! ! ! ! ! ^ ) } ^ [ } } } | #.#.%.%.#.=.=.a.a.a.a.a.a.a.a.a.a.a.a.a.a.a.2 & & & = = & 6 6 6 b B B B B B B B K Q T Q Q Q Q T T E ! ! ^ ^ ^ ^ ^ ^ #.$.$.#.#.#.$.=.=.w.w.w.=.=.=.=.",
"%.%.%.%.%.%.%.%.%.%.%.%.%.%.%.%.%.%.%.%.%.%.%.%.=.w.w.w.w.w.w.w.w.w.w.w.w.=.=.w.w.w.w.w.=.%.%.%.%.%.%.%.%.%.%.%.%.#.#.#.^ ^ ^ K K Q K K T T Q Q K K s s s s s s s s s s s s s s 7 6 7 7 7 7 ..C.K K K K K K K K K K K K K K J K I I I I I I I Q I I ~ Q K K K K , $ $ $ $ $ o.h.v.v.v.v.v.v.v.v.v.h.6.6.6.6.3.1.1.1.1.+.+.+.+.+.+.+.o.X.............~ ~ I I ~ ~ ~ ~ ~ ~ Q I I I I I I I I I I I I ~ ..X.+.+.+.+.+.+.+.1.1.1.1.1.1.5.6.6.6.6.6.6.V.j & ; ; & & C.C.2.-.*.-.-.-.*.&.&.*.*.-.-.*.&.*.*.*.*.*.-.-.-.-.-.-.2.2.2.2.2.3.h.h.h.h.h.V.V.V.V.C.C.C.C.V.V.C.C.C.C.C.C.C.C.V.V.V.V.V.C.C.V.% + + + % % % % % m ] ] ^ ^ ^ ^ ^ ^ ^ ^ ^ ^ ] ] ] ] ^ ^ ^ ^ ] ] X.@.@.@.@.@.@.@.@.@.@.*.*.*.*.*.*.=.=.=.=.=.=.=.=.=.=.=.;.;.;.=.=.=.;.a.d.d.d.j.f.f.%.%.%.%.%.%.%.%.%.%.%.$.E ; ; ; ; ; ; ; ; ; ; ; ; ; ; ; ; ; i k c c } } ! A T T T T A B B B B B B B B B V A A A T T ! E E E ! ! ! ! ! ^ ^ } ^ } } } } | #.#.%.%.#.=.=.=.a.a.a.a.a.a.a.a.s.s.a.a.a.a.[ & & & = % & 4 6 6 i B B B B B B B T Q T Q Q Q Q Q E E ! ! ^ ^ ^ ^ ^ ^ $.$.#.#.$.$.$.=.=.w.w.w.=.=.=.=.",
"%.%.%.%.%.%.%.%.%.%.%.%.%.%.%.%.%.%.%.%.%.%.%.%.%.w.w.w.=.=.w.w.w.w.w.w.t.w.w.w.w.w.w.w.w.w.=.=.%.%.%.%.%.%.%.%.%.#.#.@.^ ^ ^ K Q Q Q Q T Q Q Q Q N s s s s s s s s s s s s s 7 7 7 7 7 7 s oX[.K K K K K K K K K K K K J K I I I I I I I ~ ~ ~ ~ Q ~ Q K K K K % $ $ $ $ $ o.v.v.v.v.v.v.v.v.h.6.3.3.3.6.2.1.1.1.<.+.+.+.+.+.+.+.o.X.X..........._ ~ I I I I ~ ~ ~ ~ ~ I I I I I I I I I I I I I ~ ~ ..o.+.+.+.+.+.1.1.1.1.1.1.1.1.6.6.6.6.6.6.6.& ; ; ; & & C.C.2.-.-.-.-.-.-.-.-.-.-.-.-.-.&.&.&.&.&.*.-.-.-.-.-.-.-.2.2.2.2.h.h.h.h.h.h.h.h.V.C.C.C.V.V.C.C.V.V.V.V.C.C.C.C.C.C.V.V.V.V.V.*.% % + + % % % % % u ] ] ] ] ^ ^ ] ] ^ ^ ^ ^ ^ ^ ] ^ ^ ^ ] ] ] ] ^ ^ @.@.@.@.@.@.@.@.@.$.*.*.*.*.*.*.=.=.=.=.=.=.=.=.=.=.;.;.=.=.;.;.;.;.d.d.f.f.f.d.%.%.%.%.%.%.%.%.%.$.%.%.%.m ; ; ; ; ; ; ; ; ; ; ; ; ; ; ; ; t k c c ^ @.^ A T T T A A V B B B B B B B B T T A A T T T E E E ! ! ! ! ^ ^ [ } [ | } | } } #.#.%.%.%.%.=.=.;.s.s.a.s.s.a.s.s.s.s.s.a.a.j.4 & % + + & 2 6 6 t B B B B B B B T Q T T Q T T E ^ ^ ! ! ! ^ ^ ^ ^ } $.$.$.$.$.$.$.%.w.w.=.=.w.w.w.w.",
"%.%.%.%.%.%.%.%.%.%.%.%.%.%.%.%.%.%.%.%.%.%.%.%.%.w.w.w.w.w.w.w.w.w.w.w.t.t.t.w.w.w.w.w.w.w.w.w.w.=.=.=.%.%.%.%.#.#.#.} ) ^ E K Q Q Q Q T Q Q Q Q s s s s s s s s s s s s s 7 6 6 7 7 7 7 6.-X[.K K K K K K K K K K K K I I I I I I I I ~ ^ ^ ^ ^ ^ Q k k k k l , $ $ $ $ $ o.h.h.h.v.v.v.v.h.6.3.3.3.3.6.2.1.1.*.+.+.+.o...X.X.X...X.X.X.X.......~ ~ I I I I I ~ ~ ~ ~ I I I I I I I I I I I I I Q ~ ..X.+.+.+.+.+.1.1.1.1.1.1.1.1.5.6.6.6.6.6.5.& ; ; ; ; 6 C.C.2.-.-.-.-.-.-.-.-.-.-.-.-.-.*.&.&.&.&.*.-.-.-.-.-.-.-.2.2.2.3.h.h.h.h.h.h.h.h.h.h.h.h.h.h.h.h.h.h.h.z.V.C.C.C.h.h.h.h.h.h.h.o.% % + + % % % + % 4 ] ] ] ] ^ ^ ] ^ ^ ^ ^ ^ ^ ^ ] ] ^ ^ ^ ] ] ] ] ^ X.@.@.@.@.@.@.@.@.@.$.*.$.$.*.*.=.=.;.=.=.=.;.=.=.=.;.;.=.=.;.;.;.;.d.f.f.f.f.t.%.%.%.%.%.%.%.%.%.%.%.%.%.%.u ; ; ; ; ; ; ; ; ; ; ; ; ; ; ; t k c c T @.#.A T T T A A B B B B B B B B n A T A A T T T A E E ! ! ! ^ ^ ^ } } } | | | } } #.%.%.%.#.#.=.=.=.;.s.s.s.s.a.s.s.s.s.a.a.a.N.=.% + + + % 1 6 6 6 k B B B B B B Q T T T E E ^ ^ ^ ^ ! ! ! ^ ^ ^ ^ #.$.$.$.$.$.$.$.$.%.w.=.=.w.w.w.w.",
"%.%.%.%.%.%.%.%.%.%.%.%.%.%.%.%.%.%.%.%.%.%.%.%.%.w.w.w.w.w.w.w.w.w.w.w.t.t.t.t.t.t.t.t.t.t.t.w.w.w.w.w.w.w.=.%.#.#.#.@.) ) E Q T T T Q Q Q Q Q N s s s s s s s s s s s s 7 6 6 6 6 6 6 F -X-XC.K K K K K K K K K J I I I I I Q I I I Q X.^ ^ ^ ^ ^ I k k k j l , $ $ $ $ < o.6.6.6.h.v.v.h.6.6.6.6.6.6.6.1.1.1.+.+.+.+.+....................._ ~ ~ I I I I I I I ~ ~ I I I I I I I I I I I I I I I ~ ..X.+.+.+.+.+.,.1.1.1.1.1.1.1.1.6.5.5.5.6.+.& & & ; & 6 C.v.2.-.-.-.-.-.-.2.2.2.2.-.-.-.-.*.*.*.*.-.2.2.1.-.-.-.-.2.2.2.h.h.h.h.h.h.h.h.h.h.h.h.h.h.h.h.h.h.h.h.h.h.h.h.h.h.h.h.h.h.h.h.X.% % % % % % + + % 4 ^ ^ ] ] ] ^ ] ] ^ ^ ] ] ^ ^ ^ ^ ] ] ^ ^ ^ ^ ^ ^ ] @.@.@.@.@.@.@.@.@.@.@.@.@.$.*.*.=.;.;.;.;.;.;.;.;.=.=.=.=.=.=.=.;.s.j.f.f.d.=.%.%.%.%.%.%.%.%.%.%.%.%.%.%.$.u ; ; ; ; ; ; ; ; ; ; ; ; ; ; t k k k B @.=.T A A A A T V B B B B B B B V T T A T T T A A A T ! ! ^ [ ) ) ) } } | | } } | %.%.#.#.#.#.%.=.=.=.t.a.a.a.a.a.s.s.s.s.a.d.G.=.+ + + + % = 6 6 6 k k B B B B B T T T T ^ ^ ^ ! ! ! ^ ^ ^ ^ ^ } } %.#.#.#.$.$.$.#.$.$.%.=.=.=.=.w.w.",
"%.%.%.%.%.%.%.%.%.%.%.%.%.%.%.%.%.%.%.%.%.%.%.%.%.%.%.w.w.w.w.w.w.w.w.w.t.t.t.t.t.t.t.t.t.t.t.t.t.t.t.t.w.w.w.=.%.#.#.#.) ) ^ Q K K T T Q Q Q T j s s s s s s s s s s s 9 7 6 6 6 6 7 7 ).>X-X2.K K K K K K K K J I I I I I I I I I I ..h.*.^ ^ ^ ^ F k k k k k $ $ $ $ $ 6 o.6.6.6.6.h.v.6.6.6.6.6.6.6.6.1.1.1.*.+.+.+.+.X.............X.X...~ ~ ~ I I I I I I I I I I I I I I I I I I I I I I I I ~ _ X.o.+.+.+.+.*.1.1.1.1.1.1.1.1.5.5.5.5.5.x & ; ; ; ; N C.v.2.2.2.2.2.2.2.2.2.2.2.2.2.-.-.-.-.*.-.2.2.2.2.-.-.-.-.2.2.2.h.h.h.h.h.h.h.h.h.h.h.h.h.h.h.h.h.h.h.h.h.h.h.h.h.h.h.h.h.h.3.2.2.% % % % % % + + % 4 ^ ^ ] ] ] ^ ^ ^ ^ ^ ] ] ^ ] ^ ] ] ] ^ ^ ^ ^ ^ ^ ..@.@.@.@.@.@.@.@.@.@.@.@.@.@.*.=.=.;.;.;.;.;.;.;.;.=.=.=.=.=.=.=.=.d.j.j.j.d.%.$.%.%.%.%.%.%.%.%.%.%.%.%.%.%.%.k = = = ; ; ; ; ; ; ; ; ; ; i k k k m #.=.T A A A A T T V B B B B B B A T T A A T T A A A E ! ! ^ [ ^ ^ } } } } } } } | %.%.#.#.#.#.#.=.=.=.=.t.a.a.a.a.s.s.s.s.f.G.L.;.+ + + + % & 4 6 6 k k b B B B B T T T T ^ ^ ! ! E E ^ ^ ^ ^ ) } #.#.#.#.$.$.$.$.$.#.$.$.%.=.=.=.w.w.",
"%.%.%.%.%.%.%.%.%.%.%.%.%.%.%.%.%.%.%.%.%.%.%.%.%.%.%.%.w.w.w.w.w.w.=.=.w.t.t.t.t.t.t.t.t.t.t.t.t.t.t.t.t.w.w.w.%.$.#.#.@.^ ^ Q K K T T Q Q K T s s s s s s s s s s s s 6 7 7 7 7 7 7 Q >X>X>XK K K K K K K K J I I I I I I I I I I I X.j.j.a...^ ^ z k k l l s $ $ $ $ $ 6 o.6.6.6.6.6.h.6.6.6.6.6.6.6.3.1.1.1.1.+.+.+.+.o.....X.X.....X.X..._ _ ~ I I I I I I I I I I I I I I I I I I I I I I I I ~ _ X.X.+.+.+.+.+.,.1.1.1.1.1.1.1.5.5.5.5.,.; ; ; ; ; ; F C.C.h.h.3.3.2.2.2.2.2.2.2.2.2.2.-.1.2.2.2.2.2.2.2.2.-.-.-.2.2.3.h.h.h.h.h.h.h.h.h.h.h.h.h.h.h.h.h.h.h.h.h.h.h.h.h.h.h.h.3.2.2.2.2.+ + % + % % % % % 4 ^ ^ ] ] ] ~ Q Q Q E ] ] ] ] ^ ^ ] ] ] ] ^ ^ ^ ^ X.@.@.@.@.@.@.@.@.@.@.@.@.@.@.=.=.=.=.;.=.=.=.=.=.=.;.;.;.;.=.=.=.=.d.j.j.j.a.%.%.%.%.%.%.%.%.%.%.%.%.%.%.%.%.%.%.^ t = = = ; ; ; ; ; ; ; ; i c k k k =.$.T A A T T T T A A T T T A A T T T T T T T A A T ! ! ! ! ^ ^ ^ ) ^ } } } } } #.#.#.#.#.#.#.#.=.=.=.=.;.a.a.a.s.a.d.G.G.G.G.J.J.+ + + + + & 2 6 6 k k m B B B B Q Q T T ^ ^ ! E ^ ^ ^ ) ^ ^ ^ @.$.$.$.#.$.$.$.$.#.#.$.#.#.%.=.=.=.w.",
"%.%.%.%.%.%.%.%.%.%.%.%.%.%.%.%.%.%.%.%.%.%.%.%.%.%.%.%.%.w.w.w.w.w.=.=.w.t.t.t.t.t.t.t.t.t.t.t.t.t.t.t.t.w.w.w.%.#.$.$.$.^ ^ Q K K K Q Q Q K G s s s s s s s s s s s x 7 7 7 7 7 7 7 oX>X>XD.K K K K K K K K I I Q Q Q Q ~ ~ ~ Q I I Q a.j.j.d.~ z 2 1 1 6 l s $ $ $ $ $ 6 o.6.6.6.6.6.6.6.6.6.6.6.6.6.2.1.1.1.1.*.+.+.+.+.X...............X...~ ~ Q I I I I I I I I I I I I I I I I I I I I I I I _ _ X.X.+.+.+.+.+.+.1.1.1.1.1.1.1.5.5.5.5.7 < < ; ; ; ; Q C.C.v.h.h.h.h.h.h.h.h.3.3.3.3.3.3.3.h.h.h.h.h.3.3.h.3.3.3.3.3.h.h.h.h.h.h.h.h.h.h.h.h.h.h.h.h.h.h.3.2.2.2.2.3.h.h.h.3.2.2.2.2.2.2.6 + + + % % % % % 4 ^ ^ ] ] ^ Q Q Q Q Q E ] ] ] ^ ^ ] ] ] ^ ^ ^ ^ X.@.@.@.@.@.@.@.@.@.@.@.@.@.@.@.$.=.=.=.=.=.=.=.=.=.=.;.;.;.;.=.=.=.=.j.j.j.j.=.%.%.%.%.%.%.%.%.%.%.%.%.%.%.%.%.%.%.%.%.^ t = = ; ; ; ; ; ; ; h h k k k a.=.T A T T T T T A A T T A A A A T T T T T T A T ! ! ! ! ! ! ^ ^ ) ^ [ } } } | } } } | $.#.#.#.%.=.=.=.a.a.s.s.s.a.a.M.G.G.G.J.J.& + + + + & 2 6 6 k k k B B B B Q Q T T ^ ^ ! ^ ^ ^ ) ) ^ ^ @.#.#.$.$.$.$.$.$.$.#.#.$.$.#.%.=.=.=.=.",
"%.%.%.%.%.%.%.%.%.%.%.%.%.%.%.%.%.%.%.%.%.%.%.%.%.%.%.%.%.%.w.w.w.w.w.w.t.t.t.t.t.t.t.t.t.t.t.t.t.t.t.t.t.w.w.w.=.%.$.#.#.} ^ ^ Q T T T Q T K N s s s s s s s s s s x x k 7 7 7 u j N [.-X>X~ K K K K K K K K I I _ _ _ _ _ _ _ _ _ Q I I ..N 7 ; ; < ; < < s 6 $ $ $ $ $ 6 o.6.3.6.6.6.6.6.6.6.3.3.3.6.2.1.1.1.1.,.+.+.+.+.+.X.X.X.............~ ~ ~ I I I I I I I I I I I I I I I I I I I I I I ~ _ _ ....+.+.+.+.+.+.1.1.1.1.1.1.1.5.5.5.7 & ; ; ; ; ; ; o.C.C.C.C.h.h.h.h.h.h.h.h.h.h.h.h.h.h.h.h.h.h.h.h.h.h.h.h.h.h.h.h.h.h.h.h.h.h.h.h.h.h.h.h.h.h.h.6.2.2.2.2.2.2.2.2.3.2.2.2.2.2.2.2.2.6 % % % + + + % % < ^ ^ ^ ^ Q Q Q Q Q Q E E ] ] ^ ^ ] ] ] ^ ^ [ @.@.@.@.@.@.@.@.@.@.@.@.@.@.@.@.@.$.=.=.=.=.=.=.;.;.;.;.=.=.=.;.=.=.=.;.f.f.f.s.%.%.%.%.%.%.%.%.%.%.%.%.%.%.%.%.%.%.%.%.%.%.%.4 = = = ; ; ; ; 2 h c k k c s.t.A A T T T T T A A A A T T A A A A A A T T T E E E ! ! ! ! W [ ^ ^ [ [ } | } } } } | | $.#.#.#.=.=.;.s.s.s.s.s.a.a.u.;.=.#.} } 4 + + + + % 1 4 4 u k k B B B B Q Q T Q ! ^ ^ ^ ^ ^ } ) } #.$.$.#.$.$.$.$.%.%.%.%.=.=.=.=.%.=.=.=.=.",
"%.%.%.%.%.%.%.%.%.%.%.%.%.%.%.%.%.%.%.%.%.%.%.%.%.%.%.%.%.%.%.w.w.w.=.t.t.t.t.t.t.t.t.t.t.t.t.t.t.t.t.t.w.w.w.w.=.%.%.#.#.#.^ ^ ^ T T T Q T K k s s s s s s s s s x x x x x z x x x _ -X>XD.K K K K K K K K I I I ~ _ _ _ _ _ _ _ _ _ I 6 < ; ; < ; ; s J o._ , $ $ $ $ $ 6 o.2.1.6.6.6.6.6.6.6.3.3.6.6.2.1.1.1.1.1.+.+.+.+.+.+.+.+.X.............~ ~ _ ~ ~ ~ I I I I I I ~ ~ I Q Q ~ ~ _ _ ~ _ _ _ _ ....X.+.+.+.+.+.*.1.1.1.1.1.1.5.5.5.7 ; & ; ; ; ; & ; < 2.C.C.C.C.C.C.v.h.h.h.h.h.h.h.h.h.h.h.h.h.h.h.h.h.h.h.h.h.v.C.V.V.v.h.h.h.h.h.h.h.h.h.h.h.h.h.2.2.2.2.2.2.2.2.2.2.2.2.2.2.2.2.2.2.6 % % % + + + + % % ^ ^ ^ ~ Q Q Q Q Q E E Q ~ ] ^ ^ ] ] ] ] ^ X.@.@.@.@.@.@.@.@.@.@.@.@.@.@.@.@.@.@.=.=.=.=.=.=.;.;.;.;.=.=.=.=.=.=.=.2.f.f.f.=.%.%.%.%.%.%.%.%.%.%.%.%.%.%.%.%.%.%.%.%.%.%.%.t = = = = = ; ; w c c k k V s.t.A A A T T T T A A A T T T A A A A A A T A T E E E ! ! ! ! ^ [ [ [ [ } | | } } } #.#.%.#.#.#.#.=.=.t.a.s.s.s.s.a.t.} | } | } } b + + + + % = 4 4 u k k m B B B T Q T Q ! ^ ^ ^ ^ ^ ) #.$.$.$.$.$.%.%.=.=.=.=.=.w.w.w.w.w.w.=.=.=.w.",
"%.%.%.%.%.%.%.%.%.%.%.%.%.%.%.%.%.%.%.%.%.%.%.%.%.%.%.%.%.%.%.=.w.w.w.t.t.t.t.t.t.t.t.t.t.t.t.t.t.t.t.t.w.w.w.w.=.%.%.#.@.@.@.^ ^ K Q Q Q Q K s s s s s s s s s l x x x x x x x x x z.>X-XI K K K K K K K K I I I ~ _ _ _ _ _ _ _ _ _ Q k u u k F _ o.o.o.o.o.> $ $ $ $ $ 6 o.*.1.2.3.6.3.3.6.6.3.3.6.6.2.1.1.1.1.1.*.+.+.+.+.+.+.+.+.X.X.X.....X...~ ~ ~ ~ _ I I I I I I ~ _ _ ~ ~ ~ _ ~ ~ ~ ~ _ ..X.X...+.+.+.+.+.+.1.1.1.1.1.1.1.5.5.7 ; ; ; & ; & & & & & < J h.C.C.C.C.C.C.C.C.C.C.C.C.C.C.C.C.C.C.C.C.C.C.C.C.C.C.C.C.C.C.C.C.C.C.v.h.h.h.h.h.h.h.h.3.2.2.2.2.2.2.2.2.2.2.2.2.2.2.2.2.2.2.s % % % % % + % % % ^ ^ ^ Q Q Q Q Q E E E E Q ] ^ ] ] ] ^ ^ ^ ^ @.@.@.@.@.@.@.@.@.@.@.@.@.@.@.@.@.@.=.=.;.;.;.;.=.;.=.=.=.=.=.=.=.=.=.a.f.d.f.a.%.%.%.%.%.%.%.%.%.%.%.@.E ^ #.%.%.%.%.%.%.%.$.= = = = = = = ; i c c k k @.s.t.A A A A A T T A A A A T T T T A A A A A T ! ! E E ! ! ! ! [ [ [ [ } } } } } } | | | $.%.#.#.#.%.=.=.=.;.;.=.=.=.%.} } | | } } T + + + + + < 6 4 t k k c B B B B Q T Q ! ^ ^ ) ^ ^ ^ $.$.$.$.%.s.s.s.t.w.=.=.=.=.w.w.w.w.w.=.=.w.w.",
"%.%.%.%.%.%.%.%.%.%.%.%.#.} } } } } } } } #.#.#.%.%.%.%.%.%.%.%.w.w.w.t.t.t.t.t.t.t.t.t.t.t.t.t.t.t.t.t.w.w.w.w.=.%.%.%.$.@.@.^ E Q Q K Q Q K s s s s s s s s s x x x x x x x x x F >X>X*.K K K K K K K K K I I I I Q Q ~ _ _ _ _ _ _ _ ..o.o.o.o.o.o.o.o.o.o.6 $ $ $ $ $ 6 o.*.1.1.1.2.3.3.3.6.6.6.6.6.2.1.1.1.1.1.*.+.+.+.+.+.+.+.+.+.X.X.X...X...~ ~ ~ ~ ~ ~ I I I I I I ~ _ ~ ~ _ ...._ _ ..X.X.X.X.+.+.+.+.+.+.,.1.1.1.1.1.1.1.1.7 ; ; ; ; & & & & & & & & ; < N 2.C.C.C.C.C.C.C.C.C.C.C.C.C.C.C.C.C.C.C.C.C.C.C.C.C.C.C.C.C.C.C.C.C.C.C.h.h.h.h.h.h.h.h.h.h.3.3.3.2.2.2.2.2.2.2.2.2.2.2.2.F % % % % % % % % % ^ ^ E Q Q Q Q Q E E E E Q ~ ^ ^ ] ] ^ ^ ^ ^ ] @.@.@.@.@.@.@.@.@.@.@.@.@.@.@.@.@.=.=.;.;.;.;.=.=.=.=.=.=.=.=.=.=.=.a.d.d.f.f.t.%.%.%.%.%.%.%.%.^ B B B B B V ^ #.%.%.%.%.k = = = = = = = ; k c c k k a.s.t.A A A A A T T A A A A T T T T A T A A A E ! E ! ! ! ! ! ! [ [ [ } } } } } } } | | } } } $.%.#.%.=.=.=.=.=.=.=.%.#.$.} } | } } | + + + + + = 6 6 t k k k B B B B T T T E ^ ^ ^ ^ ^ ^ #.$.$.$.$.%.t.s.s.s.a.w.=.=.w.w.w.=.=.=.=.w.w.",
"%.%.%.%.%.%.%.%.%.%.%.#.} } } } } } } } } } } } } #.%.%.%.%.%.%.=.w.w.t.t.t.t.t.t.t.t.t.t.t.t.t.t.t.t.t.t.t.w.=.w.=.%.%.@.s u u k Q Q Q K K F s s s s s s s s s x x x x x x x x x 1.>X).K K K K K K K K K K K K K I I I I Q _ _ _ _ _ _ _ ..o.o.o.o.o.o.o.o.o.6 $ $ $ $ $ 6 o.*.1.1.1.1.1.3.6.6.6.6.6.6.2.1.1.1.1.1.1.+.+.+.+.+.+.+.+.+.X.............~ _ _ _ _ I I I I I I I ~ ~ ~ ..X...X.....X.X.o.+.+.+.+.+.+.*.1.1.1.1.1.1.1.1.,.; & & & & & & & & & & & & ; ; ; ; < k ~ h.C.C.C.C.C.C.C.C.C.C.C.C.C.C.C.C.C.C.C.C.C.C.C.C.C.C.C.C.C.C.C.C.h.h.h.h.h.h.h.h.h.h.h.h.2.2.2.2.2.2.2.2.2.2.2.2.G % % % % % % % % % ] ^ Q Q Q Q Q Q Q Q Q Q Q Q ^ ^ ^ ^ ^ ] ] ^ ^ X.@.@.@.@.@.@.@.@.@.@.@.@.@.@.@.@.=.;.;.=.=.=.=.=.=.=.=.=.=.=.=.=.=.d.d.d.d.=.k = t t t t B B c b B B B B B B B B V ^ $.k = = = = = = = - 4 k k k k c d.d.=.T T T T A A A A A A A A A T T T T A A T ! ! ! ! ! ! ! ! ! ^ ^ ^ } } } } } } } } | | | } } | #.#.#.%.=.=.%.%.#.$.$.#.#.| | | | | = + + + + & 4 6 6 k k k c B B B B T T T ! ^ ^ ^ ^ ^ } $.$.$.$.$.$.=.s.s.s.s.t.w.w.=.=.=.=.w.w.w.w.",
"%.%.%.%.%.%.%.%.%.%.#.} } } } } } } } } } } } } } } } #.%.%.%.%.%.w.w.w.t.t.t.t.t.t.t.t.t.t.t.t.t.t.t.t.t.t.t.w.w.w.%.! 1 . . o o + N Q K K z s s s s s s s s s z x x x x x x x F [.@XI K K K K K K K K K K K K K J K I I I Q _ _ _ _ _ _ _ ..o.o.o.o.o.o.o.o.6 $ $ $ $ $ 6 o.o.<.1.1.1.1.1.6.6.6.6.6.6.2.1.1.1.1.1.1.+.+.+.+.+.+.+.+.X...............~ _ _ _ ~ I I I I I I I I ~ ~ ..X.........X.+.+.+.+.+.+.+.+.1.1.1.1.1.1.1.1.1.o.; & & & & & ; & , & & & & ; ; ; & ; ; 6 6 z X.h.C.C.C.C.C.C.C.C.C.C.C.C.C.v.3.h.C.C.C.C.C.C.C.C.C.C.C.C.C.C.v.h.h.h.h.h.h.h.h.h.3.2.2.2.2.2.2.2.2.2.2.2.2.Q % % % % % % % % % ] ~ Q Q Q Q Q Q Q Q Q Q Q Q E ^ ^ ^ ^ ] ] ] ^ ^ @.@.@.@.@.@.@.@.@.@.@.@.@.@.@.@.$.;.;.=.=.=.=.=.=.=.=.=.=.=.=.=.;.f.d.@.4 = = = = = = = = = = = 2 m B B B B B B B k 4 = = = = = = = = - u k k k k ^ d.d.@.T T T T A A A A A A A T T T T A T A A E ! ! ! ! ! ! ! ! ! ^ ^ ^ [ [ [ } } } } } } | | | } | | | #.%.%.%.%.#.#.%.$.#.#.| | | } | t + + + + % = 6 6 k k k k b B B B B T T ! ^ ^ ^ ^ ^ ^ #.$.$.$.$.$.$.%.t.s.s.s.s.w.=.=.=.=.w.w.w.w.",
"%.%.%.%.%.%.%.%.%.#.} } } } } } } } } } } } } } } } } } } } #.%.%.%.w.w.w.t.t.t.t.t.t.t.t.t.t.t.t.t.t.t.t.t.t.w.w.w.k = = o . . o o o N K K s s s s s s s s s s s x x x x x x F 5.D.*.K K K K K K K K K K K K K I I I I I I I Q _ _ _ _ _ _ _ _ o.o.o.o.o.o.o.6 $ $ $ $ $ 6 o.o.+.*.1.1.1.1.1.6.6.6.6.2.1.1.1.1.1.1.1.+.+.+.+.+.+.+.+.X...............~ _ _ ~ ~ Q I I I I I I I ~ ~ _ X.X.X.....+.+.+.+.+.+.+.+.+.1.1.1.1.1.1.1.1.1.o.; ; ; & & ; ; ; & < < < < & & ; ; & & 6 6 6 6 6 s J X.-.C.C.C.C.C.2.+.I J J J J J J P _ *.h.C.C.C.C.C.C.C.C.v.h.h.h.h.h.h.h.h.h.2.2.2.2.2.2.2.2.2.2.2.2.2.o.% % % + + + + % % ] Q Q Q Q Q Q Q Q Q Q Q Q Q E ~ ^ ^ ] ] ] ] ^ ] @.@.@.@.@.@.@.@.@.@.@.@.@.@.@.@.$.;.=.=.=.=.;.;.;.;.=.=.=.=.;.;.;.a.u = = = = = = = = = = = = = = = i B B B B m 2 = = = = = = = = = = - g c k k k w.s.s.T T T T T T A A T A T T T T T T A A A T ! ! ! ! ! ! ! ! ! ! ^ ^ ^ [ [ } | | } } } } | | } } } } } } #.%.#.#.#.#.$.$.#.%.| | } } } m + + + + + & & 1 u k k k k B B B B T T ! ^ ^ ^ ^ ^ ^ @.$.#.#.$.$.$.$.$.=.a.s.s.s.w.w.=.w.=.=.=.=.",
"%.%.%.%.%.%.%.%.%.} } } } } } } } } } } } } } } } } } } } } } %.%.%.=.w.w.w.w.t.t.t.t.t.t.t.t.t.t.t.t.t.t.t.w.w.} 2 = = = + . . . . . o K K s s s s s s s s s s s z x x x x x ,.z.6.K K K K K K K K K K K J I I I I I I I I I Q _ _ _ _ _ _ _ _ o.o.o.o.o.o.o.6 $ $ $ $ $ 6 o.o.o.+.<.1.1.1.1.1.1.1.1.1.1.1.1.1.1.1.*.+.+.+.+.+.+.+.X.X.................~ _ _ ~ ~ I I Q ~ ~ ~ ~ ~ ~ _ X.X.X.X.+.+.+.+.+.+.+.+.+.+.1.1.1.1.1.1.1.1.1.o.; ; & & & ; ; < 2 2 2 2 2 2 < ; ; & & 6 6 6 6 7 s s s s 6 6 6 6 6 6 6 6 6 6 6 6 6 6 6 6 6 6 s J &.6.C.C.C.h.h.h.h.h.h.h.h.h.h.6.2.2.2.2.2.2.2.2.2.2.2.2.2.o.% % + + + + + % % ^ Q Q Q Q Q Q Q Q Q Q Q Q Q Q E ^ ^ ^ ] ] ] ^ X.@.@.@.@.@.@.@.@.@.@.@.@.@.@.@.@.@.=.=.=.=.=.;.;.;.;.;.=.=.=.;.;.@.1 = = = = = = = = = = = = = = = = = i B c 4 = = = = = = = = = = = = = c c k k c s.t.! T T T T T T A A T T T T T T T T A A A E ! ! ! ! ! ! ! ! ! ^ ^ ^ ^ } } | | | } } } } } | } } } } } } | | #.#.#.#.%.%.#.%.#.| } } } m + + + + + & & 6 u k k k k B B B B B Q ^ ^ ^ ^ ^ ^ ^ #.#.#.#.$.$.$.$.$.$.$.=.s.s.s.t.=.=.=.=.=.=.",
"%.%.%.%.%.%.%.%.%.} } } } } } } } } } ) ) W W W W ) } } } } } #.%.%.%.w.w.w.w.w.w.w.t.t.t.t.t.t.t.t.t.t.t.t.w.T 1 ; ; ; ; = . . . . . . < N s s s s s s s s s s s s x x x x ..z.z...K K K K K K K K K K J I I I I I I I I I Q _ _ _ _ _ _ _ _ _ o.o.o.o.o.o.o.6 % $ $ $ $ 6 o.o.o.o.+.*.1.1.1.1.1.1.1.1.1.1.1.1.1.1.+.+.+.+.+.+.+.+.........X.X......._ ~ ~ ~ ~ ~ I ~ ~ ~ ~ ~ ~ ~ _ ....X.X.X.+.+.+.+.+.+.+.+.+.+.+.+.+.*.1.1.1.1.1.o.& & & & & & 2 2 2 2 2 2 2 2 2 2 , , , 1 6 6 F Q Q Q Q Q F 6 6 6 6 6 6 6 6 6 6 6 6 6 6 6 6 6 6 6 6 6 7 P 1.h.h.h.h.h.h.h.h.h.h.2.2.2.2.2.2.2.2.2.2.2.2.2.2.*.% % % % % % % % % E E Q Q Q Q Q Q Q Q Q Q Q Q Q Q ] ] ] ] ^ ^ ^ @.@.@.@.@.@.@.@.@.@.@.@.@.@.@.@.@.@.=.=.=.;.;.;.;.=.=.=.;.;.;.=.=.2 = = = = = = = = = = = = = = = = = = = ; = = = = = = = = = = = = = = = k k k k c A A A T T T T T T T T T T A A T T T T T T A ! ! ! ! ! ! ! ! ! ! ^ ^ ^ } | | | } } } } } } } } } | | | } } } } } $.%.%.%.$.#.#.$.#.| } } B + + + + + % < t u k k k k m B B B B T E ^ ^ ^ W ^ ^ #.$.$.$.$.$.$.$.#.$.$.$.%.t.s.s.t.=.=.=.=.w.",
"%.%.%.%.%.%.%.%.#.} } } } } } } } ) W W W W W W W W W ) } } } } %.%.%.%.=.w.w.w.w.w.w.w.t.t.t.t.t.t.t.t.t.=.u = ; = ; ; = = % . . . . . . s s s s s s s s s s s s s z x x J z.z.z.K K K K K K K K K K J I I I I I Q Q ~ ~ _ _ _ _ _ _ _ _ _ _ _ o.o.o.o.o.o.o.6 & $ $ $ $ % o.o.o.o.o.o.+.*.<.1.1.1.1.1.1.1.1.1.<.+.+.+.+.+.+.+.+.+.X.......X.X.......~ ~ ~ ~ ~ ~ _ _ _ ~ ~ ~ _ ........X.X.X.+.+.+.+.+.+.+.+.+.+.+.+.+.+.*.1.1.1.1.o.& & & & & < 2 2 2 2 2 2 2 2 2 2 2 , , & 1 6 6 s s s s 7 6 6 6 6 6 6 6 6 6 6 6 6 6 6 6 6 6 6 6 6 6 6 6 6 6 z ~ ..............X.2.2.2.2.2.2.2.2.2.2.2.2.2.2.2.% % % % % + + % % E E Q Q Q Q Q Q Q Q Q Q E Q Q Q ] ] ] ] ^ ^ X.@.@.@.@.@.@.@.@.@.@.@.@.@.@.@.@.@.$.=.=.=.;.;.=.;.=.=.=.;.;.;.=.k = = = = = = = = = = = = = = = = = = = = = = = = = = = = = = = = = = = 2 k k k c A A A A T T T T T T T T T T A A T A T T T T T ! ! ! ! ! ! ! ! ! ! [ [ [ } } | | } } } } } } } } } | | | } } } } } } } #.#.#.#.#.#.#.#.} ^ B + + + + + + 6 t u k k k k m B B B B K T ^ ^ ! ^ ^ ^ #.$.$.#.$.$.$.$.#.#.$.$.$.$.=.s.s.s.=.=.=.=.",
"%.%.%.%.%.%.%.%.} } } } } } } ) W W W W W W W W W W W W ) } } } } %.%.%.%.%.=.w.w.w.w.w.w.t.t.t.t.t.t.t.K 1 = = = = = = = = = o . . . . . % s s s s s s s s s s s s x x x 4.z.z.*.K K K K K K K K K K I I I I I ~ _ _ _ _ _ _ _ _ _ _ _ _ _ _ _ o.o.o.o.o.o.o.5 o $ $ $ $ $ o.o.o.o.o.o.+.o.o.+.+.+.1.1.1.1.1.*.+.+.+.+.+.+.+.+.+.+.+.+.X.............~ ~ ~ ~ ~ _ _ _ _ _ ..........X.X.o.+.+.+.+.+.+.+.+.+.*.*.*.*.,.1.1.1.1.1.1.1.o.& & & ; ; < 2 2 2 2 2 2 2 2 2 2 2 , , , , ; < < 2 2 2 2 2 2 2 2 2 2 2 2 2 6 6 6 6 6 6 6 6 6 6 6 6 6 6 6 < & + % % % % % % + % < 6 6 7 7 7 7 7 7 7 s z I *.2.% + + % + + + % % Q Q Q Q Q Q Q Q Q Q Q Q E E Q Q ^ ^ ] ^ ^ ^ [ @.@.@.@.@.E Q E E E @.@.@.@.@.@.$.=.=.=.=.=.=.=.=.=.=.=.=.;.;.Q = = = = = = = = = = = = = = = = = = = = = = = = = = = = = = = = = = = = w k k k V T T A A A T A A A A T T A A A A A A A A T T T ! ! ! ! E E ! ! ! ^ [ [ [ } } | | | } } | } } } } } } | } } } } | | } } } } } } | } } } } ^ B 4 + + + + % t t u k k k k m B B B B B T ^ ^ ^ ^ ^ ^ } #.#.#.$.$.$.$.$.#.$.$.$.$.$.%.s.s.s.t.=.=.",
"%.%.%.%.%.%.%.#.} } } } } } ) W W W W W W W W W W W W W W W } } } #.%.%.%.%.%.%.w.w.w.w.w.w.t.t.t.t.^ 4 = = = = = = = = = = = & . . . . . o s s s s s s s s s s s l x x J z.z.z.Q K m m z z z z m m m N N N N F J J J I _ _ _ _ _ P J J J J J J Q o.o.o.o.o.o.% . o $ $ $ $ o.o.o.o.o.o.+.o.o.o.o.o.*.1.*.+.+.+.+.+.+.+.+.+.+.o._ ~ x k 6 % $ $ $ $ $ , 5 7 x I _ _ ............X.o.+.+.+.+.+.+.+.+.*.,.1.1.1.1.1.1.1.1.1.1.1.1.1.1...& & & ; ; ; < 2 2 2 2 2 2 2 2 2 < , , , , ; ; ; ; ; ; ; ; , , < , & & & & ; ; ; 2 6 6 6 6 6 6 6 2 , % % % % % % % % % % + + % % % % % % % + + + + + + + + + + + + + + + % % % Q Q Q Q K K K K K K Q Q Q E Q E ^ ^ ] ] ^ ^ ] ] Q 4 4 4 4 4 4 4 4 4 s Q @.@.*.=.=.=.=.=.=.=.=.=.=.=.=.=.=.$.= = = = = = = = = = = = = = = = = = = = = = = = = = = = = = = = = = = = = i k k c T A T A A A T A A A A T T T A A A A A A A A A E ! ! ! ! ! E E W [ [ [ ^ ^ } } | | | } } | | | } } } } } } } } | | | | } | | } } | | | } } ^ B b + + + + % t t t k k k k m B B B B B Q E ^ ^ ^ ) ^ ) #.#.#.#.$.$.$.#.#.#.$.$.$.#.#.%.s.s.s.s.w.",
"%.%.%.%.%.%.%.#.} } } } } ) W W W W W W W W W W W W W W W W ) } } } #.%.%.%.%.%.w.w.w.w.w.w.w.t.^ s ; ; = = = = = = = = = = = = % . . . . . < s s s s s s s s s s 7 s s s s s s 9 1 1 1 < < 1 1 1 1 1 1 1 1 1 1 1 1 1 1 1 1 1 1 1 1 1 1 1 1 1 1 1 1 1 1 1 1 1 o . . o o + + $ % % 6 6 6 6 $ $ $ $ $ $ $ $ $ $ $ 6 6 % $ $ $ $ $ $ $ $ $ $ $ $ $ $ $ $ $ $ $ $ $ 7 J ..X.......I _ _ _ _ _ _ _ _ _ ..........1.1.1.1.1.1.1.1.1.1.1.1.x & & & ; ; , , < 2 2 2 2 2 2 2 2 & , & % % % % % % % % % % % % % % % % % % % % % % % & < , & % % % % % % % % % % % % % % % % % % % % % + + + + + + + + + % % % % + + + % % % % u z s s s s s s s s j j j k k s 2 2 2 2 2 4 & % + + % & < 4 4 4 4 4 4 4 N =.=.=.=.=.=.=.=.=.=.=.=.=.=.=.$.; = = = = = = = = = = = = = = = = = = = = = = = = = = = = = = = = = = = = = i c c V T T T T T T T A A T T T T A A A A A T A A A A ! ! ! ! ! ! ! ^ [ [ ^ ^ ^ } | | } } } } } } } } | | | } } } } } } | | | } } } } } } | | | | T B B % + + + % t t t k k k k m B B B B B Q T ! ! ^ ) ^ } $.#.#.$.$.#.#.$.$.$.$.$.$.$.$.$.=.s.s.s.s.",
"%.%.%.%.%.%.%.} } } } } ) W W W W W W W W W W W W W W W W W ) } } } } #.%.%.%.w.w.w.w.=.w.#.B 2 = = = ; = = = = ; ; = = = = = = = o . . . . o s s s s 6 < % + . . . . . . . . . . . . . . . . . . . . . . o + + + + + + + + + + + + + + + + + + o . . . . . . . . . . . . . . o o + $ $ $ $ $ $ $ $ $ $ $ $ $ $ $ $ $ $ $ $ $ $ $ $ $ $ $ $ $ $ $ $ $ $ $ $ $ $ $ $ $ , 5 l 6 5 6 6 9 9 9 9 9 9 9 9 9 9 9 9 9 9 9 9 9 j j F P *.1...& & & & ; ; & , , , < 2 2 2 2 2 < & & $ $ $ % % % % + + % % % + + + % % % % % + % % % % % % % % % + % % % % % % + % + % % % + % % % % % + + + + + + + + % % % % % + + + + % % % + + % % % % & ; < ; < < % % % % + + + + + % % + + % % % % % % ; 2 4 4 4 4 =.=.=.^ ^ ^ Q k k u 1 1 < % % = = = = = = = = = = = = = = = = = = = = = = = = = = = = = = = = = = = = = = = y c c T A T A A T T T A A T T T T A A A A A T A A T A ! ! ! ! ! ^ ^ ^ [ [ [ ^ } | | | } } } | } } } } | | | } } } } } } | | | } } } } } } | | | [ K B B ; + + + % t t t u k k k m B B B B K Q T T ! ^ ^ ^ } #.$.#.$.$.#.$.$.$.$.$.#.#.$.$.$.=.s.s.s.s.",
"%.%.%.%.%.%.%.} } } } } W W ( ) ^ W W W W W W W W W W W W W ) } } } } } #.%.w.w.w.} T m 2 = = = = = ; ; = = ; = ; ; ; ; = = = = = % . . . . . % $ o . . . . . . . . . . . . . . . . . . . . . . . . . . . . . . . . . . . . . . . . . . . . . . . . . . . . . . . . . . . . . . . . . o $ $ $ $ $ $ $ $ $ $ $ $ $ $ $ $ $ $ $ $ $ $ $ $ $ $ $ $ $ $ $ $ $ $ $ $ $ $ $ $ $ $ $ $ $ $ $ $ $ $ % , , , , , , , , , , , $ $ $ $ % & ; ; ; & & & ; ; ; & , , , < 2 2 2 < ; ; & % % $ % % % % + + + % % % % % % % % % % + + + % % % % % % + + + + % % + + % % + % + % + % % % % + + + % % % % % % % % % % % % + + % % % % % + % % % % % % % % % % % % % % % % % % % % % % + + % % % % % % % % & & & % % % % % % % % % % % % % % % % % = = = = = = = = = = = = = = = = = = = = = = = = = = = = = = = = = = = = = = 2 4 k n A A A A T T A T T T A B m d k k k k m b A T ! ! ! ! ^ ^ ^ ^ ^ ^ } | | | } | } } | | | | } } ! b b b T ! } } } } | | | E K K T K T B B B B B b % + + + + 6 t t t t u i k B B B B T Q T T ^ ! ^ ^ [ #.$.$.$.$.#.#.$.$.$.$.#.$.$.$.%.s.s.s.s.s.",
"T %.%.%.%.%.%.} } } } } } } } } } } W W W W W W W W W W W W } } } } } } } } ! - = = = = = = = = = = ; ; ; = = = ; ; ; ; = = = ; = = o . . . . . . . . . . . . . . . . . . . . . . . . . . . . . . . . . . . . . . . . . . . . . . . . . . . . . . . . . . . . . . . . . . . . . . . . . . + $ $ $ $ $ $ $ $ $ $ $ $ $ $ $ $ $ $ $ $ $ $ $ $ $ $ $ $ $ $ $ $ $ $ $ $ $ $ $ $ $ $ $ $ $ $ $ $ $ $ $ $ $ $ $ $ $ $ $ $ $ $ $ $ & & ; ; ; & & & ; ; ; ; , , , , 2 2 2 ; ; ; & & % % % % % % + + % % % % + + % % % % % % % + + % % % % % + + + % % + + + + % % % + + + + % % % + + + % % % % % % % % % % % % % + % % % % % % % % % % % % % % % % % % % % % % % % % % % % + + % % % % % % % + + + % % % % % % % % % % % % % % % % % % & = = = = = = = = = = = = = = = = = = = = = = = = = = = = = = = = = = = = = = = = = = ; 4 4 4 4 = = & & = = = = = = = = & & & & 4 4 i B E [ ^ } } | | | | | } | } } | | | } b ; = = = = = = = = t t t 4 + + + + + + + + + + & % + + + + + + % , < < < < < < < < < 1 6 k B T T ^ b B G Q Q @.$.$.$.$.$.#.$.$.$.$.$.^ @.@.@.@.%.s.",
"+ + % 1 d B @.%.%.%.%.%.#.) W ) E M w 2 2 2 2 % + + O + + + + + + + + + + O + O = ; = = = = ; ; = = = = = = = ; ; ; = = ; ; ; ; = = % . . . . . . . . . . . . . . . . . . . . . . . . . . . . . . . . . . . . . . . . . . . . . . . . . . . . . . . . . . . . . . . . . . . . . . . . . . . + $ $ $ $ $ $ $ $ $ $ $ $ $ $ $ $ $ $ $ $ $ $ $ $ $ $ $ $ $ $ $ $ $ $ $ $ $ $ $ $ $ $ $ $ $ $ $ $ $ $ $ $ $ $ $ $ $ $ $ $ $ $ $ , & & < 2 & , , < 2 2 2 < < < 1 2 2 2 2 < , , , , & % % % % % % & 7 7 7 7 m s 7 7 7 7 1 % % % % % % % % + + % % % + % % % % + % % % % % % % + + % % % % + + + % % % % % % + + + % % % % % % + % + % % % % % % % % % % % % % % % % % % % % % % % % % % % % % % % % % + + + + % % % % % % + + % % % % % = = = = = = = = = = = = = = = = = = = = = = = = = = = = = = = = = = = = = = = = = = = = = = = = = = = = = = = = = = = = = = = = = = = = = 4 i b ! [ | } } } } } } } T i = = = = = = = = = = = = & & % + + + + + + + + + + + + + + + + + + + % < < , , < < , , < < < < < % + + + + + + + + + + + + + + O 2 2 4 4 6 6 6 6 6 6 6 ",
"+ + + + + O % i c c c B t + + O O + + + + + + + + + + + + + + + + + + + O O + + + = = = = ; ; ; = = ; ; = = ; ; ; ; = = ; ; ; ; = = % . . . . . . . . . . . . . . . . . . . . . . . . . . . . . . . . . . . . . . . . . . . . . . . . . . . . . 5 8 8 8 8 8 8 8 8 8 8 $ . . . L z.V.,., . . . + $ $ $ $ $ $ $ $ $ $ $ $ $ $ $ $ $ $ $ $ $ $ $ $ $ $ $ $ $ $ $ $ $ $ $ $ $ $ $ $ $ $ $ $ $ $ $ $ $ $ $ $ $ $ , , $ $ $ $ $ % & & < 2 2 < , , < 2 2 2 2 2 2 2 2 2 2 2 2 2 < < < 2 2 < k ~ =.a.d.d.d.d.d.d.d.d.d.d.d.d.d.d.*.*.~ J G , + + % % % % % % + + + + % % % % % % + % % % % % + + + + % % % % % % + + % % % % % % + + + % % % % % % % % % % % + + % % % % % % % % % % % % % % % & % % % % % + + + % % % % % % + % 4 u u u 4 = = = = = = = = = = = = = = = = = = = = = = = = = = = = = = = = = = = = = = = = = = = = = = = = = = = = = = = = = = = = = = = = = = = = = = = = = = = ; t t t t = = = = = = = = = = = = = = = & & = % + + + + + + + + + + + + + + + + + + + + + % = < < < , , < < < < < = + + + + + + + + + + + + + + + + + + + + + + + # % % ",
"O O + + O O + + = 2 1 + + + + + O O + + + + + + + O O + + + O O + + + + O + + + + + = = = = ; ; ; ; ; ; = = = = = = = = = ; = = ; = = . . . . . . . . . . . . . . . . . . . . . . . . . . . . . . . . . . . . . . . . . . . . . . . , x ,.V.`.`.`.`.`.`.`.`.`.`.`.`.`.`.`.`.`.`.`.`.`.K.5 . . o $ $ $ $ $ $ $ $ $ $ $ $ $ $ $ $ $ $ $ $ $ $ $ $ $ $ $ $ $ $ $ $ $ $ $ $ $ $ $ $ $ $ $ $ $ $ $ $ $ $ $ $ $ l 5X|.$ $ $ $ $ % & < 2 2 2 < , , 2 2 2 2 2 2 2 2 2 2 2 2 2 2 2 2 2 2 2 J d.d.d.d.d.d.a.a.d.a.d.d.d.d.d.d.d.d.d.d.d.d.U..XC.F % % % % % % + + % + % % % % % % + + % % % % % + % % % % % % % % + + + % % % % % % + % % + + % % % % % % + + + + % % % % & < < < < < < 2 6 u u u u u u u 6 1 & + % % % % % % 4 u u u u u K ^ s = = = = = = = = = = = = = = = = = = = = = = = = = = = = = = = = = = = = = = = = = = = = = = = = = = = = = = = = = = = = = = = = = = = = = = = = = = = = = = = = = = = = = = = = = = = = = = = = & + + + + + + + + + + + + + + + + + + + + + + + + % % + % % % % % = % + + + + + + + + + + + + + + + + + + + + + + + + + + ",
"O + + + + O O + + + + + + + + + + O + + + + + + + O + + O O O O + + + O O + + + + + & = = = ; ; ; ; ; ; = = = = = = = = = = = = = ; & . . . . . . . . . . . . . . . . . . . . . . . . o $ $ $ < 5 5 5 s z z z z z z k k k l l k k k S.`.K.V.7.7.V.S.`.`.`.`.`.`.`.`.`.`.`.`.`.`.`.`.`.`.`.x . + $ $ $ $ $ $ $ $ $ $ $ $ $ $ $ $ $ $ $ $ $ $ $ $ $ $ $ $ $ $ $ $ $ $ $ $ $ $ $ $ $ $ $ $ $ $ $ $ $ $ $ $ >.6X6X6X8.$ $ $ $ , , 2 2 2 2 2 < < 2 2 2 2 2 2 2 2 2 2 2 2 2 2 2 2 2 2 2 2.C.C.h.d.d.d.a.a.a.a.b.C.H.G.U.U.H.H.b.h.h.H.'.oX;X;XoX_ < % % + + + % % % % % % % + + + % % % % % % % % % % % % % % % % & & % & & % + + % & z 6 4 6 s k k k k z m m N N N N m m m m m m m m m m m m m N K K K J J J G m u < 4 u u u u u u u s X.@.^ G = = = = = = = = ; ; = = = = = = = = = = = = = = = = = = = = = = = = = = = = = = = = = = = = = = = = = = = = = = = = = = = = = = = = = = = = = = = = = = = = = = = = = = = = = = = = = = = = = + + + + + O O O % % % + + + + + + + + + + + + + + + + + + + + + + + + + + + + + + + + + + + + + + + + + + + + + + + + + ",
"O + + + + O + + + + + + + + + + + + + % % = = = = = = = = = = = = % + O + + + + + + % = = = = ; = = = ; ; ; = = = = = = = = = = = = + . . . . . . . . . . % , 2 u u s s s k z F P P P P P P P P P P P P P P P P P P 3 6 s s k k z V.`.`.z.7.7.7.7.S.`.`.`.`.`.`.`.`.`.`.[.-X-X{.`.`.`.`.`.`.< $ $ $ $ $ $ $ $ $ $ $ $ $ $ $ $ $ $ $ $ $ $ $ $ $ $ $ $ $ $ $ $ $ $ $ $ $ $ $ $ $ $ $ $ $ $ $ $ $ $ $ , /.6X6X6X6X6X8.$ $ & ; < 2 2 2 2 2 2 2 2 2 2 2 2 2 2 2 2 2 2 2 2 6 u s u 7 7 C.H.C.H.H.H.C.C.K.U.'.'.'.'.'.'.'.'.'.'.'.'.'.'.'.%X;X;X;X%X2.4 % % % % % + + + + + + % % % % % % % % % % & & < < < < < < < < < ; ; ; & s &.C.2.&.k Q Q Q Q Q Q Q Q Q Q Q Q Q Q Q Q Q Q Q Q Q Q Q X.-.-.-.-.-.-.-.-.-.-.2.d.K u s k B K ^ ^ ^ K ^ X.;.F.j.t = = = = ; 2 t t t t t 2 2 - = = = = = = = = = = = = = = = = = = = = = = = = = = = = = = = = = = = = = = = = = = = = = = = = = = = = = = = = = = = = = = = = = = = = = = = = = = = = = = = = = = = = = = = = = = + + + + + + + + + + + + + + + + + + + + + + + + + + + + + + + + + + + + + + + + + + + + + + + + + ",
"+ + + + + O + + + + + + + O # = = = = = = = = = = = = = = = = = = = % O O + + + + + = = = = = = = = = = ; ; 2 s k k 6 = = = = = = 2 2 & % % % & 2 6 u s j j s s s s s s k P P P P P P P P P P P P P P P P P ~ ..~ ~ 6 1 1 1 1 2 h.`.`.Z.7.7.7.7.V.`.`.`.`.`.`.`.`.`.`.@X-X-X-X-X`.`.`.`.`.`.o.$ $ $ $ $ $ $ $ $ $ $ $ $ $ $ $ $ $ $ $ $ $ $ $ $ $ $ $ $ $ $ $ $ $ $ $ $ $ $ $ $ $ $ $ $ $ $ $ $ $ 5 |.6X6X6X6X6X6X`.2.z ; < 2 2 2 2 2 2 2 2 2 2 2 2 2 2 3 5 6 6 7 u s s s s s s d L.C.C.H.H.H.K.'.'.'.'.'.'.'.'.'.'.'.'.'.'.'.'.'.'..X;X;X;X;X;X;XC.k % % % % + + + + + + + % % % % & & < ; ; ; < < < < ; < < < ; ; < 2 &.H.H.h.2.2...s K Q Q E Q Q Q Q Q Q Q Q Q Q Q Q Q Q Q Q Q Q =.-.-.-.-.-.-.-.-.-.-.L.'.'.H.2.X.X.X.X.@.@.X.X.@.C.F.F.F.X.= ; 2 2 q t t t t t t t t = = = = = = = ; 4 4 4 4 4 ; = = = = = = = = = = = = = = = = = = = = = = = = = = = = = = = = = = = = = = = = = = = = = = = = = = = = = = = = = = = = = = = = = = = = = = = = = ; 2 2 2 % + % ; 2 4 4 4 4 2 2 ; % % % + + + + + + + + + + + + + + + + + + + + + + + + + + + + + + + + + ",
"+ + + + + + + + + % 2 t 2 2 2 2 2 2 2 2 ; = = = = = = = = = = = = = = % O O + + + + = = = = = = = = = = 1 z P P P P P o.6 = = = u s s s s j s s s s s s k k k s s s k N P P P P P P P P P P P P P P P P P ......+.2.2.*.J 6 1 z.`.`.`.S.7.7.7.7.7.K.`.`.`.`.`.`.`.[.-X-X-X-X-X-X{.`.`.`.`.`.)., $ $ $ $ $ $ $ $ $ $ $ < < & & & & & , < < < $ $ $ $ $ $ $ $ $ $ $ $ $ $ $ $ $ $ $ $ $ $ $ $ $ $ l 5X6X6X6X6X6X6X5X3.3.3.z 2 2 2 2 2 2 2 2 2 2 2 2 2 6 s s s s s s u u u s s s s 2.'.'.U.U.U.'..X;XoX'.'.'.'.'.'.'.'..X.XoXoX$X%X$XoXoX;X;X;X;X;X;X;X;XoX2.u % % % % % % + + + + % % < < < < ; ; ; < ; ; ; ; < < < < k h.H.H.h.2.2.2.2...s Q Q E Q E ^ ^ _ .._ ] ~ Q Q Q ~ E Q Q Q X.-.-.-.-.-.-.-.-.-.-.-.h.'.'.'.'.U.a.X.X.@.@.X.X.a.F.F.F..X$X2 2 2 2 t t t t t t t t t 2 = = = = = Q Q @.f.f.f.f.a.$.$.E K N E Q k k k = = = = = = = = = = = = = = = = = = = = = = = = = = = = = = = = = = = = = = = = = = = = = = = = = = = = = = = = = = = ; ; 2 2 2 2 2 2 B @.E G s u 4 4 4 4 4 4 4 6 z k s s 6 6 = = % + + + + + + + + + + + + + + + + + + + + + + + + + ",
"; ; ; ; 1 1 2 k T T T T B c c c c c c B T T T T T B N s 2 = = = 2 2 2 2 1 = + + + + % = = = = = = = = 2 J P P P P P h.z.J x < = s s s s s k s s s s s s k z _ P F P P P P P P P P P P P P P P P P P P P ] X.....+.2.2.2.2.2.1.`.`.`.`.S.7.7.7.7.7.7.Z.`.`.`.`.`.{.-X-X-X-X-X-X-X-X`.`.`.`.`.`._ $ $ $ $ $ $ $ $ $ $ $ 2 2 2 2 2 2 2 2 2 2 1 $ $ $ $ $ $ $ $ $ $ $ $ $ $ $ $ $ $ $ $ $ $ $ $ $ ` 6X6X6X6X6X6X6X6XZ.3.3.3.3.k 2 2 2 2 2 2 2 2 2 2 2 2 s s s s s s s s s s 7 6 s d '.'.'.'.'.'.'.'.;X;X;X%X%X%X%X%X;X;X;X;X;X;X;X;X;X;X;X;X;X;X;X;X;X;X;X;X;X$XH.H.H.% % % + + + % % % & < < < < < ; ; ; ; ; ; < < 6 &.Z.C.C.j.2.2.2.2.2.2.o.Q &.2.d.d.d.d.h.h.d.d.d.d.d.d.d.2.$.^ X.-.-.-.-.-.-.-.-.-.-.-.-.-.a.U.'.'.'.'.L.*.@.@.X.-.F.F.H.oX$X$X2 2 2 2 t t t t t t t t t 2 = = = = 4 Q f.G.G.L.Q.Q.Q.Q.Q.Q.Q.G.G.G.G.F.f.f.t.t.%.| ! B c c c c c c u u u u u 4 2 2 2 2 1 = = = = = = = = = = = 2 t = = = = = = = = = = = = = k K 1 = = 2 2 2 2 2 2 2 2 2 2 2 2 G $.$.$.*.T Q E X.~ G k 4 t k k z k k z m m k k k k s s s 6 6 6 6 < = = = = = + + + + + + + % 2 ",
"Q Q T B B B Q s.s.s.f.f.s.s.f.n.n.n.n.n.n.n.n.n.n.n.M.M.c.^ G G G G G G G G B 1 O + + + + + = ; = = 6 J P P P P I ,.).z.J J J k s s k k s s s s s s s s o.D.D.z.P P P P P P P P P P P P P P P P P P P P ....X.X.*.2.2.2.4.4.K.`.D.V.V.V.7.6.7.7.7.7.7.V.S.`.{.-X-X-X-X-X-X-X-X-X-X[.`.`.`.`.`.)., $ $ $ $ $ $ $ $ $ $ , 2 2 2 2 2 2 2 2 < % $ $ $ $ $ $ $ $ $ $ $ $ $ $ $ $ $ $ $ $ $ $ $ , 8.6X6X6X6X6X6X6X6X|.3.3.3.3.3.2.s 2 2 2 2 2 2 2 2 2 2 2 7 s s s s s s s s s 2 2 2 '.'.'.'.'.'.'.'.'.oX;X;X;X;X;X;X;X;X;X;X;X;X;X;X;X;X;X;X;X;X;X;X;X;X;X;X;X;X;XK.C.h.% % % % % % % % % % ; ; < < < < < < < < < 6 &.Z.Z.Z.b.2.2.2.2.2.2.2.2.2.2.D.K.K.K.K.K.K.K.K.K.K.K.K.K.C.C.C.K.K.K.K.Z.C.C.h.h.h.h.h.h.h.h.h.h.U..X'.'.'.'.a.2.a.L.'.oX;X$X$X$X2 2 2 2 t t t t t t t t t 2 - = = = i Q w.w.w.w.w.w.w.w.w.w.w.w.w.w.w.w.=.=.=.=.=.=.=.=.B c c c c c b b b c c c b b A T T T W ) ) %.%.w.y.y.y.y.y.y.y.y.y.y.w.%.T B u 4 c ^ %.H.H.j.1 = ; 2 2 2 2 2 2 2 2 2 2 2 G *.*.*.*.E T 2.h.h.j.j.j.d.*.~ N z z z z z z z z z z z z z z z z z z z z z z z T =.$.#.&.&.*.*.",
"=.=.=.=.=.=.$.M.G.G.G.f.s.s.s.f.j.n.n.n.n.n.n.n.n.n.M.b.M.M.f.$.Y ^ ^ $.Y G Y Y 1 + + + + % 4 4 1 s J J P P P P I 1.).V.J J J F s s d k s s s s s s F C.D.D.6.~ P P P P P P P P P P P P P P P P P P P ~ ....X.X.*.2.2.2.4.h.`.A.6.7.7.7.7.4.K +.6.7.7.7.7.`.-X-X-X-X-X-X-X-X-X-X-X{.`.K.V.z.z.7.1.z $ $ $ $ $ $ $ $ $ $ < 2 2 2 2 1 < , % $ $ $ $ $ $ $ $ $ $ $ $ $ $ $ $ $ $ $ $ $ $ $ 5 7.6X6X6X6X6X6X6X6X6XV.3.3.3.3.3.3.3.N 2 2 2 2 2 2 2 2 2 2 7 s s s s s 7 7 7 7 2 2 I '.'.'.'.'.'.'.'.'.'.'.oX$X;X;X;X;X;X;X;X;X;X;X;X;X;X;X;X;X;X;X;X;X;X;X;X;X;X;X'.C...% + % % % % % % % + ; ; < < < < < < < z 2.Z.H.Z.C.3.2.2.2.2.2.2.2.2.2.2.2.2.2.3.h.h.*.*.$.^ ^ ] ^ ^ ^ X.@.@.$.;.2.a.j.h.'.oX$X$X$X$X$X$X$X$X$X$X$X;X;X$X$X$X$X$X$X;X;X$X$X$XoX2 2 2 2 t t t t t t t t t w ; = = = 2 B y.w.w.w.w.w.w.w.w.w.w.w.w.w.w.w.=.=.=.=.=.=.w.T c c c c c c b b b c c B #.y.y.y.y.y.y.y.t.t.t.t.t.y.y.y.y.y.y.y.y.y.y.t.=.%.%.%.%.%.%.j.H.H.s = = ; 2 2 2 2 2 2 2 2 2 2 G $.*.*.@.T T T ^ =.a.j.a.h.h.h.h.h.2.X._ K K N z z z z z z z N G ^ ' @.@.^ z N &.=.=.#.&.&.*.*.",
"=.a.j.j.j.j.j.L.G.G.G.f.s.s.s.s.s.s.s.f.f.f.n.n.n.M.b.b.n.n.n.n.G.L.L.Q i B Y B u % + + + 4 4 t N P J J P P P P +.1.D.).J J J J N s k k s j s s s J V.C.1.I P P P P P P P P P P P P P P P P P P P P P ........X.*.2.2.2.2.D.V.4.4.4.6.7.7.6.P P I 5.7.7.7.(.{.-X-X-X-X-X-X-X-X-X-X-X`.z.z.h.7.6.h.h.6...z 6 $ $ $ $ $ $ $ $ $ $ $ $ $ $ $ $ $ $ $ $ $ $ $ $ $ 6 6 $ $ $ $ $ $ $ $ $ $ $ H V.(.6X6X6X6X6X6X6X].3.3.3.3.3.3.3.3.3.o.7 2 2 2 2 2 2 2 6 7 s u 6 2 2 2 2 2 2 2 2 H.C.C.H.H.H.H.L.L.U.U.'.'.'.'..X$X%X;X;X;X;X;X;X;X;X;X;X;X;X;X;X;X;X;X;X;X;X;X;XoXC.d + + + & < , % % % & ; < < < < < 6 ~ C.H.H.H.H.C.3.2.2.2.2.2.2.2.2.2.2.2.2.2.2.2.2.*.^ ^ ~ ~ ~ ~ ~ ^ ^ ^ X.@.@.@.;.2.2.2.2.2.2.d.j.C.H.H.'.'.'.'..X;X$X;X$X$X$X$X$X$XoX.XL.H.C.t 2 2 w t t t t t t t t t w : = = : : w y.=.w.w.w.w.w.=.w.w.=.w.w.w.w.w.w.w.w.w.t.t.t.t.w.%.B c c B T E R A A #.#.t.t.w.w.%.#.#.#.#.#.#.t.y.y.y.y.y.y.y.y.t.%.%.%.%.%.%.#.#.#.#.#.s.d = = = = = = = 2 2 2 2 2 2 G &.*.*.E T T T T T T T ^ ^ ^ @.$.2.a.j.j.j.j.h.j.j.h.h.h.j.a.a.a.a.a.a.a.a.' a.a.a.a.a.a.a.=.*.",
"*X*X*X&X&X&X&XOXL.G.j.s.s.s.t.=.=.=.=.=.=.=.w.s.c.M.b.b.M.n.n.G.L.L.Q 4 w w w w 4 2 O + ; 4 4 F I P J J P P I ,.1.1.S.)._ J J J J k k k k k s s J 2.6.6.6.1.+.X.I I P P P P P P P P P P P P P P P P ] ..........*.2.2.2.S.V.4.4.4.4.4.7.7.7.~ P P K ,.7.7.(.(.{.-X-X-X-X-X-X-X-X-X-X`.h.h.h.7.7.h.h.D.K.D.).).V.o.D 9 6 6 6 > $ $ $ s s s _ ` ,.z.z.D.K.).).).D.K.K.K.Z.$ $ $ $ $ $ $ , H 4.V.V.A.A.V.V.V.V.h.3.3.3.3.3.3.2.&.2.6.5.P 5 2 2 2 2 9 s 9 6 2 2 2 2 2 2 6 Q h.K.h.h.h.h.h.b.C.H.H.H.H.H.H.L.U.'.'.'.'..XoX%X;X;X;X;X;X;X;X;X;X;X;X;X;X;X;X;X;X;X%XC.& + % & < < < & + & ; ; < < 2 I h.Z.Z.C.H.H.H.C.2.2.2.2.2.2.2.2.2.2.2.2.2.2.2.2.2.&.Q I I Q Q ~ ~ ~ E ~ ^ ^ @.@.@.$.2.;.2.2.2.2.2.2.2.2.2.2.2.2.2.2.2.2.2.2.2.2.2.2.2.j.C.C.C.C.k 2 2 t t t t t t t t t t t 2 = = 2 : c k.w.w.w.w.w.w.w.w.w.w.t.t.y.y.y.y.y.y.y.y.y.y.y.y.y.w.c B R R R R R } #.#.#.#.#.#.#.#.#.#.#.#.t.y.y.y.y.y.y.y.y.t.%.%.=.%.%.%.#.#.#.#.#.#.#.2 = = = = = = = ; 2 2 2 2 2 G &.&.@.T T T T T T T T ! ^ ^ ^ ! ! ^ } } } #.$.=.=.a.a.a.G.L.L.L.Q.Q.R. XOXOXOXOXOXOXOXOXOXOXOX",
"M.N.N.M.M.f.s.s.f.f.s.s.s.s.w.=.=.=.=.=.=.=.=.=.=.f.n.n.M.M.G.L.L.Q 4 4 4 4 6 6 4 4 2 = w w s P I I P P ..,.1.1.1.6.;X).6.J J J J F s s N J J _ 6.6.6.6.6.6.6.6.3.3.6.1.1.+.X...P P P P P P P P P P ....X.X.X.X.+.2.2.S.V.4.4.4.4.4.4.7.7.7.5.P P P P 4.V.(.(.(.{.-X-X-X-X-X-X-X,X<X{.Z.6.6.6.7.h.z.6.V.A.D.).).D.D.4.1.,.,.,.4.4.D.K.D.(.D.D.K.K.`.wXwX`.).D.D.K.K.K.1.$ $ $ $ $ $ $ , H O.V.V.V.V.V.V.V.V.h.3.3.3.3.3.2.+.+.+.*.5.3.3.~ 7 2 2 6 6 2 2 2 2 2 s Q C.oXoXL.h.h.h.h.h.h.h.h.h.b.C.H.H.H.H.H.H.H.L.U.'.'.'.'.oX$X;X;X;X;X;X;X;X;X;X;X;X;X;X%X.XU.J & & < ; ; ; < < ; ; < < ; ; Z.Z.Z.Z.H.Z.H.C.C.2.2.2.2.2.2.2.2.2.2.2.2.2.2.2.2.*.~ I I I I I Q Q ~ ~ ~ E ^ ^ ] @.@.@.$.-.2.-.=.=.=.=.-.;.;.;.-.=.=.=.=.=.2.2.2.2.;.;.;.;.d.C.b.b.k 2 2 t t t t t t t t t t w : : = 2 2 c k.w.w.w.w.w.=.=.=.w.t.y.y.y.y.y.y.y.y.y.y.y.y.y.y.y.y.} T T T T R ! #.#.#.#.#.#.#.#.%.%.#.#.t.y.y.y.y.y.y.y.y.y.=.%.%.=.%.%.#.#.#.#.#.#.#.#.= = = = = = = = ; 2 2 2 2 2 G $.*.! T T T T T T T T T ^ ^ ^ ! ! ! ^ [ } } } } } } } } %.%.%.%.%.t.t.s.y.y.t.s.f.f.f.f.f.f.y.",
"s.s.s.s.s.s.s.s.s.s.f.f.s.s.w.=.=.=.=.=.=.=.=.=.=.=.f.n.n.F.L.L.Q 6 4 4 w 4 4 6 4 4 w w w w u P I I J ,.1.1.1.1.6.;X<X;X>XS.5.5.5.h.`.D.Z.Z.C.6.6.6.6.6.6.6.6.3.3.3.6.6.6.6.6.6.1.P P P P P P P P P I ..X.X.X.X.+.5.D.6.4.4.4.4.4.4.6.7.7.7.7.+.P P P K A.(.(.(.(.{.-X-X-X-X-X9X9X9X9X9X`.D.D.Z.A.V.V.A.D.D.).K.D.D.5.1.,.,.1.4.D.K.D.D.(.K.D.D.`.wXwXaX`.K.D.h.h.h.h.o.$ $ $ $ $ $ $ $ H U V.V.V.V.V.V.V.V.h.3.3.3.3.2.+.+.+.+.+.+.3.3.3.3.&.J N k N N ..h.'.oXoXoX.XH.h.h.d.h.h.h.h.h.h.h.h.h.h.b.C.H.H.H.H.H.H.H.H.L.U.'.'.'.oX;X;X;X;X;X;X;X;X;X;X;XU.H.b.; < < < < ; ; < < ; ; < < ; ; *.Z.H.H.Z.Z.H.C.2.2.2.2.2.2.2.2.2.2.2.2.2.2.2.=._ Q I I I I I I Q Q Q ~ ~ ~ ~ ^ ^ X.@.@.@.@.@.@.$.=.=.=.=.=.=.=.=.=.=.=.=.=.=.2.2.2.;.;.;.;.2.j.b.b.k 2 2 t t t t t t t t t t t 2 2 : 2 2 c k.w.w.w.w.w.=.=.w.t.y.y.y.y.y.y.y.y.y.y.y.y.y.y.y.y.y.t.! T T ! ) %.#.#.#.#.#.%.w.%.%.%.#.t.y.y.y.y.y.y.y.y.y.y.=.%.=.=.%.#.#.#.#.^ W ^ ^ } = = = = = = = = ; 2 2 2 2 2 ^ $.@.T T T T T T T T T T ! ^ ^ ! ! ! ! ^ ^ } } } } } } } %.%.%.%.%.=.t.s.s.y.t.t.t.t.t.y.y.y.y.",
"s.s.s.s.s.s.s.s.s.s.f.s.s.s.=.=.=.=.=.=.=.=.=.=.=.=.=.n.F.L.L.&.4 6 w w w w 6 6 4 4 4 4 4 4 4 F J J _ 1.1.1.1.C.<X<X<XgXzXzXzXzXzXzXfXD.Z.Z.C.6.6.6.6.6.6.6.6.6.6.6.6.6.3.3.3.6.3.+.P P P P P P P P P I X...X.X.2.D.6.4.4.4.4.4.4.4.6.7.7.7.7.7.X.I P P S.(.(.(.(.`.-X-X-X-X9X9X9X9X9X9X7X`.K.K.).).(.(.D.K.K.K.D.D.V.1.4.1.1.V.).).).).(.(.D.`.9XwXfXkXK.D.h.h.h.h.6.O.$ $ $ $ $ $ $ $ s L V.V.V.V.V.V.V.V.3.3.3.3.2.+.+.+.+.+.+.+.+.*.3.U.oXoXoXoXoXoXoXoXoXoXoXK.h.h.d.2.3.3.h.h.h.h.h.h.h.h.h.h.h.h.v.C.H.H.H.H.H.H.H.H.H.H.L.U..XoX$X;X;X;X;X;X;X;XL.H.~ < < < < < ; ; ; ; ; ; < < < ; k Z.H.H.H.H.C.2.2.2.2.2.2.2.2.2.2.2.2.2.2.<.X.I K K K I I I I I K K I Q E E Q ^ ^ ^ @.@.@.@.@.@.@.@.$.$.$.$.%.=.=.=.=.=.%.=.%.=.;.2.2.2.2.2.2.2.C.b.k 2 2 t t t t t t t t t t t : 2 2 2 2 B n.w.w.w.w.w.w.w.t.y.y.y.y.y.y.y.y.y.y.y.y.y.y.y.y.y.y.y.w.} #.#.#.#.#.#.%.w.t.y.y.t.w.w.t.y.y.y.y.y.y.y.y.y.y.y.=.%.%.%.%.#.#.#.@.^ W W ^ ^ = = = = = = = = 2 2 2 2 2 2 @.&.^ T T T T T T T T T T T ! ! ! ! ^ ^ ^ ^ } } } } } } } #.%.%.%.%.%.t.s.s.s.s.y.t.t.t.y.y.y.y.",
"f.f.s.s.s.s.s.s.s.f.f.f.s.s.=.=.=.=.=.=.=.=.=.=.=.=.=.f.L.L.=.6 4 4 w w w w 6 6 4 4 1 ; = 1 4 s J J +.1.1.1.h.D.{.<X<X-XgXlXkXfXeX9XK.D.Z.Z.V.6.6.6.6.6.6.6.6.6.6.6.6.6.3.3.6.6.3.3.I P P P P P P P P P ~ ..*.C.`.7.4.4.4.4.4.4.4.4.4.7.7.7.7.7.Z.(.5.o.(.(.(.(.(.`.-X-X-X<X9X9X9X9X9X9X9X7X[.K.).).(.`.{.{.{.-X{.`.D.4.4.7.A.D.).).).(.).`.}.}.wXeXkXkXK.v.h.h.h.h.h.O.$ $ $ $ $ $ $ $ , H V.V.V.V.V.V.V.V.3.3.3.2.+.+.+.+.+.+.+.+.+.+.+.+.2.3.K.'.'.oXoX[.'.C.h.h.h.a.3.2.3.3.3.d.h.h.3.3.a.h.h.h.h.h.h.h.h.b.C.H.H.H.H.H.H.H.H.H.H.H.H.H.H.L.L.'..XoXH.H.6 < < < < < ; ; ; ; ; ; < < < ; < 3.H.H.H.H.a.2.2.2.2.2.2.2.2.2.2.2.2.2.o.Q I K K K K I I I I I I K I Q E E E ~ ^ ^ X.@.@.@.@.@.@.@.@.@.@.@.@.@.@.$.=.=.=.%.%.=.=.2.2.2.2.2.2.2.h.C.B 2 2 2 2 2 w t t t t t t t : 2 2 2 2 B n.w.w.w.w.w.w.t.y.y.y.y.y.y.y.y.y.y.y.y.y.y.y.y.y.y.y.y.y.t.=.#.#.#.%.t.y.y.y.y.y.y.y.y.y.y.y.y.y.y.y.t.w.=.=.=.=.%.%.%.#.#.#.#.} W W W ^ ^ = = = = = = = 1 2 2 2 2 2 t $.&.T T T T T T T T T T T T E ! ^ ^ ^ ^ ^ ^ } } } } } } } #.%.%.%.%.%.t.s.s.y.s.y.t.t.t.y.y.s.s.",
"j.j.l.j.f.f.s.f.s.s.s.s.s.y.=.=.=.=.=.=.=.=.=.=.=.=.=.M.L.b.u 4 6 4 4 4 4 4 6 6 2 = = = = = = 4 J J 1.1.1.5.D.D.Z.Z.Z.Z.Z.Z.Z.Z.Z.Z.Z.Z.Z.Z.Z.Z.C.C.C.V.h.6.6.6.6.6.6.6.6.6.6.6.3.6.1.P P P P P P P ~ 1.K.D.`.`.`.).4.4.4.4.4.4.4.4.4.6.7.7.7.7.D.(.(.(.(.(.(.(.(.`.-X-X-X9X9X9X9X9X9X9X9X9X9X9X<X-X-X-X-X-X-X-X-X-X).D.D.K.K.K.K.K.K.`.}.}.}.,XeXjXkXkXC.h.h.h.h.h.h.O.$ $ $ $ $ $ $ $ $ D V.V.V.V.V.A.V.6.3.3.2.+.+.+.+.+.+.+.+.+.+.+.+.+.+.+.+.+.-.2.d.d.d.d.d.a.3.3.3.3.3.a.3.3.3.3.a.a.2.2.h.h.h.h.h.h.h.h.h.h.b.F.H.H.H.H.H.H.H.H.H.H.H.H.H.H.H.H.H.2.< < ; ; ; ; < < < ; ; ; < < < ; ; 6 H.H.H.b.2.2.2.2.2.2.2.2.2.2.2.2.&.Q I I I K K K K K K I I I K K I Q E E E ~ ^ ^ ^ @.@.@.@.@.@.@.@.@.@.@.@.@.@.@.$.=.=.=.=.=.=.=.=.=.=.;.;.;.a.C.X.: : : 2 2 t t t t t t t t 2 2 2 2 2 B N.w.w.w.w.w.t.y.y.y.y.y.y.y.y.y.y.y.y.y.y.y.y.y.y.y.y.y.y.y.y.y.y.y.y.y.y.y.y.y.y.y.y.y.y.y.y.y.y.y.w.%.=.=.%.%.%.%.=.=.#.} } } ^ W W W ^ W 2 = = = = = = = = ; 1 2 2 B *.@.T T T T T T T T T T T T T ^ ^ ^ ^ ! ! ! } } } } } } } #.%.%.%.%.=.s.s.y.y.y.s.f.f.f.j.j.l.l.",
"l.l.l.l.l.l.j.f.s.s.s.s.s.t.=.=.=.=.=.=.=.=.=.=.=.=.f.L.G.s 4 4 6 6 4 4 w 4 6 2 = = = = = = = 1 J J 6.z.1.C.D.D.Z.Z.Z.Z.Z.Z.Z.K.`.`.K.Z.Z.Z.Z.Z.Z.Z.Z.Z.Z.C.6.6.6.6.6.6.6.3.6.6.3.3.6.+.P P P I *.S.`.`.C.,.Q _ 1.z.6.+.+.+.>.4.4.4.4.4.6.7.7.7.V.(.(.(.(.(.(.(.(.(.{.-X>X9X9X9X9X9X9X9X9X9X9X9X9X9X7X,X-X-X-X-X-X-X{.).D.K.D.K.K.K.`.}.}.}.,XgXkXkXkXkXh.h.h.h.h.h.h.*.$ $ $ $ $ $ $ $ $ 6 V.V.V.V.V.V.6.3.3.1.+.+.+.+.+.2.+.+.+.+.+.+.+.+.+.+.+.+.*.-.-.-.-.-.-.-.-.2.2.3.3.3.3.3.3.3.a.a.a.2.3.d.d.d.d.d.h.h.h.h.h.h.h.C.C.H.H.H.H.H.H.H.H.H.H.C.h.H.H.m < < ; ; ; ; < < < ; ; ; < < < < ; ; &.H.H.2.2.2.2.2.2.2.2.2.2.2.o.Q I I I I K K K K K K K I I I I I I Q E E E E ] ] ] X.@.@.@.@.@.@.@.@.@.@.@.@.@.$.%.=.=.=.=.=.=.=.=.=.=.;.;.;.2.j.@.: : : 2 2 t t t t t t t t 2 2 2 2 2 B n.w.w.w.w.t.y.y.y.y.y.y.y.y.y.y.y.y.y.y.y.y.y.y.y.y.y.y.y.y.y.y.y.y.y.y.y.y.y.y.t.w.w.=.%.%.w.w.w.%.%.%.=.=.%.%.%.%.=.=.} @.} } ^ W W W ^ ^ w = = = = = = = = = = = = @.*.^ T T T T T T T T T T T T T E ^ ^ ! ! ! ^ } } } } } } } @.%.%.%.%.t.s.y.y.s.j.j.l.j.j.j.j.l.l.",
"B.N.N.N.N.n.l.l.f.s.s.s.s.w.=.=.=.=.=.=.=.=.=.=.=.t.L.G.c w 4 4 4 6 w w w w 2 = = = = = = = = = F P 6.D.C.D.D.Z.Z.Z.Z.Z.Z.Z.K.`.`.`.`.K.Z.Z.Z.Z.Z.Z.Z.Z.Z.Z.Z.v.6.6.3.6.6.6.6.6.3.6.6.6.1.*.V.`.`.K.2.I J J J I I I I ............+.+.>.4.4.6.5.5.5.z.V.V.D.(.(.(.(.(.D.{.9X9X9X9X9X9X9X9X9X9X9X9X9X9X9X9X9XdXgXgXfXeX).).).K.K.D.].}.}.,XdXkXkXkXkXkX9Xh.h.h.h.h.h.h.2.$ $ $ $ $ $ $ $ $ $ 7.V.V.V.V.V.3.3.1.+.+.+.+.2.-X9X+.+.+.+.+.+.+.+.+.+.+.+.+.*.*.*.-.-.-.-.-.-.-.2.3.3.3.3.a.3.a.a.2.2.3.a.a.3.3.3.3.2.d.h.h.h.h.h.h.h.h.h.h.h.h.b.b.b.h.h.h.C.F.< < < ; ; < < < < ; ; ; < < < ; ; ; ; 6 H.h.2.2.2.2.2.2.2.2.2.&.+.Q I I I I I Q Q K I I I Q Q Q Q Q Q I Q ~ E ~ ~ ] ] ] ..@.@.@.@.@.@.@.@.@.@.@.@.@.=.=.%.%.=.%.%.=.%.=.=.2.2.2.2.2.2.2.t 2 2 2 2 t t t t t t t t 2 2 2 2 2 B n.t.w.w.w.y.y.y.y.y.y.y.y.y.y.y.y.y.y.y.y.y.y.y.y.y.t.y.y.y.y.y.y.y.y.y.y.t.w.=.%.%.=.=.%.%.%.%.=.=.%.%.=.%.%.%.%.%.=.=.@.@.@.@.^ W W W W W w = = = = = = = ; 2 2 = u *.*.E T T T T T T T T T T T T T T ^ ^ ! ! ! ^ } } } } } } } #.%.%.%.%.t.s.y.y.s.j.l.l.l.l.l.l.l.l.",
"N.N.N.N.N.N.l.l.l.f.s.s.s.=.=.=.w.w.=.=.=.=.=.=.w.G.M.B w 4 4 4 4 w 4 w w w = = = = = = = = = = d P +.D.D.D.Z.Z.Z.Z.Z.Z.Z.D.`.`.`.`.`.`.K.Z.Z.Z.Z.Z.Z.Z.Z.Z.Z.Z.C.h.3.3.3.3.6.6.3.6.6.V.K.`.`.C...F F F J J J P I I I I Q ~ ~ ......................................+.*.+.1.].<X9X9X9X9X9X9X9X9X9X9X9X9X9XgXkXkXkXkXkXkXfXfXaXfXfXdXdXkXkXkXkXkXeX-XK.h.h.h.h.h.h.h.h.h.$ $ $ $ $ $ $ $ $ $ _ V.V.V.V.h.3.2.+.+.+.+.K.eXeXD.+.+.+.+.+.+.+.+.+.+.+.+.+.*.*.*.*.*.-.-.-.-.-.-.2.2.3.3.a.a.a.a.2.2.3.2.3.3.3.3.3.3.3.a.h.h.h.h.h.h.h.h.h.h.h.h.h.h.h.h.h.b.*.< < < ; ; < < < < ; ; < < < < ; ; ; ; ; &.2.2.2.2.2.2.2.2.*.+.+.~ I I I I I I Q Q Q I I I Q Q Q Q Q Q I Q ~ ~ ~ ~ ^ ] ] ] @.@.@.@.@.@.@.@.@.@.@.@.@.=.=.%.=.=.=.%.%.%.=.-.2.2.2.2.2.2.2.K 2 2 2 2 2 w t t t t t t 2 2 2 2 2 B n.t.w.w.y.y.y.y.y.y.y.y.y.y.y.y.y.y.y.y.y.y.y.y.y.y.t.t.y.y.y.y.y.y.t.w.=.=.=.=.%.=.=.=.%.%.=.=.=.=.%.%.%.%.%.%.%.=.=.=.@.@.@.@.} W W W W W t = = = = = = = 2 2 2 ; Q *.@.T T T T T T T T T T T T T T T ! ! ! ! ! ^ } } } } } } } #.%.%.%.%.t.s.y.y.t.j.j.l.l.l.l.j.l.l.",
"N.N.N.N.N.N.N.l.l.f.s.s.s.=.=.=.w.=.=.=.=.=.=.w.G.L.Y c t w 4 w w w 4 w 4 4 = = = = = = = = = = 4 J I C.Z.Z.Z.Z.Z.Z.Z.Z.Z.`.`.`.`.`.`.`.`.D.Z.Z.Z.Z.Z.Z.Z.Z.Z.Z.Z.Z.C.h.6.6.6.6.h.D.`.`.K.5.P F F F F F F J J K I I I I I I ~ ~ ~ ~ ..................~ ~ ~ ~ ~ ~ ....X.+.*.*.*.V.-X9X9X9X9X9X9X9X9X9X<X,XwXgXkXkXkXkXkXkXkXkXkXkXkXkXkXfX<XZ.-.1.1.1.2.h.h.h.h.h.h.h.h., $ $ $ $ $ $ $ $ $ 6 V.V.V.V.h.2.+.+.+.2.<XeXeX0X+.+.+.+.+.+.+.+.+.+.+.+.+.+.&.*.*.*.*.-.-.-.-.-.-.-.-.-.2.2.2.3.3.2.2.a.a.a.a.3.a.a.2.a.3.h.h.h.h.h.h.h.h.h.h.h.h.h.h.h.h.h.b.z ; ; ; ; < < < ; ; ; ; ; ; ; ; < < < < < s 2.2.*.&.&.*.&.o.o.o.X.I I K K I K K Q Q Q Q I I I I Q Q I I I Q ~ ~ ~ E ^ ^ ^ ^ X.@.@.@.@.@.@.@.@.@.@.@.@.$.=.=.=.=.=.=.=.=.=.%.=.=.;.2.2.2.2.-.4 2 2 : : : 2 w t t t t : : : : 2 T N.f.y.y.y.y.y.y.y.y.y.s.f.f.f.s.f.f.y.y.y.y.y.y.y.y.y.y.y.y.y.y.t.w.=.=.%.%.%.%.=.=.=.%.%.=.%.=.=.=.%.%.%.%.%.%.%.%.%.%.@.@.#.@.#.W ^ W ^ ^ m = = = = = = : 2 2 2 2 @.*.X.T T T T T T T T T T T T T T T T ! ! ! ^ [ } } } } } } } #.%.%.%.%.t.y.y.s.y.f.l.l.l.l.l.l.l.l.",
"N.N.N.N.N.N.B.l.l.l.f.s.s.w.=.=.=.=.=.=.=.=.t.F.L.f.c c i w 4 4 4 4 4 w 4 2 = = = = = = = = ; ; 4 4 s X.Z.Z.Z.Z.Z.Z.Z.Z.K.`.`.`.`.`.`.`.`.`.Z.Z.Z.Z.Z.Z.Z.Z.Z.Z.Z.Z.Z.Z.C.V.Z.`.`.`.C...F F F F F F F F F F J K J I I I I I I Q ~ ~ ~ ~ ~ ~ ~ ~ ~ ~ ~ ~ ~ ~ ~ ~ ~ ~ _ ......o.+.+.+.1.D.`.`.`.`.D.C.2.2.2.2.2.2.V.'.<XkXkXkXkXkXgXdXwX<X-X-.-.-.1.1.1.1.6.h.h.h.h.h.h.h.7 $ $ $ $ $ $ $ $ $ $ 4.V.V.V.6.+.+.+.K.eXeXeXeXh.+.+.+.+.+.+.+.+.+.+.+.*.*.*.*.*.*.*.*.*.-.-.-.-.-.-.-.-.-.2.2.3.3.2.2.a.a.a.a.3.3.h.h.d.a.h.h.h.h.h.h.h.h.h.h.h.h.h.h.h.h.h.h.u ; ; ; < < < < ; < ; ; < ; ; ; < < < < < < Q *.+.+.+.&.+.o.+.+.Q I K K K I I K Q Q I I I I I I Q Q I I I Q ~ ~ ~ E ^ ^ ^ ^ X.@.@.@.@.@.@.@.@.@.@.@.@.@.$.=.=.=.=.=.=.=.=.%.%.=.=.=.=.;.2.2.K 2 2 2 : : : : 2 w q 2 : : : : 2 T N.f.y.y.y.y.y.y.f.n.M.M.n.n.N.n.n.n.n.N.M.M.l.l.k.f.f.y.y.y.y.y.=.=.=.=.%.%.%.%.=.%.%.%.%.=.%.%.=.=.%.%.%.%.%.%.%.%.%.%.#.#.#.#.#.^ ^ W ^ ^ m = = = = = = 2 2 2 2 2 *.*.^ T T T T T T T T T K T T T T T T ! ! ! ^ ^ } } } } } } } #.%.%.%.%.t.y.s.s.y.s.j.j.l.l.l.l.l.l.",
"N.N.F.B.F.F.B.N.l.l.f.s.s.t.=.=.%.%.=.=.=.t.s.G.L.Z c c c i t 4 6 4 6 6 t 2 = = = = , 2 4 w 6 4 4 4 Q ..2.Z.Z.Z.Z.Z.Z.K.`.`.`.`.'.`.`.`.`.`.K.Z.Z.Z.Z.Z.Z.Z.Z.Z.Z.Z.Z.D.K.`.`.K.1.P F F F F F F N N F F F F F K K P I I I I I I I ~ ~ ~ ~ ~ ~ ~ ~ ~ ~ ~ ~ ~ ~ ~ ~ ~ ~ ............+.+.+.1.6.z.h.h.2.*.1.2.2.2.2.2.2.2.h.`.`.<X<X<X<X<X<XK.3.-.-.1.1.1.1.6.h.h.h.h.h.h.h.7 $ $ $ $ $ $ $ $ $ $ x V.V.V.2.+.D.0XeXeXeXeXK.+.+.+.+.+.+.+.+.+.+.+.+.*.*.*.*.*.*.*.*.*.*.-.-.-.-.-.-.-.-.2.2.3.3.3.3.a.3.3.3.2.2.d.d.h.h.h.h.h.h.h.h.h.h.h.h.h.h.h.h.h.h.h.h.2 < ; ; < < < < < < < < < < ; ; ; < < < < < 4 X.+.+.&.&.+.+.+.~ Q I Q Q K I I K I I I K K K K I Q Q I I I Q ~ ~ E E ~ ^ ^ ^ ] @.@.@.@.@.@.@.@.@.@.@.@.@.@.$.%.%.=.=.=.=.=.=.=.=.=.=.=.=.=.-.2.u 2 2 2 2 2 2 2 2 2 2 2 2 2 2 2 ) N.N.s.y.y.y.l.N.N.N.M.M.N.N.N.N.n.n.N.N.N.N.M.M.N.N.N.N.M.y.y.y.=.%.=.%.%.%.%.%.=.=.%.%.%.%.=.w.=.=.%.%.%.%.=.=.=.=.%.%.#.#.#.#.#.} W W ^ ^ T = = = = = = 2 2 2 2 d *.*.E T T T T T T T K K T T T T T T T ! ^ ^ ^ ^ ^ } } } } } } #.%.%.%.%.t.y.y.s.y.y.f.j.j.j.l.l.l.l.",
"B.N.F.F.F.F.F.B.l.l.l.f.s.s.t.=.=.%.%.w.s.s.M.L.f.c c c c c B u 6 6 u B Q 4 6 6 6 6 6 6 4 6 4 4 4 J ....X.Z.Z.Z.D.K.`.`.`.`.`.oXoXoX`.`.`.`.`.K.Z.Z.Z.Z.Z.Z.Z.D.D.K.).`.`.V...F F F F F F F F F F F F F F F F K K K P I I I I I I ~ ~ ~ ~ _ _ _ _ _ ~ ~ ~ ~ ~ ~ ~ ~ _ ................X.+.*.+.+.+.*.*.*.*.2.2.2.2.2.2.h.h.h.h.h.v.C.Z.Z.C.C.2.-.1.1.1.2.h.h.h.h.h.h.h.h.P $ $ $ $ $ $ $ $ $ $ 7 V.V.V.5.2.0XeXeXeXeX@X+.+.+.+.+.+.+.+.+.+.+.+.+.*.*.*.*.*.*.*.*.*.*.*.-.-.-.-.-.-.-.2.2.3.3.3.3.3.3.3.3.3.2.2.2.d.h.h.h.h.d.a.a.d.h.h.h.h.h.h.h.h.h.h.h.~ < ; ; ; < < < < < < < < < ; ; ; < < < < < < k &.+.&.&.+.+.X.I Q Q Q Q I I I I I P J J J K K I Q Q K K I Q ~ ~ E E ~ ^ ^ ^ ^ @.@.@.@.@.@.@.@.@.@.@.@.@.@.@.@.$.%.=.=.=.%.=.=.=.=.=.%.%.%.%.%.$.u 2 2 2 2 2 2 2 2 2 2 2 2 2 2 %.N.N.n.k.l.n.N.N.N.N.M.M.N.N.N.N.N.n.n.N.N.M.M.M.N.N.N.N.f.y.y.y.t.w.=.%.%.%.%.=.=.=.%.%.%.w.y.y.y.t.=.%.%.%.=.=.=.=.%.%.%.#.#.#.#.} W W ^ ^ ! = = = = = = ; 2 2 2 m *.*.T T T T T T T K K K T T T T T T Q ! ^ ^ ^ ^ ^ ^ } } } } } %.%.%.%.%.t.t.y.s.s.s.s.j.j.j.j.l.l.l.",
"B.F.F.F.B.B.F.F.M.j.l.l.j.f.s.s.y.t.s.s.s.s.G.L.t.) Z Z W %.=.^ Q Q ^ ^ k 4 4 4 4 4 6 6 6 6 6 4 k I ......Z.Z.Z.K.`.`.`.`.`.oXoXoXoX`.`.`.`.`.`.`.K.K.K.`.`.`.`.`.`.D.*.J F F F F F F F F F F F F F F F N F F J J J K K I I I I ~ ~ ~ .................._ _ ~ ~ _ ..........................X.+.*.*.*.*.+.*.2.2.2.2.6.h.h.h.h.h.C.V.C.C.C.C.v.2.1.1.1.h.h.h.h.h.h.h.h.h.P $ $ $ $ $ $ $ $ $ $ 7 7.V.V.4.2.'.eXeXeXD.+.+.+.+.+.+.+.+.+.+.+.+.+.+.*.*.*.*.*.*.*.*.*.*.*.-.-.-.-.-.-.-.-.2.a.a.3.3.a.a.a.a.a.a.3.3.a.h.h.d.3.3.3.a.a.a.a.d.h.h.h.h.h.h.h.d.h.k < < < < < < < ; ; ; < < < < < < < ; ; ; ; ..*.+.+.+.+.+.Q I I Q I I I I I K P J P J J Q Q Q I I I K I I E E ~ E ~ ^ ^ ^ ] X.@.@.@.@.@.@.@.@.@.@.@.@.@.@.@.@.@.@.$.=.=.=.=.=.%.%.%.=.=.=.=.%.%.@.m 2 2 : : 2 2 2 : : : : : k.n.n.n.n.N.N.N.N.N.N.N.N.N.N.N.N.N.N.N.N.n.n.n.N.N.N.n.n.y.y.y.y.y.y.y.t.t.=.%.%.=.=.=.w.t.y.y.y.y.y.y.t.=.=.=.=.=.=.%.%.%.#.#.#.} } W W W W W = = = = = = = 2 2 2 m *.$.T T T T T T K T V V V T T T T T T ! ^ ^ ^ ^ ! ^ } } } } } %.%.%.%.%.t.y.y.y.y.s.y.f.j.j.j.j.j.j.",
"B.B.B.F.B.B.F.F.F.l.l.l.l.l.l.f.f.f.f.f.f.l.G.L.y.t.t.t.t.t.w.^ ^ ^ ^ E 4 4 4 4 4 4 t w 6 6 4 u x x F _ X.Z.Z.Z.D.`.`.`.`.[.oXoXoX{.`.`.`.`.`.`.`.`.`.`.`.`.`.`.V.~ F F F F F F F F F F F F F F F F F F N N F J J J K P I I I Q ~ ~ ........................................................_ ~ ..X.*.*.+.+.1.2.2.2.6.h.h.h.h.v.C.V.C.C.C.C.C.v.h.3.h.h.h.h.h.h.h.h.h.h.+.$ $ $ $ $ $ $ $ $ $ 6 4.V.7.4.2.5.9X'.*.+.+.+.+.+.+.+.+.+.+.+.+.+.+.+.+.*.*.*.*.*.*.*.*.*.-.-.-.-.-.-.-.-.-.-.2.a.3.3.a.h.h.h.h.d.3.3.d.h.h.h.d.3.3.2.2.2.a.a.3.d.h.h.h.h.-...2...2 < < < < < < < ; ; < < < < < < ; ; ; ; F 3.1.+.+.+.+.~ K K I I Q Q I I I K J J J J J Q Q Q I I K K I I Q E ~ ~ ^ ^ ] ] ] X.@.@.@.@.@.@.@.@.@.@.@.@.@.@.@.@.@.@.@.$.=.=.=.=.=.=.%.%.=.=.=.=.%.%.=.$.k 2 : : 2 2 2 2 : : i n.n.n.n.n.N.N.M.N.N.N.N.N.n.n.N.n.N.N.N.N.n.n.N.N.N.N.n.f.y.y.y.y.y.y.y.y.y.y.t.w.w.t.t.y.y.y.y.y.y.y.y.y.y.t.w.=.%.=.%.%.%.#.#.#.} } W W W W W w = = = = = = 2 2 2 c *.@.T T T T T K K K A A A T T T T T T ! ^ ^ ^ ^ ! } } } } } } %.%.%.%.%.=.s.s.s.y.y.y.f.j.j.j.j.j.j.",
"F.B.B.B.N.N.N.N.B.N.l.l.l.l.l.l.l.l.l.l.l.l.L.L.L.G.j.t.t.t.w.^ ^ ^ ^ G t 4 4 4 4 w w w w 4 t x x x x x 1.Z.Z.Z.D.`.`.`.`.oXoXoXoX`.`.`.`.`.`.`.`.`.`.`.`.K.1.J F F F F F F F F F F F F F F F F F F F F F N F J J J J P I I I ~ ~ ~ ......................................~ ~ .........._ ~ ~ ~ ~ I ..*.+.+.*.2.2.2.2.h.h.h.h.V.v.V.C.C.C.C.v.v.v.v.v.v.v.h.h.h.h.h.h.h.1.$ $ $ $ $ $ $ $ $ $ 5 V.A.6.4.2.*.+.+.+.+.+.+.+.+.+.+.+.+.+.+.+.+.+.+.+.&.*.*.*.*.*.*.*.-.-.-.-.-.-.-.-.-.-.-.2.3.3.h.h.h.h.j.h.h.h.3.d.h.h.h.h.3.2.-.-.-.2.a.3.3.a.h.h.h.X.~ ~ ~ K = & < < < < ; ; ; ; < < < < < < < < x 3.6.2.+.+.+...I I K K I Q Q I I Q J J J J J K K Q Q I I I I I I I E ~ ~ ~ ] ] ^ ^ ..@.@.@.@.@.@.@.@.@.@.@.@.@.@.@.@.@.@.@.$.=.=.=.=.=.=.=.=.=.=.=.=.=.=.=.=.%.2 2 2 2 2 2 2 2 2 2 N.M.n.N.N.n.N.M.N.N.N.n.n.n.n.n.n.n.n.N.N.n.n.n.N.N.N.n.y.y.y.y.y.y.y.y.y.y.y.y.y.y.y.y.y.y.y.y.y.y.y.y.y.y.y.y.t.w.%.%.%.%.=.#.#.} } ^ ^ W W W m = = = = = = ; 2 2 w *.X.T T T T T K K K K K A A T T T T T ! ^ ^ ^ ! ! } } } } } } #.%.%.%.%.%.=.t.s.y.y.y.f.j.j.j.j.l.l.",
"l.N.B.B.N.N.N.B.B.B.l.l.l.l.l.l.l.l.l.l.l.l.L.L.OXOXG.t.t.t.t.w.^ ^ ^ ^ ^ B t 4 w w w w w 4 k x x x x x 6.Z.Z.Z.D.`.`.`.{.oXoXoX'.C.C.K.`.`.`.`.`.`.`.V...F F F F F F F F F F F F F F F F F F F F F F F F F F J J J J P I I I ~ ~ ~ ..........................~ _ ......~ ~ ~ ........~ ~ ~ I F N N ..+.+.+.+.1.2.2.2.h.h.h.h.h.v.C.C.V.C.C.v.v.v.v.v.v.C.C.h.h.h.h.h.h.6.$ $ $ $ $ $ $ $ $ $ 5 V.A.5.4.*.+.+.+.+.+.+.+.+.+.+.+.+.+.+.+.+.+.+.+.+.+.*.*.*.*.*.*.-.-.-.-.-.-.-.-.-.-.-.-.2.3.3.h.h.h.h.h.h.h.h.h.3.a.h.d.3.3.2.-.-.-.-.-.2.3.3.3.j.h.*.~ ~ ~ K + + + $ % & ; ; ; ; < < < < < < < x 6.6.6.6.+.o.X.Q I I I K I Q Q I I K J J J J J K K Q Q I I I I I I I Q E E ~ ] ^ ^ ^ ] @.@.@.@.@.@.@.@.@.@.@.@.@.@.@.@.@.@.@.$.%.=.=.=.=.=.=.=.=.=.=.=.=.=.=.=.$.2 2 2 2 2 2 2 2 2 2 w.N.N.N.N.n.N.N.N.N.N.N.n.n.n.n.n.n.n.N.N.n.n.n.N.N.N.f.y.y.y.y.y.y.y.y.y.y.y.y.y.y.y.y.y.y.y.y.y.y.y.y.y.y.y.y.y.t.%.%.%.%.=.%.#.@.@.^ ^ W W W n = = = = = = = 2 2 2 X.^ T T T T T K K K K V V A A T T Q T E ^ ^ ^ ^ ^ } } } } } } #.%.%.%.%.%.%.=.t.y.y.y.j.j.j.j.l.l.l.",
"l.l.l.N.N.N.B.B.N.n.l.l.l.l.l.l.l.l.l.l.j.M.U.1X1X1XJ.t.t.t.t.t.t.#.^ ^ ^ ^ T t 4 4 4 4 w u x x x x x x 6.Z.Z.Z.D.`.`.`.oXoXoX{.C.C.v.v.`.`.`.`.K.2.I J F F F F F F F F F F F F F F F F F F F F F F F F F F F J K K J P I I I ~ ~ ~ _ ........................~ ~ ~ ~ ~ ~ ~ ~ ....~ ~ ~ I F x x N J ..X.+.*.*.*.2.2.2.6.h.h.h.h.h.v.C.C.C.C.v.v.C.C.C.C.C.C.v.h.h.h.h.h.h.$ $ $ $ $ $ $ $ $ $ j V.V.4.1.+.+.+.+.+.+.+.+.+.+.+.+.+.+.+.+.+.+.+.+.+.+.&.*.*.*.*.*.-.-.-.-.-.-.-.-.-.-.-.-.2.3.d.h.h.h.h.h.h.h.h.h.3.3.3.2.3.3.a.2.-.-.-.-.-.2.3.3.3.d.2.~ ~ ~ ~ % + + + + + & < < ; ; < < < < < I 6.6.3.6.6.&.+.Q K K I I K K K I Q Q K P J J J K K K Q Q Q I I I I I I Q E E ~ ] ] ] ] ] ^ X.X.X.X.X.X.X.[ X.@.@.@.@.@.@.@.@.@.$.%.%.=.=.=.=.=.=.=.=.=.=.=.=.=.=.t 2 2 2 2 2 2 2 2 2 2 i N.N.N.N.n.n.N.N.N.N.n.n.n.n.n.N.n.n.n.n.N.N.N.N.N.k.i.y.y.y.y.y.t.t.t.y.y.y.y.y.y.y.y.y.y.y.y.y.y.y.y.y.y.y.y.y.t.%.%.%.%.%.%.#.#.#.^ ^ W W W B = = = = = = = 2 2 2 B ^ T T T T T V V V K K A A A A T Q T T ^ ^ ^ ^ ! } } } } } } } %.%.%.%.%.%.%.=.y.y.y.f.j.j.j.j.l.l.",
"l.l.l.l.l.l.l.l.l.l.l.l.l.l.l.l.l.l.l.l.l.M.*X1X1XOXl.t.t.t.t.t.t.t.w.^ ^ ^ ^ T 4 4 4 4 w z x x x x x x 2.Z.Z.Z.D.`.`.'.oXoXoXK.C.C.v.v.`.`.`.1.P J J J F F F F F F F F F F F F F F F F F F F F F F F F F F F J K K K P I I I Q ~ ~ _ ..........................~ ~ ~ ~ ~ ~ ~ ~ ~ ~ ~ P N N x x N ~ ....+.*.*.*.2.2.2.2.h.h.h.h.h.v.C.C.C.C.v.v.C.C.C.C.C.C.h.h.h.h.h.h.h.$ $ $ $ $ $ $ $ $ $ P V.V.4.1.+.+.+.+.+.+.+.+.+.+.+.+.+.+.+.+.+.+.+.+.+.+.+.*.*.*.*.-.-.-.-.-.-.-.-.-.-.-.-.-.2.3.h.h.h.h.h.h.h.h.h.h.d.3.3.3.3.3.a.-.-.-.-.-.-.-.2.2.3.2.2.~ ~ ~ ~ < + + + + + + % < ; ; < < < 6 +.3.6.6.6.6.6.*.Q I K K I I K K K K K K K P J J P I I K Q Q Q E Q Q Q Q I I Q ~ ~ ^ ^ ] ] ] ^ ^ ^ ^ ] ] ] ] ^ ] ] X.X.@.@.@.@.@.@.@.%.%.=.=.=.=.=.=.=.=.=.=.=.=.%.B 2 : 2 2 2 2 2 2 2 2 2 2 B k.N.N.n.n.N.N.N.N.n.n.n.n.n.N.n.n.N.n.N.N.N.N.k.p.p.i.y.y.y.y.t.t.t.t.y.y.y.y.y.y.y.y.y.y.y.y.y.y.y.y.y.y.y.y.y.%.%.%.%.%.%.#.#.#.^ ^ W W T B = = = = = = = 2 2 2 w E T T T T T V V V K K A A V A K T T T T ^ ^ ^ ! ! ^ } } } } } %.%.%.%.%.%.%.%.t.s.y.f.j.j.j.j.l.l.",
"l.j.j.l.l.l.l.l.l.l.l.l.l.l.l.l.l.l.l.l.l.J.1X1XOXN.N.s.t.t.t.t.t.t.t.w.^ ^ ^ ^ m 4 4 4 t x x x x x x F _ 2.Z.Z.Z.`.`.oXoXoXoXC.C.v.v.C.`.D.I J J J J J F F F F F F F F F F F F F F F F F F F F F F F F F F F J K K J P I I I I ~ ~ ~ ..........................~ ~ ~ ~ ~ ~ ~ ~ ~ ~ J N N N x x I ......o.+.*.*.1.2.2.2.h.h.h.h.h.h.v.C.C.v.v.v.C.C.V.V.v.h.h.h.h.h.h.h.h.$ $ $ $ $ $ $ $ $ < 7.V.6.2.,.+.+.+.+.+.+.+.+.+.+.+.+.+.+.+.+.+.+.+.+.+.+.+.*.*.*.*.*.-.-.-.-.-.-.-.-.-.-.-.-.2.3.h.h.h.h.h.h.h.h.h.h.3.-.-.2.3.3.2.-.-.-.-.-.-.-.-.-.-.-.-.~ ~ ~ ~ 9 + + + + + + $ < ; ; ; < 5 ..<.3.6.6.6.3.6...I I K K K P P P J J J J J J J J I I I I I Q Q E E Q ~ E E E ~ ~ ^ ^ ^ ^ ] ^ ] ^ ^ ^ ^ ^ ^ ^ ^ ^ ] ] ^ ] X.@.@.@.@.@.*.=.=.=.%.%.%.=.=.%.=.=.=.=.$.2 : : : : 2 2 2 2 2 2 : 2 c A N.N.n.n.n.N.N.N.n.n.n.n.N.N.N.N.N.N.N.N.N.k.p.p.p.i.y.y.y.y.t.t.t.t.t.t.y.y.y.y.y.y.y.y.y.y.y.y.y.y.y.y.y.y.y.w.%.%.%.%.%.#.#.#.^ ^ W W B B = = = = = = = 2 2 2 2 V T T T T T K A V K K K A V K K K V T T T E ^ ! ! ^ ^ } } } } #.%.%.%.%.%.%.%.t.s.y.s.f.j.j.l.l.l.",
"l.j.j.l.l.l.f.s.y.s.f.l.l.l.l.l.l.l.l.l.l.OX1X1XN.N.N.N.s.t.t.t.t.t.t.t.t.^ ^ ^ ^ t 4 4 7 x x x x x x P ~ ..K.Z.Z.).'.oXoXoXK.C.C.V.v.K.C.P J J J J J F F F F F F F F F F F F F F F F F F F F F F F F F F F F J K K J P I I I I ~ ~ ~ ..........................~ ~ ~ ~ ~ ~ ~ ~ ~ F x N N x x 1.,X........+.*.*.*.2.2.2.2.h.h.h.h.h.v.v.C.C.v.v.C.v.h.h.h.h.h.h.h.h.h.h.h.$ $ $ $ $ $ $ $ $ H V.V.2.2.,.+.+.+.+.+.+.+.+.+.+.+.+.+.+.+.+.+.+.+.+.+.+.+.&.*.*.*.*.*.-.-.-.-.-.-.-.-.-.-.-.2.3.d.h.h.h.h.h.h.h.h.h.-.-.-.-.3.3.2.-.-.*.*.-.2.2.-.-.-.-.*.~ ~ ~ ~ z + + + + + + , < ; ; ; j ....o.3.6.6.3.3.*.I I I I K P P P P P P P J J J J K I Q I I I I Q E E E ~ E E E ~ ^ ^ ^ ^ ^ ] ] ] ^ ^ ^ ^ ^ ^ ^ ^ ^ ] ] ^ ^ ^ @.@.@.@.@.$.=.=.=.%.%.%.=.%.%.=.=.=.%.T : : : : 2 2 2 : : 2 2 : i v v k.N.n.n.N.N.N.N.n.n.n.n.N.N.N.N.N.N.N.N.k.p.p.p.p.y.y.y.t.t.t.t.t.t.t.t.t.y.y.y.y.y.y.y.y.y.y.y.y.y.y.y.y.y.y.w.%.%.%.%.%.#.#.#.^ ^ W E B B = = = = = = = 2 2 2 2 B T T T Q K K A A K K K V V V K K V V T T T T E ! ^ ^ ^ } } } #.%.%.%.%.%.%.%.t.s.y.y.s.f.j.l.l.l.",
"l.l.l.l.f.s.t.t.t.t.t.l.l.l.l.l.l.l.l.l.l.*X1X1XN.N.N.N.N.t.t.t.t.t.t.t.t.t.^ ^ ^ c 4 1 < k x x x x F _ _ _ C.I.Z.K.oXoXoX[.C.C.C.C.C.C.P J J J J J P J F F F F F F F F F F F F F F F F F F F F F F F F F F F F K K J P I I I I ~ ~ ~ _ ..........................~ ~ ~ ~ ~ ~ ~ J x N N N N 1.<X<X........X.*.*.+.1.2.2.2.6.h.h.h.h.h.v.C.C.V.V.v.h.h.h.h.h.h.h.h.h.h.h.h.$ $ $ $ $ $ $ $ $ 4.V.6.2.2.1.+.+.+.+.+.+.+.&.&.&.*.*.*.*.+.+.+.+.+.+.+.+.+.+.*.*.*.*.*.*.-.-.-.-.2.-.-.-.-.-.2.a.a.3.a.a.a.3.3.2.-.-.-.-.-.2.a.a.2.-.*.+.X.X.&.*.2.2.-.-.X.~ ~ ~ ~ F + + + + + % < < < < s ..o.o.o.6.6.z.D.h.Q Q K P J J J J J J J J J J J J J K Q Q K I I I Q E E E E E E ~ ^ ] ^ ^ ^ ^ ] ] ] ] ] ^ ] ] ] ^ ^ ^ ] ] ^ ^ ^ X.@.@.@.@.@.%.=.=.=.=.%.%.%.%.=.=.=.%.d : : : 2 2 2 2 : : 2 2 2 w v v y.N.N.n.n.n.N.N.N.N.n.N.N.N.n.n.n.n.n.p.p.p.p.p.i.y.y.e.t.t.e.e.q.e.t.t.t.t.y.y.y.y.y.y.y.y.y.y.y.y.y.y.y.y.y.t.%.%.%.%.%.#.@.@.^ ^ W T b T = = = = = = ; 2 2 2 2 B T T T T V K A A A A T T V V V V K K K K T T T T E ^ ! ^ } } } %.%.%.%.%.%.%.=.t.s.s.s.s.s.s.f.j.",
"y.f.f.s.t.t.t.t.t.t.t.f.l.l.l.l.l.l.l.l.l.*X1X1XG.N.N.N.N.f.t.t.t.t.t.t.t.t.t.^ ^ T 4 < < 1 x x x x P _ ~ ~ *.'.K.K.oXoXoXK.C.C.C.C.K.P J J J J J J P F F F N F F F F F F F F F F F F F F F F F F F F F F F F F J J J P I I I I I ~ ~ ~ ..........................~ ~ ~ ~ ~ ~ P x x N N N 1.<X<X-X..........X.*.+.*.2.2.2.2.h.h.h.h.h.h.C.V.V.v.h.h.h.h.h.h.h.h.h.h.h.h.h.$ $ $ $ $ $ $ $ $ 4.7.2.2.2.1.+.+.+.+.+.*.*.*.*.*.*.*.*.*.+.+.+.+.+.+.+.+.+.+.*.*.*.*.*.*.*.-.-.-.-.-.-.-.-.-.-.2.2.2.2.2.2.2.-.-.-.-.-.-.-.2.a.a.2.-.&.+.X.X.$.+.+.&.&.&...~ ~ ~ ~ F + + + + + % < < < s ....o.o.o.2.C.[.'.~ Q P P J J J J P J J J J J J J J J K Q Q K I I I I Q E E E E E ~ ] ] ^ ^ ^ ^ ] ] ] ] ^ ^ ] ] ] ] ^ ^ ] ^ ^ ^ ^ X.@.@.@.@.@.$.=.=.=.%.%.%.=.%.=.=.=.=.2 : : : 2 2 2 2 : : 2 2 2 2 c v y.n.k.p.k.n.N.N.N.N.N.N.N.N.n.n.n.n.p.p.p.p.p.p.y.y.q.t.t.t.t.e.q.e.t.t.t.t.y.y.y.y.y.y.y.y.y.y.y.y.y.y.y.y.y.t.=.=.%.%.#.@.#.@.W ^ W W T ^ = = = = = = 2 2 2 2 2 B #.^ T T K K A K A T T T V V V V K K K T T T T T Q ! ! ! } } } } %.%.%.%.%.%.%.=.t.s.s.s.t.y.y.s.",
"t.t.t.t.t.t.t.t.t.t.t.s.l.l.l.l.l.l.l.l.l.*X1X1XOXN.N.N.N.M.t.t.t.t.t.t.t.t.t.t.^ ^ 2 < < < k x x F ~ Q ~ ~ ~ '.'.D.K.[.oXC.C.v.C.K._ J J J J J J J J F N N N N F F F F F F F F F F F F F F F F F F F F F F F F J J J I I I I I I ~ ~ ~ ~ ........................~ ~ ~ ~ ~ ~ N x x x N 1.<X<X<X2.............X.+.*.*.2.2.2.2.h.h.h.h.h.h.v.V.h.h.h.h.v.D.D.C.h.h.h.2.I < $ $ $ $ $ $ $ $ $ l 4.2.2.2.1.+.+.+.+.+.*.*.*.*.*.*.*.*.*.*.+.+.+.+.+.+.+.+.+.*.*.*.*.*.*.*.*.-.-.-.-.-.-.-.-.-.-.-.-.-.-.-.-.-.-.-.-.-.-.2.3.a.3.2.-.&.&.X.X.$.X.+.+.X.X...~ ~ ~ ~ F + + + + + $ < < 6 ....o.o.o.o.V.{.{.2.K J J J J J P P P J P J J P J J J K Q Q Q K K I I I I Q E E E ~ ~ ^ ] ^ ^ ^ ^ ^ ] ^ ^ ^ ^ ] ] ^ ^ ^ ^ ^ ^ ^ ^ ^ X.@.@.@.@.@.$.=.=.=.=.=.=.=.=.=.=.=.=.: 2 : : 2 2 2 2 2 2 2 2 2 2 y v t.p.p.p.i.p.n.N.N.N.N.N.N.N.N.N.n.n.n.n.n.k.p.p.i.t.q.q.t.t.t.t.e.e.t.t.y.y.y.y.y.y.y.y.y.y.y.y.y.y.y.y.y.y.y.t.=.=.%.%.#.} #.#.^ ^ W W ^ ^ = = = = = 2 2 2 2 2 2 T =.^ T T V K K T A V K K K K T T T T T T T T T T Q ^ ^ ! ^ } } } } %.%.%.%.%.%.%.%.t.y.y.t.t.y.s.",
"t.t.t.t.t.t.t.t.t.t.t.t.l.l.l.l.l.l.l.l.l.1X1X1X1XF.N.N.N.j.t.t.t.t.t.t.t.t.t.t.t.^ 4 < < < 4 x x I ~ Q ~ ~ ~ C.'.K.Z.Z.C.3.-.-.D.V.P P Q Q J J J J J F F N N N F F F F F F F F F F F F F F F F F F F F F F F F J J J I I I I I I ~ ~ ~ ~ ........................~ ~ ~ ~ ~ P x x x x 1.<X<X<Xz.................X.+.+.*.1.2.2.6.h.h.h.h.h.h.h.h.h.h.V.K.K.K.K.F 6 $ $ $ $ $ $ $ $ $ $ $ $ $ $ o.4.2.2.2.+.+.+.+.+.&.*.*.*.*.*.*.*.*.*.*.*.*.+.+.+.+.+.+.&.*.*.*.*.*.*.*.*.-.-.-.-.-.-.-.-.-.-.-.-.-.-.-.-.-.-.-.-.-.2.3.3.3.-.*.&.&.X.X.X.X.+.X.X.X.~ ~ ~ ~ ~ F + + + + + + % < l ..o.o.o.o.6.[.{.K.K J J J J J J P P P J J J J P P J P K Q Q Q K K I I I I I I Q E ~ ~ ~ ] ^ ^ ^ ^ ] ] ^ ^ ^ ^ ] ] ] ^ ^ ^ ^ ^ ] ^ ^ X.@.@.@.@.@.@.=.=.=.=.=.=.=.=.=.=.=.X.2 2 : : 2 2 2 2 2 2 2 2 : 2 2 c w.p.p.p.i.i.i.n.N.N.N.N.N.N.N.N.N.n.n.n.n.N.n.p.p.y.e.e.t.t.t.t.q.e.t.y.y.y.y.y.y.y.y.y.y.y.y.y.y.y.y.y.y.y.y.t.=.=.%.%.#.#.#.#.} ^ W W ^ ^ = = = = 2 2 2 2 2 2 2 ^ =.^ T T K K K T V V K K K K A T T T T T T T T T Q ^ ^ ! ^ ^ } } } } #.%.%.%.%.%.%.%.t.y.t.t.s.s.",
"t.t.t.t.t.t.t.t.t.t.t.t.f.f.f.s.s.s.s.s.s.1X1X1X1XOXM.N.N.f.t.t.t.t.t.t.t.t.t.t.t.w.u < , < < x F ~ ~ ~ ~ ~ ~ 1.'.'.D.Z.3.-.-.h.`...I Q ~ ~ P P J J J F F F F F F F F F F F F F F F F F F F F F F F F F N N F F J J K K I I I I I ~ ~ ~ ~ .................._ ~ ~ ~ ~ ~ ~ ~ J x x x 1.<X<X<Xz.......................+.*.*.2.2.2.3.6.h.h.h.h.h.h.h.h.K.K.K.K.K.2 $ $ $ $ $ $ $ $ $ $ $ $ $ $ $ 5 6 J o.4.+.+.+.+.+.*.*.*.*.*.*.*.*.*.*.*.*.*.*.*.+.+.+.+.+.*.*.*.*.*.*.*.*.-.-.2.-.-.-.-.-.-.-.-.-.-.-.-.-.-.-.-.-.2.3.3.3.3.-.*.&.&.&.$.X.X.X.&.+.X.~ ~ ~ ~ ~ F + + + + + + + < D o.o.o.o.,.[.[.'...J J J J J J J J J J J J J J J J P I I I I I I I I Q I I I I Q ~ ~ ~ E ^ ^ ^ ^ ^ ^ ^ ^ ] ] ] ^ ^ ^ ^ ] ] ^ ^ ] ] ] @.@.@.@.@.@.$.=.=.=.=.=.=.=.=.=.=.=.[ 2 2 2 2 2 2 2 2 2 2 2 2 2 2 2 i e.p.p.p.p.p.p.p.k.n.N.N.n.n.N.N.N.N.N.N.N.N.n.p.p.i.e.e.e.t.t.t.t.e.t.y.y.y.y.y.y.y.y.y.y.t.t.y.y.y.y.y.y.y.y.w.%.%.%.%.%.#.#.#.#.^ W W W W = = = = 2 2 2 2 2 2 2 $.=.^ T T V V A A V V V V K K K T T T T T T T T T T ! ^ ^ ^ ^ } } } } } } #.%.%.%.%.%.%.t.y.y.s.s.",
"t.t.t.t.t.t.t.t.t.t.t.t.t.t.t.t.t.t.t.t.t.OX1X1X1X1XN.N.N.s.t.t.t.t.t.t.t.t.t.t.t.t.u < < < < k J _ ~ ~ ~ ~ ~ ..'.'.K.C.-.-.2.).2.Q Q Q ~ ~ I P J J J F F F F F F F F F F F F F F F F F F F F F F F F F N N F F J J J K I I I I I Q ~ ~ ~ ................~ ~ ~ ~ ~ ~ ~ ~ ~ N x x ..<X<X].,...........................+.+.*.1.2.2.2.2.2.3.h.h.h.h.h.K.K.K.K.D.$ $ $ $ $ $ $ $ % , < < , % % $ % < < 5 z +.+.+.+.+.*.*.*.*.*.*.*.*.*.*.*.*.*.*.*.*.*.&.+.+.*.*.*.*.*.*.*.*.-.-.-.-.-.-.-.-.-.-.-.-.-.-.-.-.-.-.-.2.3.3.3.3.2.-.*.&.&.+.+.@.@.X.+.+...~ ~ ~ ~ ~ F + + + + + + + 6 D o.o.o.o.).[.'...J J J J J J J J J J J J J J J P K I I I I I K I I Q Q I I I I I Q ~ ~ ~ ] ^ ^ ^ ^ ^ ^ ^ ^ ] ] ^ ^ ^ ^ ] ^ ^ ^ ] ] ] X.@.@.@.@.@.$.=.=.=.=.=.=.=.=.=.=.=.T 2 2 2 2 2 2 2 2 2 2 2 2 : : 2 w i.p.p.p.p.p.p.p.p.p.k.n.N.n.N.N.N.N.N.N.N.N.k.p.p.p.e.e.t.t.t.t.t.e.t.t.y.y.y.y.y.y.t.t.t.t.t.t.y.y.y.y.y.y.t.%.%.%.%.%.=.#.#.#.#.@.} W W W = = = ; 2 2 2 2 2 2 k =.=.T T K V A A A V V K K K K A A T T T T T T T T T T ^ ^ ^ ^ [ } } } } } } } #.%.%.%.%.=.y.y.s.s.",
"t.t.t.t.t.t.t.t.t.t.t.t.t.t.t.t.t.t.t.t.t.s.1X1X1X1XG.N.N.t.t.t.t.t.t.t.t.t.t.t.t.t.u < = = < k P _ _ _ ~ ~ ~ ~ I.'.'.h.-.2.D.S.Q Q Q Q ~ ~ Q P J J J J F F F F F F F F F F F F F F F F F F F F F F F F N N F F J J K K I I I I I I ~ ~ ~ ..................~ ~ ~ ~ ~ ~ ~ ~ F N I ,X<Xz.P P I ........................X.+.+.+.*.1.4.2.2.2.2.2.6.h.V.K.K.K.K.h.$ $ $ $ $ $ % < < < < < < < < < 1 < < 5 z [.*.+.+.+.*.-.2.2.2.-.*.*.*.*.*.*.*.*.*.*.*.*.*.*.*.*.*.*.*.*.*.*.-.-.-.-.-.-.-.-.-.-.-.-.-.-.-.-.2.2.2.3.3.3.3.3.2.-.*.X.X.X.+.@.@.o.+.+._ ~ ~ ~ ~ ~ F + + + + + + + 5 D o..._ ..1.z...J J J J P J J J J J P P P J K K K K I Q I I K K I Q Q Q I I I I I ~ ~ ~ ~ ] ] ] ^ ] ^ ^ ] ] ] ] ^ ^ ] ] ] ] ^ ^ ^ ^ ] ] X.@.@.@.$.=.=.=.=.=.%.%.=.=.=.=.=.B : : 2 2 : : 2 2 2 2 : : : : 2 2 R p.p.p.p.p.p.p.p.p.p.p.p.k.n.n.N.N.N.N.n.k.p.p.p.p.y.t.t.t.t.t.t.t.t.t.e.t.t.t.e.e.q.q.t.t.t.t.t.y.y.y.y.y.w.=.%.%.%.=.=.%.#.#.#.#.#.^ W W = = = : 2 2 2 2 2 2 ^ =.=.T T K V V K V T T K K K K K K K T T T T T T T T T T ^ ! ! ^ } } } } } } } } } %.%.%.%.t.y.s.y.",
"t.t.t.t.t.t.t.t.t.t.t.t.t.t.t.t.t.t.t.t.t.t.j.*X1X1XG.N.f.t.t.t.t.t.t.t.t.t.t.t.t.t.1 ; = = = 7 I _ _ _ ~ ~ ~ ~ K.'.'.d.2.b.C.*.~ Q Q Q Q Q Q I J J J J F F F F F F F F F F F F F F F F F F F F J J J F F F F F J J K K I I I I I I ~ ~ ~ ....................~ ~ ~ ~ ~ ~ ~ F J >.(.o.P P P P I ........................o.+.+.+.+.+.*.1.1.2.2.2.2.h.K.K.K.K._ $ $ $ $ % , < < < < < < < < < < 1 < < 5 z oX'.*.+.&.2.2.2.2.2.2.-.*.*.*.*.*.*.*.*.*.*.*.*.*.*.*.*.*.*.*.*.*.-.-.-.-.-.-.-.-.-.-.-.-.-.-.-.-.2.2.2.3.3.3.3.a.2.-.*.X.X.+.+.@.X.X.+.X.~ ~ ~ ~ ~ ~ F + + + + + + + , D o...J J J J J J J J J P P J J J J P P K Q Q Q K I I Q Q Q K K I Q Q Q I I I Q E ~ ~ ~ ~ ] ] ] ] ] ^ ^ ^ ] ] ] ^ ] ] ] ] ] ^ ^ ^ ^ ^ ] ^ @.@.@.@.$.=.=.=.=.%.%.%.%.=.=.=.i : : 2 : : : : 2 2 2 2 : 2 : 2 2 4 i.p.p.p.p.p.p.i.i.i.i.p.i.i.p.k.n.k.k.p.p.p.p.p.p.i.t.t.t.q.q.w.q.t.t.t.e.t.t.e.e.q.q.t.t.t.t.t.y.y.y.y.y.=.=.%.%.%.=.=.=.#.#.#.#.#.#.^ W = = = : 2 2 2 2 2 t =.=.=.Q Q T V V K K K K K K K K K K K K T T T T T T T T T T ! ! ^ } } } } } } } } } } %.%.%.=.y.y.y.",
"t.t.t.t.t.t.t.t.t.t.t.t.t.t.t.t.t.t.t.t.t.t.t.t.n.n.f.t.t.t.t.t.t.t.t.t.t.t.t.t.t.^ = = ; < < 7 P Q ~ ~ _ _ _ _ h.'.'.h.b.b.3.+...~ Q Q Q Q Q I J J J J J J N N N N F F F F F F F F F F F F F F J J K F F F F F J J J I I I I I I I ~ ~ ~ ...................._ ~ ~ ~ ~ ~ ~ J >.>.+.P P P P P P ........................X.*.+.+.+.+.*.*.*.*.1.2.2.2.C.K.K.K.6 $ $ $ % < < < < < 1 1 < < < < 1 1 1 < < z {.{.2.-.2.2.2.2.2.2.2.2.2.-.-.2.2.2.2.-.*.*.*.*.*.*.*.*.*.*.*.*.*.-.-.-.-.-.-.-.-.-.-.-.-.-.-.-.-.2.a.a.3.3.3.3.3.-.-.&.X.X.&.&.&.+.+.o...~ ~ ~ ~ ~ ~ J $ $ + + + + + , D o._ J J J J J J J J J J J J P J J J K K K Q Q I I I I Q Q I I I I I I I Q Q ~ E E ~ ~ ~ ] ] ] ] ] ] ^ ^ ^ ] ] ] ] ^ ^ ^ ^ ^ ^ ^ ^ ^ ^ ^ [ @.@.@.@.@.$.=.=.=.=.%.%.=.=.$.2 2 2 2 2 : : : 2 2 2 2 w y w 2 2 2 } p.p.p.p.p.y.t.t.e.e.y.i.k.k.p.p.p.p.p.p.p.p.p.p.i.t.t.q.q.q.q.q.q.q.t.t.t.t.t.t.e.e.t.t.t.t.e.t.y.y.y.y.%.=.=.=.=.=.%.%.%.#.#.#.#.#.} ^ = = = : 2 2 2 2 2 B =.=.=.T T T T K K K K K K K K K V V K K T T T T T T T T T ! ! ^ ! } } } } } } } } } } #.%.%.%.s.y.y.",
"t.t.t.t.t.t.t.t.t.t.t.t.t.t.t.t.t.t.t.t.t.t.w.q.%.t.t.t.t.t.t.t.t.t.t.t.t.t.t.t.t.s = = < < < 7 Q Q ~ ~ _ _ _ _ 3.'.'.b.b.b.*.+.X.~ Q ~ Q Q ~ Q J J J J J J J N N N F F F F F F F F F F F F F F J J K N F F F F J J J I I I I I I I Q ~ ~ _ ....................~ ~ ~ ~ ~ ~ o.>.>.>.P P I I P P _ ......................+.*.*.*.+.+.*.*.*.*.,.2.2.2.2.C.K.V.$ $ $ % % < < < < < 1 1 < < < < 1 1 < < < z {.{.2.2.2.2.2.2.2.2.2.2.2.2.2.2.2.2.2.2.*.*.*.*.*.*.*.*.*.*.*.*.*.-.-.-.-.-.-.-.-.-.-.-.-.-.-.-.-.-.2.3.3.3.3.3.2.-.-.&.X.X.&.&.+.+.X.X.~ ~ ~ ~ ~ ~ ~ ..+ + + + + + + , D o.Q J J J P P J J J P J J P P J K K K I K Q Q K I I I Q Q K I I I I I Q E E E E E ~ ~ ~ ] ] ] ] ] ] ] ^ ^ ] ^ ] ] ^ ^ ^ ^ ] ^ ^ ^ ^ ^ ] ] X.@.@.@.@.@.@.=.=.=.%.%.=.=.T 2 2 : 2 2 : 2 2 2 2 2 2 t y y 2 2 2 B p.p.p.p.y.t.t.t.e.e.t.t.y.y.i.i.i.i.i.i.y.y.t.t.t.t.t.w.q.q.q.q.q.q.w.q.t.t.e.t.e.e.t.t.y.t.e.q.y.y.y.y.t.=.=.=.%.%.%.%.=.%.%.%.#.#.#.^ = = = : 2 2 2 2 2 #.=.=.%.T T T T K K K K K K K V K V A T T V T T T T T T T T ! ^ ^ ! ^ } } } } } } } } } #.%.%.%.t.y.s.",
"t.t.t.t.t.t.t.t.t.t.t.t.t.t.t.%.%.w.w.t.t.w.q.q.%.%.w.t.t.t.t.t.t.t.t.t.t.t.t.t.t.2 < < < < < z ~ ~ ~ ~ ~ ~ _ _ *.'.'.b.b.h.+.+.+.~ ~ ~ _ _ ~ ~ J J P J J P P F N F F F F F F F F F F F F F F F F K J N F F F F J J J I I I I I I I ~ ~ ~ ~ ....................~ ~ ~ ~ ~ ~ ..>.>.>.I I I I I P I ....................X.*.*.*.*.+.*.*.*.*.1.2.2.2.2.2.5.K.z $ , < , $ $ % % , < 1 1 < < < < < 1 < 1 1 z oXoX2.2.2.2.2.2.2.2.2.2.2.2.2.2.2.2.2.2.*.*.*.*.*.*.*.*.*.*.*.*.*.-.-.-.-.-.-.-.-.-.-.-.-.-.-.-.-.-.-.2.3.3.3.2.-.-.-.&.X.@.$.&.X.X.X...~ ~ ~ ~ ~ ~ ..*.+ + + + + + + , D ` I J J J J J P J J J J J J K I I I I I Q Q Q K I I I I K K K K I I Q E E E E E E E E E ~ ] ] ] ] ^ ^ ^ ^ ^ ^ ] ] ] ^ ] ] ] ] ^ ^ ] ] ] ] X.@.@.@.@.@.@.$.=.=.%.%.=.=.d 2 2 2 2 2 : 2 2 2 2 2 2 y y y y 2 2 f p.p.p.i.e.e.t.t.e.e.q.q.t.t.t.q.e.e.t.t.t.t.e.e.e.t.q.q.q.q.q.q.q.q.q.q.q.q.e.e.e.e.q.t.y.y.y.e.t.y.y.y.y.t.w.t.t.t.=.=.%.%.%.%.=.=.=.W = = = 2 2 2 2 2 w =.=.=.$.T T T T V K K K K A V V A A A T K V V T T T T T T ! ^ ^ ^ ^ ! ! ^ } } } } } } } %.%.%.%.=.s.s.",
"t.t.t.t.t.t.t.t.t.t.t.t.t.t.t.w.%.%.%.%.w.%.%.%.%.q.q.q.%.%.%.%.%.%.w.w.t.t.t.t.%.< < < < < < F ~ ~ ~ ~ Q ~ _ _ *.'.'.b.b.2.+.+.+._ ~ ~ _ _ ~ ~ P P P J J P J K N N F F F F F F F F F F F F F F F N J N F F F F K K J K I I I I I ~ ~ ~ ~ ~ _ ................~ ~ ~ ~ ~ ~ ~ ..>.>.>._ I I I I I P ....................+.*.*.*.*.*.*.1.2.2.2.2.2.2.2.2.2.6.< , < < < $ $ $ $ $ , 1 1 < < < < < < 1 1 1 z oXoX2.2.2.2.2.2.2.2.2.2.2.2.2.2.-.-.-.-.*.*.*.*.*.*.*.*.*.*.*.*.*.*.*.*.-.-.-.*.*.-.-.-.-.-.-.-.-.-.-.-.-.2.2.-.-.-.-.&.X.@.$.$.X.X.X.~ ~ ~ ~ ~ ~ ~ +.*.+ + + + + + + , D _ I J J J J J J J J J J J K Q Q I I I I Q Q Q K K I I I K K K K K I Q E E E E E E E E E E ^ ^ ] ] ] ^ ^ ^ ^ ^ ] ] ^ ^ ] ] ] ] ^ ^ ] ] ] ] X.@.@.@.@.@.@.$.=.=.%.=.=.=.i 2 2 2 2 2 : : 2 2 2 2 2 y y y y w 2 c p.p.p.y.e.t.t.t.e.q.q.e.t.t.t.q.e.e.t.t.t.t.e.e.e.e.w.q.q.q.q.q.q.q.q.q.q.e.e.e.q.q.q.t.y.y.y.y.y.y.y.y.y.y.y.y.y.y.y.w.%.%.%.%.=.=.=.T = = = 2 2 2 2 2 i =.=.=.$.T T V V K V K A A A V A A A A T T V V T T T T T T ^ ^ ^ ^ ^ ^ ! ! ^ } } } } } } %.%.%.%.%.t.s.",
"t.t.t.t.t.t.t.t.t.t.t.t.t.t.t.w.%.%.%.%.%.%.%.%.q.q.w.q.q.q.q.q.%.%.%.%.w.t.t.t.T ; < < < < 2 I Q Q ~ ~ Q Q Q ~ o.'.'.b.b.*.+.+.+.X.~ ~ ~ ~ Q I J J J J J J J J F F F F F F F F F F F F F F F F F F J F F F F F J J J I I I I ~ ~ ~ ~ ~ ~ ~ ~ ~ ~ ........_ ~ ~ ~ ~ ~ ~ ~ ~ ..>.>.>...I I I I P I _ ..................*.*.*.*.*.*.2.2.2.2.2.2.2.2.2.2.2.X.< < < < < % $ $ $ $ , < < < < < < < < < < < ~ oX[.2.2.2.2.2.2.2.2.2.2.2.2.2.*.*.*.*.*.*.*.*.*.*.*.*.*.*.*.*.*.*.*.*.*.*.*.*.*.*.*.-.-.-.-.-.-.-.-.-.-.-.-.-.-.-.2.-.&.X.X.X.+.X.@...~ ~ ~ ~ ~ ~ _ *.*.+ + + + + + + , D _ J J J P J J J J J J K K K K I I I I Q Q I I I I I I I I Q Q I I I ~ ~ ~ ~ ~ E E E E E ^ ^ ^ ^ ^ ^ ^ ] ] ^ ^ ] ] ] ] ] ^ ^ ^ ] ] ] ] ^ ^ X.@.@.@.@.@.@.$.%.=.=.=.=.=.2 2 2 2 : : 2 2 2 : : : 2 y y y y y 2 } p.p.p.y.e.q.q.e.t.t.t.t.e.q.e.e.t.t.t.t.t.t.t.e.t.q.q.q.q.q.q.q.q.q.q.q.q.q.t.t.t.t.t.t.y.y.y.y.y.y.y.y.y.y.y.y.y.y.y.y.t.%.%.=.%.%.=.2 = = = 2 2 2 2 2 B %.=.=.@.T Q K V A A A V A A V V V V V A T K K T T T T T E ^ ^ ! ^ ^ ^ ^ ^ ^ [ } } } } } %.%.%.%.%.=.s.",
"t.t.t.t.t.t.t.t.t.t.t.t.t.t.t.t.%.%.%.%.%.%.%.%.%.%.w.q.q.q.q.q.%.%.%.%.w.t.t.t.m = < < < , 7 J ~ Q ~ _ Q Q ~ ~ ~ '.'.b.v.+.+.+.+.+.~ ~ ~ ~ Q I J J J J J J J J J F F F F F F F F F F F F F F F F N F K J J J J J J P I I I ~ ~ ~ ~ ~ ~ ~ ~ ~ ~ ~ ~ ~ ~ ~ ~ ~ ~ I Q I I I P I >.>.>.>.I I I P P I I ................X.+.*.*.*.*.1.2.2.2.2.2.2.2.2.2.2.2.+.< < < < < , $ $ $ % < < < < < < < < < < < < ~ oX`.2.2.2.2.2.2.2.2.2.2.2.2.*.*.*.*.*.*.*.*.*.*.*.*.*.*.*.*.*.*.*.*.*.*.*.*.*.*.*.*.*.-.-.-.-.-.-.-.-.-.-.-.-.-.-.-.-.&.X.X.X.+.@.@._ ~ ~ ~ ~ ~ ~ o.*.+.+ + + + + + + , D _ J J P P P J J J J K Q Q I I I I I I Q Q I K I I I I I I Q Q I I Q ~ ~ ~ ~ ~ E E E ~ ^ ^ ^ ^ ^ ^ ^ ^ ] ^ ^ ^ ] ] ] ] ] ] ^ ^ ] ] ] ] ^ ] X.@.@.@.@.@.@.%.=.=.=.=.=.=.2 2 2 2 : : : 2 : : : : 4 y y y y y y p.p.p.y.t.q.q.e.e.t.t.t.t.e.q.e.t.t.t.t.t.t.t.t.e.t.q.q.q.q.q.q.q.q.q.q.q.q.w.t.t.t.t.t.t.y.y.y.y.y.y.y.y.y.y.k.l.f.y.y.y.y.t.=.=.%.%.} 2 - = ; 2 2 2 2 2 V %.%.=.} T Q T T A A A V K V V V V V V A T T K T T T T T E ^ ^ ! ^ ^ ^ ^ ^ ^ ^ } } } } } %.%.%.%.%.%.=.",
"w.w.w.w.w.t.t.t.t.t.t.t.t.t.t.w.%.%.q.q.q.q.%.q.%.%.%.%.%.%.q.w.%.q.%.%.w.t.t.t.6 = < < < , s F ~ ~ _ _ _ _ ~ _ ~ '.'.b.h.+.+.+.+.+.~ ~ Q Q Q P J J J P J J J J J F F F F F F F F F F F F F F F F F F K K J J J J P I I ~ ~ ~ ~ ~ ~ ~ ~ ~ ~ ~ ~ I I I I I I P P P P I I P P I >.>.>.>...P P P P I I I Q _ ..........X.+.*.*.*.*.1.2.2.2.2.2.2.2.2.2.2.2.2.< < < < < < & $ $ < < < < 1 1 < < < < < < < ~ {.`.2.2.2.2.2.2.2.2.2.2.2.*.*.*.*.*.*.*.*.*.*.*.*.*.*.*.*.*.*.*.*.*.*.*.*.*.*.*.*.*.*.*.-.-.-.-.-.-.-.-.-.-.-.-.1.1.-.X.@.@.+.+.+.X.~ ~ ~ ~ ~ ~ ..*.o.F + + + + + + + , D _ J J J J J J J J K I I Q Q Q K K I Q Q Q K K Q Q I I K I Q Q I I Q E ~ E ~ ~ E E ~ ] ] ] ] ] ^ ^ ] ] ] ] ^ ^ ] ^ ] ] ^ ^ ^ ^ ^ ] ^ ^ ^ ^ X.@.@.@.@.@.@.=.=.=.=.=.=.=.t 2 : 2 : : 2 2 2 2 2 2 w y y y y y R p.p.y.t.t.t.t.e.t.t.t.t.e.e.e.t.t.t.t.e.t.q.q.t.t.t.w.q.q.q.q.q.q.q.q.q.q.q.q.q.t.t.t.t.t.y.y.y.y.y.y.y.y.y.k.k.l.k.l.s.y.y.y.y.t.w.w.) 2 ; ; 2 2 2 2 2 2 T =.%.=.^ T Q Q Q T A V K K T T K K V V A A K K K T T T T T ! ! ! ! ! ^ ^ ! ^ ^ } } } } } %.%.%.%.%.%.%.",
"q.q.%.%.%.%.t.t.t.t.t.t.t.t.t.w.%.%.q.q.q.q.q.q.%.%.%.%.%.%.q.%.q.q.%.%.w.t.t.t.2 < < , , , k F ~ ~ _ _ _ _ _ _ ~ '.I.b.2.+.+.+.+.+._ Q Q Q Q P J J J P P J J J J F F F F F F F F F F F F F F F F F F K K J J J P I I ~ ~ ~ ~ ~ ~ I P P P P P P P P P P P P P P P P I P P P P >.7.D.}.}.[.1.U I P I I I I I I ........+.*.*.+.+.1.2.2.2.2.2.2.2.2.2.2.2.1.7 < < < < < < < 1 < < < 1 1 1 1 1 < < < < < ..oXD.2.2.2.2.2.2.2.2.2.2.-.*.*.*.*.*.*.*.*.*.*.*.*.*.*.*.*.*.*.*.*.*.*.*.*.*.*.*.*.*.*.*.-.-.-.-.-.-.-.-.-.-.-.-.2.1.*.@.@.@.+.+.+._ ~ ~ ~ ~ ~ ~ o.*.J F + + + + + + + , D _ J J J J J J J J I I I Q Q Q K I I Q Q Q K K Q Q K K K I Q Q I I E E E E ~ ~ E ^ ] ] ] ] ] ] ^ ] ] ] ] ] ^ ^ ^ ^ ] ^ ^ ^ ^ ^ ^ ^ ^ ^ ^ ^ X.@.@.@.@.@.$.=.=.=.=.%.%.=.i 2 : : 2 2 2 2 2 2 2 2 w y y y y y | p.y.e.t.t.t.t.t.t.t.t.t.e.e.e.t.t.t.t.e.e.e.q.q.q.t.w.q.q.q.q.q.q.q.q.q.q.q.q.q.t.t.t.t.t.y.y.y.y.y.y.y.s.l.k.k.l.k.k.k.f.y.y.y.y.y.y.#.2 2 2 2 2 2 2 2 2 T =.=.=.! T Q Q Q T T T K K K T K K V V A A K K K T T T T T ! ! ! ! ! ! ! ! ^ ^ ^ } } } } %.%.%.%.%.%.%.",
"%.%.%.%.%.%.w.t.t.t.t.t.t.t.w.%.%.q.w.w.q.q.q.%.%.%.%.%.%.%.%.%.q.q.q.q.w.t.t.t.< < < < < < k F ~ _ _ _ _ _ _ ~ Q '.K.b.*.+.+.+.+.+._ Q Q Q ~ P P J J J P P P J J F F F F F F F F F F F F F F F F F J J J J J I I Q ~ ~ ~ ~ ~ ~ I P P P P P P P P I P P P P P P P P P P P P P 7.A.].}.}.@X}.{.U I I I I I I I P _ ....X.+.+.+.+.*.2.2.2.2.2.2.2.2.2.2.2...N < < < < < < 1 < < < < < < < 1 1 1 < < < < 1.oXC.2.2.2.2.2.2.2.2.2.2.*.*.*.*.*.*.*.*.*.*.*.*.*.*.*.*.*.*.*.*.*.*.*.*.*.*.*.*.*.*.*.*.*.-.-.-.-.-.-.-.-.-.-.-.-.-.$.@.@.@.&.&...~ ~ ~ ~ ~ ~ ..*...F F + + + + + + + % D _ J J J J J J J K Q Q Q Q I K K I I I Q I I K I K K K I I I K K Q E E E E E ~ ~ ] ] ] ^ ] ] ] ] ^ ] ] ] ^ ^ ^ ^ ^ ^ ^ ^ ^ ^ ] ] ] ] ] ^ ^ X.@.@.@.@.@.=.%.%.%.=.=.=.=.b : : : 2 2 2 2 2 : : 2 y y y y y y p.i.e.e.e.t.t.t.t.e.e.e.q.q.t.t.t.t.e.q.q.e.t.t.t.e.q.q.q.q.q.q.q.q.q.q.q.q.q.q.q.t.t.t.t.t.y.y.y.y.y.s.f.l.k.k.k.l.M.M.M.M.f.y.y.s.l.l.y.2 2 2 2 2 2 2 2 2 ^ =.=.=.E T T T T T T T K K K K T T T A A V V V V K T T T T E ^ ! ! ! ! ! ! ! ! ^ } } } } %.%.%.%.%.%.%.",
"%.%.%.%.%.%.w.t.t.t.t.t.q.q.%.%.%.q.q.q.q.q.q.q.%.%.%.%.%.%.%.%.q.q.q.q.w.t.t.t.< < < < < < x P _ _ _ _ _ _ ~ ~ Q '.K.b.&.+.+.+.+.+.~ Q Q Q I P J J J J P J P P J F F F F F F F F F F F F F F F F F J J J P I I I ~ ~ ~ ~ ~ ~ ~ P P P P P P P P P I P P I I P P P P I I P P P 4.A.}.}.}.}.{.o.I I I P P I P P P P _ ....o.*.+.+.+.2.2.2.2.2.2.2.2.2.2.<._ Q < < < < < < 1 1 < < < < < < 1 1 1 1 < < < z.oXh.2.2.2.2.2.2.2.2.2.-.*.*.*.*.*.*.*.*.*.*.*.*.*.*.*.*.*.*.*.*.*.*.*.*.*.*.*.*.*.*.*.*.*.-.-.-.-.-.-.-.-.-.-.-.*.+.$.$.@.@.&...~ ~ ~ ~ ~ ~ ~ +.*.J F F + + + + + + + + D _ P J J J J J J K Q Q Q Q I I K I I I I I K K I K K K I I I K K Q E E E E E E ^ ] ] ] ^ ^ ^ ~ ~ ^ ^ ] ] ] ^ ^ ^ ^ ^ ^ ^ ^ ^ ^ ] ] ] ] ^ ^ X.@.@.@.@.$.=.=.%.%.=.=.=.=.T 2 : : 2 2 2 2 2 2 : t y y y y y c p.y.e.e.t.t.t.t.t.t.y.y.y.y.i.i.y.t.e.e.e.e.t.t.e.e.q.q.q.q.q.q.q.q.q.q.q.q.q.q.q.q.t.t.t.y.y.y.y.y.y.l.l.l.k.k.k.k.M.M.M.M.k.l.l.k.k.M.f.2 2 2 2 2 2 2 2 2 ^ =.=.=.T T T T T T T T K K K K T K T T V V K V V V K T T T T ^ ! ! ! ! ! ! ! ! ^ } } } } %.%.%.%.%.%.%.",
"q.%.%.%.%.%.w.t.t.t.w.%.q.q.w.q.%.%.q.q.w.w.%.%.q.q.%.%.%.%.q.q.%.%.q.%.t.t.t.#.< < < < < < F ~ ~ ~ _ _ _ _ _ _ _ '.K.b.+.+.+.+.+.o.Q Q Q Q P J J J J J J J J J J F F F N F N F F F J F N F N F F J J J P I I I ~ ~ ~ ~ ~ ~ ~ I I I P P P P P I P P P P P P P P P P P I P P P o.A.}.@X@X(._ P P P P P P P P P P I I ......+.*.*.+.1.2.2.2.2.2.2.2.2.2.+._ _ 7 < < < 1 1 1 1 < < 1 1 < < < 1 < < < < < ).oX3.2.2.2.2.2.2.2.2.2.-.*.*.*.*.*.*.*.*.*.*.*.*.*.*.*.*.*.*.*.*.*.*.*.*.*.*.*.*.*.*.*.*.*.-.-.-.-.-.-.-.-.2.*.&.+.+.+.X.o.+...~ ~ ~ ~ ~ ~ ~ _ *.&.J F F + + + + + + + + D _ I J J J J J P K Q Q Q Q Q I I I I I I I I I I I K I I I I I Q ~ E E E E ~ ~ ^ ^ ] ] ^ ~ E E E E ^ ^ ] ] ] ] ] ] ^ ^ ^ ^ ^ ^ ^ ^ ] ] ^ ] @.@.@.@.@.=.=.=.=.=.=.=.=.=.X.2 2 2 : 2 2 2 2 2 2 y y y y y y W p.t.t.t.t.t.t.t.y.i.p.p.p.p.p.p.p.i.t.t.e.e.t.t.t.t.q.q.q.q.q.q.q.q.q.q.q.q.q.q.q.w.e.e.y.y.y.y.y.y.s.k.l.l.k.k.k.k.k.k.l.l.k.k.k.k.M.Q.f.i c w 2 2 2 2 2 2 ! %.=.%.T T T T T T T T A A K T K K K V K K K K V V V T T T T T ! ! ^ ^ ^ ^ ! ! ^ } } } } %.%.%.%.%.%.%.",
"q.q.q.%.%.%.w.t.t.%.%.%.q.q.w.%.%.q.q.q.q.q.%.%.w.%.%.%.%.%.%.q.%.%.%.w.t.t.t.) = < < < < < F ~ ~ _ _ _ _ _ _ ~ _ '.K.v.+.+.+.+.+...Q Q ~ ~ P J J J J J J J J J J F N F N N N F F J J J N N N F J J J I I I I ~ ~ ~ ~ ~ ~ ~ ~ I I P P P P P P I P P P P P P P P P P I I P P P P V.(.).+.I P P P P P P P P P P P I P I ....X.*.*.+.,.2.2.2.2.2.2.2.2.2..._ _ F < < 1 1 1 1 < < < 1 1 1 1 < < < < < < 5 {.{.2.2.2.2.2.2.2.2.2.2.-.*.*.*.*.*.*.*.*.*.*.*.*.*.*.*.*.*.*.*.*.*.*.*.*.*.*.*.*.*.*.*.*.*.-.-.-.-.-.-.-.-.-.$.$.+.+.+.X.+...~ ~ ~ ~ ~ _ X.*.*.*.X.F F J + + + + + + + + D ..I J J J J J P K Q Q Q Q Q I Q I I I I I I I I I I I I I I I Q ~ ~ E E E E ~ ^ ] ] ^ E E K m K E ^ ^ ] ] ] ] ] ] ] ^ ^ ^ ^ ] ^ ^ ^ ] X.@.@.@.@.@.$.=.=.=.=.=.=.=.=.=.=.2 2 2 : 2 2 2 2 2 2 t y y y y y t.p.t.t.t.t.t.t.i.p.p.p.p.p.p.p.p.p.p.y.t.e.w.w.w.w.q.q.q.q.q.q.q.q.q.q.q.q.q.q.q.q.q.q.t.y.y.y.y.y.y.s.k.l.l.k.k.k.n.k.k.k.l.k.k.k.N.Q.Q.%.B B M w 2 2 2 2 2 E =.=.$.T T T T T T T T A A A K K K K V K K K K V V V V T T T T T ! ^ ^ ^ ^ ! ! ^ ^ } } } #.%.%.%.%.%.%.",
"w.q.%.%.%.%.w.w.%.%.%.q.q.q.%.%.%.%.q.q.q.q.%.%.q.q.%.%.%.%.q.q.%.%.t.t.t.t.t.) = = < < < < k ~ Q Q _ _ _ _ ~ ~ _ '.K.h.+.+.+.+.+._ Q Q Q Q J J J P J J J J J J J F F F F F F F F J J J F N F F J K I I I I Q ~ ~ ~ ~ ~ ~ ~ ~ P I P P P P P P I P P P P P P P P P P P P P P P P I ..P P P P P P P P P P P P P P I I P _ ....+.*.+.*.2.2.2.2.2.2.2.2.2..._ _ _ < < < 1 1 1 1 < < 1 1 < < < 1 < < < < H {.K.2.2.2.2.2.2.2.2.2.2.2.2.-.*.*.*.*.*.*.*.*.*.*.*.*.*.*.*.*.*.*.*.*.*.*.*.*.*.*.*.*.*.*.*.-.-.-.-.-.-.-.-.*.&.&.&.&.X.X._ ~ ~ ~ ~ ~ X.*.*.*.*.*.Q F J J + + + + + + + + D o.I J J J J P K I I I I I K I I I Q Q Q Q I I Q Q I I I I Q Q ~ ~ E E E E ~ ~ ^ ^ ~ ~ ~ m s s s X.2.^ ^ ^ ^ ] ] ] ^ ^ ^ ^ ] ] ^ ^ ] ] @.@.@.@.@.@.=.=.=.=.=.=.%.%.=.=.=.i 2 2 : : 2 2 2 2 2 w y y y y i p.p.y.t.t.e.y.p.p.p.p.p.p.p.p.p.p.p.p.i.t.q.q.q.q.q.q.q.q.q.q.q.q.q.q.q.q.q.q.q.q.q.q.q.t.y.y.y.y.y.y.f.k.k.k.k.l.M.M.k.k.M.M.l.l.N.Q.Q.Q.R b b v c 2 2 2 2 2 T =.=.#.T T T T T T T T A A K K K K V V K T V V V K A A K T T T T T ^ ^ ^ ^ ! ! ! ^ } } } } %.%.%.%.%.%.",
"q.q.%.%.%.%.q.q.%.%.%.q.%.%.q.%.%.%.w.q.q.q.%.%.q.q.%.%.%.%.q.w.w.t.t.t.t.t.t.) = = < < < < 4 ~ Q Q _ _ _ _ ~ ~ ~ '.K.h.+.+.+.+.o.Q Q Q Q ~ J P P P J J J J J J F F F F F F F F J J J K J F F J K K I I I Q ~ ~ ~ ~ ~ ~ ~ ~ I P P P P P P P P P P P P P P P P P P P P P P P P I I I P P P P P P P P P P P P P P I I P P ......*.+.+.1.2.2.2.2.2.2.2.2..._ _ _ s < < 1 1 1 1 < < < < < < 1 1 < < < < 1.{.C.2.2.2.2.2.2.2.2.2.2.2.2.2.2.*.*.*.*.*.*.*.*.*.*.*.*.*.*.*.*.*.*.*.*.*.*.*.*.*.*.*.*.*.-.-.-.-.-.-.-.-.-.*.X.X.X...~ ~ ~ ~ ~ ~ ~ *.*.*.*.*.*.*.P F F F + + + + + + + + D o.I J J J I I I I I I I I K K K K Q Q Q Q I K Q Q K K I Q E E ~ ~ E E E E ~ ~ E E ~ ~ m s s s z.;XoX^ ^ ^ ^ ^ ] ] ^ ^ ^ ^ ] ] ^ ^ ] ] @.@.@.@.@.$.=.=.=.=.=.=.%.%.=.=.=.T 2 2 : : 2 2 2 2 2 2 y y y y A p.p.i.q.y.p.p.p.p.p.p.p.p.p.p.p.p.p.p.p.t.q.q.q.q.q.q.q.q.q.q.q.q.q.q.q.q.q.q.q.q.q.q.w.t.y.y.y.y.y.y.l.k.k.l.k.k.M.M.k.k.M.M.k.M.T.Q.Q.Q.b b M v B w 2 2 2 2 B =.=.} T T T T T T K T A A K K K K V V K T V V K K T T K K T T T T ^ ^ ^ ^ ! ! ^ } } } } } %.%.%.%.%.%.",
"q.%.%.%.%.w.w.q.%.q.q.q.%.%.%.%.%.%.%.q.q.%.%.%.q.q.%.%.%.w.t.t.t.t.t.t.t.t.t.) = ; < < < = = I Q ~ ~ _ _ ~ Q Q ~ '.K.h.+.+.+.+...~ ~ Q Q ~ J P P P J J J J P J F F F F F F J J J K K K J J J J K I I I I ~ ~ ~ ~ ~ ~ ~ ~ ~ P P P P P P P P P P I P P P P I P P P P P P P P P I I I P P P P P P P P P P P P I P I I I P ~ ....+.+.+.1.2.2.2.2.2.2.2.2._ _ _ _ F < < < < 1 < < < < < < < 1 1 < < < < ).{.3.2.2.2.2.2.2.2.2.2.2.2.2.2.2.-.*.*.*.*.*.*.*.*.*.*.*.*.*.*.*.*.*.*.*.*.*.*.*.*.*.*.*.*.*.-.-.-.-.-.-.-.-.*.o...~ ~ ~ ~ ~ ~ ~ ..*.*.*.*.*.*.*.*.J F F F + + + + + + + + D o.I J K I I Q K I I I Q K K K K K K I Q I I K Q I I K Q ~ ~ ~ ~ ~ ~ E E ~ ~ ~ E E ~ F s s z [.;X;X;XX.^ ^ ^ ^ ] ^ ^ ^ ^ ] ] ] ^ ^ ^ ] @.@.@.@.@.=.=.=.=.%.%.=.%.=.=.=.=.@.: 2 : 2 2 2 : : : 2 4 y y y | k.k.p.p.p.p.p.p.p.p.p.p.p.p.p.p.p.p.p.p.t.q.q.q.q.q.q.q.q.q.q.q.q.q.q.q.q.q.q.q.q.q.q.q.t.t.y.y.y.y.y.n.n.n.k.k.l.M.M.k.n.M.M.k.J.Q.Q.Q.Q.B B M v v c 2 2 2 2 i =.=.^ T T T T T T K K V V K K T A A V V A V V K K T T K T T T T T ! ^ ! ! ! ^ } } } } } } } %.%.%.%.%.",
"q.q.%.%.q.q.q.q.%.q.q.q.%.%.%.%.%.%.%.%.q.%.%.%.q.q.%.%.t.t.t.t.t.t.t.t.t.t.t.) = ; < < < = = F ~ ~ _ _ ~ ~ Q Q ~ '.K.h.+.+.+.+.~ ~ ~ ~ Q ~ J J P P J J J J J F F F F F F J J J J J K K J J J J P I I I ~ ~ ~ ~ ~ ~ ~ ~ I P P P P P P P P P P P I P P P P I P P P P P P P P P I I I P P P P P P P P P P P P P P I I P P P ......+.+.*.2.2.2.2.2.2.2.2._ _ _ _ Q < < < < < < < < < < < < 1 1 < < < 9 oX[.2.2.2.2.2.2.2.2.2.2.2.2.2.2.2.-.*.*.*.*.*.*.*.*.*.*.*.*.*.*.*.*.*.*.*.*.*.*.*.*.*.*.*.*.*.*.*.-.-.-.-.-.-.*.X.~ ~ ~ ~ ~ ~ _ o.*.*.*.*.*.*.*.*.+.F F F F < + + + + + + + D o.J I I I Q I K K I I I I K K K K K I Q Q I K Q Q K K E E ~ ~ ~ ~ E E ~ ~ ~ ~ E E K s s J ;X;X;X;X;X2.^ ^ ^ ^ ] ] ^ ^ ] ] ] ] ^ ^ ] ] X.@.@.@.$.=.=.=.%.%.%.%.%.=.=.=.=.%.w 2 2 2 2 2 : : : : 2 y y y i.p.p.p.p.p.p.p.p.p.p.p.p.p.p.p.p.p.p.p.p.t.q.q.q.q.q.q.q.q.q.q.q.q.q.q.q.q.q.q.q.q.q.q.q.q.t.t.t.y.y.y.n.n.n.k.l.l.M.M.k.k.M.M.M.Q.Q.Q.Q.N.B B M M M M w 2 2 2 t =.=.^ T T T T T K K K V V K K A A V V A A V V K K T T K K T K T T ! ^ ! ! ^ } } } } } } } } #.%.%.%.%."
};
