/* XPM */
static char *Asset3[] = {
/* columns rows colors chars-per-pixel */
"512 512 204 2 ",
"   c #1D1517",
".  c #1F1718",
"X  c #201714",
"o  c #241914",
"O  c #291D17",
"+  c #201719",
"@  c #261D19",
"#  c #2B1F19",
"$  c #2D211B",
"%  c #33251D",
"&  c #38271E",
"*  c #35281F",
"=  c #3B2A1E",
"-  c #2E2520",
";  c #342720",
":  c #382720",
">  c #362921",
",  c #3C2C23",
"<  c #312729",
"1  c #342B2A",
"2  c #3C2F28",
"3  c #3E3026",
"4  c #3E3128",
"5  c #3B3935",
"6  c #393B35",
"7  c #412E23",
"8  c #422F28",
"9  c #433226",
"0  c #4A3527",
"q  c #4B3927",
"w  c #443429",
"e  c #49362A",
"r  c #45392D",
"t  c #4C3A2C",
"y  c #513827",
"u  c #50372B",
"i  c #533C2D",
"p  c #5A3E2E",
"a  c #443A31",
"s  c #4D3D31",
"d  c #453D3C",
"f  c #523E31",
"g  c #583F30",
"h  c #55402F",
"j  c #59412F",
"k  c #4F4134",
"l  c #4E4338",
"z  c #554334",
"x  c #5B4434",
"c  c #574837",
"v  c #5D4937",
"b  c #574638",
"n  c #5B4738",
"m  c #564839",
"M  c #5D4B3B",
"N  c #5F513F",
"B  c #614736",
"V  c #624A36",
"C  c #604738",
"Z  c #634E3C",
"A  c #694D3A",
"S  c #64513F",
"D  c #6A513E",
"F  c #71533E",
"G  c #75583F",
"H  c #5D4D41",
"J  c #564D4D",
"K  c #574C4E",
"L  c #5E5042",
"P  c #624E40",
"I  c #684E41",
"U  c #655342",
"Y  c #6B5643",
"T  c #6D5A45",
"R  c #665649",
"E  c #6B5748",
"W  c #675949",
"Q  c #6D5B49",
"!  c #715640",
"~  c #725A46",
"^  c #795C46",
"/  c #705748",
"(  c #735E4A",
")  c #795E49",
"_  c #615855",
"`  c #6C5C53",
"'  c #695C5D",
"]  c #735F50",
"[  c #6F604F",
"{  c #7C6047",
"}  c #76624D",
"|  c #79634E",
" . c #7D684F",
".. c #756451",
"X. c #7B6551",
"o. c #7D6954",
"O. c #74655E",
"+. c #79675B",
"@. c #776A5A",
"#. c #7E6C59",
"$. c #6B5E60",
"%. c #6E6161",
"&. c #716463",
"*. c #76696A",
"=. c #7F7372",
"-. c #82664E",
";. c #81684F",
":. c #816751",
">. c #816B55",
",. c #8A6D53",
"<. c #836E59",
"1. c #896F5A",
"2. c #906F56",
"3. c #847057",
"4. c #8C7157",
"5. c #85715B",
"6. c #89745D",
"7. c #8D765F",
"8. c #8D785E",
"9. c #917157",
"0. c #92755C",
"q. c #92785E",
"w. c #987B5F",
"e. c #836F61",
"r. c #877561",
"t. c #897660",
"y. c #8B7661",
"u. c #897762",
"i. c #8D7962",
"p. c #8C7769",
"a. c #8F7D6A",
"s. c #917761",
"d. c #997762",
"f. c #927D65",
"g. c #997E64",
"h. c #927D69",
"j. c #917E69",
"k. c #997F69",
"l. c #867A79",
"z. c #907F76",
"x. c #948067",
"c. c #9C8166",
"v. c #96826B",
"b. c #97846C",
"n. c #9A846C",
"m. c #99846F",
"M. c #99866E",
"N. c #9E886E",
"B. c #968372",
"V. c #9A8671",
"C. c #9D8A72",
"Z. c #9F8A75",
"A. c #958479",
"S. c #9A897A",
"D. c #A18566",
"F. c #A1866B",
"G. c #A38B6E",
"H. c #A98D6F",
"J. c #A38C73",
"K. c #A58B75",
"L. c #A98E73",
"P. c #A38E79",
"I. c #A69076",
"U. c #A99276",
"Y. c #A39078",
"T. c #A5937B",
"R. c #A7947E",
"E. c #AC947A",
"W. c #AD997E",
"Q. c #B29677",
"!. c #B1977E",
"~. c #B39B7D",
"^. c #B69C7C",
"/. c #B9A07F",
"(. c #9C8B82",
"). c #A79481",
"_. c #AC9682",
"`. c #AC9983",
"'. c #B59D82",
"]. c #B79F86",
"[. c #B6A185",
"{. c #BDA585",
"}. c #B7A28A",
"|. c #BBA48D",
" X c #BEA98E",
".X c #BCA790",
"XX c #BFAB90",
"oX c #C3AA87",
"OX c #C1A789",
"+X c #C3AB8D",
"@X c #C7B08D",
"#X c #C3AC91",
"$X c #C8AF92",
"%X c #C7B195",
"&X c #C9B293",
"*X c #CEB894",
"=X c #CAB29B",
"-X c #CEB999",
";X c #D1BC9A",
":X c #CEB7A0",
">X c #D0B9A2",
",X c #D6C29E",
"<X c #D7C2A1",
"1X c #D8C4A0",
/* pixels */
"S S S , , , Z S S S D T T T T T T T T T T T Y Y Y T T T T T | | | | | | | | | | | | | | | f.P.m.5.5.5.5.1.1.) : : : : : : : : : : n #.#.o.o.:.:.:.#.#.#.:.:.:.:.:.#.:.:.:.:.:.:.:.:.>.#.#.:.:.:.:.#.#.#.:.:.:.:.>.>.T = 0 } } } } } } } } } } } } } } } } } } } } } } } } } } } } } } } } } | #.#.#.#.>.5.5.5.5.5.5.<.<.5.5.5.5.5.5.5.<.5.5.5.5.5.y.y.y.y.y.y.y.i.h.v.V.V.V.Y.XX'.Z.Z.Z.p.H ; ; ; ; 4 U <.<.<.<.<.<.<.<.<.<.<.<.<.<.<.<.<.<.>.X.X.X.X.X.X.X.X.X.X.X.X.X.X.X.X.X.X.X.X.X.X.>.<.<.<.<.<.<.<.<.<.<.<.<.<.<.<.<.<.<.<.<.<.<.<.<.<.<.<.6.m.m.( ( T % % % % % % 2 U 5.5.5.5.5.5.5.5.5.5.5.5.5.5.5.5.<.#.X.............X.X.X.X.X.X.| | X.X.X.X.X.X.X.....| X.X.X...X.X.| ........X.#.<.<.#.o...X.X.X.X.X.X.X.X.X.X.X.M $ $ $ $ $ $ , k y.y.y.y.y.y.y.y.y.y.y.6.<.<.<.<.<.<.<.<.<.<.<.<.<.5.5.5.<.<.<.<.<.5.<.<.<.<.<.<.5.y.y.6.>.>.<.<.<.6.i.b.b.b.b.R.R.R.#.w w w ( ) ) ) ) | :.o.:.:.:.:.:.:.:.:.:.#.o.o.:.:.:.o.o.#.:.:.:.:.>.#.:. .) | | | |  .:.:.:.:.:.:.>.5.5.5.5.5.5.5.5.4. . . . . . .| |  .| | | ( ( ( ~ ~ ~ ~ ~ ~ ( ( ~ ~ ~ ~ ( ( ~ ~ ~ ~ ( ",
"S S S , , 9 S S S S D Y T T T T Y Y T T T T Y Y T T T T T ~ | | | | | | | | | | | | | | 6.P.K.5.5.5.5.5.1.1.>.: : : : : : : : t ) :.#.#.:.:.:.:.>.#.:.o.:.:.:.:.#.#.:.:.:.:.#.#.:.:.#.#.:.:.:.:.#.#.:.#.:.:.:.:.>.>.T = = } } } } } } } } } } } } } } } } } } } } } } } } } } } } } } } } } | #.#.#.#.#.5.5.5.5.5.5.<.<.5.5.5.5.5.5.<.<.5.5.5.r.y.y.y.y.y.y.y.a.h.h.h.b.v.x.Y.XX'.Z.Z.Z.p.H ; ; ; ; s U <.<.<.<.<.<.<.<.<.<.<.<.<.<.<.<.<.<.<.>.X.X.X.X.X.| X.X.X.X.| | X.X.X.X.X.X.X.X.X.<.<.<.<.<.<.<.<.<.<.<.<.<.<.<.<.<.<.<.<.<.<.<.<.<.<.<.<.6.m.m.( ( ( 7 % % % % % 2 U 5.5.5.5.5.5.5.5.5.5.5.5.5.5.5.5.<.<.<.#.......X...| | X.X...X.| | X.X.X.X.X.X.....| | X.X.....X.X.| | ....X.#.<.<.#.#.....X.X.X.X.X.X.X.X.X.X.M $ $ $ $ $ $ $ , , y.y.y.y.y.y.y.y.y.y.y.5.<.<.<.<.<.<.<.<.<.5.<.<.<.<.<.<.<.<.<.<.<.<.<.<.<.<.<.5.6.y.y.>.>.>.<.<.<.y.f.b.b.b.b.I.R.R.r.t w w Y ) ) ) ) o.o.o.:.:.:.:.:.:.:.:.:.o.>.o.:.:.:.:.>.#.:.:.:.:.#.#.| | ) | | | | | X.:.:.:.:.:.:.:.3.5.5.5.5.5.5.5.4. . . . . .|  . .| | | ( ~ ( ( ~ ~ ~ ~ ( ( ~ ~ ~ ~ ( ( ~ ~ ~ ~ ( ( ",
"D D S , , t D D S D D D Y T T T Y Y T T T T T Y T T T T T ~ | | | | | | | | | | | | | 6.P.P.7.5.1.5.5.5.5.5.5., : : : : : : Y :.:.:.:.:.:.:.:.:.:.:.:.:.:.:.:.:.#.:.:.:.:.:.#.#.:.:.:.:.:.:.:.:.:.:.:.:.:.:.:.>.y.y.T = = T } } } } } } } } } } } } } } } } } } } } } } } } } } } } } } } } } #.#.#.#.#.#.5.5.5.5.5.5.<.5.5.5.5.5.5.5.5.5.5.y.y.y.y.y.y.y.i.h.h.h.h.h.h.h.h.Y.XX|.Z.Z.Z.p.m ; ; ; ; b U <.<.<.<.<.<.<.<.<.<.<.<.<.<.<.<.<.<.<.<.<.X.X.X.| | X.X.X.X.X.| | X.X.X.X.X.| | X.<.<.<.<.<.<.<.<.<.<.<.<.<.<.<.<.<.<.<.<.<.<.<.<.<.<.<.<.i.m.m.( ( T x % % % % % 4 R 5.5.5.5.5.5.5.5.5.5.5.5.5.5.5.5.5.<.<.<.#.X.X.X.X.X.X...........| ....X.X.#.#.X.X.| | ..X.X...| | | | X.X.#.<.<.>.<.o.....X.X.X.X.X.X.X.X.X.s $ $ $ $ $ $ $ $ , , <.i.i.i.f.f.f.f.y.y.y.5.5.5.<.<.<.<.<.5.<.<.<.<.<.<.<.<.<.<.<.<.<.<.<.<.<.5.6.y.y.y.<.>.>.>.>.>.5.y.f.b.b.b.b.I.R.R.r.f w w Z ) ) ) } o.#.o.o.:.>.>.:.:.:.:.>.>.>.:.:.:.:.:.>.>.:.:.:.:.>.| | | | | ) ) | |  .:.:.:.:.:.:.:.:.>.5.5.5.5.5.5.5.>.| |  . .X. .| | | | ~ ~ ~ ~ ~ ~ ~ ~ ~ ~ ~ ~ ~ ~ ~ ~ ~ ~ ~ ~ ~ ~ ",
"D S S , , x D D D D D D Y T T T T T T T T T T Y T T T T T | | | | | | | | | | | | | 6.P.P.v.5.5.1.5.5.5.5.5.5.w : : : : : : ( :.:.:.:.:.:.:.:.:.:.:.:.:.:.:.:.#.#.:.:.:.:.:.:.#.:.:.:.:.:.:.:.:.:.:.:.:.:.:.:.6.y.y.T = = M } } } } } } } } } } } } } } } } } } } } } } } } } } } } } } } } } #.#.#.#.#.#.#.<.5.5.5.5.5.5.5.5.5.5.5.5.5.5.5.y.y.y.y.y.a.h.h.h.h.h.h.h.h.h.h.Y.XXXXK.Z.Z.p.z ; ; ; ; b U <.<.<.<.<.<.<.<.<.<.<.<.<.<.<.<.<.<.<.<.<.<.X.X.X.X.X.X.X.X.| | | X.X.X.| | | X.#.<.<.<.<.<.<.<.<.<.<.<.<.<.<.<.<.<.<.<.<.<.<.<.<.<.<.<.<.f.m.m.( ( Z v % % % % % 4 Q 5.5.5.5.5.5.5.5.5.5.5.5.5.5.5.5.5.<.<.<.<.#.X.X.X.X.X...........| ....X.#.<.<.<.X.| | ..X.X.......| X.#.<.<.<.<.<.#.X.X...X.X.X.X.X.X.X.} S z $ U Q > $ $ $ $ , , Q f.f.f.f.f.f.f.y.y.y.<.<.5.<.<.<.<.<.5.<.<.<.<.<.<.5.<.<.<.<.<.<.5.5.6.y.y.y.y.y.5.>.>.>.>.>.>.y.y.f.b.b.b.b.R.R.R.r.f w w Z ) ) ) X.o.#.#.o.o.>.>.>.>.:.:.:.:.>.:.:.:.:.:.:.>.:.:.:.o.| } | | ) | | | | | :.:.:.:.:.:.:.:.:.:.>.5.5.5.5.5.5.5.>.| | | | | | | | | ( ( ~ ~ ~ ~ ~ ~ ~ ~ ~ ~ ~ ~ ~ ~ ~ ~ ~ ~ ~ ~ ",
"~ | Y , , n S S S S S D Y Y Y Y T T T T T T T T T Y T T ~ | | | | | | | | | | | | >.P.P.V.5.5.5.1.1.5.5.5.5.5.n : : : : : : ( :.#.>.:.:.:.:.>.#.:.:.:.:.:.:.#.#.:.:.:.:.:.:.:.:.o.o.o.:.:.:.:.:.:.:.:.:.:.:.>.y.7.7.} = = i } } } } } } } } } } } } } } } } } } } } } } } } } } } } } } } } } X.#.#.#.#.#.#.o.>.<.5.<.<.<.<.5.5.<.<.<.5.5.5.5.y.y.y.y.h.h.h.h.h.h.h.h.h.h.h.Y.XXXX'.Z.Z.p.z ; ; ; ; z U <.<.<.<.<.<.<.<.<.<.<.<.<.<.<.<.<.<.<.<.<.<.<.X.X.X.X.| X.X.X.| | X.X.X.X.X.X.X.>.<.<.<.<.<.<.<.<.<.<.<.<.<.<.<.<.<.<.<.<.<.<.<.<.<.<.<.<.v.m.m.( T M M % % % % % 4 Q 5.5.5.5.5.5.5.5.5.5.5.5.5.5.5.5.5.5.<.<.<.<.#.X.| X.X.........X.X.| ..#.<.<.>.<.#.X.....X.X.X.....#.<.<.<.<.<.<.<.#.X.X.X.X.X.X.X.X...Y S S U Q } Q s $ $ $ $ > , b f.f.f.f.f.f.y.y.y.y.<.<.<.<.<.<.<.<.5.<.<.<.<.<.5.y.5.5.6.6.y.y.y.y.y.y.y.y.y.6.>.>.>.>.>.>.5.y.y.v.b.b.b.m.R.R.R.r.t w w M ) ) ) o.#.#.#.:.:.:.:.:.:.>.:.>.:.:.:.:.:.:.:.:.:.:.:.:.| | | | | | ) | | | | :.:.:.:.:.:.:.:.:.:.>.5.5.5.5.5.5.5.<.|  . . . .| | | | ~ ~ ~ ~ ~ ~ ( ( ( ~ ~ ~ ( ( ~ ~ ~ ~ ~ ~ ~ ~ ",
"X.| M , = Z S S S S S D S Y T Y T T T T T T T T Y Y T ~ | | | | | | | | | | | | :.P.P.P.5.5.5.5.1.1.5.5.5.5.g.>.: : : : : : ( :.#.#.:.:.:.:.>.#.:.:.:.:.:.:.#.#.:.:.:.:.:.:.:.:.o.o.:.:.:.:.:.:.:.:.:.:.:.:.<.y.7.7.| = = 0 } } } } } } } } } } } } } } } } } } } } } } } } } } } } } } } } } } #.#.#.#.#.#.o.o.#.<.<.<.<.<.5.5.<.<.5.5.5.5.5.y.y.y.y.y.h.h.h.h.h.h.h.h.h.v.Y.XXXXXXK.Z.p.z ; ; ; ; w U <.<.<.<.<.<.<.<.<.<.<.<.<.<.<.<.<.<.<.<.<.<.<.>.X.X.X.X.X.X.X.| | X.X.X.X.X.X.X.o.X.X.| <.<.<.<.<.<.<.<.<.<.<.<.<.<.<.<.<.<.<.<.<.<.<.<.<.m.m.m.T Z M M % % % % % 4 Q 5.5.5.5.5.5.5.5.5.5.5.5.5.5.5.5.5.5.<.<.<.<.<.#.X.X.X...X...X.X.......<.<.>.>.#.#.#.....X.X.X.X.#.#.#.<.<.<.<.<.<.X.X.....X.X.X.X.} S S S } X.X.Q Q z $ $ $ $ > , s f.f.f.f.f.i.y.y.y.y.y.6.6.5.5.<.<.<.<.<.<.<.5.6.y.y.y.y.y.y.y.y.y.y.y.y.y.y.y.<.<.>.>.>.>.>.6.y.y.v.b.b.b.C.R.R.R.#.w w w z ) ) ) #.#.#.#.:.:.:.:.:.:.:.:.#.#.o.:.:.:.:.:.o.:.:.:. .| | | | | ) ) | | |  .:.:.:.:.:.:.:.:.:.>.5.5.5.5.5.5.5.5.5.:. . . .| | | | | ~ ~ ~ ~ ~ ~ ( ~ ~ ~ ~ ( ( ~ ~ ~ ~ ~ ~ ~ ~ ( ",
"X.) n , = S S S S S D D D T T T T T Y Y T T T T Y T ~ | | | | | | | | | | | |  .Z.P.P.6.5.5.5.5.1.5.5.5.5.6.v.v.: : : : : : U :.o.#.:.:.:.:.#.#.:.#.#.#.:.:.:.:.:.:.:.:.#.#.:.:.>.>.>.>.:.:.:.:.:.#.#.>.:.:.7.y.7.7.S = = = } } } } } } } } } } } } } } } } } } } } } } } } } } } } } } } } } } o.o.o.#.#.#.#.o.#.#.5.5.5.5.5.5.5.<.5.5.5.5.5.5.y.y.y.y.y.i.h.h.a.a.h.h.h.V.Y.XXXXXX`.Z.Z.a ; ; ; ; ; U <.<.<.<.<.<.<.<.<.<.<.<.<.<.<.<.<.<.<.<.<.<.<.<.X.X.X.X.X.X.| | X.X.X.X.X.X.X.X.X.X.| | <.<.<.<.<.<.<.<.<.<.<.<.<.<.<.<.<.<.<.<.<.<.<.<.5.m.m.5.M M M v % % % % % , ..5.5.5.5.5.5.5.5.5.5.5.5.5.5.5.5.5.5.5.<.<.<.<.#.#.#.X.X.X.X.X.X.....X.<.<.>.#.#.#.#.| X.X.X.#.<.<.#.#.#.#.<.<.<.#.X.X.X...X.X.X.} S S D ......} Q Q z $ $ $ $ > , , f.f.f.f.f.i.y.y.y.y.y.y.y.y.y.y.y.6.6.6.y.y.y.y.y.y.y.y.y.y.y.y.y.y.y.y.y.y.<.<.<.>.<.>.>.<.y.y.y.v.b.b.b.K.R.R.R.P w w e z ) ) | :.:.#.:.:.:.:.o.o.:.:.:.:.#.o.o.:.:.>.>.o.o.:.X.) ) | } | | ) } } ) | :.:.:.:.:.:.:.:.:.3.5.5.5.5.5.5.5.5.5.5.>.|  . .| | | | | ( ( ( ~ ~ ~ ~ ~ ~ ~ ~ ~ ~ ~ ~ ( ( ~ ~ ~ ~ ( ",
"X.( n , , S S S S S D D D Y T T Y Y Y Y Y T T T T ~ | | | | | | | | | | | | | m.P.P.y.1.5.5.5.5.7.g.f.7.6.s.v.v.w : : : : : Z :.:.:.:.:.:.:.>.:.:.>.#.#.:.:.:.:.:.:.:.:.#.#.#.:.>.>.>.>.:.:.:.:.:.:.#.#.:.<.7.7.7.>.S = = 9 } } } } } } } } } } } } } } } } } } } } } } } } } } } } } } } } } } } o.o.#.#.#.#.o.#.#.<.5.5.5.5.5.5.5.5.5.5.5.5.5.y.y.y.y.y.y.i.h.a.a.h.h.m.V.Y.XXXXXX|.Z.Z.a ; ; ; ; ; s <.<.<.<.<.<.<.<.<.<.<.<.<.<.<.<.<.<.<.<.<.<.<.<.X.X.X.X.X.X.X.X.X.X.X.X.X.X.X.X.X.X.| | >.<.<.<.<.<.<.<.<.<.<.<.<.<.<.<.<.<.<.<.<.<.<.<.y.m.m.Z M M z f , % % % % % ..5.5.5.5.y.i.i.i.y.5.5.5.5.5.5.5.5.5.5.5.<.<.<.#.#.#.<.<.>.>.#.#.X...#.<.<.#.#.#.#.>.X...X.#.>.>.>.#.#.#.#.#.#.<.X.X.X.X.X.X.X.} S S Q X.....} Q Q Q 3 $ $ $ $ > , , y.f.f.f.f.f.i.i.i.i.i.i.y.y.y.y.y.y.y.y.y.y.y.y.y.y.y.i.f.f.y.y.y.y.y.y.y.5.>.<.<.<.<.>.>.5.y.y.y.v.b.b.b.I.R.R.W.t w w e z ) ) | :.:.:.:.:.:.o.o.o.o.:.:.:.:.>.#.:.:.:.>.>.#.X.| ) ) } } | ) ) ) } ) | :.:.:.:.:.:.:.>.5.5.5.5.5.5.5.5.5.5.5.5.5.|  . .| | | | | ( ( ( ~ ~ ~ ~ ~ ~ ~ ~ ~ ~ ~ ( ( ~ ~ ~ ~ ( ( ",
" .T n , , S S S S S D S S Y T T T T ~ | ~ ~ ~ ) | | | | | | | | | | | | | | v.P.P.f.5.5.5.5.5.7.c.c.v.v.v.v.c.c.M : : : : : t :.:.:.>.o.o.o.:.:.:.:.>.>.:.:.:.:.#.#.#.:.:.:.:.X. .| | } } } }  .:.:.:.:.<.7.7.7.7.>.S n x S } } } } } } } } } } } } } } } } } } } } } } } } } } } } } } } } } } } | #.#.#.#.#.#.#.#.#.5.5.5.5.5.5.5.5.5.5.5.5.5.y.y.y.y.y.i.h.h.a.a.a.b.V.V.K.XXXXXXXXK.Z.w ; ; ; ; ; ; #.<.<.<.<.<.<.<.<.<.<.<.<.<.<.<.<.<.<.<.<.<.<.<.X.X.X.X.X.X.X.X.X.X.X.X.X.| | | X.X.X.X.X.<.<.<.<.<.<.<.<.<.<.<.<.<.<.<.<.<.<.<.<.<.<.<.f.m.<.M v f f f , % % % % % ..5.5.5.5.i.i.f.f.f.i.i.y.6.5.5.5.5.5.5.5.5.5.<.<.<.<.<.<.#.#.#.<.<.#.#.<.<.#.#.#.#.<.#.X.<.<.<.<.#.#.#.#.#.#.#.#.o.X.X.X.X.X...S Y | X.X.X...Q Q Q Q 3 $ $ $ $ ; , , 5.f.f.f.f.f.f.f.f.f.f.f.f.f.i.y.y.y.y.y.y.i.i.i.i.i.f.f.f.f.i.y.y.y.y.y.y.>.>.<.<.<.>.>.>.y.y.y.y.v.b.b.b.I.R.R.R.w w w w z ) ) | :.:.:.:.:.:.:.:.:.>.:.:.:.:.>.>.:.:.:.:.X.| | | | | | | ) ) ) ) ) ) | | |  .:.:.:.:.5.5.5.5.5.5.5.5.5.5.5.5.5.5.|  .| | | | | | ~ ~ ~ ~ ~ ~ ~ ~ ~ ~ ~ ( ~ ~ ~ ~ ~ ~ ~ ~ ~ ~ ",
" .Y n , , S S S S S D D S S Y T T T T | | | | | | | | | | | | | | | | | | y.P.P.f.5.5.5.5.5.7.v.c.c.c.v.v.c.c.J.P , : : : : w :.>.>.#.o.:.:.:.:.:.:.:.>.:.:.:.:.#.#.:.:.:.:.| ) } } } } } } ) ) :.:.:.>.7.7.7.7.7.>.S S D } } } } } } } } } } } } } } } } } } } } } } } } } } } } } } } } } } } } } X.#.#.#.#.#.#.#.#.5.5.5.5.5.5.5.5.5.5.5.5.5.y.y.y.y.i.h.h.h.a.a.b.V.V.V.V.XXXXXX X`.V.2 ; ; ; ; ; ; U <.<.<.<.<.<.<.<.<.<.<.<.<.<.<.<.<.<.<.<.<.<.<.| X.X.X.X.X.| | X.X.X.X.X.X.| | X.X.X.X.X.>.<.<.<.<.<.<.<.<.<.<.<.<.<.<.<.<.<.<.<.<.<.<.v.m.T v s f f f , % % % % % #.5.5.5.6.i.i.i.f.f.i.i.i.i.i.i.y.i.i.y.5.5.5.5.5.5.<.<.#.#.<.#.<.<.#.<.<.<.<.#.#.#.>.#.<.<.<.<.<.#.#.#.#.#.#.#.#.#.X.X.X.X.X.....X.X...X.X.( Q Q Q Q r $ $ $ $ ; , , } f.f.f.f.f.f.f.f.f.f.f.f.f.f.f.f.i.f.f.f.f.f.f.f.f.f.f.f.f.f.y.y.y.y.y.5.>.>.<.<.<.>.>.5.y.y.y.y.v.b.b.b.I.R.R.a.w w w w z ) ) } :.:.:.>.:.:.:.:.:.>.:.:.:.:.:.>.:.:.X.| | | | | | | | | ) ) ) ) ) ) | | ) ) | :.:.:.5.5.5.5.5.5.5.5.5.5.5.5.5.5.|  .| | | | | | ~ ~ ~ ~ ~ ~ ~ ~ ~ ~ ( ( ~ ~ ~ ~ ~ ( ~ ~ ~ ~ ",
"X.Y n , , D S S D D D D S S S Y T Y Y ~ | | | | | | | | | | | | | | | | 6.P.P.m.5.5.5.5.5.7.c.c.c.c.v.v.v.v.v.E.Z $ : : : : : :.>.>.:.:.:.:.:.:.:.:.>.>.:.:.:.:.:.:.:.:. .) } } } } } } } } } } :.:.>.7.7.7.7.7.7.X.( >.>.} } } } } } } } } } } } } } } } } } } } } } } } } } } } } } } } } } } } } } X.#.#.#.#.#.#.#.>.5.5.5.5.<.5.<.5.5.<.<.5.y.y.y.y.i.h.h.h.f.v.V.m.V.V.V.XXXXXX X`.@.a ; ; ; ; ; ; U 5.<.<.<.<.<.<.<.<.<.<.<.<.<.<.<.<.<.<.<.<.<.>.| | X.X.X.X.| | X.X.| | X.X.X.X.X.X.X.X.X.X.>.<.<.<.<.<.<.<.<.<.<.<.<.<.<.<.<.<.<.<.<.<.m.m.v f s s f f , % % % % % <.5.5.5.5.i.i.i.i.i.i.i.i.i.f.f.i.i.i.i.y.5.5.5.5.5.5.<.<.<.<.#.#.<.#.#.<.<.<.<.#.#.#.#.<.<.<.<.<.<.<.<.#.#.#.#.#.<.o.X.X.X.X.X.X.X.....X...Q Q Q Q Q s $ $ $ $ ; , , Q f.f.f.f.f.f.f.f.f.f.f.f.f.f.f.f.f.f.f.f.f.f.f.f.f.f.f.f.f.f.i.y.y.y.y.<.>.>.<.<.>.>.>.6.y.y.y.y.v.b.b.b.P.R.R.<.w w w w z ) ( ) X.:.#.#.>.:.:.:.#.#.:.:.:.:.:.:.X.| | | | | ) | | | | ) ) ) ) ) | | | | ) ) | | :.:.:.>.5.5.5.5.5.5.5.5.5.5.5.>. . .| | | | | ( ( ~ ~ ~ ~ ~ ~ ~ ~ ~ ( ~ ~ ~ ~ ~ ( ( ~ ~ ~ ~ ",
" .Y n , , D S S D D D D D S S S Y Y Y T ( | | | | | | | | | | | | | | 6.P.P.m.5.5.1.1.5.6.c.c.c.c.c.v.v.v.v.v.].Z # % : : : : | >.:.:.:.:.:.:.:.:.:.>.:.X.X.X.X.:.:.X.| } } } } ) } } } } } } | :.>.7.7.7.7.7.7.5.| >.7.7.X.} } } } } } } } } } } } } } } } } } } } } } } } } } } } } } } } } } } } } } X.#.#.#.#.#.#.#.<.5.5.5.<.<.<.5.5.5.<.y.y.y.y.y.i.a.h.h.h.m.m.m.V.V.V.XXXXXX|.`.@.r ; ; ; ; ; ; U 6.5.<.<.<.<.<.<.<.<.<.<.<.<.<.<.<.<.<.<.<.<.>.| | X.X.X.X.X.| X.X.X.| X.X.X.X.X.X.X.X.X.X.X.<.<.<.<.<.<.<.<.<.<.<.<.<.<.<.<.<.<.<.6.y.m.5.f f s s f f , % $ $ % % 5.5.5.5.5.y.i.i.i.i.f.f.i.i.i.i.i.i.i.i.i.5.5.5.5.5.5.5.5.<.<.#.#.<.#.<.5.5.<.<.#.#.#.<.#.#.<.<.<.<.<.<.<.<.#.#.#.<.#.X.X.X.X.X.X.X.....X.Q Q Q Q Q Q z $ $ $ $ % , , H f.f.f.f.f.f.f.f.f.f.f.f.f.f.f.f.f.f.f.f.f.f.f.f.f.f.f.f.f.f.f.y.y.y.y.>.>.>.<.>.>.>.<.y.y.y.y.y.v.b.b.b.K.R.R.U w w w w e ) ( ) } :.#.#.#.:.:.:.#.#.#.#.:.:.:.X.| | | | ) T Y ~ ~ ) | ) ) ) } ) | | | | ) ) | | | :.:.:.:.5.5.5.5.5.5.5.5.5.5.| | | | | | ) ( ( ( ( ~ ~ ~ ~ ~ ~ ~ ( ~ ~ ~ ~ ~ ~ ~ ~ ~ ~ ( ( ",
" .~ n , , Z S S D S S S D S S S D T T T T ~ | | | | | | | | | | | | 6.P.P.m.5.5.>.) 1.5.v.v.c.c.c.v.v.v.v.v.v.|.Z # # : : : : ) :.o.X.:.:.:.:.:.o.o.X.| ) } } } ) ) } } } } } } ) ) } } } } } X.>.7.y.y.7.7.7.7.| | o.7.7.6.} } } } } } } } } } } } } } } } } } } } ~ T T ~ ( } } } } } } } } } } T } } } X.#.#.#.#.#.#.<.<.5.5.5.5.5.5.5.5.5.y.y.y.y.y.i.a.a.h.b.V.V.V.V.V.V.XXXXXX|.`.@.r ; ; ; ; ; ; U 6.6.<.<.<.<.<.<.<.<.<.<.<.<.<.<.<.<.<.<.<.<.<.X.X.X.X.X.X.| X.X.X.X.| X.X.X.X.X.X.| | X.X.X.>.<.<.<.<.<.<.<.<.<.<.<.<.<.<.<.<.i.i.i.i.m.} f f f f f f , $ O O $ % X.5.5.5.5.5.y.i.i.i.i.i.i.i.i.i.i.i.i.i.i.i.5.5.5.5.5.5.5.5.#.#.<.<.<.5.5.5.5.<.<.#.#.<.<.<.<.#.#.#.<.<.#.#.#.#.<.<.#.o.5.6.5.#.X.X.X.X.X.Q Q Q Q Q Q z $ $ $ $ $ , , k f.f.f.f.f.f.f.f.f.f.f.f.f.f.f.f.f.f.f.f.f.f.f.f.f.f.f.f.f.f.f.y.y.y.y.6.5.<.>.>.>.>.5.y.y.y.y.y.v.b.b.b.K.R.R.f w w w w e ) ) ) ) o.o.o.:.:.:.:.o.o.:.:.:.:. .| | | | ) Y Y Y Y Y Y ~ ) | ) } | | | | | ) ) | | ) | :.:.:.>.5.5.5.5.5.5.5.:.Y Y Y ~ ~ ~ ~ ~ ~ ~ ~ ~ ~ ~ ~ ~ ~ ~ ~ ( ( ( ~ ~ ~ ~ ~ ( ~ ~ ~ ( ",
" .( n , , n S S D S S S D S D D D T T T T T ~ | | | | | | | | | | 6.P.P.C.5.5.>.~ ) 5.g.v.v.v.v.c.c.v.v.v.v.K..XZ # # * : : : ( :.:.:.:.:.:.:.:.X.o.X.} ) ) } } } } } } ) ) } } ) ) } } } } | :.5.7.y.y.7.7.7.X.| | o.7.N.N.y.} } } } } } } } } } } } } } } } ( ~ T T T T ~ T T ( } } } } } } } Y 9 t T } } X.#.#.#.#.#.>.<.5.5.5.5.5.5.5.5.5.y.y.y.y.y.i.h.a.a.V.V.V.V.V.V.V.XXXXXX|.`.@.r ; ; ; ; ; ; U 6.6.6.<.<.<.<.<.<.<.<.<.<.<.<.<.<.<.<.<.<.<.<.X.X.X.X.X.X.| | X.X.X.X.X.X.X.X.X.X.| | X.X.X.>.<.<.<.<.<.<.<.<.<.<.<.<.<.<.<.<.i.i.i.v.m.z f f s s f f , $ O O # % n 5.5.5.5.5.5.y.i.i.i.i.i.i.i.i.i.i.i.i.i.i.5.5.5.5.5.5.5.5.<.<.<.<.5.5.5.5.5.<.<.<.#.<.<.<.<.<.#.#.<.<.#.#.#.#.<.<.#.i.Z.Z.Z.Z.b.#.X.X.X.| ( Q Q Q Q z $ $ $ $ $ , , l r.x.v.v.v.v.v.v.b.v.f.f.f.f.f.f.f.f.f.f.f.h.v.b.h.f.f.f.f.f.f.y.y.y.y.y.y.6.<.>.>.>.6.y.y.y.y.y.v.b.b.b.K.R.P.e w w w w e T } ) ) X.:.o.:.:.:.:.#.#.:.:.X.| | | | | ( Y Y Y Y Y Y Y Y Y ~ ~ | | | | | | ) ) | | ) ) X.:.:.>.5.5.5.5.5.5.o.z z z z z x Z Y ~ ~ ~ ~ ~ ~ ~ ( ( ~ ~ ( ( ( ~ ~ ~ ~ ~ ( ( ~ ~ ( ( ",
"X.( n , , n S D D D D S S S D D Y T T T T T T ~ ) | | | | | | | f.P.P.C.5.5.:.~ ~ >.g.v.v.v.v.v.v.v.v.v.v.v.'.T.Z # # $ : : : } :.:.>.>.:.>.:.:.:.X.} } ) ) } } } } } } ) } } } ) } } } } ) X.:.7.7.y.7.7.6.X.| | | | f.J.J.J.#.} } } } } } } } } } } } } ( ~ ~ T T T T ~ ~ ~ T T T ~ ~ } } } } % 3 9 9 S } } X.#.#.#.#.#.<.5.5.5.5.5.5.5.5.5.y.y.y.y.y.i.h.h.h.m.V.V.V.V.V.V.XXXXXX|.`.@.r ; ; ; ; ; ; U 6.6.6.5.<.<.<.5.6.6.6.5.<.<.<.<.<.<.<.<.<.<.<.>.X.X.X.X.X.X.| X.X.X.X.X.X.| | X.X.X.X.X.X.X.>.<.<.<.<.<.<.<.<.<.<.<.<.<.<.<.<.i.i.v.`.5.f f f s s s f , $ O O # % , 5.5.5.5.5.5.5.6.i.i.i.i.i.f.f.i.f.i.i.i.i.i.5.5.5.5.5.5.5.5.<.<.<.5.5.5.5.<.<.<.#.#.<.<.<.<.#.#.#.<.<.#.#.<.<.<.<.#.b.Z.Z.Z.Z.Z.Z.#.X.X.X.X...| } Y z $ $ $ $ $ , , a R b.m.b.m.m.m.m.m.m.m.x.f.f.f.f.f.f.f.f.x.b.m.m.m.h.f.f.f.f.f.i.i.y.i.i.y.y.y.6.<.>.y.y.y.y.y.y.v.b.b.b.K.R.i.w w w w e e M } } ) X.:.:.:.:.:.:.>.:.:.| ) ) | | | ~ Y Y Y Y Y Y Y Y Y Y Y Y Y ) | | | | | | | | | | | :.:.>.5.5.5.5.5.:.x z z z z z z z z x S ~ ~ ~ ~ ~ ( ( ~ ~ ~ ~ ( ~ ~ ~ ~ ~ ( ~ ~ ~ ~ ~ ",
"X.} n , , n D D D D S S S S D Y T T T Y Y T T T T ~ | | | |  .m.P.P.K.5.5.X.~ ~ ) g.v.v.v.v.c.c.v.v.v.v.v.v.|.T.Z # # # : : : } X.>.>.>.>.>.:.:.:.| } } ) ) } } } } } } ) ) } } ) } } } } ) :.:.<.7.7.7.>.| | | | | | i.J.J.J.m.} } } } } } } } } } } } ) ~ ~ ~ T T T T ~ ~ T T T T T T } } } n # , 9 9 9 S } } | #.#.#.#.#.<.5.5.5.5.5.5.5.5.y.y.y.y.y.i.h.h.h.x.V.V.V.V.V.V.XXXX X}.`.@.r ; ; ; ; ; ; U 6.6.6.6.<.<.5.6.6.6.6.6.6.5.<.<.<.<.<.<.<.<.<.<.o.X.X.X.X.X.X.X.X.X.X.X.X.| | X.X.X.X.X.X.X.<.<.<.<.<.<.<.<.<.<.<.<.<.<.<.<.6.i.i.T.`.P f f f s s s f , # O O O % % ..5.5.5.5.5.5.5.i.i.i.i.i.i.i.i.f.f.i.i.i.i.i.5.5.5.5.5.5.5.5.<.<.5.5.<.<.<.<.<.#.#.#.<.<.#.#.#.#.<.<.#.#.<.<.<.<.#.Z.Z.Z.Z.Z.Z.Z.Z.o.X.X.X.X.X.X.Q z $ $ $ $ $ , , a R b.b.m.m.m.m.m.m.m.m.m.b.h.f.f.f.f.h.b.b.b.m.m.m.v.f.f.f.f.f.f.f.f.f.f.f.f.i.y.y.y.y.y.y.y.y.y.v.b.b.b.V.R.#.e w w w e e e } } ( X.:.:.:.:.:.:.:.:. .) ) | | | ~ Y Y Y Y Y Y Y Y Y Y Y Y Y Y Y ~ ) | | | | | | | | ) :.:.:.5.5.5.5.| f z z z z z z z z z z z z Y ~ ~ ~ ( ( ~ ~ ~ ~ ~ ~ ~ ~ ~ ~ ~ ~ ~ ~ ) :.",
"X.| n , , n S S S S D D D D S T T T T Y Y Y Y Y T T T ) | 5.P.P.P.K.6.5.| ~ ~ ( 7.c.c.v.v.v.c.c.v.c.c.c.v.C..XT.Z # # # : : : } X.:.:.:.:.:.:.X.} | ) ) } } } } ) ) } } } } ) ) ) ) | | } } X.X.:.:.>.| | | | | | | | X.v.J.J.J.5.} } } } } } } } } } } ~ T T T T T T T T T T T T T T T ( } } % # , 9 9 w w Y } } ..#.#.#.#.#.<.5.5.5.5.5.5.<.y.y.y.y.y.a.h.h.h.h.v.V.V.V.V.V.XXXXXX`.T.@.r ; ; ; - ; ; U 6.6.6.6.5.<.6.6.6.6.6.6.6.6.6.<.<.<.<.<.<.<.<.<.<.X.X.X.| X.X.X.X.X.X.X.X.X.X.X.X.X.X.X.#.<.<.<.<.<.<.<.<.<.<.<.<.<.<.<.<.<.y.i.h.`.P.Z x s s f f f f , O O O O $ % s 5.5.5.5.5.5.y.i.f.f.i.i.i.i.i.i.f.f.i.i.i.i.f.i.i.5.5.5.5.5.5.5.5.<.<.#.<.<.#.<.#.#.<.<.#.#.#.#.<.<.<.<.#.#.<.<.#.#.b.Z.Z.Z.Z.Z.Z.i.X.X.X.X.X.X.Q z $ $ $ $ $ , , r R m.m.m.m.m.m.m.m.m.m.m.m.m.m.v.v.b.m.m.V.Y.T.Z.m.m.b.f.f.f.f.f.f.f.f.f.f.f.i.y.y.y.y.y.y.y.y.y.v.b.b.b.V.R...w w w e e w w ( ) ) | o.#.#.>.:.:.:.:.| | | | | ~ Y Y Y Y Y Y Y Y Y Y ~ ~ Y Y Y ~ Y Y ~ ) | | ) ) | | |  .:.:.5.5.5.( 9 , , 9 e t z z z z z z z z z x Y ~ ~ ~ ~ ~ ~ ~ ~ ~ ~ ~ ( ( ( ~ ~ ) g.g.",
" .| M , , S D S S S D D D D Y T T T T T Y Y T Y T T T T 5.P.P.P.P.i.X.n j v ~ 6.c.c.c.v.v.v.v.c.v.c.c.c.v.E..XT.Z # # # * : : } X.:.:.:.X.X.| } } | } ) } } } } ) ) ) } } } } ) ) ) ) | } } } } } ( Y } | | | | | | | | | 6.J.J.J.| } } } } } } } } } } T T T T T T T ~ T T T T T T T T ( } Y # # , 9 9 w w r } } } | #.#.#.#.#.<.5.5.5.5.5.<.r.y.y.y.y.i.h.h.h.a.h.x.V.V.V.V.XXXX}.`.C.@.r ; ; ; ; ; ; Q 6.6.6.6.6.5.6.6.6.6.6.6.6.6.6.6.5.<.<.<.<.<.<.<.<.<.o.X.X.X.X.X.X.X.X.X.X.X.X.X.X.X.X.>.<.<.<.<.<.<.<.<.<.<.<.<.<.<.<.<.<.<.i.i.P.`.V.Z Z z s f f f f , O O O O O % % #.5.5.5.5.5.i.i.f.f.i.i.i.i.i.i.f.f.i.i.i.i.f.f.f.6.5.5.5.5.5.5.5.5.<.<.<.<.#.#.#.<.<.<.#.#.#.#.<.<.<.#.#.<.<.<.X.X.X.6.Z.Z.Z.Z.Z.Z.X.X.X.X.X.X.Q z $ $ $ $ $ , , r R m.m.m.m.m.m.m.m.m.m.m.m.m.m.m.m.m.V.Y.T.T.T.Y.m.m.m.m.v.f.f.f.f.f.f.f.f.f.i.y.y.y.y.y.y.y.y.y.v.b.b.b.V.R.] w w w e e w w Y ) ) o.o.#.#.>.:.:.:.:. .| | | ~ Y Y Y Y Y Y Y Y Y Y Y Y ~ Y Y Y Y Y Y T Y ~ | ) ) | | | | :.:.>.>.M , , , , , , , , , w t f z z z z z z S ~ ~ ~ ~ ~ ~ ~ ~ ( ~ ( ~ ~ ~ ~ >.g.v.",
" . .S , = S D D S S S S D Y T T T T T T T T T T Y Y T T | P.P.P.y.Z i i i j 5.v.c.c.v.v.v.v.c.c.v.v.c.c.v.]..X'.Z # # # % : : }  . .| | } } } } } } } } } } ) ) } } } } } } ) ) ) ) } | | } | | T S Y | | | | | } } | | | | o.k.J.<.} } } } } } } } ( ~ T T T T T T ~ ~ T ~ T T T T T T ( } t # # 3 9 9 9 9 9 M } } } } o.#.#.#.#.>.5.5.5.5.5.5.y.y.y.y.y.y.h.h.a.a.h.h.b.V.Z.`.`.`.`.y.@.r ; ; ; ; ; ; ( 6.6.6.6.6.6.6.6.6.6.6.6.6.6.6.6.6.6.5.<.<.<.<.<.<.<.<.>.X.X.X.X.X.X.X.X.X.| X.X.X.#.<.<.<.<.<.<.<.<.<.<.<.<.<.<.<.<.<.<.<.y.i.f.`.`.V.Z Z Z M f f f s * O O O O O $ % z 5.5.5.5.5.i.i.f.f.i.i.i.i.f.f.i.i.i.i.i.i.i.i.i.y.5.5.5.5.5.5.5.5.<.#.<.#.#.#.#.o.X.X.X.X.o.#.<.<.#.#.#.#.<.#.X.X.X.X.o.x.Z.Z.Z.Z.#.X.X.X.X.X.Q z $ $ $ $ $ > , 4 R b.m.m.m.m.m.m.m.m.m.m.m.m.m.m.V.Y.T.T.T.T.T.Y.m.m.m.m.m.m.v.f.f.f.f.f.f.f.i.y.y.y.y.y.y.y.y.y.v.b.b.b.V.R.Q f w w e e e e Z ) ) o.:.:.>.>.>.>.#.#.| | | ~ Y Y Y Y Y Y Y Y Y Y Y Y Y Y Y Y Y Y Y Y Y Y Y ~ T ~ ) | | | | ) M 9 , , , , , , , , , , , , , 9 t z z z z z n ~ ~ ~ ~ ~ ~ ~ ( ( ~ ~ ~ ~ ~ <.g.'.",
" . .S , n S S S S S S S Y T T T T T T T T T T T Y T T T T m.P.<.j i i i n f.v.v.c.c.v.v.v.v.c.c.v.c.c.c.v.}..X.XZ # # # $ : : } ) ) ) } } } } } } } } } } } ) ) } } } } } } ) ) } } ) } } } ) U S S ( | | | | | } | | | | | | | #.<.#.} } } } ) ( T T ~ T T T T T T ~ ~ ~ ~ T T T T T T } } % # # 4 9 9 9 9 9 w ( } } } } o.#.#.#.#.#.5.5.5.5.<.5.y.y.y.y.y.y.a.a.a.h.h.f.v.Z.`.`.`.`.#.@.r ; $ $ ; ; ; #.6.6.6.6.6.6.6.6.6.6.6.6.6.6.6.6.6.6.6.6.6.5.<.<.<.<.<.<.<.>.X.X.X.X.X.X.X.X.X.X.>.<.5.i.i.5.<.<.<.<.<.<.<.<.<.<.<.<.<.<.<.i.i.V.`.`.v.Z Z Z Z Z x f s $ O O O O O # % % #.5.5.5.5.i.i.f.f.i.i.i.i.f.f.i.i.i.i.i.i.i.i.i.i.5.5.5.5.5.5.5.5.5.<.#.#.#.o.X.X.X.X.X.X.X.X.X.#.#.#.#.#.#.X.X.X.X.X.X.X.5.V.Z.Z.5.X.X.X.X.X...z $ $ $ $ $ > , , R b.m.m.m.m.m.b.m.m.m.m.m.m.V.Y.T.T.T.T.T.T.T.Z.m.m.m.m.m.m.m.m.v.f.f.f.f.f.y.y.y.y.y.y.y.y.y.y.h.b.b.b.V.R.( f w w e e w w z ) ) :.:.:.>.:.:.#.#.#.| | ) Y Y Y Y Y Y Y Y Y Y Y Y Y Y Y Y Y Y Y Y Y Y Y Y Y Y Y Y T ) ) x 9 , , , , , , , , , , , , , , , , , 7 t z z z z z Y ~ ~ ~ ~ ~ ( ( ~ ~ ~ ~ ~ X.v.|.",
" . .D Z S D D S D D D Y Y Y Y T T T T T T T T T T T T T T ~ ( i j i i T c.v.v.v.c.v.v.v.v.c.c.c.v.v.c.c.c.}..X.XZ # # # # : : } } } } } ) } } } ) } } } } } ) ) } } } } | } } ) } } } } ) Y S S S T | | | | | | | | | | | | X.#.<.<.<.X.} } ~ T T ~ ~ ~ ~ ~ T T T T ~ ~ ~ ~ ~ T ~ ~ ~ ~ } ( # # # 9 9 9 9 9 9 9 n } } } } | #.#.#.#.#.>.<.<.5.5.5.5.y.y.y.y.y.y.i.h.h.h.a.a.V.`.`.`.V.@.@.r ; # # $ ; ; 6.6.6.6.6.6.6.6.6.6.6.6.6.6.6.6.6.6.6.6.6.6.6.6.<.<.<.<.<.<.<.<.<.>.X.X.X.| | X.<.<.y.i.i.i.i.y.<.<.<.<.<.<.<.<.<.<.<.<.<.5.i.i.).`.`.#.U Z Z M f f f t O O O O O O O % % m 5.5.5.5.i.i.i.i.i.i.i.i.i.i.i.i.i.i.i.i.i.i.i.i.5.5.5.<.<.<.<.<.<.<.#.#.#...X.......X.X.X.X.X...X.o.#.#.X.X.X.X.X.X.X.X.X.X.6.V.5.X.X.X.X.X.X.z $ $ $ $ $ ; , , Q b.b.b.m.m.b.m.m.m.m.m.V.Y.T.T.T.T.T.T.T.T.T.m.m.m.m.b.b.m.m.m.m.m.h.f.f.f.y.y.y.y.y.y.y.y.y.y.f.b.b.b.V.R.( t w w w w w w w ( } o.:.:.:.:.:.:.o. .| ) Y Y Y Y Y Y Y Y Y Y Y Y Y T Y Y Y T Y Y Y Y Y Y Y Y Y Y Y Y i , , , , , , , , , , % % % % , , * % % * , , 9 f z z z z Z ~ ~ ~ ~ ~ ~ ~ ~ ~ ~ ~ ) L.|.",
" . .D D D D S S D D T Y Y Y Y T Y T T T T T Y T T T T T T Z i i j j >.v.c.c.v.v.c.v.v.v.v.v.c.c.v.v.c.c.c.}..X.Xz # # # # * : } } } } } ) } | } } } } ) } } ) } } } } } | } ) } } ) } T S S S S S } | | | | } | | | | | X.>.<.<.<.<.<.<.X.( T T T T ~ ~ ~ ~ ~ T T T ~ ~ T ~ ~ T ~ ~ ~ ) } M # # # 9 9 9 9 9 9 9 w } } } } } | #.#.#.#.#.<.<.<.5.5.5.y.y.y.y.y.y.y.i.h.h.h.h.b.`.`.`.h.@.@.r $ # # # $ ; 6.6.6.6.6.6.6.6.6.6.6.6.6.6.6.6.6.6.6.6.6.6.6.6.5.<.<.<.<.<.<.<.<.<.<.<.<.<.<.<.6.i.i.i.i.i.i.i.i.6.<.<.<.<.<.<.<.<.<.<.<.y.i.h.`.`.`.+.E Z M f f f f w O O O O O O O $ % > 5.5.5.5.i.i.i.i.i.i.i.i.i.i.i.i.i.i.i.i.i.i.i.i.y.5.5.<.<.<.<.<.#.#.#.#.#...X.......X.X.X.X.X.X.........X.X.X.X.X.X.X.X.X.X.X.X.X.X.X.X.X.X.X.z $ $ $ $ $ $ , , Q b.b.b.m.m.m.m.m.m.m.V.T.T.T.T.T.T.T.T.T.T.K.m.m.m.b.b.m.m.m.m.m.m.m.v.f.i.y.y.y.y.y.y.y.y.y.y.f.b.b.b.V.R.( , > , , 9 w w w t } o.:.:.:.:.:.:.X.| ) T Y Y Y Y Y Y Y Y Y Y Y Y Y ~ Y Y Y Y Y Y Y Y Y Y Y Y Y Y M , , , , , , , , , , , , % % % % % % % % % % % % = , i z z z z x ~ ~ ~ ~ ~ ~ ( ~ ~ ~ ~ I.|.",
"X.X.S Y T Y Y Y T T T T Y Y T T Y Y T T T T Y Y T T T Y x i i i n i.v.v.c.c.c.c.v.v.v.v.v.v.v.v.v.v.v.c.c.]..X.Xs # # # # $ : } } } } ) ) ) } } } ) ) ) } } } } ) ) } } } } } } ) } Y S S S S S } } | | | | } } | | | >.<.<.<.<.<.<.<.<.<.X.T T T T T T T T T T T T ~ ~ T T T T T T T } } 9 # # # 9 9 9 9 w 9 9 9 S } } } } } X.#.#.#.#.<.5.5.5.5.5.5.y.y.y.y.y.y.y.i.h.h.h.b.W.W.W.h.@.@.r $ # # # $ ; 6.6.6.6.6.6.6.6.6.6.6.6.6.6.6.6.6.6.6.6.6.6.6.6.6.<.<.<.<.<.<.<.<.<.<.<.<.<.5.i.i.i.i.i.i.i.i.i.i.i.i.y.y.y.y.<.<.<.<.<.<.i.i.V.`.`.`...Q Z z f f f f > O O O O # O # # % % ..5.5.5.5.i.i.i.f.i.f.f.i.i.f.f.f.f.i.i.i.i.i.i.i.5.5.<.<.<.<.<.<.<.#.<.#.X.X.X.X.X.X.X.X.X.X.X.............X.X.X.X.X.X.X.X.X.X.X.X.X.X.X.X.X.z $ $ $ $ $ $ , , Q b.b.m.m.m.m.m.m.m.m.V.T.T.T.T.T.T.T.T.T.T.Z.m.m.m.m.m.m.m.m.m.m.m.m.m.h.y.y.y.y.y.y.y.y.y.y.y.f.b.b.b.b.R.` 4 > > > > > , 9 9 t ) :.:.:.:.o. .| | ~ Y Y Y ~ ~ Y Y Y Y T Y Y Y Y Y Y T Y Y ~ Y Y Y Y ~ T Y Y i , , , , , , , , , , , 9 , % % % % % % % % % % % % % % % 7 f z z z ~ ( ( ~ ~ ( ( ~ ~ ~ ~ I.|.",
"X.X.S Y T T T T T T T T T T T T Y Y T T T T T Y T T Z j i i i ) v.v.v.v.c.c.c.c.v.v.v.v.v.v.v.v.v.v.v.v.c.I..X.X3 # # # # # * } } } } ) ) ) } } } } ) ) } } } } ) ) ) } } } } } } Y S S S S S ( | | | | | | | } | X.<.<.<.<.<.<.<.<.<.<.<.<.} T T T T T T T T T T T T ~ T T T T T T T } } $ # # # 4 9 9 w w 9 9 9 w } } } } } } #.#.#.#.>.5.5.5.5.5.5.y.y.y.y.y.y.y.y.h.h.h.b.W.W.R.f.#.@.r # # # # # $ 6.6.6.6.6.6.6.6.6.6.6.6.6.6.6.6.6.6.6.6.6.6.6.6.6.<.<.<.<.<.<.<.<.<.<.<.5.y.i.i.i.i.i.i.i.i.i.i.i.i.i.i.i.i.i.i.6.<.<.<.5.i.i.).`.`.`...] Z f f s f s # O O O O # # # # $ % m 5.5.5.5.5.i.i.f.f.f.f.i.i.f.f.f.f.i.i.i.i.i.i.i.y.5.5.<.<.<.<.<.<.<.<.#.X.X.X.X.X.X.X.X.X.X...............X.X.X.X.X.X.X.X.X.[ Q Q X.X.X.X...k $ $ $ $ $ $ > , [ b.m.b.m.m.m.m.m.m.m.m.I.T.T.T.T.T.T.T.T.T.Y.m.m.m.m.m.m.m.m.m.m.m.m.m.i.y.y.y.y.y.y.y.y.y.y.y.f.b.b.b.b.R.` , $ > > > > > > > > > > > z | | ) ) ( Y Y Y Y Y ~ Y Y Y Y T ! Y Y Y Y Y Y Y Y ~ T Y Y Y Y Y Z 9 , , , , , , , 9 w e t t t 9 * % % % % % % % % % % % % % % % 7 t z x ~ ~ ( ~ ~ ~ ~ ~ ~ ~ ~ <.|.",
"X.X.S Y T T T Y Y T T T T T T T Y T T T T T T T S j i i i x 6.v.v.v.c.c.c.v.v.v.v.v.v.v.v.v.v.c.v.v.v.v.v.m.|..X$ # # # # # $ Y } } } } } } } | } } ) ) } } } } ) ) } } } ) ) ) T S S S S Y } | | | | | | | | | X.<.<.<.<.<.<.<.<.<.<.<.<.<.<.X.T T T T T T T T T T ~ ~ T T T T ~ ~ ~ ) Y # # # $ , w 9 9 9 9 9 9 w } } } } } } X.#.#.#.>.5.5.5.5.5.5.r.y.y.y.y.y.y.y.a.h.h.b.`.`.R.a.5.@.w # # # # # # w Q 6.6.6.6.6.6.6.6.6.6.6.6.6.6.6.6.6.6.6.6.6.6.6.<.<.<.<.<.<.<.<.<.6.i.i.i.i.i.i.i.i.i.i.i.i.i.i.i.i.i.i.i.i.i.i.y.<.<.6.i.f.`.`.`.`...( n s f f f e O O O O O O O O O O $ r 5.5.5.5.5.5.6.y.f.i.i.i.i.i.i.i.i.i.i.i.f.i.i.i.i.5.5.5.<.<.<.<.<.<.<.<.X.X.X.X.X.X.X.X.X.X...........U z k k z M U U M b k k z z s [ X.X.X.w $ $ $ $ $ $ $ ; Q b.m.m.m.m.m.b.m.m.m.b.Z.T.T.T.T.T.T.T.T.T.T.V.b.b.b.b.b.b.b.b.m.m.b.i.y.y.y.y.y.y.y.y.y.y.y.y.h.b.b.b.b.R.` $ $ $ % > > > > > > > > > , Z Y Y Y Y Y Y Y Y Y Y Y Y Y Y Y Y Y Y Y Y Y Y Y Y Y Y Y Y T T x , , , , , , 9 w t t t t t t t , , % % % % % % % % % % % % % % % 7 9 e S ~ ~ ~ ~ ~ ~ ~ ~ ( ~ ~ ~ E.",
"X.Y Y Y T T Y Y T T T T T T T T T T T T T T Y x i i z S <.f.v.v.v.v.c.c.c.v.g.f.i.i.i.g.v.v.v.v.v.c.c.v.v.v.v.i.# # # # # # # # $ 9 x ( } } } } } } ) ) } } } } } ) } } } } } ) S S S S T | | | | | | | | | | #.<.<.<.<.<.<.<.<.<.<.<.<.<.<.<.<.X.T T T T T T T T T ~ ~ T T T T T T ~ ~ Y # # # $ $ 4 9 9 9 9 9 9 t } } } } } } } #.#.#.#.5.5.5.5.5.5.5.y.y.y.y.y.y.y.a.h.h.b.`.`.R.a.5.@.w # # # # # # # # % n #.6.6.6.6.6.6.6.6.6.6.6.6.6.6.6.6.6.6.6.6.5.<.<.<.<.<.<.6.i.i.i.i.i.i.i.i.y.<.<.<.<.<.<.<.<.<.<.<.<.i.i.i.i.i.i.i.i.y.`.`.`.`...Q f s f f f , O O O O O O O O O O # % 5.5.5.5.5.5.5.5.6.y.i.i.i.i.i.i.i.i.i.i.f.i.i.i.i.6.5.5.5.5.<.<.<.<.<.<.X.X.X.X.X.X.X.X.X.X.X.....} z z z k k k k z z z z k k t w w z X.X.X., $ $ $ $ $ $ $ $ w i.i.i.x.m.m.b.m.m.m.m.b.Y.T.T.T.T.T.T.T.T.T.Y.m.m.b.b.b.b.m.b.m.m.v.y.y.y.y.y.y.y.y.y.y.y.y.y.i.b.b.b.b.R.Q $ $ $ $ $ $ $ $ $ $ $ $ $ $ x Y T T Y Y Y Y Y Y Y Y Y Y Y Y Y Y Y Y Y Y Y Y T T Y Y Y Z 9 , , , , , 7 e t t t t t t e 9 , , , % % % % % % % % % % % % % % % , 9 9 f ~ ~ ~ ~ ~ ~ ~ ~ ~ ~ ~ ~ } ",
"Y S Y Y T T T T T T T T T T T T T T T T T Z i i x ( 5.5.5.i.i.i.i.i.6.6.5.5.5.5.5.5.5.5.5.y.g.c.v.v.v.v.v.g.+.Q # # # # # # # # # # # # % w M ( } } ) ) } } } } } } } } } } ) D S S Y } | | | | } | | | | | | <.<.<.<.<.<.<.<.<.<.<.<.<.<.<.<.<.<.} T S Z U T T T T T ~ T T T T T T T T n # # # $ $ $ 4 9 9 9 9 9 s } } } } } } } o.#.#.#.5.5.5.5.5.5.r.y.y.y.y.y.y.y.y.h.h.v.`.`.P.h.#.@.w # # # # # # # # # # # > n #.6.6.6.6.6.6.6.6.6.6.6.6.6.6.6.6.6.6.<.<.<.<.y.i.i.i.i.i.#.R n b z z z m H M H H M M M M M M z z z z z z z z z S.`.`.)...U f f f f f # O O O O O O O O O O O # #.5.5.5.5.5.5.5.5.5.5.y.i.f.f.i.f.i.i.i.i.i.i.f.f.y.5.5.5.5.<.<.<.<.<.#...X.X.X.U r z X.X.X.X.X.} z z z z k k k k z z z s r w w w w w | X.X.$ $ $ $ $ $ $ $ $ $ L Q Q Q Q Q Q Q Q Q Q Q Q #.a.V.T.T.T.T.T.V.Z.V.m.b.b.i.y.i.i.i.i.5.5.5.5.5.5.y.y.y.y.y.5.5.5.5.h.b.b.b.R.U $ $ $ $ $ $ $ $ $ $ $ $ $ $ , Y Y Y Y Y Y Y Y Y Y Y Y T Y Y Y Y Z z t w e x Z Z Z z 9 , , , , , , 9 t t t t t t t t e t e 9 , % % % % % % % % % % % % % % % * 9 9 9 f ~ ~ ~ ~ ~ ~ ~ ( ~ ~ ~ ~ ",
"S S Y Y T T T T T T T T T T T T T T T Y x i v } 5.5.5.5.5.5.5.5.5.5.5.5.5.5.5.5.5.5.5.5.5.5.5.5.i.g.v.v.f.Q Q R # # # # # # # # # # # # # # # # $ , t Z S T } } } } T S Z S S S S S S | | | | | } | | | | | | #.<.<.<.#.} } } } ..} } } } ( X.X.X.X.U Z Z Z Z Z U U Y Y T T T T T T T T z # # # # # # $ 4 9 9 9 9 r } } } } } } } } #.#.#.<.5.5.5.5.5.y.y.y.y.y.y.y.y.i.h.h.h.`.W.v.y.@.@.z # # # # # # # # # # # # # # > z } } } 6.6.6.6.6.6.6.6.6.6.6.6.5.X.>.<.<.<.} U z 9 % % % % % % % % % % % % % % % % % % % % % % % % % % % % : B.`.e...z f f f f w O O O O O O O O O O O O O : #.5.5.5.5.5.5.5.5.5.5.5.y.i.f.f.i.i.i.i.i.f.f.f.i.5.5.5.5.<.<.<.<.<.X...| M r w w w r U Q X.Q z z k z z z z k k s t w w w w w w w w t S t $ O $ $ $ $ $ $ $ $ $ 4 , > > > > > 4 4 a l m L U Q Q Q Q Q Q Q Q Q Q Q Q Q Q Q Q Q Q Q Q Q Q Q Q Q Q Q Q Q Q Q Q Q Q Q Q Q W w $ $ $ $ $ $ $ $ $ $ $ $ $ $ $ Y Y Y Y Y Y Y Y Y Y Y Y Z z w 7 , , , , , , , , , , , , , , , , , , , , , 9 t t t t t t t t t , % % % % % % & % % % % % % % % % , 9 7 9 i ~ ~ ~ ~ ~ ( ( ~ ~ ~ ~ ",
"S S Y T T T T T T Y T T T T T T T Y T T T T #.5.5.5.5.5.5.5.5.5.5.5.5.5.....................5.5.5.5.5.5.R Q Q a # # # # # # # # # # # # # # # # # # # # # # # # # # # # # # # # # # # # 3 3 3 3 3 3 3 3 3 r t t t t t t t t t t t t t t t t Z Z Z Z Z Z M n n n Z Z M M Z Z Z Z M T T T , # # # # # # # $ > 9 9 9 9 M } } } } } } } o.#.#.<.5.5.5.#...<.y.#.#.#.#.<.5.5.5.5.5.r.5.<.....@.s # # # # # # # # # # # # # # # # # $ % % > w t t s s s s s s s s s s t , % % % % % % % % % % % % % % % % % % % % % % % % % % % % % % % % % % * M ..Q f f f f e e # O O O O O O O O O O O O O % ..5.5.5.5.5.5.5.5.5.5.5.5.5.y.i.i.i.i.i.i.i.i.6.5.5.5.5.#.<.<.<.} W z w w w w w w w w w w w w r t t t t r w w w w w w w w w w w w w w w O O # $ $ $ $ $ $ $ $ $ $ $ ; > > > > > > > > > > > , r k k 3 3 3 , , , , 4 4 4 4 , 3 4 3 4 4 $ $ $ $ > 4 4 4 s k l k 4 4 $ $ $ $ $ * e e w * $ $ $ $ $ $ $ $ t Y Y Y Y Y Y Y Z i 9 , , , , , , , , , , , , , , , , , , , , , , , , , , , , t t t t t t t t , % % % % = i i i i = % % % % % % % 9 7 7 7 e T ~ ~ ~ ~ ~ ~ ~ ~ ~ ",
"M M M Z Z Z T Y Z Z Z n z s t w t Y T T T T >.5.5.5.5.5.5.5.5.#.R k r w w w w w r k k k k k k k k k k k k s , # # # # # # # # # # # # # # # # # # # # # # # # # # # # # # # # # # # # # # # # # # # # # # # # # # # # # # % % % % # # # # # > , , , > # # # # # # w M M Z Z Z z # z T T , # # # # # # # # # # % > , 3 9 , > # # # # # $ , 3 w r r r r r a H H H H H H H H H H H H H H H H % # # # # # # # # # # # # # # # # # # % % % % % % % % * , , , , , % % % % % % % % % % % % % % % % % % % % % % % % % % % % % % % % % % % % % % % % r f f f f e w w , # O O O O O O O O O O O O O O 3 Y #.5.5.5.5.5.5.5.5.5.5.5.5.5.6.y.y.y.5.5.5.5.5.5.<.#.( R t w 9 9 3 , , , , , , , , 9 9 9 9 9 9 9 9 w w w w w w w 9 9 9 3 , , % $ O O O O $ $ $ $ $ $ $ $ $ $ $ $ $ $ $ $ $ $ $ $ $ $ $ $ $ $ $ $ $ $ $ $ $ $ $ $ $ $ $ $ $ $ $ $ $ $ $ $ $ $ $ $ $ $ $ $ $ $ $ $ $ $ , i i i i i , $ $ $ $ $ $ $ % Y Y Y Y Y t 9 , , , , , , , , , , , , , , , , , , , , , , , , , * , , , , , e t t t t t e , % % % % % i i i i i i 0 = % % % % % * 7 7 7 7 e Y ~ Y S Z z t 9 9 ",
", , , w w w w w w w w w w w w w t Y T T T T ( X.X.X.Q Z t * O o o o o o o o o o o o o o o o o o o o o o $ # # # # # # # # # # # # # # # # # # # # # # # # # # # # # # # # # # # # # # # # # # # # # # # # # # # # # # # # # # # # # # # # # # # # # # # # # # # $ $ r M Z Z Z , # 9 T T # # # # # # # # $ # # # # # # # # # # # # # # # # # # # # # $ % ; > > > > > > > > > > > > # # # # # # # # # # # # # # # # # # # # # # # % % % % % % % % % % % % % % % % % % % % % % % % % % % % % % % % % % % % % % % % % % % % % % % % % % % % % % > e f t e w w w w w 9 , % $ O O O O O O O O O O O O # $ > > > > > > > , , , , 4 4 4 4 4 , 4 , , 4 , $ O O O O O O O O O O O O O O O O O O O O O O O O O O O O O O O O O O O O O O O O O O O $ $ $ $ $ $ $ $ $ $ $ $ $ $ $ $ $ $ $ $ $ $ $ $ $ $ $ $ $ $ $ $ $ $ $ $ $ $ $ $ $ $ $ $ $ $ $ $ $ $ $ $ $ $ $ $ $ $ $ $ $ % i i i i i i t % $ $ $ $ $ $ $ $ $ $ $ $ $ $ $ $ $ $ $ $ $ $ $ $ $ $ $ $ $ $ $ $ $ $ $ $ $ $ $ * , , , , , , , , , , * % % % % % % = i i i i i i i i y = % % % % % * = , 7 7 9 9 9 9 7 9 9 9 ",
"o o o o o o o O O % % * , , , 3 w w w w , , > % $ o o o o o o o o o o o o o o o o o o o o o o o o o o o # # # # # # # # # # # # # # # # # # # # # # # # # # # # # # # # # # # # # # # # # # # # # # # # # # # # # # # # # # # # # # # # # # # # # # # # # # # # $ $ % M M Z Z # # # U T # # # # # # # # # # # # # # # # # # # # # # # # # # # # # # # # # # # # # # # # # # # # # # # # # # # # # # # # # # # # $ > , , , , # $ % % % % % % % % % % % % % % % % % % % % % % % % % % % % % % % % , * % % % % % % % % % % % % % % % % % % % % > w w w w w w w w w w w w w w 9 , % # O O O O O O O # # # # O O O # # # O O O # $ $ $ $ $ $ $ # O O O O O O O O O O O O O O O O O O O O O O O O O O O O O O O O O O O O O O O O O O O O O O $ $ $ $ $ $ $ $ $ $ $ $ $ $ $ $ $ $ $ $ $ $ $ $ $ $ $ $ $ $ $ $ $ $ $ $ $ $ $ $ $ $ $ $ $ $ $ $ $ $ $ $ $ $ $ $ $ $ $ $ $ e t t t i i i i t $ $ $ $ $ $ $ $ $ $ $ $ $ $ $ $ $ $ $ $ $ $ $ $ $ $ $ $ $ $ $ $ $ $ $ $ $ $ , , , , , , , , , , , , % % % % % % & , i i i i i i i i i i 0 % % % % % % % % % % % % % * * * * ",
"o o o o o o o o o o o o o o o o o o o o o o o o o o o o o o o o o o o o o o o o o o o o * 7 e 9 , # o $ , , = 7 7 7 7 7 $ # # # # # # # # # # # # # # # # # # # # # # # # # # # # # # # # # # # # # # # # # # # # # # # # # # # # # # # # # # # # # # # # # # # $ $ $ M Z Z Z # # # # , # # # # # # # # # # # # # # # # # # # # # # # # # # # # # # # # # # # # # # # # # # # # # # # # # # # # # # # # # # # # : , , , , e w , % % % % % % , , , , , , , , , , , , , , , , , > % % % % > , w x x x 9 % % % % % % * , , , , : : * % % % % % , w w w w w w w w w w w w e w w w w t t 9 % O O O O O O O O O O O O O O O O O O O O O O O O O O O O O O O O O O O O O O O O O O O O O O O O O O O O O O O % % % % % % % % % % % O O % % % * % $ $ $ $ $ $ $ $ $ $ $ $ $ $ $ $ $ $ $ * * * * * * * $ $ $ $ $ $ % % $ $ $ $ $ $ $ $ $ $ $ $ $ $ $ $ $ $ $ $ $ $ $ $ $ % i i i i t t t i i w $ $ $ $ $ $ $ $ $ $ $ $ $ $ $ $ $ $ $ $ $ $ $ $ $ $ $ $ $ $ $ $ $ $ % 9 0 i i i x V V V x i t 9 , , & & , , , , , 0 i i i i i i i i i i i & % % % % % % % % % % % % % % % ",
"= O o o o o o o o o o o o o o o o o o o o o o o O O O O o % % % o o o o o o o o o * e V j i i i z Z D D D D q 7 7 7 7 7 & # # # # # # # # # # # # # # # # # # # # # # # # # # # # # # # # # # # # # # # # # # # # # # # # # # # # # # # # # # # # # # # # # # # $ $ # # , % # # # # # # # # # # # # # # # # # # # # # # # # # # # # # # # # # # # # # # # # # # # # # % , 7 e t z z v v v v x # # # # # # # # # # , , , , e e e x x x x x x x x x n n n v n x x x x x x x x x x x x x x x x x x x x x , % % % : 9 9 9 9 9 9 9 9 9 9 9 9 9 t x i e w w w w w e i e w w w w t f x x x x x x f e 9 * * * * * * * * * * * * * # O O O O O O O O O O O O O O O O O O O * s M M e e e f z M U Y T T S i i i i i i t i i i i i i i i i i i i i i i t t t t e e 9 > $ $ $ $ $ $ , 0 t t t t t t t t t t t t t t t 9 9 9 3 3 3 , , , , > > > > > > , , , 9 t i i e e 9 9 e t i i i i t t i i i , $ $ $ $ $ $ $ % , 9 t t t t 9 , , * $ $ $ $ $ $ $ $ $ $ $ $ $ % e V V V V V Z Z A A V V A A V V i 0 q q 0 0 t i i i i i i i i i i i i i i & % % % % % = = = = % % % % * ",
"V V x 9 o o o o o o o o % * & , , , $ o * 9 9 9 9 9 9 , 9 x x x x V Z V D D ~ ~ | | { { { ^ D D D D D D D D A 0 7 7 7 7 = # # # # # # # # # # # # # % $ # # # # # # # # # # # % , , , , , # # # # # # # # # # # # # # # # # # # # # # # # # # # # # # # # # # # # # # # # # # # # # # # # # # # # # # # # # # # # # # # $ % % * * , 7 7 7 7 9 e e e e e e t i i z n M M v M M M M M M M M Y D > # # # # # # # # # : , , , 9 e e e x x x x x x x n A A A A A A A n x x x x x x x x x x x x x x x x x x z % % : 9 9 9 9 9 9 9 9 9 9 9 9 9 9 x x x x z i i f x x x x x x z x x x x x x x x x x x x x x x x x x x x x x x x x x x e e 9 7 * $ O O O O O O O O O # s X.>.>.>.<.>.| T T T T T T T T T z i i i i z z z z i i i i i i i t t i i i i i i t i i i i i t $ $ $ % t t t t t t t t t t t t t t t t t t 9 9 9 3 3 9 9 9 9 3 3 3 3 9 9 9 9 3 3 t i t i i i i i t i i i i i t t i i i t % $ $ $ $ t V Z Z Z Z Z V V Z Z Z Z V V Z V V Z V i i i i i t B V V Z Z Z Z Z Z Z V V V Z A Z Z V x i i i i i i i i i i i i i V V V B i i i % = 0 i i i i i i i i i i i ",
"V V V V x $ o o o o o & & & & 9 e e e t x v x n v v n v v ~ { { | | | { { { { | | { { { { { { ~ ~ ! D D D D D A i 7 7 7 = # # # # # # # # # # # $ 7 7 7 7 0 0 , = = # , z D ~ ~ ~ ~ ~ ~ ~ ~ ~ D z , # # # # # # # # # # # # # # # # # # # # # # # # # # # # # # # # # # # # # # # # $ * * * * , 7 7 7 9 e e e e i i i i t t t i i i i i i i i i i i i i i i x M M M M Z Y Y Y Y Y Y Z M Z T T w $ # # # # # # # # : , , , , 9 e e e z x x x x x Z A A A A A A A A A Z x x x x x x x x x x x x x x x x n w % : 9 9 9 9 9 9 9 9 9 9 9 9 9 9 x x x x x x x x x x x x x x x x x x x x x x x x x x x x x x x x x x x x x x x x x x f e e e e e e # O O O O O O 3 #.5.6.6.5.5.5.<.<.<.#.#.#.#.o.| ( T T Y S Z Z Z Z Z Z Z Z Z Z V v x x z i i i i i i t i i i i i i $ $ $ 9 t t t t t t t t t t t t t t t t t t w 9 9 3 3 9 9 9 9 3 3 3 3 9 9 9 9 3 e i i t t t t i i i i i i i i t t i i i i t 3 3 w T | ( ( ( ( ( ( V V Z Z Z Z V V Z Z Z Z V x i i i x V Z Z Z Z Z Z Z Z Z A A A V Z Z Z V V V x i i i i i i i p j B V V V V V A p i i i i i i i i i i i i i i i i ",
"V V V V V B $ o o o o * & & & & 9 e w w e t x v v v v v v D { | { { { { { { { { { { { { { { { ;.;.;.-.-.^ D D D D D D 9 * # # # # # # # # # # # , 7 7 7 0 B B B B B B ~ ~ ~ ~ ~ ~ ~ ~ ~ ~ ~ ~ ~ ~ V g 7 # # # # # # # # # # # # # # # # # % , , , , , , , , , , , , , 9 9 9 9 z Z Z Z z i i i i i i i i i i i i i i t t t t i i i i t t t i i i i i i i z M M M M S T T T T T T T T T T Y Y T z , $ # # # # # # $ , , , , , , 7 e e e f x x x x A A A A A A A A A A A A Z x x x x x n Z A A A A A A A A Z % % 9 9 9 9 9 9 9 9 9 9 9 9 9 9 9 w f n Z n x x x x x x x Z Z Z x x x x x x x x x x x x x x x x x x x x x x x x x x x f e e e e e % O O O O O , 6.6.6.6.6.6.6.6.6.6.5.5.>.>.>.| | | ( T T T S Z Z Z Z Z Z Z Z Z Z Z Z Z Z Z Z Z Z V V V V Z Z Z z i $ $ % t t t t t t t t t t t t t t t t t t t t 9 9 3 9 9 , , ; % , 3 9 9 9 9 9 w t i t i i i i i i i i i i i x x Z D Y T T T ~ } | | | } } } | | | D Z Z Z Z Z ~ } A V V Z Z Z Z Z Z Z V V V V A Z Z Z A G G ~ ~ A V V V V Z Z A B i i i i j V V V Z A V V V V V x i i i i i i i i i j V V V x i i ",
"V V V V V V x o o o o * & & & & & 9 e w e e e z v v v v v v ~ f.q.-.{ | { { { { { { { { { { { ;.,.,.-.-.-.-.! D D D D 0 % # # # # # # # # # # # , 7 7 7 j B B B B B D ~ ~ ~ ~ ~ ~ ~ ~ ~ ~ ~ ~ ~ ~ V B x q % # # # # # # # # # # # # # # # 9 w w w w w w w w w w w w w w w t z Z Z Z Z M i i i i z z i i i i i i i i i i i t i i i i i t i i i i i i z v M M M M Y T T T T T T T T T T Y Y Y T Z , , $ # # # # # : , , , , , , , , e e e t x x x A A A A A A A A A A A A A A A A A A A A A A A A A A A A A 7 % * 7 9 9 9 9 9 9 9 9 9 9 9 9 9 9 w D ! ! D V n x x n D ! Y ! Y D Z x x n Z D D D D D Z n x x x x x x Z Z D Z Z x x x f e e e e , O O O O O z 6.6.6.6.6.6.6.6.6.6.6.6.6.5.>.>.| | | } ( T T Z Z Z Z Z S S S S S S S S Z Z Z Z Z Z Z Z Z Z Z Z Z i $ $ w t t t t t t t t t t t i x V V V V V v t 9 9 3 , > % % * % , 3 9 9 9 9 9 t t i i i z x Z D D D D Y T T ~ T ~ T T T T T T ~ | | | | | | | | | ) Z Z Z Z ( | | | A Z Z Z Z Z Z Z Z V V V V A A Z F G G G G ~ F V V A A A Z Z A V j i V A A V A F ~ V V V V Z x i i i i i i i i j V V V V V V x ",
"V D D D D D ~ t o o o o & & & & & & w e e e e z v v v v S Y Y 7.f.f.,.| | | { { { { | | { | { ;.,.,.,.,.-.-.:.! D D D 7 * # # # # # # # # # # # # 7 7 7 j B B V ~ -.;.| | -.,.>.4.4.4.4.4.-.^ ~ ~ V B x i i 7 $ # # # # # # # # # # # # # , w w w e i z j t w w w w w e j z j Z Z Z Z Z z M U Y Y Y M M M v x f i i i t i i i i i i t t i i i i x M v v v v M Y T X.X.| T T T T T T T T Y T T Y , , , % # # # % , , , , , , , , , e e e e e f x n Z A A ! 0.| A D A A A A A A A A A A A A A A A A A A A A x % % % : 7 9 9 9 9 9 9 9 9 9 9 9 9 9 Y Y Y Y ! Y Z Z ! ! ! Y Y Y Y Y Y D Y Y ! ! ! ! ~ ~ ) ) ~ ~ ~ ) ) ) ) ) ) ) x x x x x f e e 7 O O O O $ z 6.6.i.f.f.f.i.6.6.6.6.6.6.6.6.>.>.| | | | ( T T T T T T ( ( ( ( T T T T T Y S Z Z Z Z Z Z Z Z Z Z i * , t t t t t t t t t i x V V V V V V V V V x e , > % % % * * ; > 9 9 9 9 9 t i i z Z Y T T T T T ~ T T T T T T T T T T ~ | | } | | | | | | | | | | A V V Y | | | | | A V Z Z Z Z Z Z Z Z V A A A F ~ G ^ | ^ ~ ~ A F ~ ~ ~ ~ F A V V Z V A A ! ~ ~ ~ V V V V V j i p V B x x x V V V V D D D D D ",
"| | | | | | | | , o o o O & & & & & , e e e e z v v v U Y Y Y 5.f.f.f.5.| | | | | | | | | | { ;.,.,.,.,.-.-.:.-.F D A 7 7 7 * $ # # # # # # $ = 7 7 7 7 j D | ;.;.;.;.;.6.6.0.0.0.0.0.0.6.q.f.-.~ V B p i i i , , $ # # # # # # # # # # # % w w e z z z j j e w w w t z z z j v Z Z Z Z Y Y Y Y Y Y Z M v v M M x i i t i i i i i i f z x n v M M M v Z ( <.y.y.i.C.I.I.I.m.<.( T T T T Y Y T T 9 , , , , , , , , , , , , , , , , e e e e e e e z x x x Z g.g.D A D A A A A D ! ~ ! ! Y D A A A A A A A A A , % % % % , 9 9 9 9 9 9 9 9 9 9 9 9 Y Y Y Y ! ! ! ! ! ! Y Y Y Y Y Y Y Y Y Y Y ~ ~ ) ) ) ) ) ) ) ) ) ) ) ) ) ) ) x z x x x x f e 9 O O O O % z 6.f.f.x.x.x.f.f.6.6.6.f.i.6.6.6.5.>.o.| | | } T T T ( } | | | | ( T T T T T T T Y Z Z Z Z Z Z Z Z S , t t t t t t i j x V V V V V V V V V V V V V j , % % % % * * ; > 3 9 9 9 t i i Z T T ( #.| ~ T T T T T T T T } X.o.#.<.<.<.<.o.| | | #.>.>.#.X.| | ) Z A | | | | | | | A V V Z Z Z Z V V V V A G ~ ~ G ^  . . .|  .| ^ ~ ~ ~ ! ! ~ F D D ~ ~ ~ ~ ~ ! V V V V V i i i V V V V V V D ~ ~ ~ ~ ~ ~ ~ ",
"J.[.'.f.| | | | | $ o o o % & & & & & 9 e e e x v v Z Y Y Y Y 5.f.f.f.f.f.,.| { { { { { | | | | -.-.-.-.-.:.,.,.-.~ n 7 7 7 7 7 7 , = = = 7 7 7 7 7 7 7 ~ ;.;.;.;.;.;.;.4.6.6.q.v.m.F.G.U.E.E.L.^ V B i i i i 7 , , $ # # # # # # # # # # # 9 w i j j j z z i w w e z z j j j v Z Z Z Y Y Y Y Y Y Y Y S Z Z U Z M n i i z x n v M Z Z Z Z M M Z T #.6.y.y.y.y.y.6.<.5.b.V.I.I.Y.5.T T T T T T T z , , , , , , , , , , , , , , , 9 e e e e e e e e t z x D | c.,.D A A A D ~ ^ ^ ^ ^ ^ ^ ^ ^ ^ ~ ~ D A A A A B % % % % , 9 9 9 9 9 9 9 9 9 9 9 f ( X.>.>.>.>.X.) ! ! ! ! ! ! ! ~ ) ) ) X.:.:.| ) ) ) ) ) ) ) ) ) ) ) ) ) ) ~ z e e x x x f e 9 O O O O % z 6.f.f.f.f.f.f.x.y.6.i.x.f.6.6.6.6.6.5.>.X.| | } T } | | | | | | | } T T T T T ( ( T T S Z Z Z Z Z J.~ t t t t j V V V V V V V V V V V V V V V Z D F z * ; ; * % % ; > , , 9 t i i Z T T ) >.<.<.<.} T T T T ) #.<.<.<.<.<.<.<.<.<.<.#.| >.<.<.<.<.<.#.| | } } | | | | | | | } ( T D D D D D A Z Z Z A F G G  .X. . .X.X.X.X. .^ ! ! ! ~ ~ ~ ! ! ! ! ~ ~ F A Z A A j i i i B V V V V ~ ~ ~ ~ ~ ~ ~ ~ ~ ",
"[.[.[.[.| | | | | ~ O o o o & & & & & = e e e x v v Y Y Y Y Y 5.f.f.f.f.f.f.f.4.;.| { { | | { { | | | -.-.,.,.,.,.,.,.) t 7 7 7 7 7 7 7 7 7 7 7 7 7 7 7 ;.;.;.;.;.;.;.>.6.6.q.J.J.U.E.E.E.E.E.E.c.B B i i i i u , , & # # # # # # # # # # # 9 w i z j j z z j e w z z z j j j x Z S Y Y Y Y Y Y Y Y Y Y Y Y Y Z M M v v v M M M ~ ~ ~ ~ ~ ) X.6.y.y.y.6.#.( R U U U U U Q o.C.I.I.C.| T T T T T S , , , , , , , , , , , , , w e e e e e e e e e e e e i ) ) c.f.~ ~ ~ ) ^ ^ ^ ^ ^ ^ ^ ) ^ ^ ^ ) ) ) ! A A A A 7 % % % , 9 9 e Z D D Z Z Z Z X.>.>.>.>.>.>.>.>.6.6.:.5.5.y.6.6.5.1.1.5.5.6.6.5.<.) ) ) ) ) ) ) ) ) ) ) ) ) Y x e e e x x t e 9 O O O O % z 6.f.f.f.f.f.f.x.f.i.f.x.x.6.6.6.6.6.6.6.5.#.| | | | | | | o.#.| | | } T T T T ( ( T T T T Y S Z ~ J.G.x t t n V V V V V V V V V V V V V V A ~ | | ~ Z 3 % ; * % % % ; , 9 i i i M ) ) o.<.<.<.<.<.<.<.| ) o.<.<.<.<.<.<.<.<.<.<.<.<.<.>.<.<.<.<.<.<.<.<.| | | | | | | | } } ( ( ( ( X.X. . . . .| Y Z V A ~  .X.X. .X.X.X.X.X. .| ^ ! ~ ~ ~ ~ ! ! ! ! ~ D Z Z V V i i i i x V V D ~ ~ | 6.f.f.f.f.4.,.",
">.~.[.~.| | |  .| | M o o O & & & & & & 9 e e x v Z Y Y Y Y Y 6.f.f.f.f.f.f.f.f.f.f.q.4.,.;.| | | | | | -.-.,.,.,.,.,.,.-.n 7 7 7 7 7 7 7 7 7 7 7 7 7 7 ;.;.;.;.;.>.6.6.6.q.J.J.J.E.E.E.E.E.E.E.E. .B i i i i i 7 , , # # # # # # # # # # % w w i z z j z j z i e z z z j j z x Y Y Y Y Y Y Y Y Y Y Y Y Y Y Y S M M v M v v M D ( ) o.5.y.y.y.y.y.X.Y U U U U U S S S U Y Q Q y.I.I.I.5.T T T T ~ t , , , , , , , , , , , , 7 e e e e e e e e e e e t ~ ) ) q.0.) ) ) ) ^ ) ) ^ ) ) ) ) ^ ^ ^ ^ ) ) ) ~ A A A Z % % % * 9 9 9 t Z D Y Y D Y >.6.6.f.k.m.m.N.N.N.N.N.N.N.N.N.N.N.k.g.6.>.X.| X.1.<.) ) ) ) ) ) ) ) ) ) ) ) Y x z e e t f e e 9 O O O O % z 6.f.f.f.f.h.f.x.x.f.f.x.f.i.6.6.6.6.6.6.6.5.>.o.| | | o.>.>.>.o.| | | } T T T ( ~ T T T T T T T | J.J.{ j v V V V V V V V V V V V V V V Z ~ | { ^ Z A Z % % % % % % ; , 3 t i i X.<.<.<.<.<.<.<.<.<.5.<.<.<.<.5.5.<.<.<.<.<.6.i.i.i.5.<.<.<.<.<.<.<.<.| | | | | | } } ) ( ( ( ( ( } X.X.X. . .X.X.X.X.) D V ! X.X.X.X. .X.X.X. . . .^ ~ ~ ~ ~ ~ ~ ! ~ ~ A V V V i i i i i x A ^ ~ ~ | c.c.c.c.c.c.c.c.",
"S S 5.>.| | | | | | | f & & & & & & & & , e e x v S Y Y Y Y Y f.f.f.4.~ T T ) ) :.5.f.f.f.f.f.,.,.,.-.-.-.-.,.,.,.,.,.,.,.-.i 7 7 7 7 7 7 7 7 7 7 7 7 7  .;.;.;.4.6.6.6.f.J.J.J.J.E.E.E.E.E.E.E.E.g.B B x p i i u , , $ # # # # # # # # # , w w i j j z z z z z i z j j j j z z S Y Y Y Y Y Y Y Y Y Y Y Y Y Y Y v M v M M v T y.y.y.y.y.y.6.#.} Y U U U U U U U S S S U Y Q Q Q ..m.I.I.v.( T T } <.r 9 e i i i i i t q t f f z i e e e e e e e e t ~ ) ) ) q.f.) ) ) ) ) ) ) ^ ) ) ^ ) ^ ^ ^ ^ ) ) ) ) ~ D A A e % % % 9 9 9 9 w x Y Y D ( N.N.N.N.N.N.N.N.N.N.N.m.v.v.f.f.6.>.X.} ( ( ( ( ( X.5.>.) ) ) ) ) ) ) ) ) ) ) ) ~ n z e e e e e 9 O O O O $ z 6.f.f.f.f.h.x.x.x.f.f.x.x.i.i.i.f.f.y.6.6.6.5.>.>.>.>.>.>.>.>.>.| | | | ( T T T T T T T T T T T T G.G.{ ^ V V V V V V V V V V V V V V Z ) | | ^ Z Z Z Z 9 % % % % % ; , 3 3 z 5.v.v.f.i.i.i.i.i.i.i.v.v.v.v.m.m.m.m.v.v.v.m.m.m.m.m.v.5.<.<.#.#.X.| | | | | | | ( ( ( ( ( ( ( ( ( ( ( ( ( ) ( | X.X.X.X. .| A ~ X.X.X. .X.X.X. .| |  .~ ~ ~ ~ ~ ~ ~ ~ ~ A V V j i i i i i D Y ~ ~ ~ ~ ~ ~ ~ ~ ~ ~ ~ ~ ",
"S S S T | | | | | | | | 9 & & & & & & & = w w x v Y Y Y Y Y } f.f.q.( ~ ~ ~ ~ T ~ ~ ~ :.5.7.7.6.-. .| } ) | :.,.,.,.,.,.;.,.-.0 7 7 7 7 7 7 7 7 7 7 7 0  .;.;.>.0.0.f.n.J.J.J.J.J.E.E.E.E.E.E.E.E.U.B B B B B B B , , % # # # # # # # # # , w w t j z z z z z z j j j j z z z z S Y | | } } } } | | | | } ( Y Y Z Z M M Z #.y.y.y.y.6.#.Q Y Y Y U U U U U U U S U U U S Y Q Q Q ( ( #.C.I.K.} T X.<.) j x x x x x x x x D D D D D D A Z ! ) -.-.-.d.c.c.F.G.L.U.L.k.,.>.) ) ) ^ ) ) ^ ^ ^ ^ ^ ^ ) ) ) ) ^ ~ D A A * % % , 9 9 t s s f Z Y >.N.m.v.v.f.f.6.6.1.>.>.>.>.#.X.} ( ( ( ( ( ( ( ( } } >.5. .) ) ) ) ) ) ) ) ) ) ) ) ) Y x e e e e 9 O O O O O z 6.f.f.x.x.x.x.x.h.h.f.f.f.f.f.f.f.f.f.y.6.6.6.>.>.>.>.>.>.>.>.>.| | | | | ( T T T T T T T T T T ~ m.J.{ { ^ ~ ! D V V V V A ~ ^ { ^ ~ ^ ^ ^ ~ D ~ ~ { ~ x % % % % % ; 9 9 9 f.m.m.m.m.m.m.m.m.m.m.m.m.m.m.m.m.m.m.m.m.m.v.v.v.f.y.5.<.5.<.o.o.| | | | | | | | | ) ( ( ( ( ( ( ( ( ( ( ( ( ( ) ( ( } | X.X.X.X.) X.X.X. . .X.X.X.! ~ ~ ~ ~ ~ ~ ~ ~ ~ ~ ~ D V V i i i i i n Y T ~ ~ ~ ~ ~ Y Y Y Y Y Y T ",
"S S S S Y | | | | | | | ) , & & & & & & * w e z Z Y Y Y Y Y 7.f.f.:.~ ~ ~ ~ ~ ~ ~ ~ ~ ~ ) ) ) ) ) ) ) ) ) ( | ,.,.,.,.,.;.,.;.~ 7 7 7 7 7 7 7 7 7 7 7 Y ;.;.;.6.c.m.N.J.J.J.J.J.J.L.E.E.E.E.E.E.E.E.Y B B B B B n , , * # # # # # # # # # $ w w e j z z z x x z j j j j x v Z Y Y T | | | | | | | | | | | | | ( Y Y Y Y ( o.#.#.} T Y Y Y Y U U U U U U U U S S U U U U Y Q Q Q Q ( ( ( y.I.I.5.>.<.<.A x x x x x x x A D D D ~ ! A A | -.-.-.-.,.g.c.L.E.E.E.E.E.E.L.m.s.7.7.f.N.F.m.m.m.k.f.1.| ) ) ) ^ ^ ^ ~ Y x % % * e Y Y Y Y Y ( ( >.>.>.>.>.>.>.>.>.>.>.>.>.| ( ( ( ( ( ( ( ( ( ( ( } ( ( 1.1.) ) ) ) ) ) ) ) ) ) ) ) ) ) ) ! x e e e O O O O # s y.f.f.x.x.x.x.x.x.h.f.f.f.f.f.f.f.x.x.f.6.6.6.5.5.5.5.6.6.6.5.>.X.| | | | } T T ~ T T T T T ~ T T 7.J.{ | ^ ^ ^ ^ ^ ! D D ) | { { | | { ^ ^ { { { { { ~ Z % % % % % > 9 9 z m.m.m.m.m.m.m.m.m.m.m.m.m.m.v.f.i.f.f.i.y.6.6.5.<.<.<.<.<.5.o.o.o.| | | | | | | | | ( ( ( ( ( ( ( ( ( ( ( ( ( ( ) ( ( ( ( } X.X.X.X.X.X.X.X. .X.X.X.~ ~ ~ ~ ~ ~ ~ ~ ~ ~ ~ ~ F V j i i i i i Y Y ~ ~ ~ ~ T Y Y Y Y Y Y Y Y ",
"S S S S S S T | | | | | | T & & & & & & & e e t Y Y Y Y Y } f.f.0.~ ~ ~ ~ ~ ~ ~ ~ ~ ~ ~ ~ ( ) ) ( ) ) ) ( ( } 5.k.,.:.:.:.-.;.-.n 7 7 7 7 7 7 7 7 7 n ;.;.;.;.f.m.m.G.J.J.J.J.J.J.J.E.E.E.E.U.J.U.E.5.B B B B B i , , * # # # # # # # # # # * , , e j z Y Y Y Y Z x z Y Y Y Y Y Y ( | | | | | | | | | | | | | | Y Y Y Y Y Y Y Y Y Y Y Y U U S S U S U U U S S S U U U U Y Y Q Q Q ( ( ( ( ..v.I.5.<.<.>.x j x x x A A D D ) 1.5.5.7.,.,.-.-.,.4.k.g.c.m.U.E.E.E.L.f.5.5.5.1.1.<.<.f.k.m.m.n.n.F.m.k.>.^ ^ ^ ^ ) ^ ^ e % % t Y Y Y Y Y ( ( >.>.>.>.>.>.>.>.>.>.>.>.X.( ( ( ( ( ( ( ( ( ( ( ( ( ( ( X.5.X.) ) ) ) ) ) ) ) ) ) ) ) ) ) ) ) v f e O O O # $ , 5.f.f.f.h.x.x.x.x.x.x.f.f.h.h.x.x.x.x.x.f.6.6.6.6.6.6.6.6.6.5.>.o.| | | | | ( ( ~ ( T T T T T ~ ( X.J.| | | | { { { { | | | | { { ^ { { | | | | | | | Y Z > * % % % > 9 9 } m.m.m.m.m.m.m.n.n.m.n.m.m.v.y.5.5.i.i.6.6.6.6.6.5.<.<.<.<.#.o.o.o.X.| | } | | | | | } ( ( ( ( ( ( ( ( ( ( ( ( ( ) ( ( ( ( ) )  .X.f.N.g.6.X.X.X.X.| ~ ~ ~ ~ ~ ~ ~ ! ! ! ! ~ ~ A i i i i i x Y Y ~ ~ ~ ~ Y Y Y Y Y Y Y Y Y ",
"S S S S S S S S Y } | | | | Z & & & & & , e e M Y Y Y Y Y 0.f.f.) ~ ~ ~ ~ ~ ~ ~ ~ ~ ~ ~ ~ ~ ~ ( ( ) ) ) ( ( } >.K.E.k.,.:.:.-.-.-.i 7 7 7 7 7 7 7 i -.;.;.;.>.f.m.m.G.J.J.J.J.J.J.J.J.E.E.L.J.J.U.E.K.B B B B B e , , * # # # # # # # # # # # , , , e v Y Y Y Y Y Y Y M x v Y Y Y } | | | | | | | | | | | | | } Y Y Y Y U U U U U U U U U S S S S S U U U S S S U U U U Y Y Q Q Q ( ( ( Q ( ( o.y.<.<.<.) j x x A A A D ~ 5.1.1.1.k.c.c.c.c.c.c.g.g.F.E.E.E.E.v.5.5.5.5.1.>.X.X.X.X.X.X.X.X.>.6.s.k.6.>.) ^ ^ ) ) ) ! % % , Y Y Y Y Y ( ( >.>.>.>.>.>.>.>.>.>.>.>.( ( ( ( ( ( ( ( ( ( ( ( ( ( ( ( ( >.5.) ) ) |  .:.:.:.:.:.) ) ) ) ) ) Z v x % O O # * t U f.f.f.h.h.x.x.x.x.x.f.f.h.x.x.x.x.x.x.x.i.6.6.6.6.6.6.6.6.5.>.X.| | | | | ( ( T T T T T ~ ~ ~ ( ( G.f.-.-. . .| { { | | | | { { { { :.,.,.,.-.| | | Z Z 3 * % % % > 9 w v.m.m.m.m.m.m.m.n.n.n.n.m.m.y.5.5.6.i.i.i.i.i.y.6.6.5.<.<.<.o.o.o.o.X.| | } } } | | | | ( ( ( ( ( ( ( ( ( ( ( ( ( ( ( ( ( ( ) ) ( | X.<.m.N.m.y.:.X.| ~ ~ ~ ~ ~ ~ ! ! ! ! ! ~ ~ F i i i i i Z Y Y T ~ ~ Y Y Y Y Y Y Y Y Y Y ",
"S S S S S S S S S S ~ | | | | f & & & & 9 e z Y Y Y Y Y :.f.f.5.T T ~ ~ ~ ~ T T T ~ ~ ~ ~ T T T T ( ( ( } } | o.5.E.E.q.0.,.,.,.,.A A 0 7 7 7 7 7 | -.;.;.,.q.q.m.m.N.J.J.J.J.J.J.J.J.J.J.J.J.J.U.E.E.A B B B B 7 , , * # # # # # # # # # # # $ , , , f Y Y Y Y Y Y Y Y Y Y Y Y Y | | | | | | | | | | | | | } Y Y U S S S S U U U U U S S U U U S S S U U U S S S S U U Y Y Y Y Q ( ( ( Q Q ( ( ( X.>.<.<.A x x A A D D X.5.5.5.5.s.c.c.c.c.c.c.c.c.E.E.E.K.6.5.1.1.1.<.X.X.X.X.X.X.X.X.X.X.X.X.X.X.>.<.>.) ) ) ^ ^ ) z % % n Y Y Y Y Q ( >.>.>.>.>.>.>.>.>.>.>.| } ( ( ( ( } } ( ( ( ( ( ( ( ( ( ( | 5.:.| X.:.:.:.:.:.:.:.| ) ) ) ) ) A v v 9 # O O % t U h.f.f.f.x.x.x.x.x.h.x.x.x.h.h.f.x.x.x.x.f.i.6.6.6.6.6.6.6.>.>.| | | | | | | T T T T T ( T ( ( ( T q.J.J.F.4.4.4.,.| { { ,.-.{ { { | ,.,.4.4.,.{ | ~ Z Z 3 % % % % > 9 ( m.m.m.m.m.m.m.n.n.n.m.m.m.v.6.6.6.y.i.i.i.i.i.i.y.6.6.<.<.<.o.o.o.o.X.| | } } | | | | } } ( ( ( ( ( ( ( ( ( ( ( ( ( ( ( ( ( ( ( ( ) X.X.X.f.n.N.n.7.X.! ~ ~ ! ! ! ! ~ ~ ~ ~ ! D Z i i i i i Y Y Y Y ~ T Y Y Y Y Y Y Y Y Y Y ",
"S S S S S S S S S S S Y | | | | f & & , e i Y Y Y Y Y ( f.f.q.~ T T T ~ ~ ~ ~ T T ~ ~ ~ ~ T T T T ~ ( ( } } | o.#.m.E.g.q.q.q.0.,.A A A q 7 7 7 Z -.;.;.,.q.q.q.v.m.m.J.J.J.J.J.J.J.J.J.J.J.J.J.U.E.E.:.B B B B 7 , , * # # # # # # # # # # # # $ , , , n Y Y Y Y Y Y Y Y Y Y Y Y | | | | | | | | | | | | ( Y Y U U S S S S U U U U U U S U U U S S U U U U S S S S U U Y Y Q Y Q ( ( ( Q Q ( ( ( ( ( } <.>.x x D A D A >.5.5.5.5.5.k.c.c.c.c.c.c.c.E.L.f.1.5.5.1.1.>.X.X.X.X.X.X.X.X.X.X.X.X.X.X.X.X.<.<.>.) ) ^ ^ ^ ~ > % , Y Y Y Y Q ( X.>.>.>.>.>.>.>.>.>.X.( } ( ( ( ( } ( ( ( ( ( ( ( ( ( ( ( ( >.<.:.:.:.:.:.:.:.:.:.:.| ) ) ) ) ~ v v f O O # $ t U h.h.f.f.x.x.x.x.h.h.x.x.x.x.f.f.f.f.x.x.f.f.i.6.6.6.6.6.5.>.>.| | | | | | | T T T T T T ( ( T ~ T | G.J.0.4.4.4.4.4.>.,.4.,.| | { | ,.,.4.4.,.{ | D Z Z , % % % % , t v.m.m.m.m.m.m.m.m.n.n.m.m.m.y.5.6.6.i.i.i.i.i.i.i.i.6.6.5.<.<.o.o.o.o.X.| | | | } | | | | } } } ( ( ( ( ( ( ( ( ( ( ( ( ( ( ( ( ( ( ( } X.X.X.<.v.N.n.m.-.~ ~ ! ^  .! ~ ~ ~ ~ F Z Z i i i i i Y Y Y Y Y Y Y Y Y Y Y Y Y Y Y Y ",
"S S S S S S S S S S S S ) | | | | 9 = w i Y Y Y Y Y Y q.f.f.X.~ ~ ~ ~ ~ ~ ~ ~ T T T ~ ~ ~ ~ ~ ~ ~ ( ( ( } } | X.#.>.I.G.q.q.q.q.q.-.A A A 7 7 z ,.,.;.,.q.q.8.8.v.m.m.m.J.J.J.J.J.J.J.J.J.J.J.J.E.E.E.m.B B B B 7 , , , # # # # # # # # # # # # # $ , , , Z Y Y Y Y Y Y Y Y Y Y Y ( Q ( ( } } } } } } ( Q Q Y U U U U U U U U U U U U U U U U U S S U U U U U U U U U U Y Y Q Q Q ( ( ( Q Q ( ( ( ( ( ( ( <.T x A A A A | 5.5.5.5.5.1.s.g.g.g.c.c.c.f.5.1.1.1.1.1.X.X.X.X.X.X.X.X.X.X.X.X.X.X.X.X.X.X.X.<.<.| ^ ^ ^ ^ ^ z % % f Y Y Y Q ( X.>.>.>.>.>.>.>.>.>.( ( ( ( ( ( ( ( ( ( ( ( ( ( } ( ( ( ( ( ( <.} ( ( | :.:.:.:.:.:.:.| ) ) ) ) A v n O O # $ t U g.f.f.f.f.x.f.f.f.f.h.x.f.f.f.f.f.f.x.x.x.h.f.6.6.6.6.6.<.<.>.X.| | | | | | T T T T T T T T T T T | f.J.c.4.c.G.G.g.4.4.4.,.| | | | ,.,.4.-.{ { ~ Z Z A , % % * ; M 5.h.m.m.m.m.m.m.m.m.n.m.m.v.y.6.5.5.y.i.i.i.f.v.v.i.i.y.6.5.<.<.o.o.o.o.X.| | | | | | | | | | | | | } ( ( ( ( ( ( ( ( ( ( ( ( ( ( ( ( ( ( | X.X.X.X.6.m.m.m.g.^ ^  . .^ ~ ~ ~ ~ D Z V i i i i i Y Y Y Y Y Y Y Y Y Y Y Y Y Y Y Y ",
"S S S D S S S S S S S S Y | | | | | t x Y Y Y Y Y Y 5.f.f.5.~ ~ ~ ~ ~ ~ ~ ~ ~ ~ ~ ~ ~ ~ ~ ~ ~ ~ ~ ( ( ( } | | | o.o.v.$XU.q.q.q.q.q.0.D A q 9 ! q.6.,.q.q.q.q.8.m.m.m.m.N.J.J.J.J.J.J.J.J.J.J.J.U.E.E.E.A B B B t , , , $ # # # # # # # # # # # # # $ , , 7 U Y Y Y Y Y Y Y Y Y Q Q Q Q Q Q Q Q Q Q Q Q Q Q Y U U U U U U U U U S U S S U U S U S S U U U U U U U U U U Y Y Q Q Q ( ( Q ( Q ( ( ( ( ( ( ( ..V.X.D A A D ! <.5.5.5.5.1.5.1.6.s.s.0.5.5.5.1.1.1.>.X.X.X.X.X.X.X.X.X.X.X.X.X.X.X.X.X.X.X.X.X.<.>.| ^ ^ ^ ^ ~ > % : Y Y Y Q ( X.>.>.>.>.>.>.>.>.X.( ( ( ( ( ( ( ( ( ( ( ( } } } ( ( ( ( ( ( | ( ( ( ( } :.:.:.:.:.:.:. .| ) ) ) A v % O O # t U g.f.f.f.f.x.f.f.f.f.f.x.x.f.f.f.f.f.x.x.h.h.i.6.6.6.6.5.<.>.<.o.| | | | | | T T T T T T T T T T T | | G.J.J.J.J.J.G.G.q.4.>.4.,.| | |  .| | ^ ^ D Z Z A , % * * * o.5.6.6.i.v.m.m.m.m.m.m.v.y.5.6.6.5.5.i.i.f.v.v.v.v.i.i.y.6.5.<.<.o.o.o.o.X.| | | | | | | | | | | | } ( ( ( ( ( ( ( ( ( ( ( ( ( ( ( ( ( ( ( ) X.X.X.X.X.:.6.m.N.N.<. . .^ ~ ~ ~ ! Z Z x i i j v Z Y Y Y Y Y Y Y Y Y Y Y Y Y Y Y Y ",
"S S D Y S S S S S S S S S T ) | | | T Y Y Y Y Y Y | f.f.7.~ ~ ~ ~ ~ ~ ~ ~ ~ ~ ~ ~ ~ ~ ~ ~ ~ ~ ~ ~ ( ( ( ( } | | o.#.v.%X%XK.q.q.q.q.q.q.~ q D | q.7.q.q.q.q.8.f.m.n.n.n.N.J.J.J.J.J.J.J.J.J.J.J.J.J.E.E.X.B B B A D , , % # # # $ * & & * $ # # # # # % , , t Y Y Y Y Y Y Y Q Q Q Q Q Q Q Q Q Q Q Q Q Q Q Q Y Y S S S U U U S S S S U U U S S S U U U U S U U U U U U U Y Y Q Q Q Q Q Q ( ( Q Q ( Q Q ( ( ( h.v.D D A A D X.1.5.5.5.5.5.1.1.1.1.>.X.X.>.>.X.X.X.X.X.X.X.X.X.X.X.X.X.X.X.X.X.X.X.X.X.X.X.X.X.>.>.:.:.:.>.>.M % % a Y Y Q ( X.>.>.>.>.>.>.>.X.( ( ( ( ( ( ( ( ( ( ( ( ( ( ( ( ( ( ( ( ( ( ( } | ( ( ( } :.:.:.:.:.:.:.:.| ) ) ) ) z O O O w U f.f.f.f.f.f.f.f.x.x.f.f.f.f.f.f.f.x.f.f.f.f.6.6.6.6.5.>.>.>.>.| | | | | | | ( ( T T ( T ( T T T T | | 6.G.J.G.G.G.G.J.J.G.0.9.4.4.-.| | { ^ ^ D Z Z Z Z 3 % % % % ..5.5.5.5.5.y.h.m.m.m.m.y.5.5.5.6.5.y.i.h.v.v.v.v.v.f.i.y.6.5.<.<.o.o.o.o.X.} } | | | | | | | | | } ( ( ( ( ( ( ( ( ( ( ( ( ( ( ( ( ( ( ( ) ( | X.X.X.X.X.X.X.6.v.k.X.X.| ~ ~ ! D Z Z j n Z Z Z Z Y Y Y Y Y Y Y Y Y Y Y Y Y Y Y Y ",
"S S Y Y S S S S S S S S S Y Y Y Y Y Y Y Y Y Y Y T q.f.f.~ ~ ~ ~ ~ ~ ~ ~ ~ ~ ~ ~ ~ ~ ~ ~ ~ ~ ~ ~ ~ ( ( ( ( } | | o.#.#.#X%X|.F.d.q.q.q.q.0.Z F >.q.q.8.q.q.q.q.x.m.n.n.n.J.J.J.J.J.J.J.J.J.J.J.J.J.J.E.E.m.B B B Y Y t , , $ * , , , , , , , $ # # # # # , , , M Y Y Y Y Q Q Q Q Q Q Q Q Q Q Q Q Q Q Q Q Q T Y Y U S U U U U U S S S U U S S S S U U U U S U U U U U U U Y Y Q Q Q Q Q Q ( ( Q Q ( ( Q Q ( ( <.V.>.D A A D X.>.5.5.5.5.5.1.1.<.X.X.X.X.X.X.X.X.X.X.X.X.X.X.X.X.X.X.X.X.X.X.X.X.X.X.X.X.X.X.X.X.>.<.<.<.<.>.>.% % % U Y Q ( X.>.>.>.>.>.>.#.( ( ( ( ( ( ( ( ( ( ( } } ( ( ( ( ( ( ( ( ( ( ( } :.:.| ( ( } :.:.:.:.:.:.:.:.| ) ) ) ) $ O O , U f.f.f.f.f.f.f.f.x.x.f.h.f.f.h.f.f.x.f.f.f.y.6.6.6.<.>.>.>.>.o.| | | | | | | T T T T ( ( T T T T ( | | | m.J.G.G.J.J.{.^.L.q.9.4.4.4.| | { { D Z Z Z Z Z 3 * % % % s 5.5.5.5.6.5.5.y.f.m.f.5.5.5.5.5.y.i.h.v.v.v.v.v.v.f.i.y.6.5.<.<.o.+.o.o.X.} } } | | | | | | | | ( ( ( ( ( ( ( ( ( ( ( ( ( ( ( ( ( ( ( ( ) ) ) X.X.X.X.X.X.X.X.X.>.X.X.X.^ ~ ! Z Z Z Z Z Z Z Z Z Y Y Y Y Y Y Y Y Y Y Y Y Y Y Y Y ",
"S S Y Y Y S S S S S S S S S Y Y Y Y Y Y Y Y Y Y 5.f.f.) ~ ~ ~ ~ T T ~ ~ ~ ~ T T T ~ ~ ~ ~ ~ T ~ ~ ) ) ) ( | | | #.#.:.5.+X%XE.U.L.m.q.q.q.F ~ q.q.q.8.8.q.q.f.m.m.m.n.m.J.J.J.J.J.J.J.J.J.J.J.J.J.J.U.E.G.Y Z Y Y Y Z , , , , , , , , , , , * # # # # # * , , t Y Y Y Y Q Q Q Q Q Q ( ( Q Q Q Q Q Q Q Q Q Y Y Y Y S U U U U S S S S U U U U S U U U S S U U U U U U U U Y Q Q Q ( Q ( ( ( ( Q Q ( Q Q Q ( ( ( V.m.Y A A A X.X.1.5.5.5.1.1.<.X.X.X.X.X.X.X.X.X.X.X.X.X.X.X.X.X.X.X.X.X.X.X.X.X.X.X.X.X.X.X.( ( >.1.<.>.<.>.>.z % % 9 Y ( ( X.>.>.>.>.>.>.} ( ( ( ( ( ( ( ( ( ( ( ( ( ( ( ( ( ( ( ( ( ( ( ( } | :.:. .} ( } X.:.:.:.:.:.:.:.| ) ) ) , O # , M f.f.f.f.f.f.x.x.x.x.x.x.x.x.x.f.f.f.f.x.y.6.6.5.<.<.>.>.>.>.| | | | | | | } T T T ( T T T T T T ( | | | 5.G.J.J.J.Q.OXOXOX^.q.9.4.4.,.{ { ! Z Z Z Z Z Z , ; ; ; % , <.5.5.5.6.6.5.5.5.6.y.5.5.5.6.6.i.i.v.v.v.v.v.v.v.f.i.y.6.6.<.<.o.o.o.o.X.} } } } } | | | | } } ( ( ( ( ( ( ( ( ( ( ( ( ( ( ( ( ( ( ( ( ) ) ) | X.X.X.X.X.X.X.X.X.X.X.X.| S Z Z Z Z Z Z Z Z Z S Y Y Y Y Y Y Y Y Y Y Y Y Y Y Y Y ",
"S S Y Y Y S S S S S S S S S Y Y Y Y S Y Y Y Y } f.>.( ~ ~ ~ ~ ~ T T ~ ~ ~ ~ ~ T T ~ ~ ~ ~ ~ T ~ ~ ) ) ) ( | | X.o.#.#.5.i.%X$XE.U.U.L.c.,.F | q.q.q.8.q.q.q.v.m.m.m.m.N.J.J.J.J.J.J.J.J.J.J.J.J.J.J.L.E.E.| Y Y Y Y Y , , , , , , , , , , , , * # # # # , , 9 w M Y Y Y Q Q Q Q Q ( ( ( ( Q Q Q ( ( Q Q Q Y Y Y Y U U U U U S S S S U U U U U U U S S S S S U U U U U Y Y Q Q Q ( ( ( ( ......} ( Q Q Q ( ( ( y.V.6.A A A ) X.>.5.5.5.1.<.X.X.X.X.X.X.X.X.X.X.X.X.X.X.X.X.X.X.X.X.X.X.X.X.X.X.X.X.X.X.X.} ( ( | <.<.>.>.>.) t % % % P ( ( X.>.>.>.>.>.X.( ( ( ( ( } } ( ( } } ( ( ( ( ( ( ( ( ( ( ( ( ( ( } ( | :.:.:.X. .:.:.:.:.:.:.:.:.:.| ) ) , # * , 9 i.f.x.x.h.h.h.x.x.x.h.h.h.x.x.x.f.f.f.y.6.6.6.5.<.<.>.>.>.#.| | | | | | | ( T T T T T T T T T T } | | | >.6.G.J.L.{.OXOXOX{.U.c.0.9.>.{ { Z Z Z Z Z Z Z ; ; ; ; % % +.5.5.6.6.5.5.5.5.5.5.5.5.5.6.i.i.v.v.v.v.v.v.v.v.f.i.i.6.6.5.<.o.+.o.o.o.} } } } } | | | | } ( ( ( ( ( ( ( ( ( ( ( ( ( ( ( ( ( ( ( ( ( ) ) ) } X.X.X.X.X.X.X.X.X.X.X.X. .S Z Z Z Z Z Z Z Z Z Y Y Y Y Y Y Y Y Y Y Y Y Y Y Y Y Y ",
"S Y Y Y Y D S S S S S S S S S Y Y Y S S D Y Y } T Y T T ~ ~ ~ ~ ~ ~ ~ ~ T T T ~ ~ T T T T T ~ ~ ( ) ( ) } | | X.o.o.:.5.5.K.%X$XE.U.U.U.,.F ,.q.q.q.q.q.q.g.m.n.m.m.n.N.J.J.J.J.J.J.J.J.J.J.J.J.J.J.L.E.E.J.Y Y Y Y Y , , , , : % * , , , , , , * $ # $ , , w w z Y Q Q Q Q Q Q Q ( ( ( Q Q Q Q ( ( Q T Y Y Y Y Y U U U U U U S U U U U U U U U U U U S U U U U U U U Y Q Q Q ( ( ( ( ............( Q Q Q ( ( X.V.V.~ A A Y X.X.1.1.1.1.X.X.X.X.X.X.X.X.X.X.X.X.X.X.X.X.X.X.X.X.X.X.X.X.X.X.X.X.X.X.X.X.( ( ( ( >.>.>.<.>.Z w % % % , ( ( ( >.>.>.>.X.( ( ( ( ( | X.| } ( ( ( ( ( } | | | | } } ( ( ( ( ( ( ( ( } | :.:.:.:.:.:.:.:.:.:.:.:.:.) ) 7 , 7 , , ( f.x.x.x.x.f.f.f.f.f.x.x.x.x.x.f.f.6.6.6.6.6.6.<.>.<.<.>.o.| | | | | | } T T T T ( ( ( T T T ( | | | | >.>.8.J.[.{.{.{.{.{.{.G.G.g.,.{ ^ A Z Z A A Z Z % % % % % % Q #.5.5.5.5.6.5.5.6.5.5.5.5.y.i.x.v.v.v.v.v.v.v.v.f.i.i.6.6.5.<.#.o.o.o.o.X.} } } | | | | } } ( ( ( ( ( ( ( ( ( ( ( ( ( ( ( ( ( ( ( ( ( ( ( ( ( X.X.X.X.X.X. . . .X.X.X.X.T Z Z Y Z Z Z Z Z Z Y Y Y Y Y Y Y Y Y Y Y Y Y Y Y Y Y ",
"Y Y Y Y Y Y S S S S S S S S S Y Y Y Y S S S Y Y Y Y T T ~ ~ ~ ~ ~ ~ ~ ~ T T ~ ~ ~ ~ T T ~ ~ ~ ~ ( ) ( ) } | | o.o.#.>.5.5.8.].%X$XU.U.U.4.F 6.q.q.q.q.q.f.m.m.n.m.m.n.J.J.J.J.J.J.J.J.J.J.J.J.J.J.J.J.E.E.E.>.Y Y Y D , , , : % % % * , , , , , , , , , , w w r z R Q Q Q Q Q Q ( ( } ..} } } ( ( ( Q Q Q Y Y Y Y Y U U U U S S U U U U U U U U U U U U U U U U Y Y Y Y Q Q ( ( ( ( Q ..............( Q Q ( ( ( h.V.f.A A D ( X.>.1.1.X.X.X.X.X.X.X.X.X.X.X.X.X.X.X.X.X.X.X.X.X.X.X.X.X.X.X.X.X.X.X.X.| ( ( ( ( X.>.>.>./ Z f % % % % n ( ( #.>.>.X.( ( ( ( ( } X.X.| | } ( ( ( } | X.X.| | | | X.| } ( ( ( ( ( ( ( ( | X.:.:.:.:.:.:.:.:.:.:.:.) 7 7 , , , s f.x.x.x.x.f.f.f.f.x.f.x.x.x.f.i.6.6.6.6.6.6.6.5.>.<.<.>.| | | | | | | T T T T T T ( ( T T T } | | | | >.>.>.f.{.{.{.{.{.{.OXL.G.G.-.{ ^ A Z Z A A Z Z % % % % % % b o.5.5.5.5.5.5.5.5.6.5.5.6.i.v.v.v.v.v.v.v.v.v.v.v.i.i.y.6.6.5.<.o.o.o.o.X.} } | | | | } } ( ( ( ( ( ( T T T T ( ( ( ( ( ( ( ( ( ( ( ( ( ( ( ( | X.X.X.X.X. . . .X.X.X.X.T Z Y ) Z Z Z Z Z S Y Y Y Y Y Y Y Y Y Y Y Y Y Y Y Y Y ",
"Y Y Y Y Y Y Y S S S S S S S S S Y Y Y Y S S S S U Y Y T ~ ~ ~ ~ ~ ~ ~ ~ ~ ~ ~ ~ ~ ~ ~ ~ ~ ~ ~ ~ ( ( ) ) | | | #.o.o.>.5.5.i.i.+X%X|.U.U.^ ~ m.v.g.g.f.f.n.m.n.n.m.n.N.J.J.J.J.J.J.J.J.J.J.J.J.J.J.J.J.J.E.E.m.Y Y ! Z , , * % % % % % , , 9 w 7 , , , 7 w w r k z U Q Q Q Q Q Q ( } } } } } } } } } Q Q Q Q T Y Y Y U U U U U U U U U U U U U Y Y Y Y Y Y Y Y Y Y Q Y Q Q ( Q Q Q Q ( ................( Q Q ( ( ..m.m.X.~ ~ X.X.X.>.X.X.X.X.X.X.X.X.X.X.X.X.X.X.X.X.X.X.X.X.X.X.X.X.X.X.X.X.X.X.X.X.X.} ( ( ( ( ( >.>.>.I Z Z , % % % : ( ( X.>.X.( ( ( ( ( ( ( } | X.| | | } | | | | | | | | | | | X.X.( ( ( ( ( ( ( ( ( ( | | :.:.:.:.:.:.:.:.:.9 , , , 7 , 6.f.f.x.h.f.x.x.f.h.h.x.x.f.i.6.6.6.6.6.6.6.6.6.>.>.>.>.| | | | | | ( T T T T T T T T T T T | | | | | >.>.>.>.i.{.OXOX{.{.{.Q.G.q.| | ^ Z Z Z Z Z Z Z % % ; ; * * 4 o.#.5.5.5.5.5.5.5.5.5.5.f.v.v.v.v.v.v.v.v.v.v.v.v.i.i.i.6.6.6.<.<.o.o.o.o.X.} | | | | | | ( ( ) ) ( T T Q T T T T ( ( ( ( ( ( ( ( ( ( ( ( ( ( } X.X.X.X.X.X.X. . .X.X.X.Y Z | T Z Z Z Z Z S Y Y Y Y Y Y Y Y Y Y Y Y Y Y Y Y Y ",
"Y Y Y Y Y Y Y S S S S S S S S S Y Y Y Y Y S S S Y Y Y T T ~ ~ ~ ~ ~ ~ ~ ~ ~ ~ ~ ~ ~ ~ ~ ~ ~ ~ ~ ( ( ) } | | X.#.o.>.5.5.6.i.i.f.%X#XU.J.F ^ m.m.m.m.m.m.m.m.n.n.m.n.J.J.J.J.J.J.J.J.J.J.J.J.J.J.J.J.J.J.G.v.>.! Y ! x , * % % % % % % , , w w w w w w w t s z z z M Q Q Q Q Q } } } } } } } } } } } } Q Q Q Q Y Y Y U U U U U U S U U U Y Y Y Y Y Y Y Y Y Y Y Q Q Q Q Q Q Q Q Q Q Q ......................} } ....5.m.y.X.X.X.X.X.X.X.X.X.X.X.X.X.X.X.X.X.X.X.X.X.X.X.X.X.X.X.X.X.X.X.X.X.X.X.X.X.X.X.} ( ( ( ( ( X.>.>.I Z Z Z , % % % Z ( ( X.( ( ( ( ( ( ( ( ( ( } | | | | | | | | | | | | | | | X.X.( ( ( ( ( ( ( ( ( ( ( ( ( } | X.:.:.:.:.:.Y , , , , , U f.f.h.h.f.m.m.m.v.x.x.x.f.f.f.i.y.6.6.6.6.6.6.>.>.>.#.| | | | | } T T T T T T T T T T T ( | | | | o.>.>.>.>.>.5.~.OXOXOX{.~.G.G.;.| ^ D Z Z Z Z Z Z % % * ; * * % } o.#.5.<.#.#.<.5.5.6.v.v.v.v.v.v.v.v.v.v.v.v.v.v.i.i.i.y.6.6.5.<.<.o.o.o.o.X.| | | | | } ( ( ) ( T T Q Q T T T T ( ( ( ( ( ( ( ( ( ( ( ( ( ( ( | X.X.X.X.X.X. .X.X.X.X.S Z X.Y Z Z Z Z Z S Y Y Y Y Y Y Y Y Y Y Y Y Y Y Y Y Y ",
"Y Y Y Y Y Y Y Y S S S S S S S S S Y Y Y Y S S S Y Y Y Y T T T Y Y T ~ ~ ~ ~ ~ T ~ ~ ~ ~ T T T ( ( ( } | | | X.#.#.5.5.5.6.i.i.i.I.].U.f.G :.m.m.m.m.m.m.m.m.m.m.m.N.J.J.J.J.J.J.J.J.J.J.J.J.J.J.J.J.J.J.) ! ! ! Y Y w % % % % % % % % * , w w w t t s z z z z z z z Q Q Q } } } } } ..X...} } } } } ..} Q Q Q Y Y Y Y U U U U S S U Y Y Y Y Y Y Y Y Y Q Q Q Q Q Q Q Q ( ( ( Q Q Q Q ..............................#.m.m.X.X.X.X.X.X.X.X.X.X.X.X.X.X.X.X.X.X.X.X.X.X.X.X.X.X.X.X.X.X.X.X.X.X.X.X.X.X.X.| ( ( ( ( ( | >.>.I Z Z Z Z t : % Z T ( ( ( ( ( ( } | X.| | | } } X.X.X.| X.| | | | | | | | | X.} ( ( ( ( ( ( ( ( ( ( ( ( ( ( ( ( ( |  .:.:. ., , 7 7 7 w f.f.h.h.h.v.m.m.m.m.v.x.f.f.x.x.x.f.y.6.6.6.6.<.>.>.o.| | | | } T T T T ( ( ( T T T T T } | | | | >.>.>.>.>.<.>.>.N.{.{.{./.G.G.F.| | Y Z Z Z A <.#.3 ; * % % % % m o.o.o.o.o.o.o.6.6.i.v.v.v.v.v.v.v.v.v.v.v.v.v.v.f.i.i.i.6.6.6.5.<.<.#.o.o.o.X.| | | | ( ( ( ( T T T T T T T T T ( ( ( ( ( ( ( ( ( ( ( ( ( ( ( ( | X.(  . . . .X.X.X.X.Z Y X.Z Z Z Z Z Z Z Y Y Y Y Y Y Y Y Y Y Y Y Y Y Y Y Y ",
"Y Y Y Y Y Y Y Y S S S S S S S S S S Y Y Y S S S Y Y Y Y Y Y Y Y Y T ~ ~ ~ ~ T T ~ ~ ~ ~ T T T ( ( ( } | | | o.#.5.5.5.5.i.i.i.i.x.J.U.,.F 5.n.m.m.m.m.m.m.m.m.m.m.J.J.J.J.J.J.J.J.J.J.J.J.J.J.J.J.J.J.v.! ! ! ! Y Y % % % % % % % % % % , w t s z z z z z z z z z n } } } } } } } X.o.o.o.o.X...} } } } Q Q Q Y Y Y Y U U U U U Y Y Y Y Y Y Y Q Q Q Q Q Q Q Q Q Q Q ( Q ( ( Q Q Q } ..............................+.y.m.X.X.X.X.X.X.X.X.X.X.X.X.X.X.X.X.X.X.X.X.X.X.X.X.X.X.X.X.X.X.X.X.X.X.X.X.X.X.X.X.} ( ( ( ( ( >.>.X.I Z Z Z Z C s Z Z ( ( ( ( ( ( | | X.| | | | | | X.| | X.X.| | | | | | | | | ( ( ( ( ( ( ( ( ( ( ( ( ( ( ( ( ( ( ( ( | :.:.i , 7 7 , , 5.f.x.x.f.v.m.m.m.m.m.m.v.f.f.f.x.x.f.y.6.6.6.>.>.>.o.| | | } T T T T T ( } | T T T T T | | | | >.>.>.>.>.>.<.<.>.>.6.^.{./.G.G.G.4.| ~ Z Z Z X.i.i.s ; * * % % % s o.o.o.o.o.o.#.5.y.f.v.v.v.v.v.v.v.v.v.v.v.v.v.v.v.i.i.i.i.6.6.5.<.<.<.#.o.o.o.X.| | | ( ( ( T T T T T T T T T T ( ( ( ( ( ( ( ( ( ( ( ( ( ( ( ( ( } ) ) X. .X.X.X.X.) Z ~ | Z Z Z Z Z Z Z Z Z Y Y Y Y Y Y Y Y Y Y Y Y Y Y Y ",
"Y Y Y Y Y Y Y Y S S S S S S S S S S S S S S S S Y Y Y Y Y Y Y Y Y Y ~ ~ ~ ~ T ~ ~ ~ ~ ~ T T ~ ) ) } | | | | #.>.5.5.5.y.i.i.i.g.x.x.J.-.F f.m.m.n.m.m.m.m.m.m.m.J.J.J.J.J.J.J.J.J.J.J.J.J.J.J.J.J.J.J.v.| ! Y Y Y M % % % % % % % % % % % w z z z z z z z n n n n n Q } } } } } X.o.o.o.o.o.o.o.o...} } Q Q Q Y Y Y Y Y Y Y Y Y Y Y Y Y Q Q Q Q Q Q Q Q Q Q Q Q Q Q Q Q ( ( ( ( ( ................X.+.X.X.......+.+.>.m.6.X.X.X.X.X.X.X.X.X.X.X.X.X.X.X.X.X.X.X.X.X.X.X.X.X.X.X.X.X.X.X.X.X.X.X.X.X.X.X.X.( ( ( ( ( X.>.s.s.Y Z Z Z Z Z Z Z ( ( ( ( ( } | | | | | | | | | | X.X.X.X.X.X.| | | | | | | | } } } } | | | | X.| | | } ( | | | } ( ( :.:.U , 7 7 7 , n f.x.m.m.m.m.m.m.m.m.m.m.n.v.f.x.x.x.f.6.6.6.5.>.>.o.| | } T T T T T T } | | } ( ( ( ( | | | o.<.>.>.>.>.<.<.<.>.>.>.>.N./.G.G.G.F.{ ~ Z Z Z 6.y.y.s ; % % % % % s ..o.o.o.o.o.#.6.i.f.v.v.v.v.v.v.v.v.v.v.v.v.v.v.v.i.i.i.i.6.6.6.5.<.<.<.#.o.o.o.X.| | ( ( T E E E E T T T T E E Q ( ( ( ( ( ( ( ( ( ( ( ( ( ( ( ( ( ) )  . .X.X.X.X.Y Z | ) Z Z Z Z Z Z Z Z Z Z S Y Y Y Y Y Y Y Y Y Y Y Y Y ",
"Y Y Y Y Y Y Y Y S S S S S S S S S S S S S S S S S Y Y Y Y Y Y Y Y Y T T T ~ ~ ~ ~ ~ ~ T T T ( ) ) } | | | X.#.>.5.5.6.i.i.i.f.g.g.g.v.| F f.n.n.n.m.m.m.m.m.m.J.J.J.J.J.J.J.J.J.J.J.J.J.J.J.J.J.J.J.J.E.0.~ Y Y Y M % % % % % % % % % % % w z z z z n n n n n n n n Y X.X.....X.o.o.o.o.o.o.o.o.o.o...} Q Q Q Y Y Y Y Y Y Y Y Y Y Y Q Q Q Q Q Q Q Q Q Q Q Q Q Q Q Q Q Q ( ( ( ( ..................o.o.o.X.X.+.X.o.o.+.m.1.X.X.X.X.X.X.X.X.X.X.X.X.X.X.X.X.X.X.X.X.X.X.X.X.X.X.X.X.X.X.X.X.X.X.X.X.X.X.X.X.( ( ( ( ( } >.h.h.h.s.s.s.f.s.>.( ( ( ( } ( } | | | | | | | | | X.X.X.X.X.X.X.X.X.X.X.X.X.| | X.X.X.| | | X.X.X.X.X.X.| | | | | | | | X.:.| , 7 7 7 , 7 f.x.m.m.m.m.m.m.m.m.m.m.m.n.m.v.x.h.f.6.6.6.6.>.>.>.| | ( T T T T T } | | | | ( ( ~ } | | o.>.<.<.>.>.>.<.<.<.>.>.>.>.>.8.F.G.G.G.f.~ Z Z :.m.y.y.s ; % % % % % a Q o.o.o.o.o.<.6.i.f.v.v.v.v.v.v.v.v.v.v.v.v.v.v.v.v.i.i.i.y.6.6.6.5.<.<.<.#.o.o.o.X.| ) ( T E E E E T T T T Q E T ( ( ( ( ( ( ( ( ( ( ( ( ( ( ( ( ( ( ( | X.X.X.X.X.S Z X.Y Z Z Z Z Z Z Z Z Z Z Z Z S Y Y Y Y Y Y Y Y Y Y Y ",
"Y Y Y Y Y Y Y U S S S S S S S S S S S S S S S Y Y Y Y Y Y Y Y Y Y Y Y Y Y Y Y T ~ ~ ~ ~ T T ( ( ( } | | | o.#.>.5.5.6.i.i.i.g.g.g.g.h.x.x.m.m.N.J.J.J.J.J.J.J.J.J.J.J.J.J.J.J.J.J.J.J.J.J.J.J.J.J.J.J.E.0.-.T Y T M % % % % % % % % % % % 9 z z z n n n n n n n n M Y o.o.o.o.o.o.o.o.o.o.o.o.o.o.o.X.} ( Q Q Y Y Y Y Y Y Y Y Y Y Q Q Q Q Q Q Y Q Q Y Q Q Q Q Q ( ( ( ( Q Q Q ..................o.o.o.o.o.o.o.o.o.o.o.h.#.X.X.X.X.X.X.X.X.X.X.X.X.X.X.X.X.X.X.X.X.X.X.X.X.X.X.X.X.X.X.X.X.X.X.X.X.X.X.X.X.} ( ( ( ( ( 6.k.k.k.k.h.h.h.k.k.s.( ( ( ( ( ( ( ( ( | X.X.| | X.X.X.X.X.X.X.#.#.#.X.X.X.>.X.X.| | | | | | | | X.X.X.X.| | | | | | | | | :.:., , , , , , ( f.n.m.m.m.m.m.m.m.m.n.m.m.m.m.x.x.f.6.6.6.6.5.>.>.| | ( T T T ( } | | | | | } T ( | | X.>.>.>.>.>.<.>.>.>.>.>.>.>.>.<.<.>.f.F.G.G.F. .:.G.G.g.y., % % ; * * % a Q o.o.o.o.#.5.6.i.f.v.v.v.v.v.v.v.v.v.v.v.v.v.v.v.v.i.i.i.y.6.6.6.5.<.<.<.<.#.o.o.X.} ( ( T T T T E E T T T T T T ( ( ( ( ( ( ( ( ( ( ( ( ( ( ( ( ( ( ( | X.X.X.X.X.Z ~ X.S Z Z Z Z Z Z Z Z Z Z Z Z Z Z S Y Y Y Y Y Y Y Y Y ",
"Y Y Y Y Y Y Y Y S S S S S S S S S S S S U Y Y Y Y Y Y Y Y Y Y Y Y Y Y Y Y Y Y Y ~ ~ ~ ~ T ~ ( ( ( } | | X.#.#.>.5.5.6.i.i.f.g.g.f.f.h.h.x.m.m.J.J.J.J.J.J.J.J.J.J.J.J.J.J.J.J.J.J.J.J.J.J.J.J.J.J.J.J.L.0.-.) Y Y M % % % % % % % % % % % 9 z z z n n n n n n n n S Y o.o.o.o.o.o.o.o.o.o.o.o.o.o.o.o.} } Q Q Q Y Y Y Y Y Y Y Y Q Q Q Q Q Q Q Q Q Q Q Q Q Q Q Q ( ( ( ( Q ( ( ................o.o.o.o.o.o.#.#.#.#.o.o.5.#.X.X.X.X.X.X.X.X.X.X.X.X.X.X.X.X.X.X.X.X.X.X.X.X.X.X.X.X.X.X.X.X.X.X.X.X.X.X.X.X.X.( ( ( ( ( >.k.k.k.k.h.h.k.k.k.k.X.( ( ( ( ( ( ( ( ( X.X.| | X.X.X.X.X.X.X.#.X.o.X.X.X.o.o.#.X.X.X.X.X.X.X.X.X.X.#.#.| | | | | | | | | :.:.i , , , , , f f.n.m.m.m.m.n.m.m.m.n.m.m.m.m.x.x.f.6.6.6.6.5.>.>.#.| | ( } } | | | | | | | | } | | | >.5.6.6.5.>.<.<.>.>.>.>.>.>.>.<.>.>.>.>.q.F.G.G.G.G.G.i.y.% % ; ; * * % a Q o.o.o.o.<.5.6.y.i.v.v.v.v.v.v.v.v.v.v.v.v.v.v.v.f.i.i.i.i.6.6.6.6.<.<.<.<.#.o.o.X.} } ( T T T T T E E E E T T T ( ( ( ( ( ( ( ( ( ( ( ( ( ( ( ( ( ( ( } X.X.X.X.X.S  .X.Z Z Z Z Z Z Z Z Z Z Z Z Z Z Z Z Z S Y Y Y Y Y Y Y ",
"Y Y Y Y Y Y Y Y S S S S S S Y Y Y Y Y Y Y Y Y Y Y Y Y Y Y Y Y Y Y Y Y Y Y Y Y Y Y ~ ~ ~ ~ ~ ) ) ) | | | o.#.#.#.5.5.6.i.i.g.g.g.h.h.h.h.g.m.m.J.J.J.J.J.J.J.J.J.J.J.J.J.J.J.J.J.J.J.J.J.J.J.J.J.J.J.J.I.0.-. .Y ! M % % % % % % % % % % % t z z n n n n n n n n M U Y o.o.o.o.o.o.o.o.o.o.o.o.o.o.o.o.} } ( Q Q Q Q Q Y Y Y Y Q Q Q Q Q Q Q Q Q Q Q Q Q Q Q Q Q ( ( ( ( Q Q ( ..............X.X.o.o.o.o.#.#.#.#.#.#.#.#.#.#.X.X.X.X.X.X.X.X.X.X.X.X.X.X.X.X.X.X.X.X.X.X.X.X.X.X.X.X.X.X.X.X.X.X.X.X.X.X.X.X.( ( ( ( ( ( h.h.k.k.h.h.h.h.k.h.>.( ( ( ( ( ( ( ( ( | | | | | X.X.X.X.X.X.X.X.X.X.X.X.X.o.X.X.X.o.o.#.X.X.X.X.X.X.| | | X.X.| | | | | X.:.M , , 7 7 , , 6.v.m.m.m.m.n.n.m.m.n.m.m.m.v.f.x.f.6.6.6.6.6.>.>.>.o.| | | | | | | X.o.o.X.| | | | >.5.6.6.6.6.6.5.>.>.>.>.>.<.>.>.<.<.>.>.>.>.>.5.k.G.G.c.y.y.% ; ; % % * , a Q o.o.o.#.<.6.6.y.i.v.v.v.v.v.v.v.v.v.v.v.v.i.i.i.i.i.i.i.i.6.6.6.6.<.<.<.<.#.o.o.X.} } ( T T T T T T T E T T T T ( ( ( ( ( ( ( ( ( ( ( ( ( ( ( ( ( ( ( } X.X.X.X.X. . .) Z Z Z Z Z Z Z Z Z Z Z Z Z Z Z Z Z Z Z U Y Y Y Y Y ",
"Y Y Y Y Y Y Y S S S S S Y Y Y Y Y Y Y Y Y Y Y T T Y Y Y Y Y Y Y Y Y Y Y Y Y Y Y Y T ~ ~ ~ ~ ) ) ) | | X.#.#.#.#.5.5.6.i.f.g.g.g.h.h.h.h.v.m.m.J.J.J.J.J.J.J.J.J.J.J.J.J.J.J.J.J.J.J.J.J.J.J.J.J.J.J.J.E.0.-.-.~ Y Z % % % % % % % % % % % s z z n n n n n n n n S U Q o.o.#.<.<.#.#.#.#.#.o.o.o.o.o.o.} } } Q Q Q Q Q Q Q Q Q Q Q Q Q Q Q Q Q Q Q Q Q Q Q Q Q Q ( ( Q Q Q Q } ............X.X.X.o.o.o.#.#.#.#.#.#.#.#.#.#.#.#.X.X.| X.X.X.X.X.X.X.X.X.X.X.X.X.X.X.X.X.X.X.X.X.X.X.X.X.X.X.X.X.X.X.X.X.X.X.X.} ( ( ( ( ( <.k.k.k.h.h.h.h.h.h.>.( ( ( ( ( ( ( ( } | | | | | | X.X.X.X.X.X.X.X.X.X.X.X.X.X.X.X.X.#.#.X.X.X.X.| | | X.X.X.X.| X.| | | X.:.Y , , 7 7 , , Y v.n.n.m.n.n.n.m.n.n.m.m.m.v.f.x.i.6.6.6.6.6.>.>.>.>.>.#.o.#.#.>.>.>.>.>.>.#.| | o.5.6.6.6.6.6.6.6.<.<.>.>.<.<.>.>.>.>.>.>.>.>.>.>.>.>.7.y.y.y.% ; ; % % % , a Q o.o.o.<.5.6.6.y.i.v.v.v.v.v.v.v.v.v.v.v.v.f.i.i.i.i.i.i.i.6.6.6.6.5.<.<.o.o.o.o.X.} } ( ( Q T T T T T T T T T T Q ( ( ( ( ( ( ( ( ( ( ( ( ( ( ( ( ( ( } X.X.X.X.X. . .~ Z Z Z Z Z Z Z Z Z Z Z Z Z Z Z Z Z Z Z Z S Y Y Y Y ",
"Y Y Y Y Y Y Y S S S S Y Y Y Y Y Y Y Y Y T T T T T T Y Y Y Y Y Y Y Y Y Y Y Y Y Y Y Y ~ ~ ~ ( ) ) ) | | o.o.o.o.o.5.5.6.i.f.x.g.g.g.g.g.v.m.m.m.J.J.J.J.J.J.J.J.J.J.J.J.J.J.J.J.J.J.J.J.J.J.J.J.J.J.J.E.}.f.-.-.) Y Y % % % % % % % % > , , a z z n n n n n n n M U U ( o.#.<.<.<.#.#.#.#.#.#.#.o.o.o.o...} } } Q Q Q Q Q Q Q Q Q Q Q Q Q Q Q Q Q Q Q Q Q Q Q Q Q ( Q Q Q ( ( ..............X.X.X.o.o.#.#.#.5.5.#.#.#.#.#.#.#.#.+.+.X.X.X.X.X.X.X.X.X.X.X.X.X.X.X.X.X.X.X.X.X.X.X.X.X.X.X.X.X.X.X.X.X.X.X.X.X.| ( ( ( ( ( } h.h.h.h.h.h.h.k.k.X.( ( ( ( ( } ( | | | | | | | X.X.X.X.#.#.X.#.#.#.#.X.X.X.X.X.X.>.#.X.X.X.X.X.| | | X.X.X.X.X.X.| | | | :.) , , , 7 , , w v.m.m.n.n.n.n.n.n.m.m.m.v.f.f.f.6.6.6.6.6.6.>.>.>.>.>.>.>.>.>.>.>.>.>.>.>.>.o.X.>.5.6.6.6.6.6.6.6.6.>.>.>.<.<.<.>.>.>.>.>.<.>.>.>.>.>.>.y.y.y.% ; ; ; ; ; , a o.o.o.#.<.5.6.6.y.i.f.v.v.v.v.v.v.v.v.v.v.v.v.f.i.i.i.i.i.i.6.6.6.5.<.<.o.o.o.o.o.} } } ( ( ( ( T T T T T T Q Q Q Q ( ( ( ( ( ( ( ( ( ( ( ( ( ( ( ( ( ( ) X.X.X.X.X.X.X.T Z Z Z Z Z Z Z Z Z Z Z Z Z Z Z Z Z Z Z Z Z Z Y Y Y ",
"Y Y Y Y Y Y Y S S U Y Y Y Y Y Y Y Y T T T T T T T T T T Y Y Y Y Y Y Y Y Y Y Y Y Y Y ~ ~ ~ ( ) ( ) | | o.o.o.o.o.<.5.6.i.i.x.g.g.g.g.g.m.m.m.N.J.J.J.J.J.J.J.J.J.J.J.J.J.J.J.J.J.J.J.J.J.J.J.J.J.J.J.E.XXN.-.-.) Y Y % % % % % % % > 4 4 4 r z z z n n n n n n Z U U ( o.#.<.<.<.#.#.#.#.#.#.#.#.#.o.o.o.} } } ( Q Q Q Q Q Q Q Q Q Q Q Q Q Q Q Q Q Q Q Q Q Q Q Q Q Q Q Q Q Q ............o.o.X.X.o.#.#.#.5.5.5.5.<.#.#.#.#.#.#.+.+.X.X.X.X.X.X.X.X.X.X.X.X.X.X.X.X.X.X.X.X.X.X.X.X.X.X.X.X.X.X.X.X.X.X.X.X.X.X.( ( ( ( ( ( y.h.h.h.h.h.h.k.h.( ( ( ( ( ( ( | X.X.| X.X.| | X.| X.X.X.o.X.X.#.#.X.X.X.o.o.X.X.X.X.X.X.X.X.| | | X.X.X.X.X.| | | | | >.y. ., , 7 7 , , , #.m.m.n.n.n.n.n.n.m.m.m.f.f.f.f.6.6.6.6.6.>.>.>.>.>.5.5.5.5.6.6.6.6.6.6.5.>.>.>.>.5.6.6.6.6.6.6.6.6.6.5.>.<.<.>.>.>.<.>.>.<.<.<.>.>.>.>.6.y.y.% ; * ; ; ; , a o.o.o.<.<.5.6.6.6.i.i.v.v.v.v.v.v.v.v.v.v.v.v.v.f.i.i.i.i.i.y.6.6.5.<.#.o.o.o.X.} } } } } ( ( ) ) ~ T T T T Q T Q Q ( ( ( ( ( ( ( ( ( ( ( ( ( ( ( ( ( ( ( | X.X.X.X.X.X.Y Z Z Z Z Z Z Z Z Z Z Z Z Z Z Z Z Z Z Z Z Z Z Z Y Y ",
"Y Y Y Y Y Y D S Y Y Y Y T T T T T T ( ( ( T T T T T T T T Y Y Y Y Y Y Y Y Y Y Y Y T ~ ~ ~ ( ( ( ) | | o.o.o.o.o.>.5.y.y.i.v.g.g.g.g.v.m.m.m.N.J.J.J.J.J.J.J.J.J.J.J.J.J.J.J.J.J.J.J.J.J.J.J.J.J.J.J.E.XXE.-.-.) Y Y * % % % % % % 9 4 4 4 r z z z n n n n n n U U U ..#.<.5.r.r.r.5.#.#.#.#.<.<.#.#.o.o...} } } ( Q Q Q Q Q Q Q Q Q Q Q Q Q Q Q Q Q Q Q Q Q Q Q Q ( Q Q ( ( ..........o.o.o.+.+.o.#.#.#.5.5.5.5.5.<.#.#.#.#.#.#.+.+.X.X.X.X.X.X.X.X.X.X.X.X.X.X.X.X.X.X.X.X.X.X.X.X.X.X.X.X.X.X.X.X.X.X.X.X.X.( ( ( ( ( ( X.h.h.h.h.k.k.k.1.( ( ( ( ( ( } X.X.X.| | | | | | | | | X.X.X.X.X.X.X.X.X.#.#.X.X.X.X.X.X.X.X.| | X.X.X.X.X.| | | | | | X.k.y., , , 7 7 7 , x v.m.m.m.m.m.m.m.m.m.v.x.x.x.6.6.6.6.5.<.<.<.>.>.>.5.6.6.6.6.6.6.6.6.6.6.5.>.>.>.5.6.6.6.6.6.6.6.6.6.6.>.>.>.>.>.<.<.<.<.<.<.>.>.>.>.>.6.y.y.% % * * ; ; > a o.o.o.#.<.5.6.6.6.i.i.v.v.v.v.v.v.v.v.v.v.v.v.v.v.v.f.i.i.i.y.6.6.<.<.o.o.X.| | | X.X.X.| } } ( ) ) ( E T E T T T T ( ( ( ( ( ( ( ( ( ( ( ( ( ( ( ( ( ( ( ( ( | | | | ( Y S Z Z Z Z Z Z Z Z Z Z Z Z Z Z Z Z Z Z Z Z Z Z S Y ",
"Y Y Y Y Y Y S Y Y Y Y T T T T T T ( ) ) ) ( T T T T T T T Y Y Y Y Y Y Y Y T T T T T ~ ~ ~ ( ( ( } | | o.:.o.o.o.<.5.y.y.y.f.g.f.g.v.m.m.m.n.N.J.J.J.J.J.J.J.J.J.J.J.J.J.J.J.J.J.J.J.J.J.J.J.J.J.J.J.E.#X].-.-.~ Y Y , % % % % % % 9 9 9 4 r z z z z n n n n M U U U #.<.<.r.r.r.r.r.r.5.#.<.<.<.#.#.o.o.X.} } } } Q Q Q Q Q Q Q Q Q Q Q Q Q Q Q Q Q Q Q Q Q Q Q Q ( ( Q ( } ..........o.o.+.+.+.o.#.#.#.<.5.5.5.5.5.<.#.#.#.#.#.+.+.X.X.X.X.X.X.X.X.X.X.X.X.X.X.X.X.X.X.X.X.X.X.X.X.X.X.X.X.X.X.X.X.X.X.X.X.X.( ( ( ( ( ( ( s.h.k.k.k.k.h.| ( ( ( ( ( ( X.X.X.X.| | | | | | | | | | X.X.X.X.X.X.X.X.#.#.X.X.X.X.X.X.X.X.| X.X.X.X.X.X.| | | | | | | k.k.t , , , 7 7 7 7 i.m.m.m.m.m.m.m.m.b.x.x.f.i.6.6.6.5.<.<.<.<.<.>.>.6.6.6.6.6.6.6.6.6.6.6.6.>.>.>.5.6.6.6.6.6.6.6.6.6.6.5.>.>.>.>.<.<.<.>.<.<.>.>.>.>.>.6.y.>.% % % * ; % > a o.o.o.<.<.5.6.6.6.i.i.f.v.v.v.v.v.v.v.v.v.v.v.v.v.v.v.v.v.i.i.6.5.<.<.o.o.| X.X.o.o.o.o.o.| | } ( ( ( ( E E T T T T ( ( ( ( ( ( ( ( ( ( ( ( ( ( ( ( ( ( ( ( ( ( ( ( ( T Y Y Z Z Z Z Z Z Z Z Z Z Z Z Z Z Z Z Z Z Z Z Z Z Z Y ",
"Y Y Y Y Y Y Y Y Y Y T T T T T T T T ) ) ( ( ( T T T T T T T Y Y Y Y T ~ ~ ~ ~ ~ T ~ ~ ~ T ( ( ( } | | X.o.o.o.>.5.5.6.i.y.i.f.f.g.v.m.m.m.m.N.J.J.J.J.J.J.J.J.J.J.J.J.J.J.J.J.J.J.J.J.J.J.J.J.J.J.J.L.#X#X-. .Y Y Y w % % % % % % , 9 9 4 r z z z z n n n n M U U U 5.<.5.r.r.r.r.r.r.r.5.<.<.<.#.#.o.o.X.} } } } } Q Q Q Q Q ( Q Q Q Q Q Q Q Q Q Q Q Q Q Q Q Q Q ( ( ( Q ..........o.X.o.o.o.o.o.#.#.#.#.5.5.5.5.5.5.<.#.#.#.#.#.o.o.X.X.X.X.X.X.X.X.X.X.X.X.X.X.X.X.X.X.X.X.X.X.X.X.X.X.X.X.X.X.X.X.X.X.X.X.( ( ( ( } ( ( X.k.k.k.k.k.>.( ( ( ( ( ( | X.| | | | | | | X.X.| | | X.X.X.X.X.X.X.X.X.X.X.#.#.X.X.X.#.X.X.X.X.X.X.X.X.X.| | | | | X.X.f.k.n , , , 7 , , 7 T v.m.m.m.m.m.m.v.f.x.x.f.y.6.6.<.>.>.>.>.>.>.>.<.6.6.6.6.6.6.6.6.6.6.6.6.5.>.>.5.6.6.6.6.6.6.6.6.6.6.6.<.<.<.>.<.<.>.>.<.>.>.>.>.>.>.6.i.X.; ; % % % % % k o.o.o.#.<.5.6.6.6.i.i.i.v.v.v.v.v.v.v.v.v.v.v.v.v.v.v.v.v.f.i.y.6.5.<.<.o.#.<.<.<.#.o.o.o.o.X.} } ( ( ( ( T T T T T ( ( ( ( ( ( ( ( ( ( ( ( ( ( ( ( ( ( ( ( ( ( ( ( Q Y Y Y Z Z Z Z Z Z Z Z Z Z Z Z Z Z Z Z Z Z Z Z Z Z Z Z ",
"S Y Y Y Y Y Y Y T T T T T T T T T T ( ( ( ( ) T T T T } ( ( T T T ~ ~ ~ ~ ~ ~ ~ T ~ ~ ~ ~ ( ( ( } | | | o.o.o.o.5.5.7.i.y.y.f.f.g.v.m.m.m.m.m.J.J.J.J.J.J.J.J.J.J.J.J.J.J.J.J.J.J.J.J.J.J.J.J.J.J.J.J. X#XJ.~ Y Y Y z % % % # # % > 9 9 4 r z z z z z n n n S U U Q r.<.r.r.r.r.r.r.r.r.r.5.<.<.#.#.o.o.X.} } } } ..Q Q Q Q ( ( Q Q Q Q Q Q Q Q Q Q Q Q Q Q Q Q Q ( ( ( Q ..........o.o.o.o.o.o.o.o.#.#.#.<.5.5.5.5.5.5.5.#.#.#.#.#.o.o.o.X.X.X.X.X.X.X.X.X.X.X.X.X.X.X.X.X.X.X.X.X.X.X.X.X.X.X.X.X.X.X.X.X.} ( ( ( ( ( ( } ( 6.k.k.k.>.( ( ( ( ( | | | X.| | | | | | | | | | | X.X.X.X.X.X.X.X.X.X.X.X.#.#.X.X.o.#.X.X.X.X.X.X.X.X.X.| | | | | X.X.f.k.] , , , , , , , w g.v.m.m.m.m.v.f.f.x.x.y.6.5.>.>.>.>.o.o.o.o.>.>.6.6.6.6.6.6.6.6.6.6.6.6.5.>.>.5.6.6.6.6.6.6.6.6.6.6.6.<.>.<.>.>.>.>.>.>.>.>.>.>.>.>.y.i.X.; ; % % % % % b o.o.o.#.<.5.6.6.6.i.i.i.v.v.v.v.v.v.v.v.v.v.v.v.v.v.v.v.v.v.i.i.6.6.5.5.<.<.<.<.<.<.<.#.o.o.o...} } ) ( ( ( T T T T ( ( ( ( ( ( ( ( ( ( ( ( ( ( ( ( ( ( ( ( ( ( ( T Y Y Y Y S Z Z Z Z Z Z Z Z Z Z Z Z Z Z Z Z Z Z Z Z Z Z Z ",
"S S Y Y Y Y Y T T T T T T T T T T T T T ( ( } } T ( ( } ) ) ) ( T T T T ~ ~ ~ ~ T T ~ ~ ( ) ( ( } | | | X.o.o.o.5.5.7.i.8.i.f.g.f.f.m.m.m.m.n.N.J.J.J.J.J.J.J.J.J.J.J.J.J.J.J.J.J.J.J.J.J.J.J.J.J.J.J.'.#XE.>.) Y Y Z % % % # # $ % 9 4 4 r z z z z z n n n M U U X.r.6.r.r.r.r.r.r.r.r.r.r.<.<.#.#.o.o.+.} } } ....( Q Q Q Q Q Q Q Q Q Q Q Q Q Q Q Q Q Q Y Q Q Q Q ( Q Q ........+.o.o.o.o.o.o.o.#.#.#.#.5.5.5.5.5.5.5.5.5.<.#.#.#.#.o.o.o.o.X.X.X.X.X.X.X.X.X.X.X.X.X.X.X.X.X.X.X.X.X.X.X.X.X.X.X.X.X.X.X.( ( ( ( ( ( ( ( ( | f.k.>.( ( ( ( ( } X.| | X.| | | X.X.| X.| | | X.X.X.X.X.X.X.X.X.#.#.X.X.X.X.X.X.#.o.X.X.X.X.#.#.X.X.X.| X.X.X.| X.| 6.k.s.7 , , , , , , , X.g.v.m.m.v.f.f.x.f.6.6.5.<.>.>.#.o.o.o.o.o.>.>.5.5.6.6.6.6.6.6.6.6.6.6.5.>.>.5.6.6.6.6.6.6.6.6.6.6.6.>.<.>.>.>.>.>.>.>.>.>.>.>.>.>.y.y.X.; ; % % * * % s o.o.o.#.<.5.6.6.6.y.i.i.i.v.v.v.v.v.v.v.v.v.v.v.v.v.v.v.v.v.f.i.i.6.6.6.5.5.<.<.<.<.<.<.<.o.o.X.| | } ) ( ( T T T T ( ( ( ( ( ( ( ( ( ( ( ( ( ( ( ( ( ( ( ( ( ( Y Y Y Y Y Y Y Z Z Z Z Z Z Z Z Z Z Z Z Z Z Z Z Z Z Z Z Z Z Z ",
"S S Y Y Y Y Y T T T T T T T ) ( ( T T T ( ) ) ) ) ( ( } ) ) ) ) ( T T T ~ ~ ~ ~ T T ~ ~ ) ) ( ( } | | | | #.#.o.5.5.6.i.8.8.i.g.f.f.v.m.n.n.n.m.C.J.J.J.J.J.J.J.J.J.J.J.J.J.J.J.J.J.J.J.J.J.J.J.J.J.J.J. XJ.>.>.Y Y M 9 % % # # @ $ , 4 4 w z z z z n n n n n S U 5.r.r.r.r.r.r.r.r.r.r.r.r.<.<.<.o.o.o.+.} } } ....} Q Q Q Q Q Q Q Q Q Q Q Q Q Q Q Q Q Q Q Q Q Q Q ( ( ( ........o.o.o.o.o.o.o.o.#.#.#.#.r.5.5.5.5.5.5.5.5.5.5.#.#.#.o.o.o.o.o.+.X.X.X.X.X.X.X.X.X.X.X.X.X.X.X.X.X.X.X.X.X.X.X.( | X.X.X.| ( ( ( ( ( ( ( ( ( ( | X.( ( ( ( ( ( } X.| | | | | | | X.X.X.| | X.X.#.X.X.X.X.>.>.X.#.#.X.X.X.X.X.X.#.#.X.X.X.X.o.o.X.X.X.| X.X.| | X.| 6.k.k.f , , , , , , , s f.g.x.x.f.x.f.i.6.6.5.>.>.#.o.o.o.o.o.o.o.>.>.>.>.5.6.6.6.6.6.6.6.6.6.5.>.>.5.6.6.6.6.6.6.6.6.6.6.5.>.>.>.>.>.>.>.>.>.>.>.>.>.>.>.i.y.X.% * % % % * % w o.o.o.o.<.5.6.6.6.6.i.i.i.f.v.v.v.v.v.v.v.v.v.v.v.v.v.v.v.v.v.i.i.i.y.6.6.6.6.5.5.5.5.<.<.<.o.o.X.| } } ( ( ( T T T E ( ( ( ( ( ( ( ( ( ( ( ( ( ( ( ( ( ( ( ( Q Y Y Y Y Y Y Y S Z Z Z Z Z Z Z Z Z Z Z Z Z Z Z Z Z Z Z Z Z Z ",
"S S Y Y Y Y Y T T T T T T ( ) ) } ) ( ( ( ) ) ( ) ) ) ) ) ( ( ( ( ~ T T ~ T T T ~ ~ ~ ) ) } ) ( | | | X...#.#.o.>.5.6.i.i.8.i.g.f.g.v.m.m.m.m.m.m.C.J.J.J.J.J.J.J.J.J.J.J.J.J.J.J.J.J.J.J.J.J.J.J.J.J.J.L.J.>.>.Y D z t % $ # # # $ , 9 9 w z z z z n n n n n M U r.r.r.r.r.r.r.r.r.r.r.r.5.#.#.<.o.o.o.+.} } } } } } Q Q Q Q Q Q Q Q Q Q Q Q Q Q Q Q Q Q Q Q Q Q Q Q ( ( } ......o.o.+.....o.o.o.#.#.#.5.r.5.5.5.5.r.r.5.5.5.5.#.#.#.#.o.o.o.+.+.+.X.X.X.X.X.X.X.X.X.X.X.X.X.X.X.X.X.X.X.X.X.( ( ( ( ( } ( ( ( ( ( } } ( ( ( ( } } ( ( ( ( ( ( ( | | | | | | | | X.X.X.| | X.X.#.#.X.X.X.>.>.X.o.X.X.X.X.X.X.X.X.X.X.X.X.X.X.X.X.X.| | | | | | | | 1.h.h.U , , , , , , , , y.f.x.x.f.i.6.6.5.>.>.#.o.o.o.o.o.o.o.o.o.>.>.>.>.>.6.6.6.6.6.6.6.6.6.6.>.>.5.6.6.6.6.6.6.6.6.6.6.<.>.>.>.<.>.>.>.>.>.<.>.>.>.>.5.i.6.X.% % % % ; ; % w o.o.o.o.<.5.6.6.6.6.i.i.i.i.v.v.v.v.v.v.v.v.v.v.v.v.v.v.v.v.v.f.i.i.i.6.6.6.6.6.6.6.6.5.<.<.<.o.o.X.| } } ( ( ( T T T T Q ( ( ( ( ( ( ( ( ( ( ( ( ( ( ( ( ( ( Q Y Y Y Y Y Y Y Y Z Z Z Z Z Z Z Z Z Z Z Z Z Z Z Z Z Z Z Z Z Z ",
"S S U Y Y Y Y Y T T T T T ( ) ) ) ) ) ) ( ( ) ( ( ) ) ) ) ( ( ( ( ) ( ( ( ( ( ( ( ) ) ) } } ( } | | | | ..#.#.#.#.5.6.i.8.8.i.f.g.g.v.m.m.m.m.m.m.m.N.J.J.J.J.J.J.J.J.J.J.J.J.J.J.J.J.J.J.J.J.N.m.m.m.C.J.J.>.>.! x z z % $ # # @ # % 9 9 w z z z z n n n n n n Q r.r.r.r.r.r.r.r.r.r.r.r.5.#.#.#.o.o.o.+.} } } } } } Q Q Q Q Q Q Q Q Q Q Q Q Q Q Q Q Q Q Q Q Q Q Q Q Q ( Q ................X.o.o.#.#.<.r.5.5.5.5.r.r.r.5.5.5.5.5.#.#.#.#.o.o.+.+.+.X.X.X.X.X.X.X.X.X.X.X.X.X.X.X.X.X.X.X.X.X.( ( ( ( ( } } ( ( ( ( } ( ( ( ( ( } ( ( ( ( ( ( ( ( ( | | X.X.| | | X.X.X.X.X.X.X.#.#.X.X.X.>.>.>.o.X.X.X.X.X.X.X.X.X.X.X.X.X.X.X.X.X.| | | | | | | | >.h.k.y., , , , , , , , T 6.6.6.6.6.6.5.>.o.o.o.o.o.o.o.o.o.o.o.o.>.>.>.>.5.6.6.6.6.6.6.6.6.6.6.5.5.6.6.6.6.6.6.6.6.6.6.5.>.>.<.>.>.>.>.>.>.<.<.>.>.>.>.5.i.y.X.% % % % ; ; % w o.o.o.o.<.<.6.6.6.6.y.i.i.i.i.v.v.v.v.v.v.v.v.v.v.v.v.v.v.v.v.v.i.i.i.i.y.6.6.6.6.6.6.5.<.<.<.<.o.o.o.X.} } ( ( ( Q T T T T ( ( ( ( ( ( ( ( ( ( ( ( ( ( ( ( ( Q Y Y Y Y Y Y Y Y S Z Z Z Z Z Z Z Z Z Z Z Z Z Z Z Z Z Z Z Z Z ",
"S S U Y Y Y Y Y Y Y Y Y T ( ) ) ( ( } ) ( ( ( } ( ( ) ) ( } ( ( ) ) ) ) ( ( ( ( ) ) ) ) } } | | | | | | | X.#.#.#.<.5.i.i.i.i.f.g.x.x.m.m.m.m.m.m.m.m.N.J.J.J.J.J.N.m.m.N.J.J.J.J.J.J.J.J.C.m.m.m.m.m.m.J.J.>.) ! z z z , $ # # @ # % 4 9 w z z z z z n n n n n X.r.r.r.r.r.r.r.r.r.r.r.r.<.#.#.#.o.o...} } } } } } } ( Q Q Q Q Q Q Q Q Q Q Q Q Q Q Q Q Q Q Q Q Q Q Q Q ( Q Q ..............o.o.#.#.#.5.5.5.5.5.5.5.5.r.5.5.5.5.5.<.#.#.#.o.X.X.X.X.X.X.X.X.X.X.X.X.X.X.X.X.X.X.X.X.X.X.X.X.( ( ( ( ( ( ( ( ( ( ( ( ( ( ( ( ( ( ( ( ( ( ( ( ( ( ( ( } | X.X.| | | X.X.X.X.#.#.X.o.X.X.X.X.>.>.>.>.:.>.>.>.>.>.>.>.>.>.X.#.>.X.X.X.X.X.X.| | | | | | >.h.h.k.t , , , , , 7 , z 6.6.6.6.6.<.>.#.o.o.o.o.o.D j D o.#.#.#.>.>.>.>.5.6.6.6.6.6.6.6.6.6.6.6.6.6.6.6.6.6.6.6.6.6.6.5.>.<.>.>.>.>.>.>.#.#.>.>.>.>.>.5.i.y.X.% % % ; ; ; ; r o.o.o.o.#.<.6.6.6.6.y.i.i.i.i.f.v.v.v.v.v.v.v.v.v.v.v.v.v.v.v.v.i.i.i.i.i.y.6.6.6.6.6.6.5.<.<.<.#.o.o.o.X.} } ( ( Q T T T T ( ( ( ( ( ( ( ( ( ( ( ( ( ( ( ( ( Q Y Y Y Y Y Y Y Y Y Z Z Z Z Z Z Z Z Z Z Z Z Z Z Z Z Z Z Z Z Z ",
"S S S Y Y Y Y Y Y Y Y Y T ( ) ) ( ) ) ) ( ( ( } } } ) ( ( ( ( ( ) ) ) ) ) ) ( ( ( ) } } | | | | | | | | | X.#.#.o.>.5.6.i.i.i.i.g.x.x.m.m.m.n.n.m.m.m.m.N.J.J.N.m.m.m.m.m.J.J.J.J.J.C.N.m.m.m.m.m.v.g.v.N.J.~ Y ! x z z t $ # @ @ # $ , 9 w z z z z z n n n n n <.r.r.r.r.r.r.r.r.r.r.r.r.<.#.#.o.X.} } } } } } } } ( ( ( Q Q Q Q Q Q Q Q Q Q Q Q Q Q Q Q Q Q Q Q Q Q Q Q Q Q ( ............o.o.#.#.5.5.5.5.5.5.5.5.5.5.5.5.5.5.5.5.<.#.#.o.X.X.X.X.X.X.X.X.X.X.X.X.X.X.X.X.X.X.X.X.X.X.X.| ( ( ( ( ( ( ( ( ( ( ( ( ( ( ( ( ( ( ( ( ( ( ( ( ( ( ( ( | | | | | | | X.X.X.X.X.#.X.X.X.X.X.#.>.>.>.>.>.>.>.>.>.>.>.>.>.>.>.>.>.#.X.X.X.X.X.X.| X.X.| | >.h.h.h.Y , , , 7 7 7 , 7 5.6.6.5.>.>.>.o.o.o.o.o.x j j j o.#.o.#.>.>.>.>.6.6.6.6.6.6.6.6.6.6.6.6.6.6.6.6.6.6.6.6.6.6.6.>.>.>.<.>.>.>.>.o.o.#.#.o.#.>.>.5.i.y.X.% % % ; ; ; ; r o.o.o.o.#.<.5.6.6.6.y.i.i.i.i.i.f.v.v.v.v.v.v.v.v.v.v.v.v.v.v.v.f.i.i.i.i.i.6.6.6.6.6.6.5.<.<.<.<.#.o.o.o.} | } ( ( T T T ( ( ( ( ( ( ( ( ( ( ( ( ( ( ( ( ( ( Q Y Y Y Y Y Y Y Y Y Y Z Z Z Z Z Z Z Z Z Z Z Z Z Z Z Z Z Z Z Z ",
"S S S Y Y Y Y Y Y Y Y Y T ( ( ( ( ( ( ( ) ) ) } } ) ( ( ( ( ) ) ( ( ( } ( ( ) ) } | | | ..| ..| | | | | | X.>.#.#.>.5.6.8.8.i.i.g.g.g.x.m.m.m.m.m.m.m.n.n.n.m.m.m.m.m.m.n.J.J.G.N.n.m.m.m.m.m.v.x.x.x.x.m.J.Y Y Y Y z z z % @ @ # # # , 4 9 z z z z z n n n n n r.r.r.r.r.r.r.r.r.r.r.r.<.<.<.#.o...} ......} } ( Q Q Q Q Q Q Q Q Q Q Q Q Q Q Q Q Q Q Q Q Q Q Q Q Q Q Q Q Q ( ( } ........X.o.#.#.#.5.5.5.5.5.5.r.r.5.5.5.5.r.r.5.5.5.#.#.o.o.o.X.X.X.X.X.X.X.X.X.X.X.X.X.X.X.X.X.X.X.X.X.} ( ( ( ( ( ( } } ( ( ( ( } ( ( ( ( ( ( ( ( ( ( ( ( ( ( | X.X.| | | | | X.X.X.X.X.X.X.X.X.X.X.#.>.>.>.>.>.>.>.>.>.>.>.>.>.>.>.>.X.X.X.X.X.X.X.X.X.| | | | >.h.k.k.>., 7 7 7 7 , , , ( >.>.>.<.<.>.o.o.o.o.( j j j j o.o.o.o.>.>.>.5.6.6.6.6.6.6.6.6.6.6.6.6.6.6.6.6.6.6.6.6.6.6.5.>.>.>.>.>.>.o.o.o.o.o.o.o.o.o.o.o.y.i.y.s ; % % % % ; w o.o.o.o.o.<.5.6.6.6.y.i.i.i.i.i.i.i.x.v.v.v.v.v.v.v.v.v.v.v.v.v.x.i.i.i.i.i.y.6.6.6.6.6.6.5.<.<.<.<.o.o.o.X.| | } ( ( ( ( ( ( ( ( ( ( } ( ( ( ( ( ( ( ( ( ( ( T Y Y Y Y Y Y Y Y Y Y Y Z Z Z Z Z Z Z Z Z Z Z Z Z Z Z Z Z Z Z ",
"S S S S Y Y Y Y Y Y Y Y T ( ( ( ( ( ( ( ( ( ) } ) ) ( ( } } ) ) ) ) ( } ( ( ) ) | | | | | ..| | | | | | | o.>.#.#.>.5.5.6.i.i.i.g.g.g.g.m.m.m.m.m.m.n.n.m.n.m.m.m.m.m.m.n.J.N.m.n.n.m.m.m.m.x.g.x.x.x.x.v.J.) Y Y Y Y z z t @ @ # # # : 4 9 z z z z z n n n n Y r.r.r.r.r.r.r.r.r.r.r.5.<.<.#.o.o.} } ..} } ( Q Q Q Q Q Q Q Q Q Q Q Q Q Q Q Q Q Q Q Q Q Q Q Q Q ( ( ( Q Q Q ( ( ( ( ......+.o.#.#.#.<.5.5.5.5.5.r.r.5.5.5.5.r.r.5.5.5.#.#.o.o.+.X.X.X.X.X.X.X.X.X.X.X.X.X.X.X.X.X.X.X.X.X.( ( ( ( ( ( ( ( ( ( ( ( ( } } ( ( ( ( ( ( ( ( ( ( ( ( } X.| X.| | | | | X.X.X.>.X.X.X.X.X.X.X.>.>.>.>.>.>.>.>.>.>.>.>.>.>.>.>.>.>.X.X.X.X.X.X.X.X.| | | | X.h.k.k.>.t , : * * , , 7 X.>.>.>.>.>.>.#.#.o.>.>.( v j j o.o.o.o.>.>.>.5.6.6.6.6.6.6.6.6.6.6.6.6.6.6.6.6.6.6.6.6.6.6.5.>.>.>.>.#.#.o.o.o.o.o.o.o.o.o.o.o.y.i.6.R ; % % % % % w o.o.o.o.o.<.<.5.6.6.6.i.i.i.i.i.i.i.i.i.x.v.v.v.v.v.v.v.v.v.v.v.x.i.i.i.i.i.i.y.6.6.6.6.6.6.5.<.<.<.o.o.o.X.| | | } ( ( ( ( ( ( ) } | } ( ( ( ( ( ( ( ( ( ( ( T Y Y Y Y Y Y Y Y Y Y Y Z i i n Z Z Z Z Z Z Z Z Z Z Z Z Z Z Z ",
"S S S S S Y Y Y Y Y Y T T ( ) ) ) ) ( } ( ( ( ( ) ( ( ( ( ) ) ) ) ) ( ( ( ( ( ) } | | | | | | | | | | | | o.o.o.#.>.5.5.5.8.i.i.f.f.g.g.v.m.m.m.n.n.n.n.m.m.n.n.n.n.m.m.n.n.m.m.n.m.m.m.m.x.g.g.h.h.h.h.v.J.| ( ! ! Y Z z z # # # # @ % 4 4 z z z z z n n n n ..r.5.r.r.r.r.r.r.r.r.5.<.#.<.o.o.X.} } } ( Q Q Q Q Q Q Q Q Q Y Y Q Q Q Q Q Q Q Q Q Q Q Q Q Q Q } ........( ( ( ( Q Q ......o.o.#.#.#.<.5.5.5.5.5.5.5.5.5.5.5.5.5.5.5.5.#.#.o.+.X.X.X.X.X.X.| X.X.X.X.X.X.X.X.X.X.X.X.X.X.| ( ( ( ( ( ( ( ( ( ( ( ( ( ( ( ( ( ( ( } ( ( ( ( } } ( | | X.X.| | | | | | X.X.#.#.X.X.X.X.X.X.>.>.>.>.>.>.>.>.>.>.>.>.>.>.>.>.>.>.X.#.>.>.>.X.X.X.| X.| | X.k.k.i.X.n , % * * , , , o.>.>.>.>.>.>.>.<.>.>.>.i.v.S j o.o.o.o.>.>.>.5.6.6.6.6.6.6.6.6.6.6.6.6.6.6.6.6.6.6.6.6.6.6.>.>.>.>.#.#.o.o.o.o.o.o.o.o.o.o.o.o.y.i.#.( ; % % * * % w o.o.o.o.o.#.<.5.6.6.6.y.i.i.i.i.i.i.i.i.i.i.f.v.v.v.v.v.v.v.v.v.x.i.i.i.i.i.i.y.6.6.6.6.6.6.5.<.<.<.o.o.o.X.| | | | | } } } } } | | | } ( ( ( ( ( ( ( ( ( ( ( Y Y Y Y Y Y Y Y Y Y Y Y U i i i n Z Z Z Z Z Z Z Z Z Z Z Z Z Z ",
"S S S S S Y Y Y Y Y Y T T ( ) ) ) ) ( } ( ( ( ( ( ( ( ( ( ) ) ) ) ) ( ( ( ( ) ) ( } | | | | | | | | | | | o.o.o.#.5.5.5.5.6.i.i.i.f.g.g.x.v.m.m.n.n.m.m.m.m.n.m.n.n.n.n.m.m.m.m.m.m.m.m.v.g.g.g.h.h.h.h.v.J.| | ~ ! ! Y x z # # # # @ $ 4 4 s z z z z n n n n 5.r.<.r.r.r.r.r.r.r.5.<.<.#.#.o.o...} } ( Q Q Q Q Q Q Q Q Y Y Y Q Q Q Q Q Q Q Q Q Q Q Q Q Q Q Q ..............( ( Q Q Q ....o.o.#.#.#.<.5.5.5.5.5.5.5.5.5.5.5.5.5.5.5.5.#.#.o.X.X.X.X.X.X.( ( ( ( | X.X.X.X.} } X.X.X.X.X.} ( ( ( ( ( ( ( ( ( ( ( ( ( ( ( } ( ( ( } } ( ( ( ( ( ( | X.X.X.X.X.X.| | | | o.o.#.X.X.X.X.X.X.>.>.>.>.>.>.>.>.>.>.>.>.>.>.>.>.>.>.>.>.>.>.>.X.X.#.X.X.| | X.k.f.#.X.n % % * * * , , o.#.>.>.>.>.#.#.>.>.>.>.5.b.v.X.o.o.o.o.#.>.>.5.6.6.6.6.6.6.6.6.6.6.6.6.6.6.6.6.6.6.6.6.6.5.>.>.>.#.o.o.o.o.o.o.o.o.o.o.o.o.o.o.y.y...( % % % * ; % w o.o.o.o.o.#.<.5.6.6.6.6.6.y.y.i.i.i.i.i.i.i.i.i.f.v.v.v.v.v.v.v.x.i.i.i.i.i.i.y.6.6.6.6.6.6.6.5.<.<.o.o.o.o.| | | | | | | | | | | | | } ( ( ( ( ( ( ( ( ( ( ( Y Y Y Y Y Y Y Y Y Y Y Y Y x i i i M Z Z Z Z Z Z Z Z Z Z Z Z Z ",
"S S S S S Y Y Y Y Y T T ( ( ) ) ) ) ( ( ( ( ( ( ( ( } ) ( } } } ( } } ( } } ( ( ( } | | | | | | | | | | | o.o.o.>.5.5.5.5.5.i.i.y.f.h.h.h.h.b.m.n.m.m.m.m.m.n.m.m.m.n.n.n.n.m.m.m.m.m.v.g.f.f.f.f.f.f.h.m.J.X.| | ! Y Y D z # # # @ @ @ , 4 s z z z z n n n Z r.r.<.r.r.r.r.r.r.5.<.<.<.o.o.o...} } ( Q Q Q Q Q Q Q Q Q Y Y Y Y Y Y Q Q Q Q Q Q Q Q Q ( Q ( ....................( Q } ....o.o.#.#.#.<.5.5.5.5.r.5.5.5.5.5.5.5.5.5.5.5.#.#.X.X.X.X.X.X.} ( ( ( ( ( ( ( ( ( ( ( ( ( | X.X.| ( ( ( ( ( ( ( ( ( ( ( ( ( ( ( } ( ( ( ( ( ( ( ( ( ( ( ( ( | X.X.X.| | | | | | o.X.X.X.#.X.X.#.X.>.>.>.>.>.>.>.>.>.>.>.>.>.>.>.>.>.>.>.>.>.>.X.X.X.X.X.X.X.X.h.>.X.( v % % % % % , , o.o.>.>.o.o.o.o.o.o.>.>.>.h.v.v.5.o.o.o.#.>.>.>.6.6.6.6.6.6.6.6.6.6.6.6.6.6.6.6.6.6.6.6.6.>.>.>.>.o.o.o.o.o.o.o.o.o.o.o.o.o.o.o.y.y.( ( % ; ; ; ; % w o.o.o.o.o.o.<.<.5.6.6.6.6.6.6.6.6.6.6.6.6.6.y.i.i.i.f.h.v.v.v.v.f.i.i.i.i.i.i.i.6.6.6.6.6.6.6.5.<.<.o.o.o.o.| | | | | | | | | | | | | } ( ( ( ( ( ( ( ( ( ( ( Y Y Y Y Y Y Y Y Y Y Y Y Y Y i i i i Z Z Z Z Z Z Z Z Z Z Z Z Z ",
"S S S S S Y Y Y Y T T T ( ( ( ) ) ) ( ( ) ( } } ( ) } ( ( ( ( ( ( ( } ( ( } ( ( } } } | | | | | | | | | | o.o.o.<.5.5.5.5.5.6.i.y.i.h.h.h.f.h.v.v.m.m.m.m.n.n.n.m.m.n.n.n.n.m.m.m.m.v.v.g.g.f.f.g.g.f.h.m.J.f.o.| ) Y Y ! z # # # @ @ @ $ 4 r z z z n n n n ( r.5.<.5.r.r.r.5.<.#.<.<.#.o.o...} } ( Q Q Q Q Q Q Q Q Q Y R R Y Y Y Y Y R Y Y Q Q Q Q ( Q Q ( ..............................o.#.#.#.#.<.5.5.5.r.r.5.5.5.5.5.5.5.5.5.5.<.#.#.X.X.X.X.X.X.( ( ( ( ( ( ( ( ( ( ( ( ( ( ( ( X.X.} ( ( ( ( ( ( ( ( ( ( ( ( ( ( ( ( ( ( ( ( ( ( ( ( ( ( ( ( ( | | X.| | | | | X.#.#.X.X.X.X.X.X.X.>.>.>.>.>.>.>.>.X.X.X.>.>.>.>.>.>.>.>.>.X.X.X.X.X.X.X.X.X.#.>.X.X.( n % % % % % : w o.o.>.>.o.o.o.o.o.o.o.>.>.<.v.v.i.o.o.o.o.>.>.>.5.6.6.6.6.6.6.6.6.6.6.6.6.6.6.6.6.6.6.6.5.>.>.>.o.o.o.o.o.o.o.o.o.o.o.o.o.#.#.o.y.y.( ( % ; ; ; ; % w o.o.o.o.o.o.<.<.<.5.6.6.6.6.6.6.6.6.6.6.6.6.6.6.6.y.i.i.i.i.i.f.i.i.i.i.i.i.i.i.6.6.6.6.6.6.6.5.<.<.#.o.o.o.X.| } | | | | | | | | | | ) ( ( ( ( ( ( ( ( ( ( ( Y Y Y Y Y Y Y Y Y Y Y Y Y Y Z i i i x Z Z Z Z Z Z Z Z Z Z Z Z ",
"S S S S S Y Y Y Y T T T ( ( T ( ( ( ( } ) ) ) ( ( ( ( ( ) ) ( ( ( ( ) ) ( ) ( ( } ( ( } | | | | ..| ..| X.o.#.#.5.5.5.5.5.5.5.8.i.i.i.x.f.f.g.g.g.g.v.v.m.m.m.m.m.m.m.m.n.m.m.m.m.m.v.v.v.g.f.f.g.g.g.g.v.J.x.5.<.} Y Y ! x # # # # @ @ @ 4 w z z z n n n n #.6.<.<.<.<.5.#.#.<.<.#.o.o.X...} } Q Q Q Q Q Q Q Q Q Q Y Y R R R Y Y R R R Y Y Y Q Q Q Q Q ( ................................o.#.#.#.#.5.5.5.5.r.5.r.r.5.5.5.5.5.5.5.5.#.#.#.X.X.X.X.X.| ( ( ( ( ( ( Q T Q Q ( ( ( ( ( ( ( } ( ( ( } ( ( ( ( } } ( ( ( } } ( ( ( ( ( ( } ( ( ( ( ( ( ( ( | | | | | X.| X.X.X.X.o.#.X.X.X.X.X.X.#.>.>.>.>.>.X.X.X.X.X.>.>.>.>.>.>.>.>.X.X.X.#.#.X.X.X.X.X.X.X.X.( n % % % % % % s o.o.>.>.o.o.o.o.o.o.o.#.#.>.y.v.h.o.o.o.o.>.>.>.5.6.6.6.6.6.6.6.6.6.6.6.6.6.6.6.6.6.6.6.>.>.>.#.o.o.o.o.o.o.o.o.o.o.o.o.o.#.#.#.y.y.( M % % * % % % w o.o.o.o.o.o.<.<.<.<.5.6.6.6.6.6.6.6.5.5.5.5.5.5.6.6.6.6.i.i.i.i.i.i.i.i.i.i.y.6.6.6.6.6.6.6.6.5.<.<.<.o.o.o.X.| } } | | | | | } | | | ( ( ( ( ( ( ( ( ( ( ( ( T Y Y Y Y Y Y Y Y Y Y Y Y Y Y z i i i v Z Z Z Z Z Z Z Z Z Z Z ",
"S S S S S Y Y Y Y Y T T T T T ~ T T ( ( ) ) ) ) ( ( ) ) ) ( ( ( ( ) ) ) ) ) ( ( } } ( ) } | | | | | | ..o.#.#.>.5.5.5.5.5.5.5.5.i.i.i.f.g.g.g.g.g.g.g.g.g.m.m.m.m.m.m.m.m.m.m.m.m.m.m.m.v.f.f.f.g.g.g.g.g.N.x.5.5.X.~ Y ! M # # # @ @ @ @ > 4 z z z n n n Z <.<.<.<.<.<.#.#.#.#.o.o.X...} } } Q Q Q Q Q Q Q Y Y Y Y Y Y R R R R R R R R Y Y Y Y Q Q ( ( ( ..............................+.o.#.#.#.#.5.5.5.5.5.5.r.r.5.5.5.5.5.5.5.<.#.#.#.+.+.X.X.X.} ( ( ( ( ) Q T T T T T ( ( ( ( ( ( ( ( ( ( ( } ( ( ( ( } ( ( ( } ( ( ( ( ( ( ( } ( ( ( } } ( ( ( | | | | | X.| | | | | X.X.X.X.X.X.X.o.#.>.#.>.#.X.X.X.X.X.X.>.>.>.>.>.>.>.>.>.X.#.#.X.X.X.X.X.X.X.X.X.( z % % % % % , z o.o.o.o.o.o.o.o.o.o.o.o.o.o.o.5.<.o.o.o.o.#.>.>.5.6.6.6.6.6.6.6.6.6.6.6.6.6.6.6.6.6.6.5.>.>.>.o.o.o.o.o.o.o.o.o.o.o.o.o.o.#.#.#.y.y.Q n % % % % % % w o.o.o.o.o.o.<.<.<.<.<.<.5.5.5.5.5.5.<.<.5.<.<.<.5.5.6.6.6.6.6.y.6.6.y.y.6.6.6.6.6.6.6.6.6.6.6.5.<.<.<.#.o.o.X.X.} } | | | | | | | | } ( ( ( ( ( T ( ( ( ( ( ( Q Y Y Y Y Y Y Y Y Y Y Y Y Y Y S i i i i Z Z Z Z Z Z Z Z Z Z Z ",
"S S S S S Y Y Y Y Y Y T T T T T T ( ( ( ( ( ) ) ( ( ) ( ( ( ( ( ( ( ( ( ( ( ( ( ( ( ( ( } | | | | | | ..#.#.#.>.5.5.5.5.>.5.5.5.6.i.i.i.f.g.g.g.f.f.f.h.h.h.m.m.m.m.m.m.m.m.m.m.v.m.m.m.v.f.f.f.g.g.g.f.f.f.x.5.5.>.} Y Y Y # # # # @ @ @ $ 4 s z z n n n ..<.<.#.#.#.#.#.#.o.o.X...} } } } Q Q Q Q Y Y Y Y Y Y Y Y Y Y R U U Y Y R R R Y Y Y Y Q Q ( ( ( ..............................X.o.#.#.#.<.5.5.5.5.5.5.5.5.5.5.5.5.5.5.5.#.#.#.#.o.X.X.X.X.) ( ( ( ( T Q Q T T T Q Q Q ( ( ( ( ( ( ( ( ( ( ( ( ( ( ( ( ( ( ( ( ( ( ( ( ( ( ( ( ( ( ( } ( ( ( | | | | | | | | | X.X.X.X.o.#.#.o.X.X.X.#.X.X.X.X.X.X.X.X.>.>.>.>.>.>.>.>.>.>.>.>.X.X.X.X.X.X.X.X.X.X.X.z % % % % % , z o.o.o.o.o.o.o.o.o.o.o.o.o.o.o.o.o.o.o.o.o.o.>.>.>.6.6.6.6.6.6.6.6.6.6.6.6.6.6.6.6.6.6.>.<.<.#.o.o.o.o.o.o.o.o.o.o.o.o.o.o.o.o.o.y.y.( m ; ; ; % % % w o.o.+.o.o.o.<.<.<.<.<.<.<.<.<.<.<.5.5.<.<.<.<.<.<.<.5.6.6.6.6.6.6.6.6.6.6.6.6.6.6.6.6.6.6.6.5.<.<.<.<.<.o.o.o.o.X.} } } | | | | | | ( ( ( ( ( Y w ( ( ( ( ( ( ( Y Y Y Y Y Y Y Y Y Y Y Y Y U Y x i i i n Z Z Z Z Z Z Z Z Z Z ",
"S S S S U Y Y Y Y Y Y Y T T T T T ( ( ( ( ) ) ) ) ) ) ) ( ( ( ( ( ( ( ( ) ( ) ) } ( ( ( ) } | | | | | X.#.#.#.>.5.5.5.>.#.#.5.5.5.6.i.i.i.f.g.g.g.g.f.f.f.h.x.m.m.m.m.m.v.v.f.f.g.g.n.m.m.v.v.f.g.g.g.f.h.h.x.6.5.>.| Y Y Y % # # # @ @ @ @ , r z z n n M #.<.<.#.#.o.o.o.o.X...} } } } ( Q Q Q Q Q Y Y Y R R R R Y Y R U U U U R R R R Y Y Y Y Q Q ( ( ( ................( Q Q ........X.X.#.#.#.5.5.5.5.5.5.5.5.5.r.5.5.<.<.5.<.#.#.#.#.o.X.X.X.X.( ) ( ( ( T T Q T T T T Q Q ( ( ( ( ( ( ( ( ( ( ( ( ( ( ( ( ( ( ( ( ( ( } } ( ( } } ( ( ( ( ( ( ( | | | | | | | | | X.X.X.X.X.X.o.o.X.X.X.X.X.X.X.X.X.X.X.X.>.>.>.>.>.>.>.>.>.>.>.>.#.X.X.X.X.X.X.X.X.X.>.s % % % % % , z o.o.o.o.o.o.o.o.o.o.o.o.o.o.o.o.o.o.o.o.o.o.>.>.>.5.6.6.6.6.6.6.6.6.6.6.6.6.6.6.6.6.5.>.>.>.o.o.o.o.o.o.o.o.o.o.o.o.o.o.o.o.o.o.y.y.( m ; ; ; % % % w o.o.+.o.o.o.<.<.<.<.<.<.<.<.<.<.<.<.<.<.<.<.<.<.<.<.<.5.6.6.6.6.6.5.6.6.6.6.6.6.6.6.6.6.6.5.<.<.<.<.<.<.<.o.o.o.o.} } } | | | | | } ( ( ( ( T 9 9 ( ( ( ( ( ( ( T Y Y Y Y Y Y Y Y Y Y Y S Z Y Y i i i i Z Z Z Z Z Z Z Z Z Z ",
"S S S S U Y Y Y Y Y Y Y T T T T T ( ( ( ( ( ) ) ( ) } ) ) } ( ( ( ( ) ) ) } ) ) } } ( ( ) ) } | | | | o.o.o.#.>.5.5.>.#.#.o.>.5.5.5.6.i.i.i.i.f.g.g.g.g.f.x.v.x.v.m.v.g.f.f.f.f.g.g.x.m.m.m.m.v.g.g.x.x.h.h.h.6.5.<.| ~ Y Y 4 # # # # @ # # $ 9 z z z n ..#.#.<.#.#.o.o.o.X.....} } } Q Q Q Q Q Y Y R R R U U U U U R U U U U U U U R R Y Y R Y Q Q Q ( Q Q ( ....( ( ( Q Q Q } ......X.X.X.#.#.#.5.5.5.5.5.5.5.5.5.r.r.<.#.#.#.#.#.#.#.#.+.+.+.o.X.} ( ( ( Q Q T T T T T T Q T T ( ( ( ( ( ( ( ( ( } ( ( ( ( ( } ( ( ( ( ( } ( ( ( ( ( ( ( ( ( ( ( ( | X.X.| | | | | | | | | X.X.X.X.X.X.X.X.X.X.X.X.X.X.X.X.X.>.>.>.>.>.>.>.>.>.>.>.>.>.X.X.X.#.#.X.X.X.>.>., % % % % % , z o.o.o.o.o.o.o.o.o.o.o.o.o.o.o.o.o.o.o.o.o.o.#.>.>.5.6.6.6.6.6.6.6.6.6.5.5.5.5.5.5.5.>.>.>.#.o.o.o.o.o.o.o.o.o.o.o.o.o.o.o.o.o.o.y.y.( m , % ; ; % % w o.o.o.o.o.o.<.<.5.<.<.<.<.5.<.<.<.<.<.<.<.<.<.<.<.<.<.<.5.6.6.5.5.<.<.<.5.5.5.6.6.6.6.6.5.<.<.<.<.<.<.<.<.#.o.o.o.X.} } } | | | } ( ( ( ( ( t 9 9 ( ( ( ( ( ( ( T Y Y Y Y Y Y Y Y Y Y Y Z Z S Y M i i i v Z Z Z Z Z Z Z Z Z ",
"S S S S S U Y Y Y Y Y Y T T T T T T T T ( ( ) ) ( ) } } ) ( T T ( ) } ) ) } ) ) ) ( ( ( ) ) ( | | | | #.o.#.#.o.o.o.o.#.o.o.o.>.5.5.5.6.6.i.i.i.i.f.g.g.h.x.v.x.f.f.g.g.g.f.f.g.g.g.g.v.m.m.m.v.g.g.x.x.h.h.h.i.5.5.| ) Y Y s @ # # # # # # # 4 s z z U #.#.#.#.#.#.o.o.o.} ....} Q Q Q Q Y Y Y R R R R U U U U U U U U U U U U U U R Y R R R Q Q Q Q ( Q Q Q Q Q ( ( ( Q ( } ........X.o.o.#.#.<.5.5.5.5.5.5.5.5.5.r.r.<.#.#.#.#.#.#.#.o.+.o.o.o.+.} ( ( ( Q Q T T T T T T T T T Q ( ( ( ( ( ( ( ( } } ( ( ( ( } ( ( ( ( ( ( ( ( ( ( ( ( ( ( ( ( ( } X.X.X.| | | | | | | | | | X.X.X.X.X.X.X.X.X.X.X.X.X.X.X.X.>.>.>.>.>.>.>.>.>.>.>.>.>.X.X.X.#.#.#.>.#.>.( % % % % % % , z o.o.o.o.o.o.X.| o.o.o.o.o.o.o.o.o.o.o.o.o.o.o.>.>.>.5.6.6.6.6.6.6.6.5.>.>.>.>.>.>.>.>.>.>.o.o.o.o.o.o.o.o.o.o.o.o.o.o.o.o.o.o.o.y.y.#.n , ; ; % % % s o.o.o.o.o.o.<.<.<.<.<.<.5.5.<.<.<.<.<.<.<.<.<.<.<.<.<.<.<.5.5.5.<.<.<.<.<.<.<.5.6.6.6.5.<.<.<.<.<.<.<.<.<.<.o.o.o.X.} } } } | } ( ( ( ( ( U 9 9 9 ( ( ( ( ( ( ( Y Y Y Y Y Y Y Y Y Y Y Y S Z Z Y Y i i i z Z Z Z Z Z Z Z Z Z ",
"S S S S S S S U Y Y Y Y T T T T T T T T ~ ( ( ( } } } } ) ( T T ( ( ) ) ) ) ( ( ) ) ) ) ( ( ( } | | X.#.o.o.o.#.>.#.#.#.o.o.o.o.>.5.5.5.5.5.6.y.y.i.8.f.g.g.f.f.f.g.g.g.g.g.f.g.h.h.h.f.v.m.m.v.f.x.x.x.g.g.g.f.5.5.| } Y Y s @ # # # # # # # ; w z z ..#.#.#.#.#.#.o.o...} } } ( Q Q Y Y Y Y Y Y Y Y U U U U U U U U U U U U U U U U U R R R Q Q Q Q Q Q ( ( ( ( ( ( ................o.o.o.#.#.5.5.5.5.5.5.5.5.5.5.5.5.#.#.#.#.#.#.#.#.o.o.o.o.o.X.X.( ( ( ( ( T T T T T T T T Q Q ( ( ( ( } } ( } } ( ( ( ( } ( ( ( ( ( ( ( ( } } } ( ( ( ( ( ( ( } X.| X.| | X.| | | X.X.X.| X.X.X.X.X.X.X.X.#.#.X.>.>.>.>.>.>.>.>.>.>.>.>.>.>.>.>.>.>.X.>.>.>.>.>.>.>.>.f % % % % % % , z o.o.o.o.o.X.} } } o.o.o.o.o.o.o.o.o.o.o.o.o.o.#.>.>.>.5.6.6.6.6.6.6.5.<.<.>.>.>.>.>.>.>.>.o.o.o.o.o.o.o.o.o.o.o.o.o.o.o.o.o.o.o.y.y.>.n , ; % % % % s o.o.o.o.o.o.#.<.<.<.<.<.<.<.<.<.<.<.<.<.<.<.<.<.<.<.5.5.<.<.<.5.<.<.<.<.<.<.<.<.6.6.6.5.<.<.<.<.<.<.<.<.<.<.#.o.o.o.X.| | | | ( ( ( ( ( ( w 9 9 t ( ( ( ( ( ( ( T Y Y Y Y Y Y Y Y Y Y Y S Z Z U Y M i i i Z Z Z Z Z Z Z Z Z ",
"S S S S S S S S U Y Y Y Y T T ~ T T T T T T ( ( T ( ( ) ) T T T ( ( ) ) ) ) ) ( ) ) ) ) ( ( ( } | | X.#.o.o.o.o.>.>.#.#.o.o.o.o.#.>.5.5.5.5.5.5.6.y.i.i.i.g.g.f.g.g.g.g.f.i.i.g.h.h.h.f.x.x.g.g.h.h.x.x.g.g.g.f.5.5.| | T Z f @ # # # @ # # # # 4 t z <.#.#.#.<.#.o.o.X.} } } } Q Q Y Q Y Y R R Y Y R U U U U U U U U U U U U U U U U U R Y R Q Q Q Q Q Q ( ( ( ( ( ( ..............o.o.o.#.#.<.5.5.<.<.<.<.<.<.<.5.5.5.#.#.#.#.#.#.#.#.o.o.o.o.o.X.X.| ( ( ( ( ( ( T T T T T T Q Q ( ( ( ( } ( ( ( ( ( ( ( ( } } ( ( ( ( ( ( ( ( ( ( ( ( ( ( ( ( ( | X.| | | | | X.X.X.X.X.X.X.| X.X.X.X.X.X.X.X.#.>.>.>.>.>.>.>.>.>.>.>.>.>.>.>.>.>.>.>.>.>.>.>.<.>.>.>.>., % % % % % % , z o.o.o.o.o.} } } } } o.o.o.o.o.o.o.o.o.o.o.o.o.o.>.>.>.>.6.6.6.6.6.5.>.>.<.>.>.>.>.>.>.>.#.o.o.o.o.o.o.o.o.o.o.o.o.o.o.o.o.o.o.o.6.y.#.n , ; % % % % s o.o.o.o.o.o.#.<.<.<.<.<.<.<.<.<.5.5.5.<.<.<.<.<.<.<.<.<.<.<.<.5.5.<.<.<.<.<.<.<.5.6.6.5.<.<.5.<.<.<.<.<.<.<.<.o.o.o.o.| | | | ( ( ( ( ( Z 9 9 9 n ( ( ( ( ( ( ( ( ( Q Y Y Y Y Y Y Y Y Y Y Z Z Z Y Y i i i M Z Z Z Z Z Z Z Z ",
"S S S S S S S S S U Y Y Y Y Y T T T T T T T T T T T T T T T T T ( ( } } ) ( ( ( } ( ( ( ) } ) } | | #.#.>.>.o.o.>.>.o.o.o.o.#.#.#.#.<.5.5.5.5.5.5.6.i.i.i.i.f.f.x.h.f.i.i.i.i.f.h.x.f.f.g.g.g.g.h.h.h.h.g.f.g.g.5.5.X.| ~ n z # # # @ @ @ @ # # ; , z <.#.#.<.<.#.o.o...} } } ( Q Q Q Q Q R R R Y Y U U U U U U U U U U U U U U U U U R Y Y Q Q Q Q Q Q ( ( ( ( ( ( Q ( ............o.o.#.#.#.#.#.#.#.#.#.#.#.#.#.#.#.#.#.#.#.#.#.#.#.o.o.o.o.o.o.o.X.X.X.} ( ( ( ( ( T Q Q T Q Q Q Q ( ( ( ( ( ( ( ( ( ( ( ( ( } } ( ( ( ( ( } ( ( ( ( ( ( ( ( ( ( X.X.| | | | | | X.X.X.X.X.X.X.X.#.X.X.X.X.X.X.>.>.>.>.>.>.>.>.>.>.>.>.>.>.>.>.>.>.>.>.>.>.>.<.h.h.y.U f 9 % % % % % % , z o.o.o.o.| } } } } } } o.o.o.o.o.o.o.o.o.o.o.o.o.#.>.>.>.5.6.6.6.5.>.>.<.<.>.>.>.>.>.>.>.o.o.o.o.o.o.o.o.o.o.o.o.o.o.o.o.o.o.o.o.6.y.} m 4 ; ; % % % s o.o.o.o.o.o.o.<.<.<.<.5.<.<.<.<.<.<.5.<.<.<.<.<.5.5.<.<.<.<.<.<.<.<.<.<.<.<.<.<.5.6.6.<.<.<.5.5.<.<.<.<.<.<.<.o.o.o.o.X.| | | } ( ( ( ( w 9 9 9 Y ( ( ( ( ( ( ( ( ( ( ( ( T Y Y Y Y Y Y Y Z Z Z U Y M i i x Z Z Z Z Z Z Z Z ",
"S S S S S S S S S S Y Y Y Y Y Y Y Y T ( T T T T T T T T T T T T T T T ( ( ( ( } } ( ( ( ) ) ) } | | >.>.>.:.o.:.>.>.:.o.o.o.#.#.#.#.#.5.5.5.5.>.5.5.6.i.i.i.y.i.i.i.i.i.i.i.i.i.v.x.f.g.g.g.g.g.h.h.h.h.h.f.g.g.5.5.X.| ( z z # # # @ @ @ @ @ $ ; > M <.#.#.#.#.o.o.X.} } } } Q Q Q Q Q Q Y R R Y Y U U U U U U U U U U U U U U U U U Y Y Y Q Q Q Q Q ( ( ( ( ( Q Q Q Q } ........o.o.#.#.#.#.#.#.#.#.#.#.#.#.#.#.#.#.#.#.#.#.#.#.#.#.o.o.o.o.o.o.o.o.X.X.X.} ( ( ( ( ( T Q Q Q T T Q ( ( ( ( ( ( ( ( ( ( ( ( ( ( ( ( ( ( ( ( } ( ( ( ( ( ( ( ( ( ( X.X.| | | | | | X.X.X.X.X.X.X.X.#.X.X.X.>.>.>.>.>.>.>.>.>.>.>.>.>.>.>.>.>.>.>.>.>.>.>.>.>.>.>.h.h.h.f t t % % % % % % , z o.o.o.X.} } } } } } } } o.o.o.o.o.o.o.o.o.o.o.o.o.>.>.>.>.5.6.6.>.>.>.<.<.<.>.>.>.>.>.>.o.o.o.o.o.o.o.o.o.o.o.o.o.o.o.o.o.o.o.o.6.i.} m 4 ; ; % % % s o.o.o.o.o.o.o.#.<.<.<.5.<.<.<.<.<.<.<.<.<.<.<.<.<.5.<.<.<.<.<.<.<.<.<.<.<.<.<.<.5.6.5.<.<.<.<.<.<.<.<.<.<.5.<.#.o.o.o.o.| | | | } ( ( n 9 9 9 t Y ( ( ( ( ( ( ( ( ( ( ( ( ( ( T Y Y Y Y Y U Z Z Z Y Y i i j Z Z Z Z Z Z Z Z ",
"S S S S S S S S S U Y Y Y Y Y Y Y Y Y Y Y T T T T T T T T T ~ ( ( T T T } ( ( ( ( ( ) ) ) ( ( } | | o.#.#.#.o.o.o.#.#.#.#.#.#.#.o.#.#.>.5.5.>.o.>.5.5.i.i.i.i.i.8.i.i.8.8.8.i.i.f.f.f.f.f.h.h.v.v.x.x.x.f.h.x.h.6.5.X.| Q z z ; # # # @ @ @ # $ ; ; n <.#.#.o.o.o.X.} } ....( Q Q Q Y Q Q Y R R R R U U U U U U U U U U U U U U U U R Y Y Q Q Q Q Q Q Q Q ( ( ....( Q Q } ........X.#.#.#.#.#.#.#.#.#.#.#.#.#.#.#.#.#.#.#.#.#.#.#.#.#.o.o.o.o.o.o.o.o.o.X.X.X.} ( ( ( ( ( T T T T T T T ( ( ( ( ( ( ( ( ( ( ( ( ( ( ( ( ( ( ( ( ( ( ( ( ( ( ( ( ( ( X.| | | | | | | X.X.X.X.X.X.#.#.#.o.X.X.>.>.>.>.>.>.>.>.>.>.>.>.>.>.>.>.>.>.>.>.>.>.>.>.X.>.>.i.h.h.P f t % % % % % % , b #.o.o.} } } } | | | } } | o.o.o.o.o.o.o.o.o.o.o.o.>.>.>.>.>.>.>.>.>.>.>.>.<.<.<.>.>.>.>.#.#.o.o.o.o.o.o.o.o.o.o.o.o.o.o.o.o.o.o.6.>.} n > % % % % > s o.o.o.o.o.o.o.o.<.<.5.<.<.<.<.<.<.<.<.<.<.5.<.<.<.<.5.<.<.<.<.<.<.<.<.<.<.<.<.<.<.6.5.<.<.<.<.<.<.<.<.<.<.<.<.<.o.o.o.o.| } | } } | Y 9 9 9 9 n Y Q ( ( ( ( ( ( ( ( ( ( ( ( ( ( ( T Y Y Y Y Z Z Z U Y x i i Z Z Z Z Z Z Z Z ",
"S S S S S S S S U Y Y Y Y Y Y Y Y Y Y Y Y T T T T T T T T T ( ( ( ~ T T } ( ( ( ( ( } } ) ( ( } | | | o.#.#.o.o.o.o.o.#.#.#.#.#.o.o.o.o.#.#.o.o.o.>.5.6.i.i.i.i.i.i.i.8.8.8.i.i.i.g.f.g.f.f.h.v.v.x.g.g.f.v.h.h.y.5.X.| Q n z ; # # @ @ @ @ # ; ; ; z o.o.o.o.o.X.} } } ..( Q Q Q Q Y Q Q Y R R R U U U U U U U U U U U U U U U U R R R Y Q Q Q Q Q Q Q ( ( ..........} ........o.o.X.#.#.#.#.#.#.#.#.#.#.#.#.#.#.#.#.#.#.#.#.#.#.#.#.o.o.o.o.o.o.o.o.o.X.X.X.X.} ( ( ( ( Q Q T T Q T T Q ( ( ( ( ( ( ( ( ( ( ( ( ( ( ( ( ( ( ( ( ( ( ( ( ( ( ( ( ( | X.| | X.| | | | X.X.X.X.X.X.X.#.#.X.X.>.>.>.>.>.>.>.>.>.>.>.>.>.>.>.>.>.>.>.>.>.>.>.X.X.X.>.y.h.h.} Q t : % % % % % % } o.o.| } } } } | | | } } } X.o.o.o.o.o.o.o.o.o.o.o.>.>.>.>.>.>.>.>.>.>.>.>.<.<.<.<.>.>.>.o.#.o.o.o.o.o.o.o.o.o.o.o.o.o.o.o.o.o.o.o.o.} n % % % ; % > k o.o.o.o.o.o.o.o.#.<.<.<.<.<.<.<.<.<.<.<.<.5.<.<.<.<.5.<.<.<.<.<.<.<.<.<.<.<.<.<.<.<.5.<.<.<.<.<.<.<.<.<.<.<.5.<.#.o.o.o.X.} | | } } t , 9 9 w Y Y T ( ( ( ( ( ( ( ( ( ( ( ( ( ( ( ( Q Y Y Y S Z Z Z Z Z i i M Z Z Z Z Z Z Z ",
"S S S S S S S S U Y Y Y Y Y Y Y Y Y Y Y Y Y T T ( ( T T T T T T T T T T ) ( ( ( ( ) ) } ( ( ( ( } | | | X.#.#.o.o.X.X.X.o.o.X.X.| | X.o.#.#.#.#.o.o.5.5.6.8.8.i.i.i.i.i.8.8.i.i.i.f.f.g.f.f.f.f.f.g.g.g.g.g.f.f.y.5.X.} Y Z z ; # # # # @ @ # ; ; ; k o.o.o.o.X.} } } } } Q Q Q Q Q Q Y Y Y Y R U U U U U U U U U U U U U U U U R Y Y Y Q Q Y Q Q Q Q Q ( } ..................o.o.o.+.#.#.#.#.#.#.#.#.#.#.#.#.#.#.#.#.#.#.#.#.#.#.#.#.o.o.o.o.o.o.o.o.o.X.X.X.X.X.} ( ( ( ( Q Q Q Q Q T T Q ( ( ( ( ( ( ( ( ( ( ( ( ( ( ( } ( ( ( ( ( ( ( } ( ( ( ( } X.| | | | | | | | | | X.X.X.X.X.X.X.X.>.>.>.>.>.>.>.>.>.>.>.>.>.>.>.>.>.>.>.>.>.>.X.X.X.X.X.5.h.h.#.Q s , % % % % % % } X.} } } } } } } } } } } } } X.o.o.o.o.o.o.o.o.o.>.>.>.<.<.<.<.<.>.<.<.>.>.>.<.>.>.>.>.>.o.o.o.o.o.o.o.o.o.o.o.o.o.o.o.o.o.o.o.o.o.o.} n % ; ; ; ; > s o.o.o.o.o.o.o.o.o.#.5.5.<.<.<.<.<.<.<.<.<.<.<.<.<.<.<.<.<.<.<.<.<.<.<.5.<.<.<.<.5.5.<.<.<.<.5.<.<.<.<.<.5.<.5.<.#.o.o.o.X.} | | | Y 9 $ 9 9 t Y Y Y ( ( ( ( ( ( ( ( ( ( ( ( ( ( ( ( ( ( T Y Y Z Z Z Z Z x i x Z Z Z Z Z Z Z ",
"S S S S S S S S Y Y Y Y Y Y Y Y Y Y Y Y Y Y T T ( ( ( ( T T T T T T T T ) ) ) ( ( ) ) ) ( ( ( ( } | | | | | | | | | | | | | | | | | | X.#.#.#.#.o.o.>.5.5.6.8.8.8.i.i.i.i.8.i.i.i.i.f.g.f.f.f.f.f.g.g.g.g.g.g.g.6.5.X.( Y U z , # # # # @ @ # ; ; ; a ......} } } } } } ( Q Q Q Q Q Y R Y Y R U U U U U U U U U U U U U U U U R Y Y Y Y Q Y Q Q Q Q Q Q Q } ..................o.+.+.+.o.#.#.#.#.#.#.#.#.#.#.#.#.#.#.#.#.#.#.#.#.#.#.o.o.o.o.o.o.o.o.o.o.X.X.+.X.X.X.} ( ( ( ( Q Q Q Q T T T Q ( ( ( ( ( ( ( ( ( ( ( Q Q Q Q ( ( ( ( ( ( } } ( ( ( ( ( | | | | | | | | | X.| | | X.X.X.X.X.X.>.>.>.>.>.>.>.>.>.>.>.>.>.>.>.>.>.>.>.>.>.>.X.X.X.X.} ( y.h.#.Q f , % % % % % % } } } } } } } } } } } } } } } | o.o.o.o.o.o.o.o.o.>.>.<.<.<.<.<.<.<.<.<.<.<.>.>.>.>.>.>.>.o.o.o.o.o.o.o.o.o.o.o.o.o.o.o.o.o.o.o.o.o.o.} n % * ; ; ; > s o.o.o.o.o.o.o.o.o.o.5.5.5.<.<.<.<.<.<.<.<.<.<.<.<.<.<.<.<.<.<.<.<.<.<.5.<.<.<.<.<.<.<.<.<.<.<.<.<.<.<.<.<.<.5.<.#.o.o.o.X.} o.a.<.t , @ 9 9 t U Y Y ( ( ( ( ( ( ( ( ( ( ( ( ( ( ( ( ( ( ( Y Y Z Z Z Z Z Z i z Z Z Z Z Z Z Z ",
"S S S S S S S S S Y Y Y Y Y Y Y Y Y Y Y Y Y Y T T T T T T T T T T T T T ( ) ) ) ( ( ( ( ( ) ) ) ) } | | | | | | | | | | | | | | | | | | o.#.o.X.| o.o.>.5.5.5.6.i.i.i.i.i.i.i.i.i.i.8.i.f.g.g.g.f.f.x.x.x.x.g.g.5.5.X.Q Y Y z 9 @ @ @ # # @ $ ; ; ; r ......} } ..} } } Q Q Q Q Q Y R R Y R U U U U U U U U U U U U U U U U U Y R R Q Q Q Q Q Q Q Q Q Q Q Q ......} ( ......+.o.o.o.o.+.#.#.#.#.#.#.#.#.#.#.#.#.#.#.#.#.#.#.#.#.#.o.o.o.X.X.X.o.o.o.o.o.o.o.+.+.X.X.X.( ( ( ( T T T T T T T T Q ( ( ( ( ( ( ( ( T Q T Q Q Q Q ( ( ( ( ( ( ( ( ( ( ( ( ( X.X.| | | | | X.X.X.| | | X.X.X.o.X.X.>.>.>.>.>.>.>.>.>.>.>.>.>.>.>.>.>.>.>.>.X.X.X.X.( Q Q #.h.#.Q z , % % % % % % } } } } } ( ( ( ( } } | } } } } X.o.o.o.o.o.o.o.#.>.>.>.>.<.<.<.<.>.<.<.>.>.>.<.>.>.>.>.>.o.o.o.o.o.o.o.o.o.o.o.o.o.o.o.o.o.o.o.o.o.#.} m ; * % % % > s X.o.+.+.o.o.o.o.+.+.#.<.<.<.<.<.<.<.<.<.<.<.<.<.<.<.<.<.<.<.<.<.<.<.<.<.<.<.<.<.<.<.<.<.<.<.<.<.<.5.5.5.<.<.<.<.o.o.o.o.X.| a.h.#.9 $ @ , w t S Y Y T ( ( ( ( ( ( ( ( ( ( ( ( ( ( ( ( ( ( Y Y Y Z Z Z Z Z M i Z Z Z Z Z Z Z ",
"S S S S S S S S S Y Y Y Y Y Y Y Y Y Y Y Y Y Y Y T T T T T T Y T ( T T T ( ) ) ) ( ( ( ( ) ) ) ) } } | | | | | | | | | | | | ..| | | | | | o.| | | X.o.#.>.5.5.5.5.6.6.6.6.6.6.i.i.i.i.8.i.f.g.g.h.h.g.g.g.g.f.f.5.5.X.T Y Y z 9 @ # @ @ # @ $ ; ; ; w ......} } } } } Q Q Q Q Q Y Y R R R U U U U U U U U U U U U R R U U U R Y R Y Y Y Y Q Q Y Q Q Q Q Q Q ( ( Q Q ( ......o.o.o.o.o.o.#.#.#.#.#.#.#.#.#.#.#.#.#.#.#.#.#.#.#.X.o.o.#.#.#.#.#.X.o.o.o.o.o.o.+.+.o.X.X.X.( ( ( T T T T T T Q T T ( ( ( ( ( ( ( Q T Q Q T Q Q T ( ( ( ( ( ( ( ( ( ( ( ( ( } X.| X.| | | X.X.X.| | | | X.X.X.#.#.X.>.>.>.>.>.>.>.>.>.>.>.>.>.>.>.>.>.>.#.X.X.( ( ( Q Q ( h.r.Q z , % % % % % % } } } } ( ( ( ( ( } | | } } } } | o.o.o.o.o.o.o.>.>.>.>.<.<.>.>.<.>.>.>.>.>.<.<.>.>.>.>.>.o.o.o.o.o.o.o.o.o.o.o.o.o.o.o.o.o.o.o.o.o.#.} m ; * * % % > s o.o.+.+.+.o.o.o.+.+.o.#.<.<.<.<.<.<.<.<.5.5.<.<.#.o.o.#.#.<.<.<.<.<.<.<.<.<.<.<.<.<.<.<.<.<.<.<.<.<.<.<.<.<.<.#.o.o.o.o.o.<.h.h.P 9 @ @ , r a Z Y Y T ( ( ( ( ( ( ( ( ( ( ( ( ( Q Q T Q T Y Y Y Z Z Z Z Z Z Z Z Z Z Z Z Z Z ",
"S S S S S S S S S Y Y Y Y Y Y Y Y Y Y Y Y Y Y Y Y T T T T Y Y Y ( ~ ~ T ( } } ) ( ( ( ( } } ) ) } } ....| | | | | | | | | ..| | | | | | | | | | | X.#.#.#.#.>.<.5.5.5.5.5.5.6.i.i.i.y.i.i.i.i.f.h.h.h.f.i.i.6.#.#.<.X.Q Y Y n 9 @ @ # # # # $ ; ; ; , ( ( ( } } } } Q Q Q Q Q Q Y Y Y Y U U U U U U U U U U U U R R R R Y Y Y Y R Y R R Y Q Q Y Q Q Q Q Q Q Q Q Q Q } ......o.o.o.o.o.o.o.#.#.#.#.#.#.#.#.#.#.#.#.#.#.#.#.#.o.#.#.#.#.#.#.#.#.#.+.+.o.o.o.o.o.o.o.X.X.X.| ( ( Q T T T Q T T T T Q ( ( ( ( ( Q Q T T T T T T T T ( Q ( ( ( ( ( ( ( ( ( ( ( | X.X.| | | | | | | | | | X.X.X.X.X.X.X.>.>.>.>.>.>.>.>.>.>.>.>.>.>.>.>.#.X.X.( Q Q Q Q Q Q h.y.Q z , % % % % % % ( } } } ( ( ( ( ( } | | | | } } } X.o.o.o.o.o.#.>.>.>.>.>.>.<.<.>.>.>.>.>.>.<.<.>.>.>.>.>.>.o.o.o.o.o.o.o.o.o.o.o.o.o.o.o.o.o.o.o.o.#.X.m ; % % % % % k X.X.+.+.o.o.o.o.o.+.X.X.<.>.<.<.5.5.<.<.<.<.<.<.o.o.o.o.o.o.#.<.<.<.<.<.5.5.<.<.#.#.<.<.<.<.<.<.<.<.<.<.<.<.<.+.o.o.o.o.o.a.h.y.9 > @ @ , t a M Y Y Y Q ( ( ( ( ( ( ( ( ( T Y Y Y Y Y Y Y Y Y Y Z Z Z Z Z Z Z Z Z Z Z Z Z Z ",
"S S S S S S S S S Y Y Y Y Y Y Y Y Y Y Y Y Y Y Y Y Y T Y Y Y Y Y ( ( T T T T T T T ( ( ( } } ) ) } | ....| | | | | | | | | | | | | | | | | | | | | o.#.#.#.#.#.#.#.>.>.5.5.5.5.i.i.y.y.y.i.i.i.i.f.f.i.y.i.5.| } | | ..Q Y Y n r @ @ @ # # # $ ; ; ; 4 Q Q Q Q Q Q Q ( ( Q Q Q Y Y Y Y U U U U U U U U U U U U U R Y R Y Y Y Y Y R R R Y Y Q Q Y Q Q Q Q Q Q Q ( Q Q ........o.o.o.o.o.o.o.#.#.#.#.#.#.#.#.#.#.#.#.#.#.#.#.#.#.#.#.#.#.#.#.#.#.#.#.+.o.o.o.o.o.o.+.+.X.X.X.( ( ( T T T Q Q Q T T Q Q Q ( ( Q Q Q T T T T T T T T Q Q Q ( ( ( ( ( ( ( ( ( ( ( | X.| | | | | | | | | | | X.X.X.X.#.X.X.>.>.>.>.>.>.>.>.>.>.>.>.>.>.>.X.X.Q Q Q Q Q Q Q Q i.y.Q z , % % % % % % ( } } } ( ( ( ( ( } | | | | } } } } o.o.o.o.o.>.>.>.>.>.>.>.>.>.>.>.>.>.>.>.<.<.>.>.>.>.>.>.>.o.o.o.o.o.o.o.o.o.o.o.o.o.o.o.o.o.o.o.o.o.m % % % % % % b X.o.o.o.o.o.o.o.o.+.X.X.#.>.<.<.<.<.<.<.<.<.<.<.#.o.o.o.o.o.o.o.o.#.#.#.#.o.o.o.o.o.o.#.<.<.<.<.<.<.<.<.<.<.o.o.o.o.o.o.#.h.p.M 9 $ @ @ , t a M Y Y Y Y ( ( ( ( ( ( ( T Y Y Y Y Y Y Y Y Y Y Y Y S Z Z Z Z Z Z Z Z Z Z Z Z Z ",
"S S S S S S S S S S Y Y Y Y Y Y Y Y Y Y Y Y Y Y Y Y Y Y Y Y Y Y T T T ( T T T T T T ) } } ) ) ) } | | | | | ....| | | | | | | | ....| | | | ....| o.#.#.#.#.o.o.:.>.>.>.5.5.5.6.8.8.8.8.i.y.y.y.i.y.i.6.#.X.Q Y Q | | Q Y Y M s # # @ @ @ @ $ ; ; ; > Q ( Q Q Q Q Q Q Q Q Q Q Y Y Y Y U U U U U U U U U U U U U U Y Y Y Y R R R Y Y R R R Q Y Y Q Q Q Q ( Q Q ( Q ..........o.o.o.o.o.o.+.o.#.#.#.#.#.#.#.#.#.#.#.#.#.#.#.#.#.#.#.#.#.#.#.#.#.#.#.#.#.#.#.#.#.o.o.+.o.X.X.( ( ( T Q T T T T T T T T T T T T T T T T Q Q Q T T T T T T Q ( ( ( ( ( ( ( ( ( ( ( | | | | | X.X.X.| | | | | X.X.X.X.X.X.>.>.>.>.>.>.>.>.>.>.>.>.>.>.X.| Q Q Q Q ( Q Q Q Q y.y.Q z , % % % % % % ( } } ( ( ( ( ( ( ( ( } } } } } } } X.o.o.o.o.o.>.>.>.#.#.o.>.>.>.>.>.>.>.>.>.>.>.>.>.>.>.>.>.#.o.o.o.o.o.o.o.o.o.o.o.o.o.o.o.o.o.o.o.o.n % % % % % % k o.o.o.o.o.o.+.+.+.o.o.o.o.#.<.<.<.<.<.<.<.<.<.<.#.o.o.o.o.o.o.o.o.X.X.X.o.o.o.o.o.o.o.o.#.<.<.<.<.<.<.<.<.<.o.o.o.o.+.+.y.h.Q 9 9 # @ @ 3 t a M Y Y Y Y Q ( ( ( ( T Y Y Y Y Y Y Y Y Y Y Y Y U S Z Z n n M Z Z Z Z Z Z Z Z Z ",
"S S S S S S S S S S Y Y Y Y Y Y Y Y Y Y Y Y Y Y Y Y Y Y Y Y Y Y T T T ( T T T T T T ( ) } } ( ) ) | | | | | ....| | | | | | | | ......| | | | ..| o.#.#.#.#.o.o.:.:.>.>.>.5.5.5.5.6.8.i.y.y.y.y.i.6.>.X.X.} Y Y Y } | ( Y Y Z s # # @ @ @ @ $ ; ; ; ; Q ( Q Q Q Q Q Q Q Q Q Q Y Y Y R U U U U U U U U U U U U U U R Y Y Y Y R R Y Y R R R Y Y Y Q Q Q ( ( Q Q ( ..................o.o.o.o.o.o.#.#.#.#.#.#.#.#.#.#.#.#.#.#.#.#.#.#.#.#.#.#.#.#.#.#.#.#.#.#.#.o.o.o.+.o.X.X.( ( ( T Q T T T T Q T T Y Z z t t w w e t s z Q T T T T T T T T ( ( ( ( ( ( ( ( ( ( ( | | X.X.X.X.| | | | | | X.X.X.X.X.X.>.>.>.>.>.>.>.>.>.>.>.>.>.X.} Q Q Q Q Q ( ( Q Q Q y.y.Q z : % % $ @ % % ( ( ( ( ( ( ( ( ( ( ( ( } } } } } } } o.o.o.o.o.o.o.o.o.o.o.>.>.>.>.>.>.>.>.>.>.>.>.>.>.<.<.>.>.o.o.o.o.o.o.o.o.o.o.o.o.o.o.o.o.o.o.o.o.n % % % % % % , o.o.o.o.o.o.o.+.+.o.o.o.o.o.#.<.<.<.<.<.<.<.<.<.#.o.o.o.o.o.o.+.o.o.X.X.o.o.o.o.o.o.o.o.o.<.<.<.<.<.<.<.<.#.o.o.o.o.+.#.h.h.x 9 9 @ @ @ 9 t a M S Y Y Y Y ( Q Y Y Y Y Y Y Y Y Y Y Y Y Y Z Z Z Z Z n n n n Z Z Z Z Z Z Z Z Z ",
"S S S S S S S S S S Y Y Y Y Y Y Y Y Y Y Y Y Y Y Y Y Y Y Y Y Y Y Y Y Y Y Y T T T T T ( ) ( ( ( ( } | | | | | | | | | | | | | | | | | | | | | | | | X.#.#.o.o.o.o.o.o.o.o.>.5.5.5.5.8.i.i.i.i.y.y.<.X.X.X.( Y Y Y Y Q | } Y Y Z s # # # # @ # # ; ; ; ; m ( ( Q Q ( Q Q Q Q Q Y R R R U U U U U U U U U U U U U U U U Y Y R R R R Y Y Y Y R R R Y Q Q Q Q ( ( Q Q ........................o.o.o.o.#.#.#.#.#.#.#.#.#.#.#.#.#.#.#.#.#.#.#.#.#.#.#.#.#.#.#.#.#.o.o.X.X.X.X.X.| ( ( Q T T T T T T T M s w t t t t w w e e 9 : > t Z T T T T T Q T T Q ( ( ( ( ( ( ( ( ( | X.X.| | | | X.X.| | X.X.X.X.X.X.X.>.>.>.>.>.>.>.>.>.>.#.X.} Q Q Q Q Q Q ( ( Q Q ( <.i.( z % % % @ @ # % ( ( ( ( ( ( ( ( ( ( ( ( } } } } } } } X.o.o.o.o.o.o.o.o.o.o.#.>.>.>.>.>.>.>.>.>.>.>.>.>.>.>.>.>.o.o.o.o.o.o.o.o.o.o.o.o.o.o.o.o.o.o.o.o.M % ; ; ; ; ; ; ..o.o.o.o.o.o.o.o.o.o.o.o.o.o.o.#.<.<.<.<.<.<.<.#.o.o.o.o.o.+.+.o.o.X.X.o.o.o.o.o.o.o.o.o.<.<.<.#.o.o.o.o.o.o.o.o.o.X.5.h.#.z 9 9 @ @ @ r t a z Z Y Y Y Y Y Y Y Y Y Y Y Y Y Y Y Y S Z Z Z Z Z Z M n n n n M Z Z Z Z Z Z Z Z ",
"S S S S S S S S S S Y Y Y Y Y Y Y Y Y Y Y Y Y Y Y Y Y Y Y Y Y Y Y Y Y Y Y T T T T T T ) ( ( ( ( } | | | | | | | | | ........| | | | | | | | | | | | X.#.o.o.o.o.o.o.o.o.>.5.5.5.6.8.i.i.i.i.<.X.| | } Q Y Y Y Y Y Y ( T Y Y Z s # # # # @ @ # ; ; ; ; > Q ( Q Q ( Q Q Q Q Q Y R R R U U U U U U U U U U U U U U U U U Y Y R U U R Y Y Y R R Y Y Y Y Q Q Q ( ( ( ( ..........................o.o.o.o.#.#.#.#.#.#.#.#.#.#.#.#.#.#.#.#.#.#.#.#.#.#.#.#.#.#.o.o.o.o.X.X.X.X.| ( ( T T T T T Y z t e w w t e t t w r e e , $ @ @ @ $ 9 b Y T Q Q T T T T Q Q Q ( ( ( ( ( | | | | | | X.| | | X.X.X.X.X.X.X.X.X.#.>.>.>.>.>.#.X.X.( Q ( Q Q Q Q ( ( ( ( ( ( #.h.( z % % $ @ @ @ # ( ( ( ( ( ( ( ( ( ( ( ( } | | | } } } } o.o.o.o.o.o.o.o.o.o.o.>.>.>.>.>.>.>.#.#.o.o.o.#.#.#.o.o.o.o.o.o.o.o.o.X.| | | o.o.o.o.o.o.o.o.o.M % $ @ $ ; ; ; R o.o.o.o.o.o.o.o.o.o.o.o.o.o.o.o.o.#.#.<.<.<.#.o.o.o.o.o.o.+.+.o.o.X.X.o.o.o.o.o.o.o.o.o.5.#.o.o.o.o.o.o.o.o.o.o.o.X.a.h.R z 9 9 @ @ @ t t t z Z Y Y Y Y Y Y Y Y Y Y Y Y Y Y Y Z Z Z Z Z Z Z Z n n n n n n Z Z Z Z Z Z Z Z ",
"S S S S S S S S S S U Y Y Y Y Y Y Y Y Y Y Y Y Y Y Y Y Y Y Y Y Y Y Y Y Y Y Y T T T T T T ( } ( ( | ....| | | ....| ....| ......| | | | | | | | | | | | o.o.:.>.>.#.o.o.o.>.5.5.5.y.i.i.i.5.X.X.| } Q Y Y Y Y Y Y Y Y Y Y Y Y Z s @ @ @ # # # @ $ ; ; ; ; a Q Q Q ( ( Q Q Q Q Y Y R R U U U U U U U U U U U U U U U U U U U U U U U U R U U U U U R Y R Y Q Q ( ( ( Q ( ( ....................o.o.X.X.o.#.#.#.#.#.#.#.#.#.#.#.#.#.#.#.#.#.#.#.#.#.#.#.#.X.o.o.o.o.X.X.X.X.| ) ( T T T Y n x t e e w t t t t t e w e e > # @ @ @ @ @ @ # , , , , w f M Y Q Q T T T ( ( ( } | | | | | | | | X.X.X.X.X.X.X.X.X.X.X.X.X.X.X.X.X.( ( ( Q Q Q Q Q Q Q Q Q Q Q +.h.Q z % % # @ @ @ @ z ( ( ( ( ( ( ( ( ( ( ( } } } } } } } } | o.o.o.o.o.o.o.o.o.o.>.>.>.<.<.#.#.o.o.o.o.o.o.o.o.o.o.o.o.o.o.o.X.} } } } } } o.o.o.o.o.o.o.o.P % # @ @ % % % k o.o.o.o.o.o.X.X.X.o.o.o.o.o.o.o.o.o.o.o.o.o.X.X.X.o.o.o.o.o.o.o.o.o.o.o.X.+.+.+.+.o.o.#.#.o.o.o.o.o.o.o.o.o.o.o.o.<.h.h.n z 9 9 @ @ $ t t t a Z S Y Y Y Y Y Y Y Y Y Y Y Y Y U Z Z Z Z Z Z Z n n n n n n n Z Z Z Z Z Z Z Z ",
"S S S S S S S S S S S Y Y Y Y Y Y Y Y Y Y Y Y Y Y Y Y Y Y Y Y Y Y Y Y Y Y Y Y T T T T T ( ( ) ) ..| | | | ....| | ..| | | | ..| | | | | | | | | | | | o.o.:.>.X.#.#.o.o.<.5.5.5.5.6.6.o.X.X.X.( Y Y Y Y Y Y Y Y Y Y Y Y Y Y M s @ @ # # # # # # ; ; ; ; ; m Q Q ( ( Q Q Q Q Y Y Y R Y U U U U U U U U U U U U U U U U U U U U U U U U U U U U U U R R R Y Q Q Q ( Q Q Q ....................o.o.o.X.o.o.#.#.#.#.#.#.#.#.#.#.#.#.#.#.#.#.#.#.#.#.#.#.X.X.+.o.o.o.o.X.X.X.| ) Q T T Y x x z t e r w e t t t t e w e w : @ @ @ # $ $ # @ @ $ * , , 7 7 7 7 e z M Z Z Z U U ( ( ( ( ( } } | X.X.| | X.| | | | | | | | | | | Q ( ( ( Q Q Q Q Q Q Q Q Q Q ( } h.Q z % % @ @ @ @ @ > ( ( ( ( ( ( ( ( ( ( ( } ( ( ( } } } } } X.o.o.o.o.o.o.o.o.o.>.>.>.<.<.o.#.o.o.o.o.o.o.o.o.o.o.o.o.o.X.} } } } } } } } | o.o.o.o.o.o.o.Y % @ @ @ $ % % , o.o.o.o.o.X.X.X.X.o.o.o.o.o.o.o.o.o.o.o.o.o.X.X.X.o.o.+.+.o.o.o.o.o.o.o.X.+.+.o.+.o.o.o.o.o.o.o.o.o.o.o.o.o.o.o.o.y.h.r.z z w , @ @ $ t t t t n Z Y Y Y Y Y Y Y Y Y Y Y Y Y Z Z Z Z Z Z Z M n n n n n n n M Z Z Z Z Z Z Z ",
"S S S S S S S S S S S Y Y Y Y Y Y Y Y Y Y Y Y Y Y Y Y Y Y Y Y Y Y Y Y Y Y Y Y T T T T T T ( ) } | | | | | | | | | | | | | | | | ....| | | | | | | | | #.#.#.X.| o.#.#.>.5.5.5.5.5.<.X.| X.X.} Y Y Y Y Y Y Y Y Y Y Y Y Y Y Y n s @ @ @ @ # # # # $ ; ; ; ; ; m Q Q Q Q Q Q Q Y Y Y Y Y Y R U U U U U U U U U U U U U U U U U U U U U U U U U U U U U U R R Q Q Q ( ( ( Q ......................o.o.o.o.o.#.#.#.#.#.#.#.#.#.#.#.#.#.#.#.#.#.#.#.#.#.o.o.+.+.+.o.o.+.o.o.X.| ( Q T Q M x x z r r r e e t t e e e e e , % @ @ # , , 7 , , , * , , , , , , , 7 7 7 7 , , , , 9 ( ( ( ( ( ( ( ( ( ( } } } | | | | | | | } } ( Q Q ( ( Q Q Q Q ( ( Q Q Q Q Q Q h.Q f % # @ @ @ @ @ @ ( ( ( ( ( ( ( ( ( ( ( ( ( ( ( ( } } } } } o.o.o.o.o.o.o.o.#.>.>.>.>.>.#.o.o.o.o.o.o.o.o.o.o.o.o.o.o.X.} } } } } } } } } o.o.o.o.o.o.o.X.> @ @ @ # % % % ..o.o.o.o.o.o.X.X.X.X.X.X.o.o.o.o.o.o.o.o.o.o.X.X.o.o.+.+.o.o.o.o.o.o.X.X.X.X.o.o.o.o.X.X.o.o.} } } ............} y.v...z z r , @ @ $ t t t t a Z Y Y Y Y Y Y Y Y Y Y Y Y U Z Z Z Z Z Z Z n n n n n n n n n Z Z Z Z Z Z Z ",
"S S S S S S S S S S S Y Y Y Y Y Y Y Y Y Y Y Y Y Y Y Y Y Y Y Y Y Y Y Y Y Y Y Y Y ( ( T T T T ( } | | | | | | | | | | | | | | | | | ..| | | | | | | | | #.#.#.X.| X.#.#.5.5.5.5.5.>.| | | X.X.Q Y Y Y Y Y Y Y Y Y Y Y Y Y Y Y z 9 @ @ @ # # # @ @ @ $ ; ; ; ; ; M Q Q Q Q Q Q Q Y Y Y Y Y R R R U U U U U U U U U U U U U U U U U U U U U U U U U U U U R R Q Q Q ( ( Q Q ......................o.o.o.o.o.#.#.#.#.o.o.#.#.#.#.#.#.#.#.#.#.#.#.#.#.#.#.o.+.+.+.o.o.+.o.+.X.| ( ( T Y x x x t r r r e e e e e e e e w : % @ @ # Y | o.o.o.o.X.o.X.X.X.X.X.Y Y Y Y Y U U U U ( ( ( ( ( ( ( ( ( ( ( ( ( ( ( ( ( ( ( ( ( ( Q Q Q Q Q Q Q Q ( ( ( Q Q Q Q Q Q Q 5.Q z % @ @ @ @ @ @ @ n ( ( ( ( ( ( ( ( ( ( ( ( ( ( ( } } } } } | o.o.o.o.o.o.o.o.>.>.>.>.>.>.o.o.o.o.o.o.o.o.o.o.o.o.o.o.X.} } } } } } } } } o.o.o.o.o.o.o.} m @ @ @ @ % % % R o.o.o.o.o.o.o.o.X.X.X.X.o.o.o.o.o.o.o.o.o.o.X.o.o.o.o.+.o.o.o.o.o.o.X.X.X.X.X.X.X.X.X.X.o.} } } } } } } } } } } v.v.U z z r , @ @ $ t a a t t z S Y Y Y Y Y Y Y Y Y Y Y Z Z Z Z Z Z Z Z n n n n n n n n n M Z Z Z Z Z Z ",
"S S S S S S S S S S S S Y Y Y Y Y Y Y Y Y Y Y Y Y Y Y Y Y Y Y Y Y Y Y Y Y Y Y Y T T T T T T ( } | | | | | | | | | | | | | | | | | | | ....| | | ..| X.#.#.o.| | | o.#.>.>.>.>.X.X...| | | } Y Y Y Y Y Y Y Y Y Y Y Y Y Y Y Y z 9 # # @ @ # # # # @ # ; ; ; ; ; > U Q Q Q Q Q Q Y R R Y Y Y Y R R U U U U U U U U U U U U U U U U U U U U U U U U U U U U R Q Q ( ( ( Q Q ........................o.o.o.o.o.o.o.o.o.o.o.+.+.o.o.o.#.#.#.#.#.#.#.#.#.#.o.o.o.o.o.o.o.o.X.X.} ( Q T Z x x s w w w w w 9 , > : : > > : : % @ @ @ ( } X.X.X.X.X.X.X.X.X.X.X.} ( ( ( ( ( } ( } ( ( ( ( ( ( ( ( ( ( ( ( ( ( ( ) ( ( ( Q ( ( Q Q Q ( ( ( Q Q Q Q Q Q ( Q Q Q Q Q } Q z # @ @ @ @ @ @ @ w ( ( ( ( ( ( ( ( ( ( ( ( ( ( } } } } | | | X.o.o.o.o.o.o.o.>.>.>.>.>.>.#.o.o.o.o.o.o.o.o.o.o.o.o.o.X.} } | | | | } } } o.o.o.o.o.o.o.} m @ @ @ @ % % ; k o.o.o.o.o.o.o.o.o.o.X.X.o.o.o.o.o.X.X.X.o.o.o.o.o.o.o.o.o.o.o.o.o.o.o.o.o.o.o.o.+.+.X.X...} } } } } } } } } } o.h.h.n z z r , @ @ $ t t t t t a M Y T Y Y Y Y Y Y Y Y U Z Z Z Z Z Z Z Z n n n n n n n n n n M Z Z Z Z Z ",
"S S S S S S S S S S S S Y Y Y Y Y Y Y Y Y Y Y Y Y Y Y Y Y Y Y Y Y Y Y Y Y Y Y Y Y T T T T T ) } | | | | | | | | | | | | | | | | | | | | ....| | | | X.#.#.X.| | | X.#.#.#.X.| | X.| | | | } Y Y Y Y Y Y Y Y Y Y Y Y Y Y Y M z 9 # # @ @ # # # # @ # ; ; ; ; ; ; > Y Q Q Q Q Q Y R R R Y Y Y R R R U U U U U U U U U U U U U U U U U U U U U U U U U U U Y Q Q ( ( ( ( Q ..........................o.} Y ..o.o.o.o.o.o.o.+.o.o.o.#.#.#.#.#.#.#.#.#.#.o.o.o.o.o.o.+.o.X.X.X.( Q T n z t t w w 9 , : : : : : : : : : : $ @ @ @ U ( } X.X.X.X.X.X.X.X.X.X.} ( ( ( ( ( ( } ( ( ( ( ( ( ( ( ( ( ( ( ( ( ( Q Q Q Q Q Q Q ( Q Q Q Q ( ( Q Q Q Q Q Q ( ( Q Q Q Q Q Q : @ @ @ @ @ @ @ @ $ ( ( ( ( ( ( ( ( ( ( ( } } } | } } } | } | | o.o.o.o.o.o.o.>.>.>.>.>.<.>.o.o.o.o.o.o.o.o.o.o.o.o.o.X.} } | | | | } } | o.o.o.o.o.o.o.o.M ; @ @ @ $ % % , o.o.o.o.o.o.o.o.+.+.X.X.o.o.+.+.X.X.X.X.+.+.o.o.o.o.o.o.o.o.o.o.o.o.X.X.o.o.o.o.+.+.X.X.} } } } } } } } } } } r.h.y.z z z w , @ @ @ t t t t a a z S T Y Y Y Y Y Y Y Y Z Z Z Z Z Z M M n n n n n n n n n n n n Z Z Z Z Z ",
"S S S S S S S S S S S S U Y Y Y Y Y Y Y Y Y Y Y Y Y Y Y Y Y Y Y Y Y Y Y Y Y Y Y Y T T T T ( ) } | | | | ....| | ..| | | | ....| | | | | | | | | | | | X.X.| | | | | X.X.| | | | | | | | | ( Y Y Y Y Y Y Y Y Y Y Y Y Y Y Y z z , @ @ @ @ # # # # # # $ ; ; ; ; ; > r Q Q Q Q Q Q Y Y Y Y Y Y Y R Y U U U U U U U U U U U U U U U U M M U U U U U U U U R Y Q Q ( ( ( Q Q ..........................R : : > m o.o.o.o.o.o.X.X.o.o.o.o.o.o.o.o.#.#.#.#.#.o.o.o.o.o.o.X.X.X.X.( Q Y s e e e 9 > : : : : : : : : : : : % @ @ @ @ 4 ( ( X.X.X.X.X.X.X.X.X.| } ( ( ( ( ( ( ( ( ( ( ( ( ( ( ( ( ( ( ( ( ( ( Q Q Q Q Q Q Q Q Q Q Q Q ( Q ( ( Q Q Q Q ( ( Q Q Q Q Q M @ @ @ @ @ @ @ @ @ @ T ( ( ( ( ( ( ( ( } } } } } | } } } } } } } X.o.o.o.o.o.o.>.>.>.>.>.<.<.o.o.o.o.o.o.o.o.o.o.o.o.X.| } } | } } } } } | o.o.o.o.o.o.o.} m > @ @ @ $ % % % ..o.o.o.o.o.o.o.+.+.+.o.o.+.+.+.o.o.X.X.o.+.o.o.X.X.X.o.o.o.o.+.o.o.X.X.o.o.o.o.+.o.o.X.} } } } } } } } } } } h.a.o.z z z 9 , @ @ @ r t t t t t a Z Y Y Y Y Y Y Y Y S Z Z Z Z Z n n n n n n n n n n n n n n n M Z Z Z Z ",
"S S S S S S S S S S S S S Y Y Y Y Y Y Y Y Y Y Y Y Y Y Y Y Y Y Y Y Y Y Y Y Y U Y Y Y T T T ( ) } | | | | ......| ..| | ..| | ..| | | | | | | | | | | | | | | | | | | | | | | | | | | | | | Q Y Y Y Y Y Y U Y Y Y Y Y Y Y M z z ; @ @ @ @ @ # # # # # $ ; ; ; ; ; ; > R Q Q Q Q Q Q Y Y Y Y Y R R Y R U U U U U U U U U U U U M M M M M M N U U U U U U Y Y Q Q ( ( ( Q Q ..........................4 : : : : s ..o.o.o.o.X.X.o.o.o.o.o.o.o.o.o.o.o.o.o.o.o.o.o.o.+.X.X.X.X.( T n e w , > : : : : : : : : : : : $ @ @ @ @ @ @ @ U ( ( X.X.X.X.X.X.X.X.} } ( ( ( ( ( ( ( ( ( ( ( ( ( ( ( } ( ( ( ( ( ( Q Q Q Q Q Q Q Q Q Q Q Q Q Q ( ( ( Q Q Q ( ( ( Q Q Q Q , @ @ @ @ @ @ @ @ @ @ M ( ( ( ( ( ( ( ( } } } } | | } } } } } } } } o.o.o.o.o.o.>.>.>.>.>.>.>.o.o.o.o.o.o.o.o.o.o.X.} | | } } } } } } } } X.o.o.o.o.o.o.o.} m > @ @ @ # % % % L o.o.o.o.o.o.o.+.+.o.o.o.o.+.+.o.X.X.X.o.o.o.o.X.X.o.o.o.o.+.+.o.o.o.X.o.o.o.o.+.+.o.X...} } } } } } } } } ..h.h.R z z z 9 , @ @ @ , t t t t t a z S Y Y Y Y Y Y S Z Z Z Z Z n n n n n n n n n n n n n n n n n M Z Z Z ",
"S S S S S S S S S S S S U S Y Y Y Y Y Y Y Y Y Y Y Y Y Y Y Y Y Y Y Y Y Y U Z Z Z S U T T T ( ) } | | | | | | | | | | | ..| | | | | | | | | ......| | | | | | | | | | | | | | | | | | | | | T Y Y Y U r 3 4 9 z Y Y Y Y U z z z ; @ @ # # @ @ @ @ # # $ ; ; ; ; ; ; ; k Q Q Q Q Q Q Q Y Q Q Y Y R Y Y U U U U U U U U U N M M M M N N N M M N U U U U U Y Y Q ( Q ( ( ( ( ( ..................W m r > : : : : : , } o.o.o.X.o.o.o.o.o.o.o.o.o.o.o.o.o.o.o.o.o.o.X.( ( X.X.X.Q U 9 , : : : : : : : : : : : : : : @ @ @ @ @ @ @ @ $ ( ( } X.X.X.X.X.X.X.} } } } ( ( ( ( ( ( ( ( ( ( ( ( ( ( ( ( ( ( Q Q Q Q Q Q ( ( Q Q Q Q Q Q Q Q Q Q Q Q Q Q Q Q ( ( Q Q Q $ @ @ @ @ @ @ @ @ @ @ M ( ( ( ( ( ( ( ( } } } } } } } } } } } } } } | o.o.o.o.#.>.<.<.>.>.>.>.o.o.o.o.o.o.o.o.X.} } } | } } } } } } } } } X.o.o.o.o.o.#.o.} m w @ @ @ @ % % % a o.o.o.o.o.o.o.o.o.o.o.o.o.o.o.o.o.o.o.o.o.o.o.o.o.o.o.o.o.o.o.o.o.o.o.o.o.o.o.o.o.o.o.X.} } } } } } } } } <.h.h.n z z t 9 , @ @ @ $ a a a a t t t M U Y Y Y Y Z Z Z Z Z Z M n n n n n n n n n n n n n n n n n n n M Z ",
"S S S S S S S S S S S S S S S Y Y Y Y Y Y Y Y Y Y Y Y Y Y Y Y Y Y Y Y Y S Z Z Z S Z S T T ( ) ) | | | | | | | | | | | Y Y Y Y T | | | | | | | | ....| | | | | | | | | | | | | | | X.| | | Y U n t 3 3 3 4 4 4 9 M Y M z z z z # @ @ # # @ @ @ @ @ @ $ ; ; ; ; ; ; ; r Q Q Q Q Q Q Q Y Q Q Y Y R Y Y R U U U U U U M M M M M M M M M M M M M N U U U R Y Y ( ( ( ( ( Q Q ( ( } ....Q U b r 3 3 3 3 3 > : : : : : > H o.o.o.o.o.o.o.o.o.o.o.o.o.o.( Y R M n m z z z z z z w : : : : : : : ; ; : : : : : : : : : # @ @ @ @ @ @ @ @ > ( ( } X.X.X.X.X.X.} } ( ( ( ( ( ( ( ( ( ( Q Q ( ( ( ( Q Q Q Q Q Q Q Q Q Q ( ( Q Q Q Q Q Q Q Q Q Q Q Q ( Q Q Q ( ( Q Q U @ @ @ @ @ @ @ @ @ @ @ S ( ( ( ( ( ( ( ( } } } } } } } } } } } } } } } X.o.o.o.o.>.<.<.>.>.#.#.o.o.o.X.X.X.X.| } } } } | } } } } } } } } } o.o.o.o.o.o.o.o.Q m 4 @ @ @ @ $ ; % % o.o.o.o.o.o.o.o.o.o.o.o.o.o.o.o.o.o.o.o.o.o.o.o.o.o.o.o.o.o.o.o.o.o.o.o.o.o.o.o.o.o.o.o...} } } } } } } } 5.<...U z z 9 9 : @ @ @ @ 4 a a a a t t s M S S Z Z Z Z Z Z Z Z M n n n n n n n n n n n n n n n n n n n n n ",
"S S S S S S S S S S S S S S S S Y Y Y Y Y Y Y Y Y Y Y Y Y Y Y Y Y Y Y U Z M Z M M Z M Y T T ) ) } | | | | | | Y t , , , , , , , , , w z z M U Y ....X...| | | | | | ....| | | | Y s 9 4 3 3 3 3 3 3 4 4 4 4 4 4 , s f z z z s # @ @ # # # # @ @ @ @ @ ; ; ; ; ; ; ; w Q Q Q Q Q Q Q Q Q Q Y Y Y Y Y R U U U U U M M M M M M M M M M M M M M M N U U U Y Y Q Q Q Q Q Q Q ( ( Q m 3 3 3 3 3 3 3 3 3 3 , : : : : : : : : 9 r k k k k k k k k r > : : : : : : : : : : : : : : : : : : : : : : : : : : : : : : : : $ @ @ @ @ @ @ @ @ @ 9 } } } } } | } } ( } ( ( ( ( U P P M M M M R Q Q ( ( Q Q Q Q Q Q Q Q Q Q Q ( Q Q Q Q ( ( Q ( Q Q ( ( ( ( Q Q Q Q Q Q 4 @ @ @ @ @ @ @ @ @ @ $ U U ( ( ( ( ( ( ( } } } } } | } } } } } | | } } | o.o.o.o.#.>.#.#.o.o.X.X.| } } } } } } } } | } } } } } } } | | } } o.o.o.o.o.o.o.o.Y b 2 $ @ @ @ @ $ % % % % , w w l l l l a a s s k b U R W R R } o.o.o.o.o.o.o.o.o.o.o.+.o.o.o.o.o.o.} Q Q Q Q Q Q W } } } } } } Q m 3 > z w 9 , % @ @ @ @ @ r a t t t t t s M Z Z Z Z Z Z Z M n n z z z z n n n n n n n n n n n n n n n n n ",
"S S S S S S S S S S S S S S S S S U Y Y Y Y Y Y Y Y Y Y Y Y Y Y Y Y Y S S M Z Z Z M M U T T ( ) ) } ....} n > $ $ $ $ $ % > > > > > ; % $ $ $ $ $ $ w w w w w w w $ $ $ $ $ $ $ , 4 4 3 3 3 3 3 3 3 3 3 3 4 4 4 , s f z z z , # @ @ # # # # # # @ @ @ ; ; ; ; > 4 4 k Q Q Q Q Q Q Q Q Q Q Y R Y Y Y R U U U U M M M M M M M M M M M M M M M M M M U U R Y Q Q Q Q Q U r > > > ; > 3 3 3 3 3 3 3 3 3 3 > : : : : : : : : : : : : : : : : : : : : : : : : : : : : , q i i 9 > : : : : : : : : : : : : : : ; ; : % @ @ @ @ @ @ @ @ @ $ 4 w w w w w w w w w , $ @ @ # # # # @ @ @ @ @ @ # # @ $ , 4 w w r r r a r k k m M M M R ( ( Q Q Q ( ( ( Q Q R M M n @ @ @ @ @ @ @ @ @ @ @ > U U ( ( ( ( ( ( ( } } } } } | } } } | | | | | } } X.o.o.o.o.X.X.X.| | | } } } } } } } } } ( ( } } } } } | | | | } | o.o.o.o.o.o.o.o.U s 2 $ @ @ @ @ @ @ @ # # # # @ ; ; ; - ; ; ; - - - - - - - - - - - - - ; ; - - - - - - - ; a s s s s s s s s s s s s s s s k k > ; % % 9 9 , % % # @ @ @ @ @ ; 4 r w w w w r t z z z s r r r r r r r r r r r r r a s k z n n n n n n n n n ",
"S S S S S S n z z z z z z z z z z z z z n Z Y Y Y Y Y Y Y Y Y Y Y Y S M Z Z Z M N N Z M T T T T ( T ( M $ $ $ $ $ $ $ $ $ $ $ $ $ $ $ $ $ $ $ $ $ $ $ > 3 4 4 , $ $ $ $ $ $ % , 3 3 3 3 4 4 4 3 3 3 3 3 9 9 4 3 3 s z z z t , # @ # # # # # # # # @ @ ; ; ; ; r r r m Q Q Q Q Q Q Q Q Q Q R R Y Y Y Y U U U M M M M N N M M M M M M M M M M M M M M U U U Q U n a > > > > ; ; ; > > 3 3 3 3 3 3 3 3 w w , : : : : : : : : : : : : : : : : : : : ; : : : : : : : t i i i i i , : : : : : : : : : : : : : : : : : # @ @ @ @ @ @ @ @ @ @ @ $ $ $ $ $ # @ @ @ @ @ @ # # @ @ @ @ @ @ @ @ @ @ @ @ @ @ @ @ @ @ @ @ @ @ # # @ @ @ @ @ @ @ @ @ @ @ @ @ @ @ @ @ @ @ @ # @ @ @ @ @ @ @ @ > U U U ( ( ( ( ( ( ( } } } } } } } | } } } } } } } } } } } } } } } } Q Q Q Q Q Q Q Q Q Q Q Q Q Q Q Q Q Q Q Q } } } } o.o.#.#.o.#.#.o.m 4 2 $ @ @ @ @ @ @ @ @ @ @ @ @ @ @ # - ; ; - - - - ; ; ; ; ; ; ; - ; ; ; ; - - - - ; ; ; - ; 4 4 ; % % % % $ $ $ @ @ @ @ @ @ @ $ % % ; > > % % % % @ @ @ @ @ @ @ @ @ @ @ @ @ @ @ @ @ @ @ @ @ @ @ @ @ @ @ @ @ @ @ @ @ @ @ @ @ $ ; 4 r z n n ",
"$ $ $ $ $ $ $ $ $ $ $ $ $ $ $ $ $ $ $ $ $ $ % > r z n Z Y Y Y Y Y S Z n z k k z M N M M S T T T T S 9 $ $ $ $ $ $ $ $ $ $ $ $ $ $ $ $ $ $ $ $ $ $ $ $ $ $ $ $ $ $ $ $ $ % , 3 3 3 3 3 3 4 9 4 3 3 3 3 , % $ $ % , f z z z 9 , $ @ @ # # # # # # @ @ @ $ ; ; > r r r m Q Q Q Q Q Q Q Q Q Y R R R Y R Y R U U M M M M N N M M M M M M M M M M M M M M M M n > > > > > > > > ; ; ; > ; > , 3 3 3 3 w t s s s , : : : : : : : : : : : : : : : : : : : : : : : : : : e x Z Z C x g , : : : : : : : : : : : : : : : : % @ @ @ @ @ @ @ @ @ @ @ @ @ @ @ @ @ @ @ @ @ @ @ # # @ @ @ @ @ @ @ @ @ @ @ @ @ @ @ @ @ @ @ @ @ @ # # @ @ @ @ @ @ @ @ @ @ @ @ @ @ @ @ @ @ @ # # @ @ @ @ @ @ @ @ > U U U Y ( ( ( ( ( ( } | } } } } | } ( Q Q Q Q Q Q Q Q Q Q Q Q Q Q Q Q Q Q Q Q Q Q Q Q Q Q Q Q Q Q Q Q Q Q Q Q Q Q ( X.X.X.#.o.#.#.( w 2 2 # @ @ @ @ @ @ @ @ @ @ @ @ @ @ @ @ $ $ - - - - ; ; ; ; ; ; - - ; ; ; ; - - - $ $ # # @ @ @ @ @ @ @ @ @ @ @ @ @ @ @ @ @ @ @ @ $ % % ; ; % % % % % @ @ @ @ @ @ @ @ @ @ @ @ @ @ @ @ @ @ @ @ @ @ @ @ @ @ @ @ @ @ @ @ @ @ @ @ @ @ @ @ @ @ $ ",
"$ $ $ $ $ $ $ $ $ $ $ $ $ $ $ $ $ $ $ $ $ $ $ $ $ $ $ $ $ $ $ $ $ $ % w r r r r r s z z z z r > $ $ $ $ $ $ $ $ $ $ $ $ $ $ $ $ $ $ $ $ $ $ $ $ $ $ $ $ $ $ $ $ $ $ $ $ $ , 9 9 3 3 4 3 9 9 , , > % $ $ $ $ $ $ # $ t z z , , : # # # # @ @ # @ # # @ $ ; ; > r r r m Q Q Q Q Q Q Q Q Q Y R Y R Y Y Y R U L M M M M M M M M M M M M M M M m z r r , > > $ ; > > > > > > > ; ; ; ; ; > > > 3 3 3 t s s s s s r > : : $ $ ; : : : : : : : : : : : ; : : : : : : : w Z Z Z Z Z Z v , : : : : : : : : : : : : 7 w w 9 $ @ @ @ @ @ @ @ @ @ @ @ @ @ @ @ @ @ @ @ @ @ @ @ @ @ @ @ @ @ @ @ @ @ @ @ @ @ @ @ @ @ @ @ @ @ @ # @ @ @ @ @ @ @ @ @ @ @ @ @ @ @ @ @ @ @ @ @ @ @ @ @ @ @ @ @ @ $ S U U U Y ( ( ( ( ( } | } } Y n W Q Q Q Q Q Q Q Q Q Q Q Q Q Q Q Q Q Q Q Q Q Q Q Q Q Q Q Q Q Q Q Q Q Q Q Q Q Q Q Q Q Q Q Q Q Q Q Q a , , $ @ @ @ @ @ @ @ @ @ @ @ @ @ @ @ @ @ @ @ @ @ @ @ @ @ # # # # # # # @ @ @ @ @ @ @ @ @ @ @ @ @ @ @ @ @ @ @ @ @ @ @ @ @ @ @ @ @ @ @ @ $ % % ; % % % % % # @ @ @ @ @ @ @ @ @ @ @ @ @ @ @ @ @ @ @ @ @ @ @ @ @ @ @ @ @ @ @ @ @ @ @ @ @ @ @ @ @ ",
"$ $ $ $ $ $ $ $ $ $ $ $ $ $ $ $ $ $ $ $ $ $ $ $ $ $ $ $ $ $ $ $ $ $ $ $ % > , , , ; $ $ $ $ $ $ $ $ $ $ $ $ $ $ $ $ $ $ $ $ $ $ $ $ $ $ $ $ $ $ $ $ # $ $ $ $ $ $ $ $ $ $ $ : : % % % % $ $ $ $ $ $ $ $ # # o o o o o w z , , , # # # # # # # @ # @ @ @ ; ; ; w r r m Q ( Q Q Q Q Q Q Y Y Y Y Y Y R Y R U U M M M M n m m s r w > > # # # # # # # # @ # @ $ ; ; > > > % $ ; ; > ; ; ; > 3 3 3 3 t s s s s s s a , $ @ @ @ $ % : : : : : : : % $ # % : : : : : : e Z Z Z Z Z Z Z z : : : : : : : : : : 9 i i i i i : @ @ @ @ @ @ @ @ @ @ @ @ @ @ @ @ @ @ @ @ @ @ @ @ @ @ @ @ @ @ @ @ @ @ @ @ @ @ @ @ @ @ @ @ @ @ # @ @ @ @ @ @ @ @ @ @ @ @ @ @ @ % % % % @ @ @ @ @ @ @ @ @ @ @ @ 4 U U U U U U M M N n z > @ @ @ @ @ @ @ @ @ @ @ @ @ @ @ @ $ , , , , > > > , , , , , , , > > > > , , > > > , , , , , , , , , , , , $ $ @ @ @ @ @ @ @ @ @ @ @ @ @ @ @ @ @ @ @ @ @ @ @ @ @ @ @ @ @ @ @ @ @ @ @ @ @ @ @ @ @ @ @ @ @ @ @ @ @ @ @ @ @ @ @ @ @ @ @ @ @ @ @ @ @ @ $ % % ; % : > > % % % # @ @ @ @ @ @ @ @ @ @ @ @ @ @ @ @ @ @ @ @ @ @ @ @ @ @ @ @ @ @ @ @ @ @ @ @ @ @ @ ",
"$ $ $ $ $ $ $ $ $ $ $ $ $ $ $ $ $ $ $ $ $ $ $ $ $ $ $ $ $ $ $ $ $ $ $ $ $ $ $ $ $ $ $ $ $ $ $ $ $ $ $ $ $ $ $ $ $ $ $ $ $ $ $ $ $ $ $ $ $ $ $ $ # o o o o @ @ # # # # # # $ $ $ $ $ $ $ $ $ # # # # O o o o o o o o o o , , , , % @ # # # # @ @ # # @ @ $ ; ; 4 r r b Q ( ( Q Q Q Q Q Y R Y Y U M z r , > , $ @ # @ @ @ $ # # # @ @ @ # # # # @ # # # # @ @ $ % % % $ @ # # $ % > > > > ; > > > > s s s s s s s s % # # @ @ @ $ % % % % % $ # @ @ @ % : : : : : w i g x C Z Z Z C i , : : : : : : , 0 i i i i i i 9 @ @ @ @ @ @ @ @ @ @ # # @ @ @ @ @ @ @ @ @ @ # @ @ @ @ @ @ @ @ @ @ @ @ # # # @ @ @ @ @ @ @ @ @ @ @ @ @ @ @ @ @ @ @ @ $ 3 t i t t t t i t w , $ @ @ @ @ @ @ @ @ @ $ > > > > @ @ @ @ @ @ @ @ @ @ @ @ @ @ @ @ @ @ @ @ @ @ @ @ @ @ @ @ @ @ @ @ @ @ @ @ @ @ @ @ @ @ @ @ @ @ @ @ @ @ @ @ @ @ @ @ @ @ @ @ @ @ @ @ @ @ @ @ @ # # @ @ @ @ @ @ @ @ @ @ @ @ @ @ @ @ @ @ @ @ @ @ @ @ @ @ @ @ @ @ @ @ @ @ @ @ @ @ @ @ @ @ @ @ @ @ @ @ @ @ @ @ @ @ # ; % % ; , , , , > % % % % @ @ @ @ @ @ @ @ @ @ @ @ @ @ @ @ @ @ @ @ @ @ @ @ @ @ @ @ @ @ @ @ @ @ @ @ @ @ ",
"$ $ $ $ $ $ $ $ $ $ $ $ $ $ $ $ $ $ $ $ $ $ $ $ $ $ $ $ $ $ $ $ $ $ $ $ $ $ $ $ $ $ $ $ $ $ $ $ $ $ $ $ $ $ $ $ $ $ $ $ $ $ $ $ $ $ $ $ $ $ $ # o o o o o o o o o o o o o o o o o o o o o o o o o o o o o o o o o o o o o # , , , $ @ @ # # @ # # # @ @ # ; ; ; 4 r r U M M s r w ; $ $ > % # # @ # @ @ @ # @ @ # @ @ @ # # # # @ @ @ @ # # # @ # # # # @ @ @ @ # # # @ # # # # # $ $ % % > > > ; 9 s s s s s s s w # # @ @ @ @ # # # # # # # @ @ @ # : : : : : u i i i i i i i i i i i 9 , : , 7 0 e i i i i i i q @ @ @ @ @ @ @ @ # # # # @ $ $ $ # @ @ @ @ @ @ @ @ @ @ @ @ @ @ @ @ @ @ # # @ @ @ @ @ @ , , $ $ $ @ @ @ @ @ @ @ @ % e t t t i t t t t t t t t t t 3 $ @ @ @ @ @ @ @ @ @ @ @ @ @ @ @ @ @ @ @ @ @ @ @ @ @ @ @ @ @ @ @ @ @ @ @ @ @ @ @ @ @ @ @ @ @ @ @ @ @ @ @ @ @ @ @ @ @ @ $ ; > > ; $ @ $ > 3 t z x x z r % $ $ $ @ @ # # @ $ > > % # @ @ @ @ @ @ @ @ @ @ @ @ @ @ @ @ @ @ @ @ @ @ @ @ @ @ @ @ @ @ @ @ @ @ @ @ @ @ @ @ @ @ @ # # # # $ ; ; % : , , , , , , > % % % % $ @ @ @ @ @ @ @ @ @ @ @ @ @ @ @ @ @ @ @ @ @ @ @ @ @ @ @ @ @ @ @ @ @ @ @ @ ",
"% % % % % % % % % % $ $ $ $ $ $ $ $ $ $ $ $ $ $ $ $ $ $ $ $ $ $ $ $ $ $ $ $ $ $ $ $ $ $ $ $ $ $ $ $ $ $ $ $ $ $ $ $ $ $ $ $ $ $ $ $ $ $ $ $ $ o o o o o o o o o o o o o o o o o o o o o o o o o o o o o o o o o o o o o # # # , , , $ @ # # # # # # # @ @ # $ ; ; , $ # # # # # # # @ @ @ @ # # # # @ @ # # # # # # @ @ @ # # # @ @ # # # # @ @ @ @ # # @ @ # # # # @ @ @ @ # # # # @ @ @ @ # $ $ $ % , , r r t s s $ # # # @ @ @ @ @ @ # @ # # # @ @ $ : : : : i i i i i i i i i i i i i i 0 0 0 0 q i i i i i i 9 @ @ @ @ @ @ # $ % > , , , 9 9 e t t t t t i x n n Z Z D Z Z V n x x x x n n n Z Y Y Y Y Y w w w 9 , $ @ @ @ # , v M v x x z f f f f f f f f f f f f f 3 $ @ @ @ @ @ @ @ @ @ @ @ @ @ @ @ @ @ @ @ @ @ @ @ @ @ @ @ @ @ @ @ @ @ @ @ @ @ @ @ @ @ @ @ @ @ @ @ @ @ $ ; ; , r a r 9 9 9 9 r x x x x x n x x n z r w w w w w e r x x x M z t t t e e 3 , , % % $ @ @ @ @ $ > > , 2 > $ @ @ @ # @ @ @ @ @ # # # $ $ $ $ % % % ; % % % % % % % ; : , , , , , , , , , , : % % > $ @ @ @ @ @ @ @ @ @ @ @ @ @ @ @ @ @ @ @ @ @ @ @ @ @ @ @ $ $ @ @ @ @ @ @ ",
", , , , , , , , , , t t w 9 , * $ $ $ $ $ $ $ $ $ $ $ $ $ $ $ $ $ $ $ $ $ $ $ $ $ $ $ $ $ $ $ $ $ $ $ $ $ $ $ $ $ $ $ $ $ $ $ $ $ $ $ $ $ $ $ % * : : : : * % $ # o o o o o o o o # # # @ o o o o # % % 9 9 t s z z z n n r , , t z z z a , $ # # # # # @ @ # # # # @ @ @ # # # # # @ @ @ @ # # # # @ @ # # # # # # @ @ @ # # # @ @ # # # # @ @ @ @ @ # # # # # # # @ @ @ @ # @ # # @ @ @ @ # # # @ @ # @ @ @ @ @ @ # # # # # @ # # # @ @ @ # # # @ @ @ % : : 7 i i i i i i i i i i i i i i 0 0 0 0 0 i i i i i i 9 % $ % * , , , , , , , 9 t t t t t t t i x n n A >.>.>.>.( Y Y Y Y D Z V Z Z Y Y Y Y Y Y Y e w w w w w 9 % # w M M M M M M M M M M M M M M M M M M M M M M z t > @ @ @ @ @ @ @ @ @ @ @ @ @ @ @ @ @ @ @ @ @ @ @ @ @ @ @ @ @ @ @ @ @ @ $ ; ; ; ; w w s z z n n n n n n n n m m m m n Z Z M M x x x x x n t r r w e t t t z x x Z ) ( t t t t t t t t t t t t t t t z Z M n f s s s r 3 , : % % % % % % ; ; % % % % , , t t t t t t t w , , , , , , , , , , , , , , , , , > $ @ @ @ @ @ @ @ @ @ @ @ @ @ @ # $ : : : : $ @ @ @ ; , , , , , , > : ",
", , , , , , , , , , e t t t t e , , % $ $ $ $ $ $ $ $ $ $ $ $ $ $ $ $ % % % % $ $ $ $ $ $ $ $ $ $ $ $ % : , , % $ $ $ $ $ $ $ $ $ $ $ $ $ % : : : : : : : : : : : % # o o o % : : : : : > > > , z z z z z z z z z z z U U U U U z z z z z z z t $ # # @ @ # # # # # # # # # # # # # # # # # @ # # # # # # # # # # # @ @ @ # # # # # # # # # @ # # # # # # # # # # # # # # # # # # # # # # # # # # # # # # # # # # $ % % % % % % % $ # # # # # # # # # % , 9 9 x x x x i i i i i i i i i i i 0 0 0 0 0 u i i i i i , , , , , , , , , 9 e t t t t t t t i x n x n Y >.>.>.>.>.| ) ~ Y Y Y Y Y Y Y Y Y Y Y Y Y Y x w w w w w w w t v v v v v v M M M M M v M M M v v v M M Z S Y Y Y Y Y Z i 9 , @ @ @ @ @ @ @ @ @ @ @ @ @ @ @ @ @ @ @ @ @ @ @ @ @ $ > > 4 n n n n n n m m n n n n m n n n n n m m m M S S S S ( ( M n x x z w w t z x n n n n x x ( ) ( t t t f t t t t t t t t t t t Y ( M M m f s s f f s s s s s f s f s s s s z M M M M z t t t t t t t t 9 , , , , , t t t t 9 , , , , , , > $ @ @ @ @ @ @ @ @ @ $ : , , , , , , , , $ @ @ $ , , , , , , , , ",
", , , , , , , , , , w t t t t t e , , , % $ $ $ $ $ $ $ $ $ $ $ $ $ $ , 7 7 7 7 , , , , , , , > , , , 7 , , , w e e 9 > $ $ $ $ $ $ $ $ $ : : : : : : : : : : : : : * o # * : : : : : : : > , z z z z z z z z z z z z z n S U U Z x z z z z z z z , # @ @ # # # @ @ @ @ # # # # # # # # # # @ @ # # # # # # # # # # @ @ # # # # # # # # # # @ @ # # # # # % % * = = 9 9 9 9 9 9 9 9 9 , , % % # # # # # # # , t f f f t t t t t t t i f z x z V V A A A A A A A A A A A A A x f i i i i i i q 0 0 0 0 0 i i i i i , , , , , , 7 9 t t t t t t t t i x x n n x Z >.>.>.>.>.>.X.| | | ) ~ Y Y Y Y Y Y Y Y Y Y Y Y w w w w w w w x M M v v v v M M M M v v M M v M Z Z Y Y Y Y Y Y Y Y Y Y Y Y Y Y Y Z x t r , , % @ @ @ @ @ @ @ @ @ @ @ @ @ @ @ @ ; > > w n n n n m n m m n n n n m m n n n n m m M S S S S S ..+.o.( M n e r z x x x x n n n n x ) ) Z t t n z t t t t t t t t t t t ( } R M M M z f f f s s s s s f s s s s z n M M M M M M f t t t t t t t t t t 9 t t t t t t t t w , , , , , , , ; $ # @ @ $ > , , , , , , , , , , , , $ @ @ > , , , , , , , ",
", , , , , , , , , , 9 t t t t t t 7 , , , , % $ $ $ $ $ $ $ $ $ $ $ $ , 7 7 , , , , , , 7 7 , , 7 , 7 7 , , w e e e e e * $ $ $ $ $ $ $ % : : : : : : : : : : : : * o $ : : : : : : : : , t z z z z z z z z z z z z z x Z U U U U U Z M M M M M M M , ; @ @ # # @ @ @ # $ , , w f f f Z S S D T T Y x i i 9 9 , * * * $ # # # # # # % % % , , , 9 9 9 9 0 0 0 0 9 9 9 9 9 9 9 9 9 9 0 9 0 9 9 9 9 9 9 9 q x Z Z Z Z Z Z Y | | | ) ) D A A A A A A A A A A A A A A A A A A A A A A x i i i i q 0 0 0 0 0 0 i i i 9 % , , , , t t t t t t t t i x x x x x n n v :.>.>.>.>.>.>.X. .| | | | | ) ~ Y Y Y Y Y Y Y Y Y e w w w w w w M M M M M v M M M v v v v M Z Y Y Y Y Y Y Y Y Y Y Y Y Y Y Y Y Y Y Y Y Y Y Y Y Y Y Y Y Y Z > @ @ @ @ @ @ @ @ @ @ $ > > > a n M U U R U U U U S S M M n n n n m n M S S S S S S Y +.o.+.+.( M x n n n n n n n x x M ) ( s t z M x t t t t t t t t t t z T } ( M M M M n f f s s s s s s s z z n M M M M M Z Z D D Z z t t t t t t t t t t t t t t t t t t t t t w w 9 , , , , , , , , , , , , , , , , , , , , , % @ # , , , , , , , ",
", , , , , , , , , , , t t t t t t w , , , , , , % $ $ $ $ $ $ $ $ $ $ , , 7 7 , , , , 7 7 7 , , , , , , , w e e e e i f t $ $ $ $ % % * * : : : : : : : : : : : : % * : : : : : : , t z z z z z z z z z z n n n M M U U U U U U U U U U U U U U U U U U U S Z M M S Y T T ~ T ~ Y Y ! ~ ~ T T T T ~ n n n n x x x x x x x x x x x x i 0 9 9 9 9 9 9 9 t i j x x x x x j j i i q 0 9 0 0 9 9 9 9 9 0 i x x Z Z Z Z Z D ~ | | | | ) | ^ D A A A A A A A A D ~ ) | | | | | ! A A A A A A x i i i i 0 0 0 0 0 0 i i * $ , , , , t t t t i i x x n n n x x x n x ) 5.5.5.5.>.>.>.o.o.X.| | | | | | } ~ Y Y Y Y Y Y T Z e w w w w f M M M M M v v M M v v v v M M Y Y Y Y Y Y Y Y Y Y Y Y Y Y Y Y Y Y Y Y Y Y Y Y Y Y Y Y Y Y T , @ @ @ @ @ @ @ @ @ ; > > , a n U U U R R R R U U U U U U U U U M M S S S S S S Z Z Q X.X.+.+.+.X.Q S x x n n n n x M ( z t t x M M z s f x x x z z z x M U } ( M M M M M M n z z z b n n M M M M M M Z D D D D D D D Y S z t t t t t t t t t t t t t t t t t t t t t t t t t t t t t t t t t t t t t w , , , , , , , : , , , , , , , ",
", , , , , , , , , , , 9 t t e t t , , , , , , , , % $ $ $ $ $ $ $ $ $ > , , , , 7 7 , , , , , , , , , 7 w e e t i f f f f > % % : : : : : : : : : : : : : : : : : : : : : , t z z z z z z z z z z x S U U U U U U U U U U U U U U U Y T Y Y Y Y Y Y Y Y ~ ~ ~ ~ ~ ~ ! ! T T T T ~ ~ ~ ~ ~ ~ ~ ~ T T ! ~ ~ ~ ~ ~ Y Z V x x x x x x x x x t 9 w w w i x x x x x x x x x x x x x x x x x j j j j j x x x x Z Z Z Z Y ) | | | | | ) | | | | ^ ~ ~ ~ ~ Y D A ~ | | | | :.| | | D A A A D D D Z f i i i i u q q u i u $ $ % , , , t t t i n x x x n n n n x x x A 7.7.7.7.7.7.>.>.X.X.X.X.| | | | | | | ~ Y Y Y Y Y ) | Z f w w w x M v v M M M M M M v v M M v v Z Y Y T f.k.f.>.:.| ~ Y Y Y Y Y Y Y Y Y Y Y Y Y Y T ~ ~ ) | | S @ @ @ @ @ @ @ @ # > ; > r a M U U U U U U U U U U U Y Y Y U U U S S S S S S M M M M n z n M Y } +.o.+...Q U Z x x x z t t t M M M M M M M M M v n v M M Z } } M M M M M M M M M M M M M M M M M S D D Y D D D D D D Y Y Y t t t t t t t t t t t t t t t t t t t t t t f x n x f t t t t t t t t t t t w , , , , , , , , , , , , , , ",
", , , , , , , , , , , , , , 9 w 7 , , , , , , , , % $ $ $ $ $ $ $ $ $ , , , , , 7 7 7 7 , , , , , 7 w e e t f f f f f f f 7 : : : : : : : : : : : : : : : : : : : : : , f z z z z z z z z z z z M U U U U U U U U U U U U U U U U Y ~ ~ ~ ~ ~ Y ~ ~ ~ ~ ~ ~ ~ ~ ~ ~ ~ ! T T ~ ~ ~ ~ ~ ~ ~ ~ ~ ~ ~ ~ ! ~ ~ |  .:.| Y ! ! Y Z v x x x x x x x i i x x n Z V x x x x x x x x x x x x x x x x x x x x x n Z Z Z Z ^ | | | | | | ) ) | | | | | | | | | | | ~ | | | ,.L.U.4.| | | D A A A D D A D n i i i i i i i i 7 $ $ $ , , , t t t i n x x x x n x n x x V 1.7.7.7.7.7.7.>.>.>.X.X.X.o.X.| | | | | | ~ Y Y Y Y ) | S M z w w v M v v M M M M M v M M M M v v v v S Y Y >.c.v.v.v.v.v.f.5.>.| ( Y T T ~ ( ) ) | | ) | | | | | @ @ @ @ @ @ @ @ $ > > w a s U U Y T Y Y Y U U U U U Y Y Y U U U U S S S S S S M M M n z z z n n b n U Q X.o.+.+.+.+.P t t z M M M M M M M M M M n v M M M } ( M M M M M M M M M M M M M M M U Y Y Y T ) ) ) ~ Y ~ ~ ~ ~ Y t t t t t t t t t t t t t t t t t t t t t x M M M M M f t t t t t t t t t t t w , , , , , , , , , , , , , ",
", , , , , , , , , , , , , w t , , , , , , , , , , $ $ $ $ $ $ $ $ $ % , , , , w e e 9 7 7 7 9 w e e e e f f f f f f f f f t : : : : : : : : : : : : : : : : : : : : t Z S S S S S M M M M M M U U U U U U U U U U U U U U U Y Y ~ ~ ~ ~ ~ ~ ~ ~ ~ ~ } X.#.#.#.<.~ ~ ! ! ~ ~ ~ ~ ~ ~ ~ ~ ) | | |  . . .:.:.:.:.| ! ~ ! ! ~ ~ ~ ~ D Z x x x x x x x Z Z Z Z Z Z Z Z V V V V V V V V V V V B x x x x V Z Z Z Z D | | | | | ) ) ) ) | | ) | | | | | | | | | | | :.L.L.U.U.4.| | ~ A A A A A A A A V i i i i i i i % $ $ % , , , e t t t x x x x n n n x n V 1.7.7.7.7.7.7.7.5.>.>.>.o.X.X.X.X.| | | | | | T Y Y Y ~ | T M M e z v v v v v v M M M M M M M M v v v Z Y Y Y Y ~ X.g.v.v.v.v.v.v.v.g.>.>.o.| | | | | | ) ) | | | | , @ @ @ @ @ @ @ % > 4 a a n U Y T T T T Q Q Q Y Y Y U Y U U U U R U U U S S S M M M n z z z n n z z z z z M R Q +.+...M M Y ( Y U Z M M M M M M M M M M M } ( M M M M U U U U Y Y T Q ( ( ( ( ( ( ( ( f.k.k.k.>.>.>.>.| S t t t w w w w w w t t t t t t t t t t t M Y Y Y S M M M M M z t t t t t t t t t t 9 , , , , , , , , , , , ",
", , , , , , , , , , , , e t t 9 , , , , , , , , $ $ $ $ $ $ $ $ $ % , , 7 9 e e e e e e e e e e e e t f f z z f f f f f f f : : : : : : : : : : : : : : : : : : > t n U U U U U U U U U U U U U U U U U U U U U U U U Y Y ~ ~ ~ ~ ~ ~ ~ ~ ~ ~ ) X.#.#.#.#.#.5.y.y.6.>.| ~ ~ ~ ~  .;.:.:.:.:.:.:.:.:.:.:.:.:. .~ ~ ~ ~ ~ ~ ~ ~ ~ ~ ~ ~ ~ Y D D D Z Z Z Z Z Z Z Z Z Z Z Z Z Z Z Z Z Z Z Z Z Z Z Z Z Z Z Z Z Z ! | | <.6.5.|  .:.>.>.>.>.>.>.>.:.:.:.:.:.:.>.>.>.7.U.U.U.U.:.| | ! A A A A A A A A A i i i i i w % $ $ % , , , 9 t t t x x x x n n n n D 7.7.7.7.7.7.7.7.7.>.>.>.>.>.X.X.X.X.X.X. .| | | | ~ T Y T | ) M M x M M v v v v v v M v v M M M M M Z D Y Y Y Y Y Y Y Y ) 5.g.v.g.5.c.E.~.~.~.~.~.~.U.U.U.v.y.i.| | | , @ @ @ @ @ @ @ ; > r a b m U T T Q T T Q Q Q T T T T Y Y U U U R R U U U S S S M M n z z z n z z z z z z z b b b M M M M } } } } } } } } ( Q Q Q T Q Q } } Y Z ( ( ( ( ( ( ( ( ( ( ( ( ( ( ( ( Q U U U 7.k.k.>.>.>. .D Z t t $ $ $ $ $ $ $ $ $ $ % % , r n z x Y ( ( ( ( ( ( S M M M M M z t t t t t t t t t t 9 , , , , , , , , 9 ",
", , , , , , , , , , , e t t t e , , , , , , % $ $ $ $ $ $ $ $ $ $ , , 9 e e e e e e e e e e e e e t f z Z Z Z Z Z M x z z z , : : : : : : : : : : : : : : : : , s z M U U U U U U U U U U U U U U U U U U U U Y Y Y ~ ~ ~ ~ T ~ ~ ~ ! ! ~ | #.#.#.<.<.<.5.5.y.y.y.y.y.y.y.y.6.>.:.:.:.:.:.:.:.:.:.:.:.:.:.:.~ ~ ~ ~ ~ ~ ~ ~ |  . .o.o. .| ~ ~ ~ Y Z Z Z Z Z Z Z Z D D D D D Z Z Z Z Z Z Z Z Z Z Z Z Z Z Z Z ~ >.i.i.i.i.>.>.>.>.>.>.>.>.>.>.3.>.3.3.3.3.>.>.3.>.f.U.U.U.L.:.| | D A A A A A A A A A i i i i * $ $ $ $ * , , , q t t i x x n n n A X.7.7.7.7.7.7.6.5.5.5.>.>.>.>.>.:.o.o.X.X.X.X.X.| | | } } | | | ) M v M v v v v v v M M M v M S D Y Y Y Y Y Y Y Y Y Y Y Y Y Y Y Y ) ) ~ ~ ) } 7.I.~.~.~.~.~.~.~.G.i. .| | z @ @ @ @ @ @ @ > , a s m m U Y Q ..( Q Q Q Y Y Y Y Y Q Q Q Y Y R R U U U Y U S M M n z z n n n z z z z b b b z z z M M M Z M M M M M M M M U U U Y Y ( } } P M Z Q Q Q Q Y Y Y Y U U U P M M M M P U U U 5.k.4.>.>.~ D D t t $ $ $ $ $ $ $ $ $ $ t U U U Q ( ( ( ( ( ( ( ( ( ( Z M M M M M M z t t t t t t t t t t 9 , , , , , t t ",
", , , , , , , , , , 9 t t t t t , , , , > $ $ $ $ $ $ $ $ $ $ $ % , , w e e e e e e e e f f i e t f f M Z Z Z Z Z Z Z Z Z Z f : : : : : : : : : : : : : : , s z z z b U U U U U U U U U U U U U U U U U Y Y ~ ~ ~ ~ ~ ) | | X.o.#.#.#.#.#.#.#.>.y.y.y.y.y.y.y.y.y.y.6.6.y.y.y.y.y.y.y.y.y.6.5.5.3.>.:.:.:.:.:.:. . . .:.:.:.:.:.:.:.:.:.:.:.:.o.| ! D D D Y ! ~ ~ ~ ~ ~ ~ ~ ~ ~ ~ Y D D Z Z Z Z Z Z Z Z Z ~ y.i.i.i.i.4.>.>.>.>.>.>.>.>.3.3.3.>.>.>.>.>.>.>.3.>.>.m.U.U.L.K.| | ! A A A A A A A A A i i i q $ $ $ $ $ * , , , e t t t x x x V ) 7.7.7.7.7.7.5.>.>.>.>.>.>.>.>.>.>.>.o.o.X.X.o.X.X.X.| | | } } | | ) U M M v v v v v M M v Z D Y Y Y Y Y Y Y Y Y Y Y Y Y Y Y Y Y Y Y Y Y ~ ~ ( ( ( ( } v.W.~.~.~.~.~.i.o.| | 9 @ @ @ @ @ @ @ > w s z m m R Q } ..} } } Q Y Y Y Y Y Y Q Q T T Y R U U U U Y S M M n z b n b b z z z z n n b z z z z M M M M M M M M M M M M M M M M M M M M M M M M M M M M M M M M M M M M M M M M U U U >.5.>.>.~ D D n t % $ $ $ $ $ $ $ $ , U U U U ( ( ( ( ( ( ( ( ( ( ( ( M M M M M M M x t t t t t t t t t t t 9 , , t t t ",
"9 w t t t e 9 7 , , t t t t t t w , , , $ $ $ $ $ $ $ $ $ $ $ $ > , , 9 e e e e e e e t f f f f f f z Z Z Y ( ( ( T U Z Z Z Z : : : : : : : : : : : : , t z z z z z z M U U U U U U U U U U U U U U Q } | | | X.#.#.#.#.#.#.#.#.#.#.#.#.#.#.#.#.>.<.<.<.<.<.<.#.#.#.#.#.#.<.>.>.<.5.5.5.6.y.y.y.y.y.y.6.>.:.:.:.:.:.:.:.:.:.:.:.:.:.:.:.:.:.:.:.:.:.~ ~ ! ! ~ ~ ~ ~ ~ ~ ~ ~ ! ! ~ ~ ~ ~ ! D Z Z Z Z Z D <.i.i.i.i.6.>.:.o.X.X.} } } } } } } } } ( ( } | | | | o.>.1.J.U.U.U.v.| ) A A A A A A A A A x i i , $ $ % % % * , , , e t t t i x ~ 7.7.7.7.7.6.>.>.>.>.>.>.>.>.>.>.>.>.>.>.:.o.o.X.X.X.X.X.X.| | | | | | | Y S M M v v Z Z Z D Y Y Y Y Y Y Y Y Y Y Y Y Y Y Y T T Y Y Y Y Y Y Y Y T ~ ~ ( ( ( ( ) v.~.~.~.~.i.>.) ) , @ @ @ @ @ @ # > r s m m m Y Q ....} } ....Q Q Q Q Q Q Q Q T T Y Y U U U U U U Z M z z z z b b z z z b n n x z z z z n M M M M M M M M M M M M M M M M M M M M M M M M M M M M M M M M M M M M M M M M U U U } >.>.~ D D D z > $ $ $ $ $ $ $ , s U U U Y ( ( ( ( ( ( ( ( ( ( ( T M M M M M M M x t t t t t t t t t t t t w t t t t ",
"t t t t t t t t e 9 t s x M z f f w w , $ $ $ $ $ $ $ $ $ $ $ $ * , 7 , w e e e e e e t f f f f f f M Z Z T ( ( ( ( ( ( T T T M , : : : : : : : , 9 s z z z z z z z z z S U U U U U U U U U U U Y X.#.#.#.#.#.#.#.#.#.} T ( ( ( } } X.X.| | | | | | X.X.#.#.#.#.#.#.#.X.} } } } | X.#.#.#.#.#.<.5.>.5.6.y.6.5.:.:.:.:.:.:.:.:.:.:.:.:.:.:.:.:.:.:.:.| ~ ~ ! ~ ~ ~ ~ ~ ~ ~ ~ ! ! ~ ~ ~ ~ ~ ! Z Z Z D >.i.i.i.5.o.} ( ( ( } ( } ( ( ( ( } } } } } ( ( } } } | | | | X.>.K.U.U.U.4.| Y D ! ~ ~ D A A A A i i $ $ $ % % % * , , , t t t t z >.4.7.7.6.5.>.>.>.>.>.>.>.>.>.>.>.>.>.>.>.>.>.o.o.o.o.X.X.X.X.| | | | | | | T Y Y Y Y Y Y Y Y Y Y Y Y Y Y Y Y Y Y Y Y Y Y ~ ~ ~ ( ( Y Y Y Y Y Y Y Y Y ( ( ( ( ( ( ( o.I.U.U.i.5.) ) $ @ @ @ @ @ @ $ > a s M m H Y ( ....} } ........[ Q Q Q Q Q T Y Y Y Y U U U U U Z M z z z z b b z z b b b n n z z z z z n M M M M M M M M M M M M M M M M M M M M M M M M M M M M M M M M M M M M M M M Z U U U | >.X.Y D D D 9 $ $ $ $ $ $ > s z U U U ( ( } } } } } ( ( ( ( ( Y M M M M M M M x t t t t t t t t t t t t t t t t t ",
"t t t t t t t t t t z Z Z Y ( U Z Z Z Z Z z , $ $ $ $ $ $ $ $ $ $ , , , 7 e e e e e e f f f f f z M Z Z Z ( ( ( ( ( ( ( ( ( ( ( Y , > , , w t s z z z z z z z z z z z z z S U U U U U U U U U Y X.X.X.} } } Y Y Y U U Y Y Y ( ( | } } } } } } } } } } } } X.#.#.#.#.| } } } } } | | } X.#.#.#.#.X.| | | ..X.<.f.m.x.f.6.3.>.:.:.:.:.:.:.:.:.:.:.:.:.:.| ~ ~ ~ ~ ~ ! ~ ~ ~ ~ ! ! ~ ~ ! ! ! ~ D ~ 5.i.i.6.o.} ( ( ( ( ( ( } } } } ( ( ( } ( ( ( ( ( ( ( ( } | | | | | | >.U.U.U.L.:.| | | | | ! A A A A i 7 % % % $ $ % * , , 9 t t t t t o.>.>.>.>.>.>.>.>.>.>.>.>.>.>.>.>.>.>.>.>.>.>.:.o.o.X.X.X.X.X.X.| | | | | | ) Y Y Y Y Y Y Y Y Y Y Y Y Y Y Y Y Y Y Y Y Y Y ~ ( ( ( ( ~ Y Y Y Y Y Y Y Y Y ~ ( ( ( ( ( ( | i.i.i.6.| T @ @ @ @ @ @ @ # > a k M M R Y ......} } ......} } } Q T Y Y Q Q T T T U U U U U S M b b b b z z z b b b z z n n b b b b n n M M M M M M M M M M M M M M M M M M M M M M M M M M M M M M M M M M M M M M M U U U U :.>.>.~ D D z $ $ $ $ $ $ t s U U U Q } >.<.<.>.>.>.>.X.( ( ( Z M M M M M M M n t t t t t t t t t t t t t t t t t ",
"t t f f f f z x x M Z Z S ( ( ( U Z Z Z Z Z Z x % $ $ $ $ $ $ $ $ , , , , e e e e e e f z z x M Z Z Z Z Z ( ( ( ( ( ( } X.X.X.X.} z z z z z z z z z z z z z z z z z z z z z Z U U U U U U U U U U U U U U U U U U U Y Y Y Y ( ( | } } } } } } } | | } } } } #.#.#.#.X.} } } } } | | } } | X.X.X.| | | | } } } } X.6.f.m.m.m.b.f.6.>.:.:.:.:.:.:.:.:.:.:.~ ~ ~ ~ ~ ! ~ ! ~ ~ ! ! ~ ~ ! ! ~ ~ 5.i.y.>.} ( ( ( ( ( ( ( ( ( } } ( } ( ( ( ( ( ( ( ( ( ( ( } | | | | | | | | i.U.U.U.K.| | | ) | ) A A A A g % % % % $ % % * , , t t t t t t Z >.>.>.>.>.>.>.>.>.>.>.>.>.>.>.>.>.>.>.>.>.>.>.o.o.X.o.X.X.X.X.| | | | | | | ~ Y Y Y Y Y Y Y Y Y Y Y Y Y Y Y Y Y Y Y Y ~ ~ | o.X.) ( Y Y Y Y Y Y Y Y Y Y ( ( ( ( ( ( ) i.i.i.i.| r @ @ @ @ @ @ # @ > a k M m Y Y } ....} } ....} } } } } ( Y Y Q Q T Q T Y U U U U U M b b b b z z z b n z z z n n b b b b b n n M M M M M M M M M M M M M M M M M M M M M M M M M M M M M M M M M M M M M P U U U U R :.>.>.| D D $ $ $ $ $ > s M U U T ( X.>.<.<.>.>.>.>.>.} ( ( M M M M M M M M M f t t t t t t t t t t t t t t f Z ",
"Z Z Z Z Z Z Z Z Z Z Z U ( ( ( U Z Z Z Z Z Z Z Z M % $ $ $ $ $ $ $ % , , 7 e e e e f M Z Z Z Z Z Z Z Z Z Y ( ( ( ( ( X.X.X.X.X.#.#.U b n b b b z z z z z z z z z z z z z z z M U U U U U U U U U U U U U U U U U U U U Y Y Y Q ( } | } } } } } } } } } } } } #.#.#.#.#.} } ( ( ( ( } } } } } } } | | | | } } } } | | } X.>.y.b.m.m.m.m.f.6.>.:.:.:.:.:.:.:.| ~ ~ ~ ! ! ! ~ ~ ~ ~ ~ ~ ~  .6.i.5.X.( ( ( ( } } ( ( ( ( ( ( ( ( ( ( ( ( ( ( ( } ( ( ( ( } | | | | | | | | | | v.U.U.U.m.| | ) ) ) ~ A A A i $ $ $ $ $ $ % * , , t t t t t t i >.>.>.>.>.>.>.>.>.>.>.>.>.>.>.>.>.>.>.>.>.>.>.>.>.:.o.o.o.X.X.| | | | | | | } Y Y Y Y Y Y Y Y Y Y Y Y Y Y Y Y Y Y Y Y ( ) o.o.o.| ( Y Y Y Y Y Y Y Y Y Y ~ ( ( ( ( ( ( >.i.i.i.T @ @ @ @ @ @ @ # @ > a s m m T Y } } } } } } } } } } } } } ( Y Q Q Q Q T Q U U U U S M n n z z z z n b n n z z z z b b b b z z z n M M M M M M M M M M M M M M M M M M M M M M M M M M M M M M M M M M M M U U U U U U Q >.>.>. .Y 9 $ $ $ $ w b U U Y ( ( X.>.<.>.>.>.>.>.>.( T Z M M M M M M M M M M t t t s z n n n x x s t s n S S ",
"Z Z Z Z Z Z Z Z Z Z Z ( ( ( ( Q Z Z Z Z Z Z Z Z Z f $ $ $ $ $ $ $ $ , , 9 e e z Z Z Z Z Z Z Z T ( T T T ( ( ( ( } X.X.X.X.X.<.5.5.5.X.Y Y Y Y Y Y Y Z z z z z z z z z z z z n M U U U U U U U U U U U U U U U U U U U Y Y Y T ( ( } } } } } } } } } } } } } o.#.#.#.#.} } ( ( ( ( ( ( Q } } } | } | } | } } } } } } } } } | | X.5.i.v.m.m.m.b.f.6.>.:.:.:.:.| ~ ! ! ! ! ~ ~ ~ ~ :.f.m.7.o.} ( ( ( ( ( ( ( ( ( ( ( ( ( ( ( ( ( ( ( ( ( ( ( } ( ( ( } | X.>.>.>.o.| | | | | | G.U.U.U.f.| ) ) ) ) ~ A A , $ $ $ $ $ $ % * , 9 t t t t t t t | >.>.>.>.>.>.>.>.>.>.>.>.>.>.>.>.>.>.>.>.>.>.>.>.>.>.>.o.o.o.X.| | | } | | | ) Y Y Y Y Y Y Y Y Y Y Y Y Y Y Y Y Y Y Y ( } o.o.o.X.( Y Y Y Y Y Y Y Y Y Y Y ( ( ( ( ( ( } i.i.6., @ @ @ @ @ # # @ @ > a z m M T Y Q } } } } } } } } } } } } } Q Q Q Q Q Q Q Y U U Y Z M n n b z z z n n n n z z z z b b b b z z b z M M M M M M M M M M M M M M M M M M M M M M M M M M M M M M M M M M M P U U U U U U U } 5.5.5.<.T : $ $ $ r U U U ( ( ( X.>.>.>.>.>.>.>.} M M M M M M M M M S Z M M M z x M M M M Z U U U Z S S S S ",
"Z Z Z Z S S S Z Z Z S ( ( ( ( ( T Z Z Z Z Z Z Z Z Z % $ $ $ $ $ $ $ $ , w t Z Z Z Z Z Z U T ( ( ( ( ( ( ( ( ( } X.X.X.X.X.X.<.5.5.5.5.( Y Y Y Y Y Y Y Y m z z z z z z z z z z M M U U U U U U U U U U U U U U U U U Y Y Y Y Y ( Q Q } | | | } } } } } } } | X.#.#.o.X.} } ( ( ( ( ( ( Q Q Q } | } } } } ( ( ( ( ( ( Q ( } } | | | } } ..#.6.x.m.m.m.m.f.6.>.>.| ~ ~ ~ ~ ~ :.f.m.x.>.} } ( ( ( ( ( ( ( ( ( ( ( ( ( ( ( ( ( ( ( ( ( } ( ( ( ( ( ( } | | :.>.>.>.>.#.| | | | | >.J.U.U.J.6.6.5.:.| | ~ Z $ $ $ $ $ $ $ $ % , , 9 t t t t t t Z >.>.>.>.>.>.>.>.>.>.>.>.>.>.>.>.>.>.>.>.>.>.>.>.>.>.>.o.X.X.X.o.| | } } } | | ~ Y Y Y Y Y Y Y Y Y Y Y Y Y Y Y Y Y Y ( ) o.X.o.o.( ( ~ ( ( ( ( ~ ~ ~ T ~ ( ( ( ( ( ( ( 6.i.Q @ # 9 e % @ @ @ @ @ ; a z m P T Q Q } } } } } ..} } } } } } } } Q Q T Y T T Y U U U M M z z b b b b b z n n n b b b z z n n n n b b n M M M M M M M M M M M M M M M M M M M M M M M M M M M M M M M M M M U U U U U U U U Q h.k.k.k.k.Q $ $ $ t U U R Q ( ( } >.>.>.>.>.>.} M M M M M M M M M Z Z S Z M M M M M M M S S S S S S S S S S ",
"Z Z Z Z S S Z Z Z Z S Y ( ( ( ( ( T Z Z Z Z Z Z U Q z $ $ $ $ $ $ $ $ % e M Z Z Z Z Y ( ( ( ( } } } X.X.X.X.X.X.X.X.X.X.X.X.o.<.5.5.5.<.T Y Y Y Y Y Y Y Y n z z z z z z z z z M M M U U U U U U U U U U U U U U U U Y Y Y Y Y T Q Q ( } | | } } } } } } } } | | } } } } } ( ( ( ( Q T Y Y Y Y T } } } ( ( Q Q ( ( ( Q Q Q ( } } | | } } } } | | X.5.f.v.m.m.m.m.f.i.f.m.m.x.5.} ( ( ( } ( ( ( ( ( ( ( ( ( ( ( ( ( ( ( ( ( ( ( ( } } ( ( ( ( ( } | | o.:.>.>.>.>.:.#.X.| | | >.>.m.U.L.K.6.6.6.:.| | 7 % $ $ $ $ $ $ % % , , , , , 9 e t t x >.>.>.>.>.>.>.>.>.>.>.>.>.>.>.>.>.>.>.>.>.>.>.>.>.>.>.>.X.X.X.o.X.| } | | | | ) ~ Y Y Y Y Y Y Y Y Y Y Y Y Y Y Y T ~ ( ( o.o.o.o.( ( ( ( ( ( ( ( ( ( ( ( ( ( ( ( ( ( ( X.i.5.> e t e 9 @ @ @ @ @ $ a k m U T Q Q } } } } } ..} } } } } } } } } Q Q Y T T Y U U U M M z z b b b b z z n n b b z b z z n n b b b n b M M M M M M M M M M M M M M M M M M M M M M M M M M M M M M M M M H U U U U U U U U U Q k.k.k.k.r.$ $ $ 9 Z U R Y ( ( ( >.>.>.>.>.| M M M M M M M M M Z Z Z S S M M M M M Z S S S S S S S S S S S ",
"S S Z Z Z Z Z Z Z Z Z Z Q ( ( ( ( ( Q P Z P Y ( ( ( Q $ $ $ $ $ $ $ $ $ i Z Z Y ( ( ( ( ( ( } X.X.X.X.X.X.X.X.X.X.X.X.X.X.X.| | 1.5.5.5.X.Y Y Y Y Y Y Y Y Y z z z z z z z z z M M M M U U U U U U U U U U U U U U U Y Y Y Y Y Y Q ( ( ( } } | } } | } } } } } } } } | | | ( Q Q T Y Y Y Y Y Y Y Y T T Y Y Y Y Y Y Y Q Q Q ( ( ( ( } | | } } } | } } } } X.5.i.f.x.i.i.>.| } ( ( ( ( } } ( ( ( ( ( ( ( } } } ( } } } } } ( ( ( ( } ( ( ( ( ( } | | | >.>.>.>.5.>.:.:.#.o.| | >.>.>.f.L.U.K.6.6.6.| ~ , , $ % % $ $ $ % % $ , , , , , , t t t >.>.>.>.>.>.>.>.>.>.>.>.>.>.>.>.>.>.>.>.>.>.>.>.>.>.>.>.o.X.X.X.X.o.| | | | | ) ( ~ T Y Y Y Y Y Y Y Y Y T ~ ( ( ( ( ( ( X.o.o.X.( ( ( ( ( ( ( ( ( ( ( ( ( ( ( ( ( ( ( ) i.i.Z t t t t $ @ @ @ @ $ b m m Y Q Q Q ( } } } ....} } } } } } ......Q Y Y T T Y U U U M M z z n n z z z z b n z z z z z z z z b b n n z n M M M M M M M M M M M M M M M M M M M M M M M M M M M M M M M M U U U U U U U U U U U ..v.v.k.5.$ $ $ % s z U U Q ( ( X.>.>.>.#.Z M M M M M M M M M Z Z S S S S M M M S S S Z S S S S S S S S S ",
"S S Z Z Z Z Z Z Z Z Z Z U ( ( ( ( ( ( ( ( ( ( ( ..#.+.b $ $ $ $ $ $ $ % M ( ( } } X.X.X.} } X.X.X.X.X.X.X.X.X.X.X.X.X.X.X.X.} } X.5.5.5.5.( Y Y Y Y Y Y Y Y n z z z z z z z n M M M M Z U U U U U U U U U U U U U U Y Y Y Y Y Y Y Q Q ( ( ( } } } | | } } } } } } } | | | ( Q T Y Y Y Y Y Y Y Y Y Y Y Y Y Y Y Y Y Y Y Q Q ( ( ( ( ( ( } } } } | | } } } } } } ( ( ( ( ( } } ( ( ( ( ( ( ( ( } ( ( ( ( ( ( } } | | | } } ( ( ( ( ( ( ( } } | | | | o.>.>.<.5.5.5.5.>.#.#.o.| >.>.>.>.>.m.L.f.6.6.| Y , , * % % % $ % % % $ $ * , , , , 9 t z >.>.>.>.>.>.>.>.>.>.>.>.>.>.>.>.>.>.>.X.o.o.X.:.>.>.>.>.:.X.X.X.o.o.| | | | | ) ( ( ( ( ~ ~ ~ ~ ~ ~ ( ( ( ( ( ( ( ( ( ( X.o.o.| ( ( ( ( ( ( ( ( ( ( ( ( ( ( ( ( ( ( ( ( 5.i.5.Z t t t > @ @ @ @ r m m m T Q Q Q Q } } } ....} } } } } } ......Q Y Y Q T Y U U S M M x x n n z z z z z z z z z z z z z b b b n b z z M M M M M M M M M M M M M M M M M M M M M M M M M M M M M M M M U U U U U U U U U U U U @.p.r.R $ $ $ $ a s M U Y ( ( ( #.#.| ( Y M M M M M M M M M Z Z S S S S S S S S S S S S S S S S S S S S ",
"S Z Z Z Z S Z Z S Z Z Z Z U ( ( ( ( ( ( ( ( ( #.<.<.<.U $ $ $ $ $ $ $ z X.X.X.X.X.X.X.X.X.X.X.X.X.X.X.X.X.X.X.X.X.X.X.X.X.X.} } } #.5.5.<.} Y Y Y Y Y Y Y U M z z z z z z z M M M M M M U U U U U U U U U U U U U U R Y Y Y Y Y Y T ( ( ( ( ( ( ( } } } } } } } } } } } | Q Q Y Y Y Y Y Y Y Y Y Y Y Y Y Y Y Y Y Y Y T ( Q Q Q Q Q ( ( ( } | | | | | } } } } } } ( ( ( ( } ( ( ( ( ( ( ( ( ( ( ( ( ( } } } | | | | | | } } } ( } } } | | | | | | X.>.>.5.5.5.5.5.5.5.>.>.>.o.>.>.>.6.>.>.6.6.6.| Z x e , , , % % $ $ % $ $ $ $ % , , , 9 t Y >.>.>.>.>.>.>.>.>.>.>.>.>.>.>.>.>.>.X.o.o.o.o.o.o.o.o.:.X.X.X.X.X.| | | | | | ) ( ( ( ( ( ( ( ( ( ( ( ( ( ( ( ( ( ( ( ( o.o.o.) ( ( ( ( ( ( ( ( ( ( ( ( ( ( ( ( ( ( ( ( | i.i.Y t t t 9 @ @ # # z m m P Q Q Q T Q } } } } } ........} } ....} Q Y Y Q Q Y U U S M M z z z z z b n n z z z z z z z z z z n n n b z z M M M M M M M M M M M M M M M M M M M M M M M M M M M M M M M U U U U U U U U U U U U U U *.#.H $ $ $ $ 9 s H Y ( ( ( ( ( ( ( ( ( M M M M M M M M M Y U S S S S S S S S S S S S S S S S S S S S ",
"Z Z Z Z S S Z Z S Z Z Z Z Z Y ( ( ( ( ( ( ( #.<.<.<.<.R $ $ $ $ $ $ $ z X.#.X.X.X.X.X.X.X.X.X.X.X.X.X.X.X.X.X.X.X.X.X.X.X.X.} } } } X.#.} } T Y Y Y Y Y Y U M M n z z z z z M M M M M M M U U U U U U U U U U U U U Y Y Y Y Y Y Y Y Q ( ( Q ( Q ( ( Q } } } | } } } } } | Q Q Y Y Y Y Y Y Y Y Y Y Y Y Y Y Y Y Y Y Y Q ( Q Q Q Q Q Q ( ( ( } | | } } } } } | | } ( ( ( ( ( ( ( ( ( ( } ( ( ( ( ( ( } } | | | | | | | | | } } | | | | | | | X.o.#.:.>.5.5.5.5.5.5.5.5.5.>.>.>.>.>.>.8.5.) D D D x x x x 9 , , , % $ $ $ $ $ $ $ $ $ , , , x >.>.>.>.>.>.>.5.6.5.>.>.>.>.>.>.>.>.>.o.o.o.o.o.o.o.o.X.X.X.X. .| | ) ( } | | | ) ( ( ( ( ( ( ( ( ( ( ( ( ( ( ( ( ( ( ( ( } X.} ( ( ( ( ( ( ( ( ( ( ( ( ( ( ( ( ( ( ( ( ( ( i.i.Y t t t w @ @ # # b m m Y Q Q T Q T } } } ......} ....} } ....} Q Y Y Q Q T U U S M M n z z z z b n n z b z z z z z z z z n n b b z z n M M M M M M M M M M M M M M M M M M M M M M M M M M M M M M U U U U U U U U U U U U U Q *.#.m $ $ $ $ 9 s H Q ( ( ( ( ( ( ( ( ( S M M M M M M Z #.<.<.<.U S S S S S S S S S S S S S S S S S S ",
"Z Z Z Z S S Z Z S S Z Z Z Z Z Q ( ( ( ( ( ..<.<.<.<.<.R $ $ $ $ $ $ $ f X.h.#.X.X.X.X.X.X.X.X.X.X.X.X.X.X.X.X.X.X.X.X.X.X.X...} } } } } } ( T Y Y Y Y Y Y U M M M M z z z M M M M M M M M U U U U U U U U U U U U U Y Y Y Y Y Y Y Y Y Q Q Q Q Q ( ( Q Q ( } | | | | } } } Q ( Y Y Y Y Y Y Y Y Y Y Y Y Y Y Y Y Y Y Q ( ( ( ( ( ( Q Q Q Q ( ( ( } } } | | } } } } ( ( ( ( ( ( ( ( ( ( } } ( ( ( ( } | | | | | | | | | | | | | | | | | | o.>.>.#.#.>.5.5.5.5.5.5.8.6.5.5.5.>.>.>.>.>.8.8.D D D n x x x x x 9 , , , $ $ % % % $ $ $ * , , t >.>.>.>.>.>.>.>.5.6.6.5.>.>.>.>.>.>.>.>.:.X.o.o.X.X.X.X.X.| | | | | | ) ( ( } | | ) ( ( ( ( ( ( ( ( ( ( ( ( ( ( ( ( ( ( ( ( ( ( ( ( ( ( ( ( ( ( ( ( ( ( ( ( ( ( ( ( ( ( ( ( ( 5.i.Y t t t t @ # # # m m M T Q Q T T T ( } } ....} } } } } } ..} ..T Q Q Q Q Y U U S M M M M b z b b n n b b b n n n z z z z z n b z z z n M M M M M M M M M M M M M M M M M M M M M M M M M M M M M M U U U U U U U U U U U U U ..<.<.z $ $ $ $ , s H ( ( ( ( ( ( ( ( ( ( ( M M M M M Y <.<.<.<.<.Y S S S S S S S S S S S S S S S S S S ",
"Z Z Z Z S S Z Z S S Z Z Z Z Z Z Q ( ( ( ( <.<.<.<.<.<.R , $ $ $ $ $ $ f #.h.p.X.X.X.X.X.X.X.X.X.X.X.X.X.X.X.X.X.X.X.X.X.X.X.X.} } } } } } Q Q Y Y Y Y Y U U M M M M M M M M M M M M M M M S U U U U U U U U U U U Y Y Y Y Y Y Y Y Y Y Y ( Q ( ( ( ( Q Q ( ( } | | | | } } ( ( T Y Y Y Y Y Y Y Y Y Y Y Y Y Y Y Y T Q ( ( ( ( ( ( Q Q Q Q ( ( ( Q } } | | } } } } ( ( ( ( ( ( ( ( ( ( ( ( ( ( ( } | | | | | | | | | | | | | | | | | o.>.>.>.>.#.>.5.6.8.8.5.5.5.8.8.6.5.5.>.>.>.>.>.6.8.~ D Z x x x x x x f 7 , , % $ % % % $ $ * , 9 M Z :.>.>.>.>.>.>.>.6.6.6.6.>.>.>.>.>.>.>.>.>.:.X.X.X.X.X.X.X.| | | | | | ~ ( ( ( ) } ( ( ( ( ( ( ( ( ( ( ( ( ( ( ( ( ( ( ( ( ( ( ( ( ( ( ( ( ( ( ( ( ( ( ( ( ( ( ( ( ( ( ( ( ( ( X.i.Y z t t t $ # # # m m P T Q Q T T T Q } } ....} } } } } } } } ..T Q Q Q Q Y U U Z M M M M M n z b n n b b b n n n z z z z z b b b z z m M M M M M M M M M M M M M M M M M M M M M M M M M M M M M P U U U U U U U U U U U U U ..<.<.b $ $ $ $ > s U T ( ( ( ( ( ( ( ( ( ( S Z Z Y ( <.<.<.<.<.#.U S S S S S S S S S S S S S S S S S S ",
"S S Z Z Z Z S S Z Z Z Z S S S S U ( ( ( ..<.<.<.<.<.#.R t $ $ $ $ $ $ f ..h.h.r.X.X.X.X.X.X.X.X.X.X.X.X.X.X.X.X.X.X.X.X.X.X.X.X.} } } } } Q Q Q Y Y Y Y U U S M M M M M M M M M M M M M M Z U U U U U U U U U U U Y Y Y Y Y Y Y Y Y Y Y Y Q ( ( ( ( Q Q ( ( ( } } } } } Q ( ( T Y Y Y Y Y Y Y Y Y Y Y Y Y Y Y Y Q Q ( ( ( Q Q Q ( ( ( ( ( ( Q Q ( } | | } } } } } ( ( ( ( } } ( ( } } ( ( ( ( } | | | | | | | | | | | | | | X.o.>.>.>.>.>.>.>.5.5.8.8.8.6.5.5.8.8.8.5.5.5.>.>.>.>.7.8.) D Z x x x x x x x f , , * $ $ $ $ $ % , , w Z Z Y >.>.>.>.>.>.5.4.4.5.6.5.>.>.>.>.>.>.>.>.>.>.o.o.o.X.X.X.| | | | | | ( ( ( ( ( ( ( ( ( ( ( ( ( ( ( ( ( ( ( ( ( ( ( ( ( ( ( ( ( ( ( ( ( ( ( ( ( ( ( ( ( ( ( ( ( ( ( ( ( ( ( ( } i.Y z e t t % @ @ @ m m U Q T T T T Q Q } } ......} } } ..} } } Q Y Q Q T T Y U S M M M M M M M M n b b z z z z z z b z b b n n z z z z M M M M M M M M M M M M M M M M M M M M M M M M M M M M M M P U U U U U U U U U U U U U @.#.#.b $ $ $ $ > s U U Q ( ( ( ( ( ( ( ( ( ( ( ( ( ( #.<.<.<.<.( U S S S S S S S S S S S S S S S S S S ",
"S S Z Z Z Z S S Z Z Z Z S S Z Z Z U ( ( <.<.<.<.<.<...R b $ $ $ $ $ $ f Q h.h.h.#.X.X.X.X.X.X.X.X.X.X.X.X.X.X.X.X.X.X.X.X.X.X.X.X.} } } } Q Q Q T Y Y R U U U U M M M M M M M M M M M M M Z U U U U U U U U U U Y Y Y Y Y Y Y Y Y Y Y Y Y Y T ( ( ( Q Q ( ( ( Q ( ( Q Q Q Q ( ( Y Y Y Y Y Y Y Y Y Y Y Y Y Y Y ( ( Q ( ( ( Q Q Q ( ( ( ( ( ( Q Q Q } } | } } } } } } ( ( ( ( ( ( ( ( } ( ( ( } | | | | | | | | | | | | o.>.>.>.>.>.>.>.>.>.>.5.5.8.8.8.8.7.5.5.8.8.8.8.5.5.5.>.>.>.7.8.X.D Z x x x x x x x x e , , $ $ $ $ $ $ , , w Z Z M ) >.5.5.5.5.6.4.4.4.6.6.>.>.>.>.>.>.>.>.>.>.>.o.o.X.X.X.X.| | | | } ( ( ( ( ( ( ( ( ( ( ( ( ( ( ( ( ( ( ( ( ( ( ( ( ( ( ( ( ( ( ( ( ( ( ( ( ( ( ( ( ( ( ( ( ( ( ( ( ( ( ( ( ( i.Y z e t t , @ @ @ m m U Q T Y T T Q } } } ......} } } ....} } Q Y Q Q T T Y U S M M M M M M M M M n b z z z z b b b b b n n n z z z n M M M M M M M M M M M M M M M M M M M M M M M M M M M M M M U U U U U U U U U U U U U U #.#.#.b , $ $ $ > t U U U T ( ( ( ( ( ( ( ( ( ( ( ( ( ( <.<.<.#.R S U S S S S S S S S S S S S S S S S S ",
"S S Z Z Z Z S S Z Z Z Z Z Z Z Z Z Z U ..<.<.<.<.<.<.Y R P $ $ $ $ $ $ f n h.h.h.<.X.X.X.X.X.X.X.X.X.X.#.>.X.X.X.X.X.X.>.#.X.X.X.X.} } } } ( Q Q Q Y Y Y U U U U U Z M M M M M M M M M M M S U U U U U U U U U U Y Y Y Y Y Y Y Y Y Y Y Y Y Y Y Q ( ( Q Q ( ( ( ( ( ( Q Q ( ( ( ( Y Y Y Y Y Y Y Y Y Y Y Y Y Y Q ( ( ( ( ( ( ( Q Q Q Q Q Q ( Q Q Q Q Q | | } | } } } } ( ( ( ( ( ( ( } ( ( ( ( } | | | | | | | | | | | X.#.>.>.:.>.5.5.5.>.>.5.5.7.8.8.8.8.8.5.6.8.8.8.8.6.5.5.5.>.5.6.8.5.D Z x x x x x x x x z , , % % $ % % $ , , w M M M Z ) 5.6.6.4.6.4.4.6.6.6.5.>.>.>.>.>.>.>.>.>.>.:.o.o.X.X.X.| | | | ) ( ( ( ( ( ( ( ( ( ( ( ( ( ( ( ( ( ( ( ) ) ) ) ( ( ( ( ( ( ( ( ( ( ( ( ( ( ( ( ( ( ( ( ( ( ( ( ( ( ( ( ( ( 5.Y z e t t , @ @ @ b m U Q T Q T T Q Q } } } } } } } } } ..} } Q Y Y Q T T Y U Z M M M M M M M M M M b b z b b b n n n z z b b z b n M M M M M M M M M M M M M M M M M M M M M M M M M M M M M M M U U U U U U U U U U U U U U e.*.#.b , $ $ $ % > n U U U Y Q ( ( ( ( ( ( ( ( ( ( ( ( +.<.<.Q U U S S S S S S S S S S S S S S S S S S ",
"Z Z Z Z Z Z Z Z Z Z Z Z Z Z Z Z Z Z Z Y <.<.<.<.<...R R R $ $ $ $ $ $ f f #.h.h.i.X.X.X.X.X.X.X.X.X.X.>.#.X.X.X.X.#.>.>.>.#.X.X.X.X.} } } ( Q Q Q T Y Y Y U U U U U U Z M M M M M M M M M U U U U U U U U U U Y Y Y Y Y Y Y Y Y Y Y Y Y Y Y Y Q ( ( Q Q Q Q ( ( ( ( Q Q ( ( ( ( Q Y Y Y Y Y Y Y Y Y Y Y Y T ( ( ( ( ( ( ( Q Q Q Q Q Q Q ( ( Q Q Q Q | | | | } } } } } ( ( ( ( ( ( | | } } } | | | | | | | | | | | | #.#.:.:.:.>.5.5.5.5.5.5.6.8.8.8.8.8.8.5.8.8.8.8.8.8.5.5.5.5.5.6.8.6.D Z x x x x x x x x x , , $ % $ % % % % , w M M M Z ) >.6.6.4.4.4.4.6.6.6.6.6.5.>.>.>.>.>.>.>.>.:.o.X.X.X.X.| | | | ( ( ( ( ( ( ( ( ( ( ( ( ~ ) ) ) ) ) | | | | | | | ) ) ( ( ( ( ( ( ( ( ( ( ) } } ) ( ( ( ( ( ( ( ( ( ( ( ( ( 5.Y z e t t w @ @ @ z m U Q T T T T Q Q } } } } } } } } } } } } Q Y Y Q T T Y U S M M M M M M M M M M n n n n n b n n n z z b b z z b n M M M M M M M M M M M M M M M M M M M M M M M M M M M M M P U U U U U U U U U U U U U U e.*.*.b , $ $ $ % > n U U U U U R Y Q ( ( ( ( ( ( Q Y U U Q U U S U S S S S S S S S S S S S S S S S S S ",
"U Z Z Z Z Z Z Z Z Z Z Z Z Z Z Z Z Z Z S Q <.<.<...R R R R , $ $ $ $ $ s f b a.h.h.X.X.X.X.X.X.X.X.X.#.>.#.X.X.#.#.>.>.>.>.>.X.X.X.X.} } } } Q Q Q Q Y Y Y U U U U U U U U S M M M M M M S U U U U U U U U R Y Y Y Y Y Y Y Y Y Y Y Y Y Y Y Y Y Y ( ( ( ( Q Q Q ( Q ( ( ( ( Q Q Q Q Y Y Y Y Y Y Y Y Y Y Y Y Q Q ( ( ( ( Q ( ( ( ( ( ( ( Q Q Q Q Q Q } } | | | | } } } } ( ( ( ( } } | | | | | | | | } | | | | | | | #.>.>.>.:.>.5.5.5.5.5.5.7.8.8.8.8.8.8.8.7.8.8.8.8.8.8.6.5.5.5.5.6.8.i.Y Z x x x x n Z x x z , , % $ % $ $ $ $ , , M M Z Y } >.6.4.4.4.6.6.6.6.6.6.6.5.>.>.>.>.>.>.>.>.X.X.X.X.X.| | | | ) ( ( ( ( ) ) ) } } } | | | | | | | | | | | | | | | | | ) ) ( ( ( ( ( ) } | | | | | } ) ( ( ( ( ( ( ( ( ( ( ( 5.Y z t t t t @ @ @ 4 M M T T Y Q Q Q Q ....} } } ......} } } } Q Y Y Q Q Q Y U S S S S Z Z M M M M M M M M M M M n b b z z z z n n n n M M M M M M M M M M M M M M M M M M M M M M M M M M M M M U U U U U U U U U U U U U U U e.r.#.b , $ $ $ % > m U U U U U U U U U Y Q ( Q Y U U U U U S S S S S S S S S S S S S S S S S S S S S S ",
"R U Z Z Z Z Z Z Z Z Z Z Z Z S S Z Z S S Z T Y Y R R R R R 4 $ $ $ $ $ t f f Q h.h.X.X.X.X.X.X.>.#.>.#.>.>.#.#.#.>.>.>.>.>.>.>.X.X.X.X.} } } ( Q Q Q T Y Y Y U U U U U U U U U S M M Z U U U U U U U Y Y Y Y Y Y Y Y Y Y Y Y Y Y Y Y Y Y Y Y Y Y ( ( Q ( Q ( Q Q Q ( ( ( ( Q Q Q ( Q Y Y Y Y Y Y Y Y Y Y Q Q Q Q ( ( ( Q ( ( ( ( ( ( ( Q Q Q Q Q ( } | | | | | } } } } } ( ( } } } } } | | } } } } } | | | | | | o.>.>.>.>.>.>.5.5.5.6.7.8.8.8.i.8.8.8.8.8.8.8.8.8.8.8.8.8.5.5.5.5.6.8.f.) Z x n Z A D A x x t , , % $ % $ $ $ $ > , M M Z ~ } >.4.4.4.4.6.6.6.6.4.6.6.5.>.>.>.>.>.>.>.>.X.o.X.X.X.| } ) ( ( ( ( ( ) | | } } | | | | | | } | | | | | | | | | } } | | } | ) ) ) } | | | | | | | | | ) ( ( ( ( ( ( ( ( ( ( 5.Y z t t t t $ @ @ ; M m T Y Y Y Y Q Q Q ..} } } ......} } } } Q Q Y Y Q Q R U S S S S S S Z M M M M M M M M M M M M n z z z n M M M M M M M M M M M M M M M M M M M M M M M M M M M M M M M M U U U U U U U U U U U U U U U U e.r...b , $ $ $ ; > m U U U U U U U U U U U R U U U U S S S S S S S S S S S S S S S S S S S S S S S S U ",
"U U U Z Z Z Z S S S Z Z Z Z S S Z Z Z Z Z Z U U R R R R R s $ $ $ $ $ 9 f f f y.h.X.X.X.X.X.X.X.>.>.>.>.>.>.#.#.>.>.>.>.>.>.>.#.X.X.X.} } } } Q Q Q Q Y Y Y Y U U U U U U U U U U U U U U U U U U Y Y Y Y Y Y Y Y Y Y Y Y Y Y Y Y Y Y Y Y Y Y Y Q Q Q Q ( ( ( Q Q Q } } } } ( Q ( ( Y Y Y Y Y Y Y Y Y T Q Q ( ( ( ( Q Q Q Q ( ( ( ( ( ( Q Q Q ( | | | | | | } } } } } } ( ( ( ( ( ( ( ( ( ( ( ( } } | | | | | o.>.>.:.>.#.>.5.5.5.8.8.8.8.8.f.g.g.g.g.f.f.i.8.8.8.8.8.8.8.6.5.5.5.6.8.f.<.D D D D D D Z x x t 7 , = % % $ $ $ $ % , M Z Z ) } 5.6.6.4.4.4.4.4.4.4.4.6.6.5.>.>.>.>.>.>.o.X.X.X.X.| ) ( ( ( ( ( ( ) | | | } } } | | | | | | | | | | } } | | | | } | | | | | | | | | | | | | X.X. .| | ) ( ( ( ( ( ( ( ( ( 5.Y z t t t t : @ # @ m m R Y Y Y Y Y Y Q ..} } } } } } ..} ......} Y Y T Y U U S S S S S S S M M M M M M M M M M M M M M n M M M M M M M M M M M M M M M M M M M M M M M M M M M M M M M M M M U U U U U U U U U U U U U U U U #.<...b , $ $ $ ; > n U U U U U U U U U U U U U U S S S S S S S S S S S S S S S U U S S S S S S S U U U ",
"U U U Z Z Z Z S S S Z Z Z Z S S Z Z Z Z Z Z Z U R R R R R m $ $ $ $ $ , f f f P i.X.X.X.X.X.X.X.#.>.>.>.>.>.#.>.>.>.>.>.>.>.>.>.X.X.X.X.} } } ( Q Q Q T Y Y Y Y Y Y Y Y U U U U U U U U U U U U Y Y Y Y Y Y Y Y Y Y Y Y Y Y Y Y Y Y Y Y Y Y Y Y Q Q Q Q ( ( Q ( } } } } } } } } } ( Q Y Y Y Y Y Y Y Y Q Q ( ( ( ( ( Q Q Q Q ( ( ( ( ( ( ( Q } | | | | | | } } } } } } ( ( ( ( ( ( ( ( ( ( ( ( ( } } | | | | #.#.>.>.:.:.#.5.5.5.8.8.8.8.8.f.g.g.v.g.g.g.g.g.g.f.8.8.8.8.8.8.5.5.5.5.8.g.f.D D D D D D n x x t 9 , , % % % $ $ $ $ , n Z Y ) } 5.6.5.4.4.4.4.4.4.4.4.6.6.6.6.>.>.>.>.:.o.X.X.X.X.| ( ( ( ( ( ( } | | | | } } | | | | | | } | | | | } } | | | | } | | } | | | | | | | | | X.X.X.X.X. .| ) ( ( ( ( ( ( ( ( 5.Y z t t t t % @ # @ w m M T Y Y Y Y Y Q Q } } } } } } } ..........Q Y T Y U S S S S S S S S Z M M M M M M M M M M M M M M M M M M M M M M M M M M M M M M M M M M M M M M M M M M M M M M M U U U U U U U U U U U U U U U U U ..5...b , $ $ $ ; > n U U U U U U U U U U U U U S S S S S S S S S Z S S S S S U U U U U S S S U U R R U ",
"U U U S Z Z Z Z Z Z Z S S S Z Z Z Z Z S Z Z Z U R R U R R M $ $ $ $ $ $ f f f f R X.X.X.X.X.X.X.X.#.>.>.>.>.#.#.>.>.>.>.>.>.#.#.o.X.X.X.| } } } Q Q ( T Y Y Y Y Y Y Y Y Y U U U U U U U U U U U Y Y Y Y Y Y Y Y Y Y Y Y Y Y Y Y Y Y Y Y Y Y Y Y Q ( ( ( ( ( } } } } } } } } } } } } ( T Y Y Y Y Y Y Y Q Q Q ( ( ( Q Q Q Q Q Q ( ( ( ( ( ( } | } } } | | | | | | } } } ( ( ( ( ( ( ( ( ( ( ( ( ( ( } | | X.>.>.>.>.>.>.>.>.5.5.8.8.8.8.i.g.g.g.N.N.N.v.g.g.g.g.g.g.f.i.8.8.i.i.5.5.5.8.g.g.Y D D D D S x x x t e , , % % % $ $ $ $ , z M Y ) ) >.5.5.5.6.4.4.4.6.6.6.4.4.4.5.5.>.>.>.o.o.o.o.X. .| ( ( ( ( ) | | | | | | | | | | | | | | | | | | | | | |  . . . . .| | | | | | | | | |  .X.X.X.X.X.X.X. .) ) ( ( ( ( ( ( 6.Y z t t t t $ @ @ @ $ m m U Q Q Q T Q Q Q ........} } } ......} } Q Y T Y U S S S S S S S S S M M M M M M M M M M M M M M M M M M M M M M M M M M M M M M M M M M M M M M M M M M M M M M M U U U U U U U U U U U U U U U U U ..#.@.b ; $ $ % > > n U U U U U U U R R U U U S S S S S S S S S S S S S S S S U U U U U U U U U U U U U ",
"R R U U Z Z Z Z Z Z Z Z S S Z Z Z Z S S Z Z Z U R R R R R R $ $ $ $ $ $ s f f f ( X.X.X.X.X.X.X.X.X.>.>.>.>.#.#.#.#.>.>.>.>.#.#.#.X.X.X.X.} } } Q Q ( Q Y Y Y Y Y Y Y Y Y U U U U U U U U U U Y Y Y Y Y Y Y Y Y Y Y Y Y Y Y Y Y Y Y Y Y Y Y Y Q Q Q ( ( } } } } } } } } } } } } } } } ( Y Y Y Y Y Y T Q ( Q ( ( ( Q Q Q Q Q Q ( ( ( ( ( ( | | } } } | } | | } } } } } ( ( ( T T T ( ( ( ( ( ( ( ( | | X.>.>.>.>.>.>.>.>.5.5.5.8.8.8.f.g.g.g.x.N.N.N.N.x.g.g.g.g.g.g.g.f.8.i.8.8.6.6.8.g.g.) D D D D Z x x x i q 7 , , $ % $ $ $ $ * f M Y ) ) >.>.5.6.6.4.4.6.6.6.6.4.4.5.5.6.>.>.>.:.o.o.o.X.| | ( ( ( ) | | | | | | | |  .X.X.X.| | | | | | | X.X.X.X.X.X.X.o.X.X.X.X.X.| | | | | | X.X.X.X.X.X.X.X.X.} ) ( ( ( ( ( ) 5.Y z t t e w $ @ @ @ @ w m M Y Q Q Q Q T T Q } } } } } } ..........Q Y T U R U S S S S S S S S Z M M M M M M M M M M M M M M M M M M M M M Z Z M M M M M M M M M M M M M M M M M M M M M M M U U U U U U U U U U U U U U U U U ( #.*.b $ $ % > > > n U R R U U U U U U U U U S S S S S S S S S S S S S S S U U U U U U U U U U U R U U ",
"R U U U Z Z Z Z Z Z Z Z S Z Z Z Z Z S S S Z S S U R R R R R % $ $ $ $ $ r f f z } X.X...} | X.X.X.X.#.>.>.>.#.#.#.#.>.>.>.>.>.#.#.X.X.X.X.} } } ( Q Q Q Y Y Y Y Y Y Y Y Y U U U U U U U U U U Y Y Y Y Y Y Y Y Y Y Y Y Y Y Y Y Y Y Y Y Y T Q ( ( Q Q ( ( } } } } } } } } } } } } } } } ( T Y Y Y Y Y ( ( ( ( ( ( ( ( Q Q Q Q ( ( Q Q ( ( ( } | | } } } } } } } } } } } ( ( T T T T T T T ( ( ( ( } | | #.>.>.>.>.>.>.>.5.5.5.6.8.8.f.g.g.g.g.m.N.N.N.N.N.x.g.g.g.g.g.g.g.g.i.8.8.8.8.8.g.g.<.D D D Z x x x x i q w , , % $ $ $ $ % % e M S ~ ) >.>.>.5.5.5.4.5.5.4.6.6.4.7.7.6.5.>.>.>.:.o.o.X.| | ) ( ) | | | | | | | X.X.X.o.o.o.o.X.X.X.X.X.X.o.o.X.X.X.X.X.X.X.X.X.X.X.o.X.| | | | X.X.X.X.X.X.X.X.X.X.) ( ( ( ( ( | 5.Y z e t e 9 # @ @ @ @ $ b m m Y T Q Q T T T ( } } } } } } ..} } ( T Q Y U U U S S S S S S S S S M M M M M M M M M M M M M M M M M M Z S S S S M M M M M n b b b n M M M M M M M M M M M M M U U U U U U U U U U U U U U U U R ( #.#.b $ % > > > > n R U U U U U U U U U U S S S S S S S S S S S S S S S S U U U U U U U U U R U U U U ",
"R U U U Z Z Z Z Z Z Z Z Z Z Z Z Z Z Z S S S S Z U R Y R R R , $ $ $ $ $ , f f n } X.X.} } } } X.X.X.X.>.>.>.>.#.#.>.>.>.>.>.>.#.#.o.X.X.X.} } } } Q Q Q T Y Y Y Y Y Y Y Y Y U U U U U U U U U Y Y Y Y Y Y Y Y Y Y Y Y Y Y Y Y Y Y Y Y Q ( Q Q ( Q Q } } } } } } } } } } } } } } } } } } ( Y Y Y Y T ( ( ( ( ( ( ( ( Q Q Q Q ( ( Q ( ( ( ( ( } | } } } } } } } } } } } ( ( T T T T T T T T T ( ( } | o.>.>.>.>.>.>.>.<.5.5.5.8.8.i.g.g.g.g.v.N.N.N.N.N.N.m.g.g.g.g.g.g.g.g.g.f.8.8.8.8.m.c.f.D D D n x x x x x q q , , , $ $ $ $ % % w Z Z Y ) X.>.>.>.>.>.5.5.5.7.7.6.4.7.7.5.>.>.>.>.>.>.o.X.X.| | } } } } | | | X.X.X.X.X.o.o.X.o.X.X.X.X.X.X.o.o.X.X.X.X.X.o.X.X.X.X.X.X.X.X. .| X.X.X.X.X.X.X.X.X.X.o.) ( ( ( ( ( X.5.Y z e t 9 9 $ # @ @ @ @ ; m m m Y T Q T T T T Q } } } } } } } } Q T Q Y U U U S S S S S S S S S S M M M M M M M M M M M M M M Z S S S S S S Z M M M M n b b b b b n M M M M M M M M M M M Z U U U U U U U U U U U U U U U U R ( @.#.b $ > > > > > n R U U U U U U U U U U S S S S S S S S S S S S S S S U U U R U U U U U U R U U U U ",
"U U R U S S S S S S S Z Z Z Z Z Z Z S S S Z Z Z U R } ( Y R 4 $ $ $ $ $ : f f M } } } } } } } } X.X.X.#.>.>.>.>.>.>.>.>.>.>.>.>.#.#.X.X.X...} } } ( Q Q Q Y Y Y Y Y Y Y Y Y U U U U U U U U U Y Y Y Y Y Y Y Y Y Y Y Y Y Y Y Y Y Y Y Y ( ( ( ( ( ( ( } } } } } } } } } } } } } } } } } } } T Y Y Y T Q ( ( ( ( ( ( ( Q Q Q Q ( ( Q Q ( ( ( ( Q } } } | | } } } Y } } } ( ( T T T T T T T T T T ( | X.>.>.>.:.:.:.>.>.5.5.5.8.8.8.f.g.g.g.x.N.N.N.N.N.N.N.N.m.x.g.g.g.g.g.g.g.g.f.8.8.i.N.N.x.D D Z x x x x x x t q 9 , , = % % % $ $ w M Z ! ~ ) :.>.>.>.>.>.>.>.5.5.5.5.5.1.>.>.>.>.>.>.>.>.:.o. .| | | | | | | | X.X.X.X.X.X.o.X.X.X.X.o.o.o.X.X.X.X.X.X.o.X.X.X.X.o.o.o.o.X.X.o.o.X.X.o.o.o.o.o.o.o.o.X.| ( ( ( ( ( X.5.Y z e 9 9 , $ $ @ @ @ @ @ ; m m n z M T T T T T T T Q Q } } } Q Y Q Q R U U S S S S S S S S S S S M M M M M M M M M M Z S S S S S S S S S S M M M M M b b b b b b b n M M M M M M M M M M M U U U U U U U U U U U U U U U U Q } ..*.m > > > > > > m R U U U U U U U U U U S S S S S S S S S S S S S S S U U U U U U U U U U U U U U U ",
"U U U U U S Z Z S Z S S Z S S Z Z Z S S Z Z Z Z Z R } } ( R s $ $ $ $ $ $ f f H } } } } } } | | } X.X.X.#.>.>.>.>.>.>.>.>.>.>.>.>.#.X.X.X.X.} } } } Q Q Q Y Y Y Y Y Y Y Y R U U U U U U U U U Y Y Y Y Y Y Y Y Y Y Y Y Y Y Y Y Y Y Y T ( ( ( Q ( ( } } } } } } } } } } } } } } } } } } } } Q Y Y Y Y Q Q ( ( Q ( ( ( Q Q Q Q ( ( Q Q ( ( ( ( Q Q } | } | } } t = Y } } } ( T T T T Y T T Y T ( } | o.>.>.>.:.:.>.>.5.5.5.6.8.8.8.g.g.g.x.N.N.N.N.N.N.N.N.N.N.N.N.v.g.g.g.g.g.g.g.f.8.f.N.N.N.) D n x x x x x x i q e , , 7 % % % $ $ w Z Z ! ! ~ ) ) |  .X.o.o.>.>.>.>.>.>.>.>.>.>.>.>.>.>.>.>.:.X.| | | | | | | X.X.X.X.X.X.X.o.X.X.X.o.>.o.o.o.X.X.X.X.X.X.X.o.X.X.o.o.X.X.X.X.o.X.X.X.o.o.o.o.o.o.o.o.X.| ( ( ( ( ( X.5.Y z e 9 9 $ $ # # # @ @ @ @ $ % $ $ $ $ > w z M Y T T Y Q Q Q T T Q Y Y U U U S S S S S S S S S S S M M M M M M M M M S S S S S S S S M M M M M M M n b b b b b b b b n M M M M M M M M M Z U U U U U U U U U U U U U U U U Q } ..*.m > > > > > > n U U R R U U U U R U U U S S S S S S S S S S S S S S S U U U U U U U U U U U U U U ",
"U U U U U U Z Z Z Z Z Z Z Z S S Z Z Z S Z Z Z Z Z Y } } } Y s $ $ $ $ $ $ s z U } } } } } | | | } } } X.X.X.#.>.>.>.#.#.>.>.>.>.>.>.X.X.X.X.} } } } Q Q Q Y Y Y Y Y Y Y Y U U U U U U U U U U Y Y Y Y Y Y Y Y Y Y Y Y Y Y Y Y Y Y Y Q Q Q Q Q ( } } } } } } } } } } } } } } } } } } } } } ( Y Y Y Y Q ( ( ( Q ( ( ( ( Q Q ( ( ( Q ( ( ( ( Q Q Q ( } } | | i = = } } } } ( T T T T T T T Y Y ( } | >.>.>.>.3.5.5.5.5.5.7.i.i.i.f.g.g.g.m.N.N.N.N.N.N.N.N.N.N.N.N.N.N.m.x.g.g.g.g.g.f.g.N.N.N.>.D x x x x x x x x q q 7 , , * $ $ $ $ 9 M Z T ! ! ~ ) ) | |  .X.X.o.>.>.>.>.>.>.>.>.>.>.>.>.>.>.>.X.X.| | | | | | X.X.X.X.X.X.X.X.X.X.X.o.>.>.>.:.:.:.>.>.>.>.>.>.>.>.>.:.o.X.X.X.o.o.X.X.X.X.o.X.X.X.X.X.X.X.( ( ( ( ( >.5.Y z w 9 , $ $ # $ $ $ # # # @ @ @ # # $ $ $ $ $ * 9 9 9 9 9 9 t U T T Y U U U S S S S S S S S S S S M M M M M M M M Z S S S S S S S Z M M M M M M n n b b b b b b b b b n M M M M M M M M M P U U U U U U U U U U U U U U U Q ....*.H > > > > > > n U U U U U U U U U U U U S S S S S S S S S S S S S S S U U U U U U U U U U U U U U ",
"U U U U U R U Z Z Z Z Z Z Z S S Z Z Z Z Z Z Z Z Z Y } } } ( M $ $ $ $ $ $ a n U } } } } } } | } } } } } X.X.X.#.>.#.#.#.#.>.>.>.>.>.X.X.X.X.} } } } Q Q Q Y Y Y Y Y Y Y Y U U U U U U U U U U U U U U U U Y Y Y Y Y Y Y Y Y Y Y Y Y Q Q Q ( ( } } } } } } } } } } } } } } } } } } } } } } } Q Y Y Y Y Q ( ( Q Q ( ( ( ( ( ( ( ( Q Q ( ( ( Q Q Q Q Q ( } z = = 9 } } } } ( ( T T T T T T Y T ( | | >.>.>.5.5.5.5.5.5.7.8.i.f.g.g.g.g.m.N.N.N.N.G.U.U.I.G.N.N.N.N.N.N.N.N.m.x.g.g.g.g.g.N.N.N.f.Z x x x x x x x x i q w , , , $ $ $ $ t M Z T ! ! ! ) | | ) )  .X.o.o.>.>.>.>.>.>.>.>.>.>.>.>.>.>.X.X.X.| | | | X.X.X.X.X.X.X.X.X.o.X.X.X.>.>.>.>.>.>.>.>.>.>.>.>.>.>.>.>.>.>.o.X.X.o.X.X.X.X.X.X.X.X.X.X.X.X.) ~ ( ( ( X.5.Y z 9 9 % $ $ $ $ $ $ $ $ $ $ $ $ $ $ $ $ $ $ $ 9 9 9 9 9 f Z T T Y Y Y U U U S S S S S S S S S S S M M M M M M M M S S S S S S S S Z M M M M M n b b b n M b b b b b b b b n n M M M M M M M H U U U U U U U U U U U U U U Q } } #.+.> > > > > > n U U U U U U U U U U U U S S S S S S S S S S S S S S S U R U U U U U U U U R R U U ",
"U U U U U U U S Z S S Z Z Z Z Z Z Z Z Z S Z Z Z Z Y ........H $ $ $ $ $ $ a M R | | } } } } | | } } } } } | X.X.X.#.>.>.>.#.#.>.>.>.X.X.X.X.| } } ( Q Q Q Y Y Y Y Y Y Y U U U U U U U U U U U U U U U U U U U U Y Y Y Y Y Y Y Y Y Y T ( ( Q ( } } } } } } } } } } } } } } } } } } } } } } } ( Y Y Y Y Y ( ( Q Q Q Q Q Q ( ( ( Q Q ( ( ( Q Q Q Q Q Q ( M = = = Z } } } } } ( T T T T T T Y Q } | X.>.>.>.5.5.5.5.5.6.8.i.g.g.g.g.g.v.N.N.N.N.N.J.U.U.U.U.J.N.N.N.N.N.N.N.N.N.m.v.g.g.g.m.N.N.N.Z x x x x x x x x f q q 7 , , $ $ % % z M Z Y ! ~ Y T } } ) ) ) | o.o.X.>.>.>.>.>.>.>.>.>.>.>.>.>.X.X.X.| | | | X.X.X.X.X.X.X.o.X.o.o.X.X.>.>.>.>.>.>.>.>.>.>.>.>.>.>.>.>.>.>.>.>.>.>.>.:.X.X.X.X.X.X.X.X.X.X.) ~ ( ( ( X.>.Y z 9 9 $ $ $ $ $ $ $ 3 n U Y R U n n n s s U Y } } } } } } ( T T T T Y U U U S S S S S S S S S S S M M M M M M M S S S S S S S S S M M M M M b b b b n M M n b b b b b b b b n M M M M M M M M P U U U U U U U U U U U U U Q } ..o.#.4 > > > > > n U U U U U U U U U U U U U S S S S S S S S S S S S S S S U U U U U U U U U U U U U ",
"U U U U U U U U U S Z Z Z Z Z Z Z Z Z Z S Z Z Z Z Y ........U $ $ $ $ $ $ s M Y | } } } } | | | } } } } } } | X.X.X.X.>.>.>.#.#.>.>.X.X.X.X...} } ( Q Q Y Y Y Y Y Y Y U U U U U U U U U U U U U U U U U U U U U U U Y Y Y Y Y Y Y Y Y ( Q Q ( } } } } } } } } } } } } } } } } } } } } } } } ( Y Y Y Y Y T ( Q Q Q Q Q Q ( ( ( ( Q ( ( ( ( Q Q Q Q Q U = = = 9 | } } } } } ( T T T T T T T ( | | X.>.>.>.5.5.5.5.5.8.i.g.g.g.g.g.x.N.N.N.N.N.G.U.U.U.U.U.U.J.N.N.N.N.N.N.N.N.N.N.N.m.v.N.N.N.m.0.n x x x n n x x x q t 9 , , $ $ % $ M Z Z Y ! Y Y T ) ) ) ) ) } o.o.X.o.:.>.>.>.>.>.>.:.o.X.X.X.X.X.| | | | | X.o.o.X.X.X.X.o.o.X.X.X.X.:.>.>.>.>.>.>.>.>.>.>.>.>.>.>.>.>.>.>.>.>.>.>.>.o.X.X.X.X.X.X.X.X.X.| ) ( ( ( X.} Y t 9 9 $ $ $ $ $ $ $ n n M Y x.V.5.} } } } } } } } } } } } } T T Q T Y U U U U U S S S S S S S S S M M M M M M Z S S S S S S S S Z M M M M M b b b M M M M n b b b b b b b b n M M M M M M M M M U U U U U U U U U U U U U ( } } ..#.U > > > > > n U U U U U U U U U U U U U S U S S S S S S S S S S S S U U U U U U U U R U U U R U ",
"U R U U U U U R U U Z Z S Z Z Z Z Z Z Z S S Z Z Z Y } ..( ( Q $ $ $ $ $ $ z M ( | } } } } } } | } } } } } } } | X.X.X.>.>.>.>.>.>.#.X.X.X.X.X.} } ( Q Q Y Y Y Y Y Y Y U U U U U U U U U U U U U U U U U U U U U U U U U U Y Y Y Y Y Y ( ( Q ( } } } } } } } } } } } } } } } } } } } } } } } ( T Y Y Y Y Y ( ( ( Q Q ( ( ( ( Q Q Q Q ( ( ( ( ( Q Q T 9 = = = T | } } } } } } T T T T T T T } | | o.#.#.<.5.5.5.5.6.8.f.g.g.g.g.g.N.N.N.N.N.N.I.U.U.U.U.U.U.U.G.N.N.N.N.N.N.N.N.N.N.N.N.N.N.N.N.q.) Z Z Z Z Z V x x t t e 7 7 $ $ $ , M M Z Y Y Y Y ~ ) ) ) ) } } | X.X.X.X.X.X.o.o.o.o.o.X.X.X.X.X.| | | | | X.X.o.o.X.X.X.o.o.:.:.:.X.o.>.>.>.>.>.>.>.>.>.>.>.>.>.>.>.>.>.>.>.>.>.>.>.>.>.o.X.X.X.X.o.o.X.o. .) ( ( ( X.) Y e 9 9 % $ $ $ $ $ , m n n Y } V.V.5.} } } } } } } } } } } ( T T Q T Q Y U U U U S S S S S S S S S M M M M M M S S S S S S S S S M M M M M M m m M M M M M n b b b b b b b b b M M M M M M M M M M U U U U U U U U U U U U ( ( } ( *.#., > > > > m U U U U U U U U U U U U U S S S S S S S S S S S S S S U U R U U U U U R R U U U U ",
"U U U U U U U R U U U U Z Z Z Z Z Z Z S S S Z Z Z Y } ..( ( ( $ $ $ $ $ $ b M } } } } } } } } } } } } } } } } } X.X.#.>.>.>.>.>.>.#.X.X.X.X.X.} } ( Q T Y Y Y Y Y Y U U U U U U U U U U U U U U U U U U U U U U U U U U U U U U Y Y Y Q ( ( ( Q ( } } } } } } } } } } } } } } } } } } } } } ( ( T Y Y Y Y Q ( ( ( ( ( ( ( ( Q Q Q Q ( ( ( ( ( ( ( e = = = Z | | #.#.X.} } } T T T T Y Y T } | | o.#.>.3.5.5.5.5.8.8.g.g.g.g.g.c.N.N.N.N.N.J.U.U.U.U.U.U.U.U.J.N.N.N.N.N.N.N.N.N.N.N.N.N.N.N.N.q.0.Z Z Z Z Z x x x t t e 7 7 $ $ $ w M M Z Y Y Y ~ ) ) ) ) ) ) ) )  .X.X.X.X.X.o.X.o.o.o.X.X.X. .| | | | | | X.X.o.o.o.o.>.>.>.>.>.>.>.>.>.>.>.>.>.>.>.>.>.>.>.>.>.>.>.>.>.>.>.>.>.>.>.>.:.o.X.X.o.o.o.o.o.o.o.) ( ( ( X.| Y 9 9 9 , $ $ $ $ $ r n n n Y Y <.b.b.#.} } } } } } } } } } ( T T Q Q Q R R U U U U S S S S S S S M M M M M M S S S S S S S S S S M M M M M M M M M M M M M b b b b b b b b b b b n M M M M M M M M M U U U U U U U U U U U ( ( ( ( #.r.s > > > > m R U U R R U U R U U U U U S S S S S S S S S S S S S S U U U U U U U U U U U U U U ",
"U U R R U U U U U U U U U U U S U U U Z Z Z Z Z Z U ( ( ( } } , $ $ $ $ $ M M } } } } } } } } } } } } } } } | } } X.>.>.>.>.>.>.>.>.X.X.X.X.X.} } ( Q T Y Y Y Y Y U U U U U U U U U U U U U U U U U U U U U U U U U U U U U U U U Y Y Y T ( ( Q ( ( ( ( } } } } } } } } } } } } } } } } } } Q Q Q Q Q Q Q ( Q Q ( ( ( ( ( Q Q Q Q Q ( ( ( ( ( ( x = = = i X.i.v.v.v.v.X.} ( T T T T T T ( | | | >.>.>.5.5.5.5.6.8.8.g.g.g.g.c.N.N.N.N.N.G.U.U.U.U.U.U.U.U.U.I.N.N.N.N.N.N.N.N.N.N.N.N.N.N.N.N.f.q.~ Z Z Z n x x x t q e 7 7 % % $ z M M D Y Y Y ~ ) ) ) ) ) ) ) )  .X.X.X.X.o.o.X.X.o.o.o.o. .| | | | | | X.X.X.X.X.X.>.>.>.>.>.>.>.>.>.>.>.>.>.>.>.>.>.>.>.>.>.>.>.>.>.>.>.>.>.>.>.>.>.o.o.o.o.X.X.X.o.o.o.X.| ( ( ( X.| Y 9 9 9 9 $ $ $ $ $ z n n n Y Y T #.V.b.X.} } } } } } } } } ( T T T Q T Y U U R R U S S S U S S S Z M M M M S S S S S S S S S S S M M M M M M M M M n n n b b b b b b b b b b b b b b M M M M M M M M H U U U U U U U U U R ( ( ( ..+.r.z > > > > m U U U U U U U U U U U U S S S S S S S S S S S S S S S U U U U U U U U U U U U U U ",
"U U U U U U U U U U U U U U U U R R R R U Z Z Z Z U ( ( ( ( ..s $ $ $ $ $ M P } } } } } } } } } } } } | } } | } } #.>.>.>.>.>.>.>.>.X.X.X.X.X...} } Q Q T Y Y Y Y U U U U U U U U U U U U U U U U U U U U U U U U U U U U U U U U Y Y Y Y Y Q ( ( ( Q Q ( Q ( } } } } } } } } } } } } } } } Q Q Q Q Q Q ( ( ( Q ( ( ( ( ( ( Q Q Q Q ( ( ( ( ( S = = = e y.b.v.v.v.v.v.#.( T T T T T T T } | | X.:.>.>.5.5.5.5.8.8.8.g.g.g.x.N.N.N.N.N.N.U.U.U.U.U.U.U.U.U.U.U.N.N.N.N.N.N.N.N.N.N.N.N.N.N.N.N.c.q.>.Z x x x x x x t q w 7 , $ $ $ Z M M Y Y Y Y ~ ) ) ) ) ) ) ) ) | X.X.X.X.o.o.X.X.X.X.o.o. .| | | | X.X.X.X.X.X.X.X.>.>.>.>.>.>.>.>.>.>.>.>.>.>.>.>.>.>.>.>.>.>.>.>.>.>.>.>.>.>.>.>.>.:.o.X.X.X.X.X.X.o.o.X.X.| ) ( X.X.S 9 9 9 9 * $ $ $ $ z n n M Y Y T } <.V.v.X.} } } } } } } } } T T T T T Y U U U R U Y U U U U S S S Z M M Z S S S S S S S S S S S Z M M M M M M M M b b b b b b b b b b b b b b b b b M M M M M M M M M U U U U U U U U U U U U U U ..r.z > > > > z U U U U U U U U U U U U S S S S S S S S S S S S S S S U U U U U U U U U U U U U R ",
"U U U U U U U U R U U U U U U U U U R U U Z Z Z Z U ..( ......b $ $ $ $ $ M Y } | | } } } } } } } | | | } } } } #.>.>.>.#.#.#.>.>.>.X.X.X.X.X.X.} } Q Q Q Y Y Y U U U U U U U U U U U U U U U U U U U U U U U U U U U U U U U U U U Y Y Y Y Y Q ( ( ( Q ( ( ( ( ( ( } } } } } } } } } } } } Q ( Q Q ( ( ( ( Q Q Q Q ( ( ( ( ( ( ( ( ( ( ( ( T = = = t h.b.b.v.b.v.v.v.| T Y T T T T Y T } | | o.:.:.>.5.5.5.5.8.8.i.g.g.g.m.N.N.N.N.N.J.U.U.U.U.U.U.U.U.U.U.U.N.N.N.N.N.N.N.N.N.N.N.N.N.N.N.N.m.q.q.Z x x x x x x t q 9 , , $ $ , Z Z Z Y Y Y Y ~ ) ) ) ) ) ) } ) ) )  .X.X.X.X.X.X.X.X.o.X. .| | | X.o.X.X.X.X.X.X.o.>.>.>.>.>.>.>.>.>.>.>.>.>.>.>.>.>.>.>.>.>.>.>.>.>.>.>.>.>.>.>.>.>.>.X.X.X.X.X.X.X.o.o.X.X.X.X.| X.X.Z 9 9 9 9 , # $ $ $ n n n M Y Y ( } } y.V.i.} } } } } } } } } } T T T T Y U U U Y Y Y U U U U U S S S S S S S S S S S S S S S S S S M M M M M M M n b b b b b b b b b b b b b b b b b M M M M M M M M M M U U U U U U U U U U U U U Q #.m > > > > z U U U U U U R U U U U U S S S S S S S S S S S S S S S S U U U U U U U U U U U U R ",
"U U U U U U U U R R U U U U U U Q Q n i i f x Z Z U ..........b $ $ $ $ $ M Q | | } } } } } } } } | | | } } | #.>.>.>.>.#.#.#.#.>.#.X.X.X.X.X.X.} } } Q Q T Y Y U U U U U U U U U U U U U U U U U U U U U U U U U U U U U U U U U U U Y Y Y Y Y Y T Q Q ( ( ( ( ( ( ( } } } ( } } } } } } } ( Q ( ( ( ( ( ( Q ( } } } } } ( ( ( } } } ( ( ( 9 = = t v.v.b.b.b.b.v.v.f.T Y Y T T T Y Y T } | | o.>.>.3.5.5.5.6.8.8.f.g.g.v.N.N.N.N.N.N.U.U.U.U.U.U.U.U.U.U.U.U.N.N.N.N.N.N.N.N.N.G.N.N.N.N.N.N.N.f.q.Y x x x x x x q q 9 , , $ $ t Z Z Y ! ! Y Y ~ ) ) } ) ) ) } ) ) ) )  .X.X.X.X.X.X.X.X.X.X.| | | o.o.X.X.X.X.X.X.>.>.>.>.>.>.>.>.>.>.>.>.>.>.>.>.>.>.>.>.>.>.>.>.>.>.>.>.>.>.>.>.>.>.>.o.X.X.X.X.X.X.o.o.X.X.X.X.X.X.X.Z 9 9 7 9 , # $ $ % n n n U Y Y ( } } } i.V.i.} } } } } } } } } ( T T T T U U U U Y Y U U U U U U S S S S S S S S S S S S S S S S S S M M M M M M n b b b b b b b b b b b b b b b b n M M M M M M M M M M U U U U U U U U U U U U U Q #.m > > > > k U R R U U U R U U U U U S S S S S S S S S S S S S S S S S U U U U U U U R U U U U ",
"U U U U U U U U U U U R U U Y #.<.<.<.Q z t t t f x ( } } } ( b $ $ $ $ > M ( } } } } } } } } } } } } } } } #.#.#.#.>.>.>.>.#.#.>.#.X.X.X.X.X.X.X.} } ( Q Q Y Y U U U U U U U U U U U U U U U U U U U U U U U U U U U U U U U U U U U Y Y Y Y Y Y Y T Q ( ( ( ( ( Q ( ( ( ( ( ( } } } } } } } ( ( ( } } } } } } } } } } } } } } } } } } ( t = = 0 i.v.v.v.v.b.b.v.v.T T T T T T T T T ( } | | >.>.>.5.5.5.5.7.8.8.f.g.g.N.N.N.N.N.N.G.U.U.U.U.U.U.U.U.U.U.U.J.N.N.N.N.N.N.N.N.N.N.N.N.N.N.N.N.N.c.q.~ x x x x x f q q , 7 , $ $ n M Y T T T ! ! ~ ) ) ) ) ) ) } ) ) ) ) )  .X.X.o.X.o.X.X.o.X.| | | X.X.X.X.X.X.o.>.>.>.>.>.>.>.>.>.>.>.>.>.>.>.>.>.>.>.>.>.>.>.>.>.>.>.>.>.>.>.>.>.>.>.>.>.o.X.X.o.X.X.X.X.X.X.X.X.X.X.X.n 9 9 9 9 7 $ # $ , n n n U Y Y ( } } } } x.m.i.} } } } } } } } } Q T T T Y U U U U U U U U U Y Y U S S S S S S S S S S S S S S S Z M M M M M M M b b b b b b b b b b b b b b b b b n M M M M M M M M M M P U U U U U U U U U U U U Q #.m > > > > k U U R U U U U R U U U U S S S S S S S S S S S S S S S S S S U U U U U U U U U U U ",
"U U U U U U U U U U U R U U U U ..#.<.<.e.] z t t t i U ..} Q b $ $ $ $ , M } } } } } } X.o.o.} } } } } X.#.#.#.#.>.>.>.>.#.#.#.>.X.X.X.X.X.X.X.X.} } } Q Q T Y Y U U U U U U U U U U U U U Y Y U U U U U U U U U U U U U U U U U U U U Y Y Y Y Y Y Y Q ( ( ( ( Q ( ( ( } } } } } } } } } } } } } } } } } } } } } } } } } } } } } } } } n = = = #.v.v.v.v.v.b.b.v.} T T T T T T T T T ( } | X.>.>.>.5.5.5.5.8.8.8.g.g.x.N.N.N.N.N.N.G.U.U.U.U.U.U.U.U.U.U.U.G.N.N.N.N.N.N.N.N.N.N.N.N.N.N.N.N.G.m.4.~ V x x x x t q e , , , $ > S Y T T T T ! ~ ) ) ) ) ) ) ) } ) ) ) ) ) | X.X.X.X.X.o.X.X.X.X.X.X.X.X.X.X.X.X.:.>.>.>.>.>.>.>.>.>.>.>.>.>.>.>.>.>.>.>.>.>.>.>.>.>.>.>.>.>.>.>.>.>.>.>.>.>.X.X.X.X.X.X.X.X.X.X.X.X.X.X.X.n 9 9 9 9 7 # # # r n n n Y Y Y T } } } } y.b.m.| } } } } } } } } } T T T Y U U U U U U U U U Y Y Y U U S S S S S S S S S S S S M M M M M M M M n b b b b b b b b b b b b b b b b b b M M M M M M M M M M M U U U U U U U U U U U U Q *.m 4 > > > s U R R U U U U U U U U R R U S S S S S S S S S S S S S S S S S U U U U U R U U U U ",
"U U U U U R U U U U R R U U U U R R ..<.e.e.<.Q f t t z <.<.<.b $ $ $ $ % M } } | X.X.#.>.>.#.} } } } X.>.>.>.>.#.#.>.>.>.>.>.>.>.X.X.X.X.X.X.X.X.X.} } ( Q Q Y Y U U U U U U U U U U U U Y Y Y Y U U U U U U U U U U U U U U U U U U U U Y Y Y Y Y Y Y ( ( ( ( Q Q Q } } } } } } } } } } } } } } } } } } } } } } } } } } } } } } } } M = = = T 5.v.v.v.v.v.v.v.X.T T T T T T T T T ( ( } | o.>.:.>.5.5.5.5.8.8.8.g.g.v.N.N.N.N.N.N.J.U.U.U.U.U.U.U.U.U.U.J.N.N.N.N.N.N.N.G.J.E.E.E.U.U.J.G.N.G.f.{ D Z n x x x q q 9 , 7 , e Y ! ! ! ! Y Y ~ ) ) ) ) ) ) ) ) ) ) ) ) ) ) )  .X.X.X.o.o.X.X.X.X.X.X.X.X.X.X.X.o.>.>.>.>.>.>.>.>.>.>.>.>.>.>.>.>.>.>.>.>.>.>.>.>.>.>.>.>.>.>.>.>.>.>.>.>.>.>.X.X.o.o.o.X.o.o.X.X.o.o.o.o.X.T 9 9 9 9 9 $ $ $ z n n M Y Y Y T } } } | o.i.V.#.#.X.} } } } } } } Q Y Y T Y Y Y U U U U U U Y Y U U U U S S S S S S S S S S M M M M M M M M M n b b b b b b b b b b b b b b b b b b n M M M M M M M M M M U U U U U U U U U U U U Q r.m 4 > > > s U U U U U U U U U U U U U U U S S S S S S S S S S S S S S S S S U U U U R U U R U ",
"U U U W Q Q Q Y R R R U U U U U R R R R ..<.<.<.Z t t M <.<.<.m $ $ $ $ $ H } X.>.>.>.>.>.>.#.} } } o.>.>.>.>.>.>.#.>.>.>.>.>.>.#.X.X.X.X.X.X.X.X.X.} } } Q Q T Y Y U U U U U U U U U U Y Y Y Y Y U U U U U U U U U U U U U U U U U U U U R Y Y Y Y Y Y Y ( ( Q Q Q Q } } } } } } } } } } } | o.| } } } } } } } } } } } | | |  . . .o.9 = = T 5.f.v.v.v.v.v.v.>.( T T T Y T T T Y T ( ( | | :.:.:.>.5.5.5.6.8.8.8.g.g.m.N.N.N.N.N.J.U.U.U.U.U.U.U.U.U.U.J.N.N.N.N.N.N.N.G.U.E.E.E.E.E.E.E.E.U.m.| { ! Z Z x x i q q 7 , 7 Z ! ! ! ! ! ! Y ~ ) ) ) ) ) ) ) ) ) ) ) ) ) ) ) ) | X.X.X.o.X.X.X.X.o.:.o.o.X.X.X.X.>.>.>.>.>.>.>.>.>.>.>.>.>.>.>.>.>.>.>.>.>.>.>.>.>.>.>.>.>.>.>.>.>.>.>.>.>.>.>.X.X.X.X.o.o.o.o.o.o.o.o.o.o.X.} f 9 9 9 , $ $ $ n n n U Y Y Y T } } } X.o.o.x.#.#.#.X.} } } } } } ( T Y T Y Y Y U U Y Y U U U U R R U U U S S S S S S S S S M M M M M M M M n b b b b b b b b b b b b b b b b b b b n M M M M M M M M M M U U U U U U U U U U U Y Q 5.m 4 > > > s R U U U U U U U U U U U U U U U S S S S S S S S S S S S S S S S S U U U U U U U U ",
"U U Y Q Q Q Q Q Y Y Y R U U U U R R U U U R ( #.R n i M <.<.<.P $ $ $ $ $ M } #.>.>.>.>.>.>.>.} | #.>.>.>.>.>.>.>.>.>.>.>.>.>.>.X.X.X.X.X.X.X.X.X.X.} } } ( Q Q Y Y Y U U U U U U U U U Y Y Y Y Y Y U U U U U U U U U U U U U U U U U U U U Y Y Y Y Y Y Y Y Q Q ( ( } } } } } } } } } } } }  .o. .} } } } } } } } } | o.o.o.o.o.o.o.Z = = T 5.6.v.v.v.v.v.v.y.} ( T T T Y Y Y Y T ( ( } | | >.>.:.>.5.5.5.6.8.8.8.g.g.N.N.N.N.G.U.U.U.U.U.U.U.U.U.U.U.U.U.N.N.N.N.N.N.J.E.E.E.E.E.E.E.E.E.E.E.0.{ { D Z Z x x q q e 7 7 e Y Y Y ! ! ! ! ! ! ! ~ ~ ) ) ) ) ) ) ) ) } ) ) ) ) | o.X.X.X.X.X.X.X.>.>.>.>.>.:.o.o.>.>.>.>.>.>.>.>.>.>.>.>.>.>.>.>.>.>.>.>.>.>.>.>.>.>.>.>.>.>.>.>.>.>.>.>.>.>.>.X.X.X.X.o.o.o.X.X.X.X.X.X.o.X.1.#.9 9 9 , $ $ > n m S Y Y Y Y T } } } | >.:.>.#.#.#.} } } } } } } } Q Q Q Y R Y Y U Y Y Y U U U U R U U Y S S S S S S S S Z M M M M M M M n b b b b b b b b b b b b b b b b b b b b b M M M M M M M M M M U U U U U U U U U U U Q Q 5.c 4 > > > s R U U U U U U U R U R U U R R U S S S S S S S S S S S S S S S S S S U U R U U U U ",
"U W Q Q Q Q Q Q Y Y Q Q R U U U R R U U U U U U R R R R <.<.<.E $ $ $ $ $ z } >.>.>.>.>.>.>.>.#.>.>.>.>.>.>.>.>.>.>.>.>.>.>.>.#.X.X.X.X.X.X.X.X.X...} } } } Q Q T Y Y U U U U U U U U Y Y Y Y Y Y Y Y U U U U U U U U U U U U U U U U U U U U Y Y Y Y Y Y Y Q Q ( ( } } } } } } } } } } } | o.o.o.} } } } | | | | o.o.o.o.o.o.o.o.} = = T 5.<.x.v.v.v.v.v.f.} } ( ( T T Y Y T T } ( ( | | o.>.>.>.<.5.5.5.7.8.8.8.g.g.N.N.N.J.U.U.U.U.U.U.U.U.U.U.U.U.U.U.N.N.N.N.N.J.E.E.E.E.E.E.E.E.E.E.E.J.{ { ^ Z Z Z n i q q 9 7 7 Z Y Y Y Y Y ! ! Y ! ! ! T Y ~ ) ) ) } } ) } ) ) |  .X.X.X.X.o.X.X.o.o.>.>.>.>.>.>.>.>.>.>.>.>.>.>.>.>.>.>.>.>.>.>.>.>.>.>.>.>.>.>.>.>.>.>.>.>.>.>.>.>.>.>.>.>.>.>.>.X.X.X.X.o.o.o.X.X.X.X.X.X.X.X.y.y.t 9 9 , $ $ w n n Y Y Y Y Y ( } } } | >.o.#.#.o.o.} } } } } } } } Q Q Q Q Y Y U U Y Y U U U U U U U U Y U S S S S S S S Z M M M M M M b b b b b b b b b b b b b b b b b b b b b b b M M M M M M M M M M U U U U U U U U U U R Q Q <.m 4 > > > s U U U R U U U U R U U U U U U U U S S S S S S S S S S S S S S S S S U U U U U U U ",
"U Q Q Q Q Q Q Q Q Q Q Q Q W U U R U U U U U U U U U R R <.<.<...$ $ $ $ $ > } >.>.>.>.>.#.#.#.>.>.>.>.>.>.>.#.#.>.>.>.>.>.>.>.o.X.X.X.X.X.X.X.X.X.| } } } } Q Q Q Y Y Y U U U U U U U Y Y Y Y Y Y Y Y Y U U U U U U U U U U U U U U U U U U U U Y Y Y Y Y Y Q ( ( ( } } } } } } } } } } } | o.o.o.| }  .o.o.o.o.o.o.o.o.o.o.o.o.o.w = Y <.<.i.v.v.v.v.v.v.X.} } ( ( T T T T ( ( ( ( } | | #.>.>.>.5.5.5.5.7.8.8.i.g.g.N.N.G.U.U.U.U.U.U.U.U.U.U.U.U.U.U.U.N.N.N.N.J.E.E.E.E.E.E.E.E.E.E.E.E.,.{ ~ A Z Z Z x t q e , 7 7 Y ! Y Y T Y T T ! Y ! ! T Y Y ) ) ) ) ) ) ) ) |  .X.X.X.o.o.o.o.o.o.o.>.>.>.>.>.>.>.>.>.>.>.>.>.>.>.>.>.>.>.>.>.>.>.>.>.>.>.>.>.>.>.>.>.>.>.>.>.>.>.>.>.>.>.>.>.>.>.X.X.X.X.o.o.X.X.X.X.X.X.X.X.X.y.y.Y 9 9 > $ $ t m M Y Y Y Y Y ( } } } | o.o.#.o.o.o.X.} } } } } } } ( T Q Q Q Y U U U U U U U U U U U U U Y S S S S S S S S M M M M M n b b b b b b b b b b b b b b b b b b b b b b b n M M M M M M M M M U U U U U U U U U U Q Q Q <.m 4 > > > a U U U U U U U U U U U U U U U U U U S S S S S S U U U U U U U U U U U U U U U U U ",
"R Q Q Q Y Q Q Q Q Q Q Q Q Q W U U U U U U U U U U U R R #.<.<.<.$ $ $ $ $ $ T <.<.>.>.>.#.#.#.#.>.>.>.>.>.>.#.#.#.>.>.>.>.>.#.X.X.X.X.X.X.X.X.X.X.} } } } } } Q Q T Y Y Y U U U U U Y Y Y Y Y Y Y Y Y Y U U U U U U U U U U U U U U U U U U U U R Y Y Y Y Y T ( Q ( } } } } } } } } } } } o.o.o.o.o.o.o.o.o.o.o.o.o.o.o.o.o.o.o.Z = t <.<.6.v.v.v.v.v.v.#.( } } ( ( ( ( ( ( ( ( } | | | | #.>.>.>.5.5.5.5.7.8.8.i.g.g.N.N.J.U.U.U.U.U.U.U.U.U.U.U.U.U.U.U.N.N.N.G.E.E.E.E.E.E.E.E.E.E.E.E.U.~ Z Z Z Z B x x q q 9 , 7 7 ! Y Y Y Y Y Y T T T ! ! Y Y ~ ) ) ) ) ) ) ) | X.X.X.X.X.X.o.o.X.o.o.X.>.>.>.>.>.>.>.>.>.>.o.o.o.>.>.>.>.>.>.>.>.>.>.>.>.>.>.>.>.>.>.>.>.>.>.>.>.>.>.>.>.>.>.>.>.>.>.o.X.X.X.X.X.X.X.X.X.X.X.X.X.X.y.y.<.9 9 % $ $ z n Z Y Y Y Y Y } ( ( } | o.o.o.o.o.o.#.} } } } } } } ( Q Q Q Q Y U U U U U Y T T Y U U U U U U S S S S S S S S Z M M M M b b b b b b b b b b b b b b b b b b b b b b b n M M M M M M M M M U U U U U U U U U R Q Q Q <.m 4 > > > r U U U U U U U U U U U U U U U U U U U S S S U U U U U U U U U U U U U U U U U U U ",
"Y Q Q Q Q Q Q Q Q Q Q Q Q Q Q W U U U R U U U U U U U U #.<.<.<.$ $ $ $ $ $ m r.r.5.<.>.>.>.#.#.>.>.#.#.#.>.>.>.#.>.>.>.#.#.X.X.X.X.X.X.X.X.X.X.X.} } } } } } Q Q Q Y Y Y U U U U U Y Y Y Y Y Y Y Y Y Y Y U U U U U U U U U U U U U U U U U U U U Y Y Y Y Y Y ( Q Q } } } } } } } } } } } >.f.>.o.o.o.o.o.o.o.o.o.o.o.o.o.o.o. .9 = } <.<.x.v.v.v.v.v.6.| | | } } } ( ( } } } } | | | | o.#.>.>.:.5.5.5.5.7.8.8.i.g.g.N.N.J.U.U.U.U.U.U.U.U.U.U.U.U.U.U.U.N.N.N.J.E.E.E.E.E.E.E.E.E.E.E.E.:.Z Z V x x x x i q 9 , , , , Y Y Y Y ! ! ! ! Y T Y ! T ~ ) ) ) } ) ) ) ) } X.X.X.X.o.X.o.X.o.o.o.X.o.:.>.>.>.>.>.>.>.o.X.X.>.>.>.>.>.>.>.>.>.>.>.>.>.>.>.>.>.>.>.>.>.>.>.>.>.>.>.>.>.>.>.>.>.>.>.:.X.X.X.X.X.X.X.X.X.X.X.X.X.X.y.y.y.9 9 $ $ $ n n U Y Y Y Y T ( ( ( } X.#.#.#.#.#.#.#.o.| } } } } } T T Y Q Q Q Y R U U U T T T Q U Y U U U U U S S S S S S S S M M M M M n b b b b b b b b b b b b b b b b b b b b b M M M M M M M M M M U U U U U U U U U Q Q Q Q 5.m 4 > > > , U U U U U U U U U U U U U U U U U U U U U U U U U U U U U U U U U U U U U U R U U ",
"Q Q Q Q Q Q Q Q Q Q Q Q Q Q Q Y W U U U U U U U U U U U +.<.<.<.$ $ $ $ $ $ , r.r.r.r.<.>.>.#.#.>.>.#.#.>.>.>.>.>.>.>.#.#.X.X.X.X.X.X.X.X.X.X.X.X.} } } } } } ( Q Q Q Y Y U U U U Y Y Y T Q Q T Y Y Y Y Y U U U U U U U U U U U U U U U U U U U U U Y Y Y Y Y ( Q Q ( } } } } } } } } } | o.x.v.i.:.o.o.o.o.o.o.o.o.o.o.o.o.o.S = = <.<.6.b.v.v.v.v.y.| | | | | | | | } } } | | | | | | o.:.>.>.>.5.5.5.5.6.8.8.i.g.g.m.N.G.U.U.U.U.U.U.U.U.U.U.U.U.U.U.U.N.N.G.E.E.E.E.E.E.E.E.E.E.E.E.c.Z Z x x x x x x t 9 $ $ $ $ 9 Y Y Y Y ! ! ! ! T T Y Y ( ) ) ) ) } ) ) ) ) ) | X.X.o.o.X.X.X.o.o.o.X.X.X.X.X.o.>.>.>.>.:.X.o.>.>.>.>.>.>.>.>.>.>.>.>.>.>.>.>.>.>.>.>.>.>.>.>.>.>.>.>.>.>.>.>.>.>.>.>.X.X.X.o.X.o.o.X.X.X.X.X.X.X.5.y.y.s , # $ $ n n U Y Y Y Y ( } ( ( } o.o.>.>.>.#.#.#.#.o.} } } } ( T T Y Y Q Q Y R U R U T T T Q Y U U U U U U U U U U S S S S M M M M M M n b b b b b b b b b b b b b b b b b b b b M M M M M M M M M M U U U U U U U U R Q Q Q Q 5.m 4 > > > > U U U U U U U U U U U U U U U U U U U U U U U U U U U U U U U U U U U U U U U U U ",
"Q Q Q Q Q Q Q Q Q Q Q Q Q Q Q Q Y U U U U U U U U U U U ..<.<.<.$ $ $ $ $ $ $ #.r.r.r.5.>.>.#.>.>.>.>.#.>.>.>.>.>.>.>.>.X.X.X.X.X.X.X.X.X.X.X.X.X.} } } } } } ( Q Q Q Y Y U U U U Y Y Y Q Q Q Q Y Y Y Y Y U U U U U U U U U U U U U U U U U U U U U U Y Y Y Y ( ( ( Q } } } } } } } } } }  .5.v.v.v.6.:.o.o.o.o.o.o.o.o.o.o.o.t = t <.<.i.b.b.v.h.5.| | | | | | | | | | | | | | | | | | o.:.:.:.>.5.5.5.5.6.8.8.8.g.g.m.N.N.I.U.U.U.U.U.U.U.U.U.U.U.U.U.I.G.N.J.E.E.E.E.E.E.E.E.E.E.E.U.~ Z Z x x x x x x t % $ $ $ $ e ! ! ! ! ! ! Y Y T T T ~ } } ) ) ) ) ) ) } ) ) )  .X.X.X.X.X.X.X.X.X.X.X.X.o.X.X.o.>.>.>.>.X.>.>.>.>.>.>.>.>.>.>.>.>.>.>.>.>.>.>.>.>.>.>.>.>.>.>.>.>.>.>.>.>.>.>.>.>.>.X.o.o.o.o.o.o.o.X.o.o.X.X.X.<.y.y.z * # # $ n n Y Y Y Y Y ( } } } } o.>.7.y.y.7.>.o.o.o.| } } } T T Y Y Y T T Q Y R R U T T T T Y U U U U U U U U U U S S S M M M M M M M M b b b b b b b b b b b b b b b b b b b n M M M M M M M M M M U U U U U U U U Q Q Q Q Q 5.m 4 > > > > U U U R U U U U U R R U U U U R U U U R U U U U U U U U U U U R U U U U U U U R W ",
"Q Q Q Q Q Q Q Q Q Q Q Q Q Q Q Q Q U R U U U U U U U U U ..<.<.<.$ $ $ $ $ $ $ U r.r.6.6.5.>.#.#.>.>.>.#.>.>.>.>.>.>.>.X.X.X.X.X.X.X.X.X.X.X.X.X.X.} } } } } } Q Q Q Q Y Y U U U Y Y Y Q Q Q Q Q T Y Y Y R U U U U U U U U U U U U U U U U U U U U U U Y Y Y Y ( ( ( ( ( } } } } } } } } } } | i.v.v.v.v.5.o.o.o.o.o.o.o.:.5.>.9 = w <.<.f.b.v.h.<.#.| | | | | | | | | | | | | | | | | | o.:.:.:.:.5.5.5.5.5.8.8.8.g.g.v.N.N.J.U.U.U.U.U.U.U.U.U.U.U.U.U.J.N.N.U.E.E.E.E.E.E.E.E.E.E.E.G.Z Z Z x x x x x x w $ $ $ $ % e ! ! ! ! ! ! ! Y T T T ~ ) ) ) ) ) ) ) ) ) ) ) ) } | X.X.X.X.X.X.X.X.X.X.o.o.X.X.X.>.>.>.>.X.X.o.>.>.>.>.>.>.>.>.>.>.>.>.>.>.>.>.>.>.>.>.>.>.>.>.>.>.>.>.>.>.>.>.>.:.o.o.X.o.o.o.o.o.o.X.o.o.o.o.X.#.y.y.z $ $ $ $ n M Y Y Y Y Y } } } } X.o.5.7.y.y.y.6.o.o.o.} } } T T T Y Y Y T T Q Y U U U Y T T Q Q Y U U U Y Y U U U U U S S M M M M M M M n b b b b b b b b b b b b b b b b b b b n M M M M M M M M M M U U U U U U U R Q Q Q Q ..5.m 4 > > > > U U U R U U U R R U U U U U U U U U U R U U U U R U U U U U U U R U U U R Y Q Q Q ",
"Q Q Y Q Q Q Q Q Q Q Q Q Q Q Q Q Q R U U U U U U R U R R ..<.<.<.$ $ $ $ $ $ $ w 5.r.r.r.r.#.( ( X.>.>.#.>.#.#.>.>.>.X.X.X.X.X.X.X.X.X.X.X.X.X.X.X.| } } } } ( Q Q Q Y Y Y U U Y Y Y T T Q Q Q Q T Y Y Y U U U U U U U U U U U U U U U U U U U U U U U Y Y Y Y ( ( ( ( ( } } } } } } } } } } } } >.f.v.v.v.x.5.o.o.o.o.:.6.6.6.>.0 j v | 5.f.y.<.<.X.| | | | | | | | | | | | | | | | | | o.#.:.:.>.5.5.5.5.5.6.8.8.g.g.x.N.N.J.U.U.U.U.U.U.U.U.U.U.U.U.U.G.N.G.E.E.E.E.E.E.E.E.E.E.E.U.7.Z Z Z n x x x x x 7 $ $ # # * t ! ! ! ! T T T Y ! ! ! Y ( ) ) ) ) ) ) ) ) ) ) ) ) ) } |  .X.X.X.X.X.o.o.o.X.X.X.X.o.>.>.>.o.X.X.X.>.>.>.>.>.>.>.>.>.>.>.>.>.>.>.>.>.>.>.>.>.>.>.>.>.>.>.>.>.>.X.X.X.X.o.X.X.X.o.o.o.X.X.X.X.X.o.o.o.y.y.z $ $ $ $ n M Y Y Y Y T } } } } o.o.6.y.y.y.y.6.o.o.X.} } } T T Y Y T T T T T T Y U U Y T T T T T T Y Y Y Y Y U U U U S S S Z M M M M M n b b b b b b b b b b b b b b b b b b b n M M M M M M M M M P U U E U U U U Q Q Q Q Q ..@.m 4 > % > > U U U U U U U U U U U U U U U U U U U U U U U U U U U U U U U U U R W Q Q Q Q Q Q ",
"Q Q Q Q Q Q Q Q Q Q Q Q Y Q Q Q Q Y U U U U U U U R R R ..<.<.Q $ $ $ $ $ $ $ $ k r.r.r.r.o.( ( ( #.>.>.#.#.>.>.#.X.X.X.X.X.X.X.X.X.X.X.X.X.X.X.X...} } } } Q Q T Y Y Y Y U Y Y Y Q T Q Q Q ( Q T Y Y Y U U U U U U U U U U U U U U U U U U U U U U U Y Y Y Y ( ( ( Q Q ( } } } } } } } } } } } } o.>.i.v.v.b.f.6.o.o.6.6.6.6.6.D x x j Y >.<.5.#.| | | | | | | | | | | | | | | | | | | X.#.>.>.>.5.5.5.5.5.5.8.8.g.g.g.N.N.J.U.U.U.U.U.U.U.U.U.U.U.U.U.G.N.J.E.E.E.E.E.E.E.E.E.E.E.G. .Z Z Z Z x x x x x 7 $ $ # # * z ! ! T T T T T T ! ! ! Y Y T ~ ) ) ) ) ) ) ) ) ) ) ) ) ) } } } | | X.X.o.o.X.X.X.X.X.X.o.o.X.X.X.o.X.>.>.>.>.>.>.>.>.>.>.>.>.>.>.>.>.>.>.>.>.>.>.>.>.>.>.>.>.X.X.X.X.o.o.X.X.X. .X.X.X.X.X.X.X.X.o.o.6.y.z $ $ $ $ n U Y Y Y Y ( } } } } o.>.y.y.y.y.y.7.#.#.| } } } } T Q T T T T T Q T T Y U Y T T T Y T T T T Y Y Y U U U U U S S S S S S M M n b b b b b b b b b b b b b b b b b b b M M M M M M M M M P U U R Q Q R U Q Q Q Q Q Q ....m , > @ @ > U U U U U U U U U U U U U U U U R U U U U U U U U R U U U U U R Q Q Q Q Q Q Q Q Q ",
"Q Q Q Q Q Q Q Q Q Q Q Q Q Q Q Q Q Q U U U U U U U U R R ..<.<.Q $ $ $ $ $ $ $ $ 4 U r.r.r.5.( ( ( X.#.>.>.>.>.#.X.X.X.X.X.X.X.X.X.X.X.X.X.X.X.X.X.X.} } } } Q Q T Y Y Y Y U Y Y Y Q Q Q Q ( ( ( Y Y Y U U U U U U U U U U U U U U U U U U U U U U U U Y Y Y Y ( Q Q Q Q ( ( } } } } } } } } } } } o.o.o.>.6.x.v.W.E.N.8.6.6.6.6.6.D x x x v | <.| | | | | | | | | | | | | | | | | | | | | #.#.>.>.5.5.5.5.5.5.6.8.f.g.g.m.N.G.U.U.U.U.U.U.U.U.U.U.U.U.U.N.N.U.E.E.E.E.E.E.E.E.E.E.J.G.D Z Z Z Z V x x x x i $ $ # # , x T T T T T T ! ! ! ! Y Y Y Y Y Y Y ~ ~ ~ ~ Y Y ) ) ) } ) ) } ) ) ) ) | | | | | |  .X.o.o.o.o.X.X.X.X.o.>.>.>.>.>.>.>.>.>.>.>.>.>.>.>.>.>.>.>.>.>.>.>.>.>.>.>.X.X.X.o.o.o.X.X.| | | X.X.X.X.X.X.X.o.X.5.y.z $ $ $ $ z Y Y Y Y Y ( } } } } o.6.y.y.y.y.y.y.#.o.} } } } } ( T Q T T T T Y Q T T Q Q T T T Y Q Q T T T Y U U U U U U S S S S S S Z M b b b b b b b b b b b b b b b b b b b n M M M M M M M M U U U U Y Q Q Q Q Q Q Q Q Q Q @...m > > @ @ $ U U R U U U U U U U U U U U U R R U U U U U U U U U U U U Y Q Q Q Q Q Q Q Q Q Q Q ",
"Q Q Q Q Q Q Q Q Q Q Q Q Q Q Q Q Q Q R U U U U U U U R R ..<.<.U $ $ $ $ $ $ $ $ , w ..r.r.r.+.( ( } X.#.>.>.>.X.X.X.X.X.X.X.X.X.X.X.X.X.X.X.X.X.X.X.| } } } ( Q Q Y Y Y Y U Y Y Y Y Q Q Q ( ( T Y Y Y U U U U U U U U U U U U U U U U U U U U U U U U Y Y Y Y Q Q Q Q Q ( ( ( } } } } } } } } } } o.o.o.o.o.o.6.W.W.W.W.W.I.N.N.g.g. .S x j j V } | | | | | | | | | | | | | | | | | | | | X.#.#.>.5.5.5.5.5.5.5.6.i.g.g.c.N.G.U.U.U.U.U.U.U.U.U.U.U.U.J.N.N.U.E.E.E.E.E.E.E.E.E.U.G.f.Z Z Z Z Z Z Z x x x t $ $ $ $ , x T T T T T T ! ! ! ! Y Y Y Y Y Y Y Y Y Y Y Y Y ~ ) ) ) ) ) ) ) ) ) ) ) ) ) ) ) ) ) ) ) | o.o.X.X.X.X.X.>.>.>.>.>.>.>.>.>.>.>.>.>.>.>.>.>.>.>.>.>.>.>.>.>.>.o.X.X.X.X.o.o.X.| } } } X.X.X.X.X.X.X.o.o.>.y.z $ $ $ $ , Y Y Y Y Y } } } } | #.6.y.y.y.y.y.y.#.X.} } } } } } Q Q T T T Q T Q Q Q Q Q Q T T Q T Q Q T T Y U U U U U U S S S S S S M M b b b b b b b b b b b b b b b b b b b n M M M M M H U U U U U U Q Q Q Q Q Q Q Q Q Q Q @...m > > @ @ @ U U R U U U R U U R U U U U U U U U U U U U U U U R Q Q Q Q Q Q Q Q Q Q Q Q Q Q Q ",
"Q Q Q Q Q Q Q Q Q Q Q Q Q Q Y Q Q Q W U U U U U U U U U ..<.<.U $ $ $ $ $ $ $ $ % w w 5.r.r.5.} ( ( X.X.#.#.#.X.X.X.X.X.X.X.X.X.X.X.X.X.X.X.X.X.X.X.X.} } } } Q Q T Y Y Y U Y Y Y Y Y Q Q Q Q T Y Y Y U U U U U U U U U U U U U U U U U U U U U U U U Y Y Y Y Q Q Q Q Q ( ( ( ( } } } } } } } } | o.o.o.o.o.o.o.5.v.E.W.W.W.W.W.W.W.W.W.5.V j x x ( | | | | | | | | | | | | | | | | | | | | o.#.:.5.5.5.5.5.5.5.6.8.g.g.g.N.N.U.U.U.U.U.U.U.U.U.U.U.U.G.N.N.E.E.E.E.E.E.E.E.E.E.G.G.:.Z Z Z Z Z Z Z Z B x t $ $ $ $ = x Y Y Y Y T T T Y Y Y ! ! ! T T T ! T T T T T ! ! ) ) ) ) ) ) ) ) ) ) ) ) ) ) ) ) ) ) ) ) X.X.X.X.X.X.o.>.>.>.>.>.>.>.>.>.>.>.>.>.>.>.>.>.>.>.>.>.>.>.>.>.>.X.o.o.X.X.X.X.| } } | } X.X.X.o.o.o.X.X.X.>.y.z $ $ $ $ $ S Y Y Y Y } } } ( | #.y.y.y.7.7.7.7.#.} } } } } } } } Q Q Q T T T Y T Y T T T Y T T Q Q Q Q Q Q Y U U U R R S S S S S Z M n b b b b b b b b b b b b b b b b b b b n M M M M M U U U U U U U Q Q Q Q Q Q Q Q Q Q Q *...m > > @ @ @ n R U U U U U U U U U U U U U U U U U U U U U R Q Q Q Q Q Q Q Q Q Q Q Q Q Q Q Q Q ",
"Q Q Q Q Q Q Q Q Q Q Q Q Q Q Q Q Q Q Q U U U U U U U U U ..<.<.U > $ $ $ $ $ $ $ $ w w z r.r.r.#.( ( } X.+.#.X.X.X.X.X.X.X.X.X.X.X.X.X.X.X.X.X.X.X.X.X...} } } ( Q Q Y Y Y U Y Y Y Y Y T Q Q Q T Y Y Y U U U U U U U U U U U U U U U U U U U U U U U U Y Y Y Y Y ( Q Q Q ( ( ( ( } } } } } } } } | o.o.o.o.o.o.o.o.o.o.5.N.W.W.W.W.W.W.W.W.E.| j x v | | | | | | | | | | | | | | | | | | | | | #.:.>.>.>.5.5.5.5.5.8.f.g.g.v.N.J.U.U.U.U.U.U.U.U.U.U.J.N.N.G.E.U.U.U.I.J.J.J.G.N.N.N.D Z Z Z Z Z Z Z Z V x 9 $ $ $ $ 7 x Y Y Y Y T T T T Y Y ! ! ! T T T ! ! T T T T ! ! ~ ) ) | | ) ) ) ) ) ) ) ) ) ) ) ) ) ) | o.X.X.X.X.o.>.>.>.>.>.>.>.>.>.>.>.>.>.>.>.>.>.>.>.>.>.>.>.>.>.>.o.o.o.X.X.X.| } } } } | } | X.X.X.o.o.X.X.X.X.y.z $ $ $ $ $ s Y Y Y Y } } } } | #.y.y.y.7.7.7.<.#.} } } } } } } } ( T Q T T T T T T T T T Y T T Q Q Q Q Q Q Y U U U U U S S Z Z M M M n b b b b b b b b b b b b b b b b b b b n M M M M M U U U U U U R Q Q Q Q Q Q Q Q Q Q Q e...m > ; @ @ @ b U U U U U U R R U U U U U U U U R R U U U U U W Q Q Q Q Q Q Q Q Q Q Q Q Q Q Q Q ",
"Q Q Q Q Q Q Q Q Q Q Q Q Q Q Q Q Y Q Q R U U U U U U U U ..<.<.U , $ $ $ $ $ $ $ $ , w w ( r.r.r.} ( ( X.X.X.X.X.X.X.X.X.X.X.X.X.X.X.X.X.X.X.X.X.X.X.X...} } } } Q Q T Y U U Y Y Y Y Y Y Q Q Q T Y Y Y U U U U U U U U U U U U U U U U U U U U U U U U U Y Y Y Y Y Y ( Q ( ( Q Q } } } } } } } } o.o.o.o.o.o.o.o.o.o.o.o.o.>.f.J.W.W.W.W.W.W.W.>.V x | | | | | | | | | | | | | | | | | | | | | X.>.>.>.>.>.>.>.5.5.6.8.f.g.x.N.G.U.U.U.U.U.U.U.U.U.G.N.N.N.N.N.N.N.N.N.N.N.N.N.N.N.v.Z Z Z Z Z Z Z Z Z V x * $ $ $ $ e x ! ! Y Y T T ! ! ! ! ! ! Y Y T T ! ! ! ! T Y Y ! Y ~ ) | o.:. .| ) ) ) ) ) ) ) ) ) ) | >.>.>.>.>.>.>.>.>.>.>.>.>.>.>.>.>.>.>.>.>.>.>.>.>.>.>.>.>.>.>.>.o.X.X.X.X.X.| } } } } | | } } | X.X.X.X.X.X.X.X.y.M $ $ $ $ $ % Y Y Y T } } } } | #.<.y.y.7.7.<.o.X.} } } } } } } } } Q T T T Q Q Q Q Q Q Q Q T T T T T T T T T U U U U U x n M M M M M b b b b b b b b b b b b b b b b b b b b n M M M M M U U U U U U R Q Q Q Q Q Q Q Q Q Q Q #.[ m > % @ @ @ w U U U U U U U R R U U U U U U R U U U U U U U U Q Q Q Q Q Q Q Q Q Q Q Q Q Q Q Q ",
"Q Q Q Q Q Q Q Q Q Q Q Q Q Q Q Q Q Q Q Q R U U U U U U U ..<.<.U , $ $ $ $ $ $ $ $ $ w w w #.r.r.o.( ( } X.X.X.X.X.X.X.X.X.X.X.X.X.X.X.X.X.X.X.X.X.X.| } } } } } } Q Q Y U U U Y Y Y Y T Q Q Q Q T Y Y Y U U U U U U U U U U U U U U U U U U U Y Y U U U Y Y Y Y Y Y T Q Q ( ( ( } } } } } } } | o.o.o.o.o.o.o.o.o.o.o.o.o.o.o.o.>.i.N.I.W.W.W.o.o.| | | | | | | | | | | | | | | | | | | | | | | o.>.>.>.>.>.>.>.5.5.7.8.i.f.m.N.G.J.U.U.U.U.L.J.N.N.N.N.N.N.N.N.N.N.N.N.N.N.N.N.N.5.Z Z Z Z Z Z Z A Z V i $ $ $ $ $ f x ! ! Y T Y ! ! ! ! ! ! ! Y Y T T ! ! ! ! Y Y Y ! Y Y ) ) | :.:.:. .| } ) ) } } } ) | :.>.>.>.>.>.>.>.>.>.>.>.>.>.>.>.>.>.>.>.>.>.>.>.>.>.>.>.>.>.>.:.X.X.X.X.X.X.| } } } } } | | } } } | X.X.X.X.X.X.} 5.} $ $ $ $ $ $ M Y Y T } } } } | #.#.>.>.>.o.o.#.X.} } } } } } } } } } T T T Q Q Q Q Q Q Q Q Q T Y Y Y Y Y T T Y Y U U x i i z M M M M b b b b b b b b b b b b b b b b b b b b n M M M M M U U U U U U Q Q Q Q Q Q Q Q Q Q Q Q #.W m > % @ @ @ , U U U U U U U U U U U U U U U U U U U U U U U U Y Q Q Q Q Q Q Q Q Q Q Q Q Q Q Q ",
"Q Q Q Q Q Q Q Q Q Q Q Q Q Q Q Q Q Q Q Q Y U U U U U U U Q <.<.U % $ $ $ $ $ $ $ $ $ % w w k r.r.<.( ( } } ....} } } X.X.X.X.X.X.X.X.X.X.X.X.X.X.} } } } } } } } } } Q T Y U U Y Y T Q Q T T Q Q Q T Y Y Y U U U U U U U U U U U U U U U Y Y Y Y Y Y U U Y Y Y Y Y Y T ( Q ( Q ( } } } } } } }  .o.o.o.o.o.o.o.o.o.o.o.o.o.o.o.o.o.o.o.o.o.o.o.o.o.| | | | | | | | | | | | | | | | | | | | | | | X.>.>.>.>.>.>.>.>.5.5.7.8.8.i.m.N.N.N.N.N.N.N.N.N.N.N.N.N.N.N.N.N.N.N.N.N.N.N.N.m.( Z Z Z Z v Z Z Z Z V , $ $ $ $ $ x x Y ! ! ! ! ! ! ! Y ! ! ! Y ! Y T T T ! ! T Y Y Y Y Y ~ ) } | :.:.:.:.:.o.| | | } } >.5.7.7.7.6.5.>.>.>.>.>.>.>.>.>.>.>.>.>.>.>.>.>.>.>.>.>.>.>.o.X.X.X.X.X. .| } } | | } } } } } } } | | | | | | } } } 5.} $ $ $ $ $ $ w Y Y T } } } } | #.o.o.o.#.#.#.#.} } } } } } } } } } } ( T T Q Q Y Y Q Q Q T Y Y T Y U U U U U U Y Y U x z i i i M M M n n n b b b b b b b b b b b b b b b b b b M M M M P U U U U U U Q Q Q Q Q Q Q Q Q Q Q Q #.W m 4 $ @ @ @ $ U U U U U U U U U U U R R U U U U R U U U U U U R Q Q Q Q Q Q Q Q Q Q Q Q Q Q Q ",
"Q Q Q Q Q Q Q Q Q Q Q Q Q Q W Q Q Q Q Q Q W U U U U U U Q <.+.U $ $ $ $ $ $ $ $ $ $ $ > w w Q r...( ( ( } } ( ( ( ( ..X.X.X.X.X.X.X.X.X.X.X.X.} } } } } } } } } } } ( Q T Y Y T Q Q Q T T T Q Q Q Q Q Y Y Y U U U U U U U U U U U R Y Y Y Y Y Y Y Y U U Y Y Y Y Y Y T ( Q Q Q Q } } } } } } } o.o.o.o.o.o.o.o.o.o.o.o.o.o.o.o.o.o.o.o.o.o.o.o.o.| | | | | | | | | | | | | | | | | | | | | | | | | o.>.>.>.>.>.>.>.>.5.5.6.8.8.i.n.N.N.N.N.N.N.N.m.g.N.N.N.N.N.N.N.N.N.N.N.N.N.N.g.) Z Z x e e e i V Z t $ $ $ $ $ * x n Y ! ! ! ! ! ! ! Y ! ! ! ! ! ! ! T T ! Y T Y Y Y Y Y Y ~ } } | :.:.:.:.:.:.:.:.:.5.7.7.7.7.7.7.7.7.5.>.>.>.>.>.>.o.o.o.o.o.o.:.:.:.:.:.o.o.X.X.X.X.X.X.X.| | } } } } | | } } } } } } | | | | } } } } } 5.} $ $ $ $ $ $ $ Y Y ( } } } } | #.o.o.o.#.#.#.X.} } } } } } } } } } } } T T Q T T Y Y Q Q Q T T T Y U U U U U U U U T ( ) Q i i z M M M M M n b b b b b b b b b b b b b b b b b M M M M U U U U U U R Q Q Q Q Q Q Q Q Q Y Q ..#.M m , # @ @ @ @ U U U U U U U U U U U U U U U U U R U U U U R U U Q Q Q Q Q Q Q Q Q Q Q Q Q Q Q ",
"Q Q Q Q Q Q Q Q Y Y Q Q Q R U U R Q Q Q Q Q Y U R U U U Y 5.o.U $ $ $ $ $ $ $ $ $ $ $ $ % w w } ( ( ( ( ( ( ( ( ( ( ( ..X.X.X.X.X.X.X.X.X.X.X.} } } } } } } } } } } } Q Q T T Q ( ( ( Q T T Q Q Q Q Q Q T Y U U U U U U U U U Y Y Y Y Y Y Y Y Y Y Y Y U Y Y Y Y Y Y T ( ( ( ( Q } } } } } } o.o.o.o.o.o.o.o.o.o.o.o.o.o.o.o.o.o.| | | | | | | | | | | | | | | | | | | | | | | | | | | | | | | | | X.>.>.>.:.o.o.>.>.>.5.5.5.7.8.8.f.v.m.m.m.v.f.>.5.N.N.N.N.N.N.N.N.N.N.N.N.N.N.m.) Z i e e w w e e 7 $ $ $ $ $ $ 9 n n Y Y ! Y Y Y T T T T ! ! ! ! ! ! T T T Y T T ! Y ! ! Y ~ } } } | :.:.:.:.:.:.:.>.7.7.f.v.c.f.7.7.7.7.>.>.>.>.>.o.X.X.X.X.X.X.X.X.o.o.o.o.X.X.X.X.X.| | } } } | | } | } } } } } } } } } } } } } } } } } y.} > $ $ $ $ $ $ z Y ( } } } ( | :.:.o.o.#.#.o.} } } } } } } } } } } } } T T T T T T Q Q T T T T Y Y U U U U Y Y U Y ( ( <.y.( i i M M M M M M n b b b b b b b b b b b b b b b b n M M M U U U U U U Q Q Q Y Q Q Q Q Q Q Q Q #.#.m m > # @ @ @ @ z U U U U U U U U U U U U U U U U U U U U U U U R W Q Q Q Q Q Q Q Q Q Q Q Q Q Q ",
"Q Q Q Q Y Q Q Q Q Q Q Y R U U U U U Y Q Q Q Q Q R U U U U <.o.U $ $ $ $ $ $ $ $ $ $ $ $ $ $ , ( ( ( ( ( ( ( ( ( ( ( ( ( } X.X.X.X.X.X.X.X.X.X.} } } } } } } } } } } } } Q Q Q Q ( ( ( Q Q Q ( ( Q Q Q Q ( Y Y U U U U U U U Y Y Y Y Y Y Y Y Y Y Y T Y Y Y Y Y Y Y Y T ( ( ( ( Q } } } } } } o.o.o.o.o.o.o.o.o.o.o.o.o.o.o.o.o.o.| | | | | } ( Q ( ( ( ( ( } } | | | | | | | | | | | | | | | | | | | >.>.o.X.| | X.o.>.>.>.5.5.5.6.7.8.8.8.8.8.>.>.6.N.N.N.N.N.N.N.N.N.N.N.N.N.N.g.D t e e e e e e , $ $ $ $ $ $ $ t x x Y T Y Y Y T T T T T ! ! ! ! ! ! T T Y Y Y T ! ! ! ! ! ~ } } } }  .:.:.:.:.:.>.7.7.f.v.v.c.c.f.7.7.6.>.>.>.>.:.X.X.| | } } } } | | | X.X.| | | } } } } } } | | } } } } } } } | } } } } } } } | | } } } y.} 3 $ $ $ $ $ $ > Y ( } } ( ( } :.o.o.o.#.o.} } } } } } } } } } } } } } T T T T T T T T T T T Y Y Y Y U U U Y Y U T ( ( <.y.y.Z i M M M M M M M n n n n n n n n b b b b b b b b M M M M U U U U U U E Q Q Q Q Q Q Q Q Q Q #.#.Q m m > @ @ @ @ @ 4 U U R U U U U U U U U U U U U U U U U U U U U R R Q Q Q Q Q Q Q Q Q Q Q Q Q Q ",
"Q Q Q Q Q Q Q Q Q Q Y U U U U U U U U Q Q Q Q Q R U U U U #.+.H $ $ $ $ $ $ $ $ $ $ $ $ $ $ $ s ( ( ( ( ( ( ( ( ( ( ( ( ( ( ..X.X.X.X.X.X.X.X.X...X...} } } } } } } } } } Q ( } } } Q Q Q Q ( ( ( Q Q Q Q T Y Y U U U U U Y Y Y Y Y Y Y Y Y Y Y Y 5.#.} Y Y Y Y Y Y Y ( ( Q Q Q } } } } } } o.o.o.o.o.o.o.o.o.o.o.o.o.o.o.o.o.| | | | | } Q Q Q ( ( ( ( ( ( ( ( Q } | | | | | | | | | | | | | | | | | | | | | | | | X.o.>.>.>.5.5.5.5.5.5.6.>.>.>.f.N.N.F.F.F.F.N.N.N.N.N.N.N.N.<.z e e e e e e 9 $ $ $ $ $ $ $ $ z x x Z Y T T ! ! ! ! ! Y ! ! Y Y T T ! ! ! ! ! ! ! ! Y Y Y ) ) ) ) ) | :.:.:.:.5.7.7.7.v.v.v.c.c.v.7.7.6.>.>.>.>.X.X.| } } | | | } } } } } } | | } } } } } } } } } } } } } } } | } } } } } | } } } } } } X.y.} t $ $ $ $ $ $ $ S T } } } ( } :.>.#.#.o.} } } } } } } } } } } } } } ( Q Q Q Q T T T T T T Y U Y Y Y U U U Y Y U T ( ( } y.y.X.z M M M M M M M M M M M M M M M M M n n b b b n M M M P U U U U U U U Q Q Q Q Q Q Q Q Q @.<.@.m m M $ @ @ @ @ @ $ U U U U U U R U U U U U U U U U U U U U U U U U U Q Q Q Q Q Q Q Q Q Q Q Q Q Q ",
"Q Q Q Q Q Q Q Q Q R U U U U U U U U U Q Q Q Q Q R U R U U ( <.H $ $ $ $ $ $ $ $ $ $ $ $ $ $ $ $ H ( ( ( ( ( ( ( ( ( ( ( ( ( ..X.X.X.X.X.X.X.X.X.X.X.X.} } } } } } } } } } } } } } ( Q Q Q Q ( ( ( ( Q Q Q Q Y Y Y U U U U Y Y Y Y Y Y Y Y Y Y Y ( #.5.5.#.| Y Y Y Y Y ( ( Q ( Q } } } } } } o.o.o.o.o.o.o.o.o.o.o.o.o.o.o.o.o.| | | | } Q Q Q Q ( ( ( ( T T ( ( Q Q ( ( } | | | | | | | | | | | | | | | | | | | | | | | | o.>.>.>.>.3.5.5.>.>.>.>.v.N.N.F.F.F.F.N.N.N.N.N.N.N.f.| z e e e e e e * $ $ $ $ $ $ $ $ x x x x x M S Y ! ! ! Y Y Y T Y Y T T ! ! ! ! ! ! ! ! Y Y ~ ) ) ) ) ) )  .:.:.>.7.7.7.x.v.v.v.v.c.v.f.7.6.>.>.>.X.X.| } } } | | | | } } } } } } | } } } } } } } } } } } } } } | | } } } } | | } } } } | | o.y.} z $ $ $ $ $ $ $ t Y } } } } } >.>.#.#.X.} } } } } } } } } } } } } } T T Q Q Q T T T Q Y U U U Y Y Y U U U U U U Y Q ( ( X.5.} U M M M M M M M M M M M M M M M M M M M M M M M M M M U U U U U U U U U U R R Q Q Q Q ( <.@.m M ..@.$ @ @ @ @ @ @ n U U U U U R U U U U U U U U U U U U U U U U U U Q Q Q Q Q Q Q Q Q Q Q Q Q Q ",
"Q Q Q Q Q Q Q Y R U U U R U U U U U U Y Q Q Q Y U U U U U R 5.m $ $ $ $ $ $ $ $ $ $ $ $ $ $ $ $ % Q ( ( ( ( ( ( ( ( ( } } } X.X.X.X.X.X.X.X.X.X.X.X...} } } } } } } } } } } } } } Q Q Q T T Q Q ( ( Q Q Q Q Y Y Y Y Y Y Y Y Y Y Y Y Y Y Y Y Y Y } #.5.5.#.#.#.} Q Q ( ( ( ( Q ( ( } } } } } | o.o.o.o.o.o.o.o.o.o.o.o.o.o.o.| | | | | ( ( ( ( ( ( ( T T T T T Q Q Q ( ( ( ( } | | | | | | | | | | | | | | | | | | | | | | | | | o.:.>.>.>.>.:.:.>.>.6.f.6.5.f.N.N.N.N.N.N.c.>.| | z e e e e e 9 $ $ $ $ $ $ $ $ $ x x x x n n n M ! Y Y Y T T T ! ! T T ! Y ! Y Y Y ! ! Y Y ~ ) ) ) ) ) )  .:.:.5.7.7.f.c.c.c.c.v.c.v.g.7.7.>.>.o.X.X.} } } } } | } } } } } } } | | } } } } | | } } } } } } } } | } } } } } | } } } } } | | o.y.} z $ $ $ $ $ $ $ % Y ( } } } o.>.#.#.#.} } } } } } } } } } } } } } ( T T T Q Q T Q Q Y R R U U Y Y U U U U U U U U U T ( ( ( ( U M M M M M M M M M M M M M M M M M M M M M M M M M M U U U U U U U U U U U M b H Q Q ..R m M @.@.@.$ @ @ @ @ @ @ 4 U U U U U U U U U U U U U U U U U R U U U U U U Y Q Q Q Q Q Q Q Q Q Q Q Q Q ",
"Q Q Q Q Q Q R U U U U U U U U U U U U Q Q Y R U U U U U U U +.b $ $ $ $ $ $ $ $ $ $ $ $ $ $ $ $ $ , Q ( } } ( ( ( ( Q Q Q [ ( ( ( } X.X.X.X.X.X.X...} } } } } } } } } } } } } } ( Q Q Q T T Q Q Q Q Q Q Q Q Q Y Y Y Y Y Y Y Y Y Y Y Y Y Y Y Y Y M #.5.#.#.#.<.<.#.} Q ( ( ( Q Q Q } } } } } } o.o.o.o.o.o.o.o.o.o.o.o.o.o.o.| | | | | ( ( ( ( ( ( ( ( T T T T Q Q Q ( ( ( Q Q } | | | | | | | | | | | | | | | | | | | | | ( ( Y D Z Z n n n x x n n n x q q q q n D } X.| | | | T e e e e e e , $ $ $ $ $ $ $ $ $ x x x x n n n Z ! ! Y Y Y Y T ! ! T T T T ! ! T Y Y ! Y Y ~ ) ) ) ) ) ) :.:.:.7.7.i.v.v.c.c.v.v.v.v.v.7.7.<.>.>.X.X.X.| } } } } } } } } } } } | | } } } } } } } ( T T T T Q ( ( } } } } } } } } } } } } } } <.} w $ $ $ $ $ $ $ $ n ( } } o.o.>.#.#.#.} } } } } } } } } } } } } } T T Y Y Q Q Q Q Q R U U R U U U U U U U U U U U U Y ( ( ( ( U M M M M M M M M M M M M M M M M M M M M M M M M M M U P M U U U m s 9 ; $ # # $ , z m m H @.@.@.@.$ @ @ @ @ @ @ $ U U U U U U U U R U R U U U U U U R U R U U U U U Q Q Q Q Q Q Q Q Q Q Q Q Q ",
"Q Q Q Q R U U U U R R R U U U U U U R U R R U U U U U U U U R t $ $ $ $ $ $ $ $ $ $ $ $ $ $ $ $ $ $ , Y ( ( Q M m m m m m m m m m m m m m m Q } } } } } } } } } } } } } } } } } ( Q Q Q Q Q Q Q Q Q Q Q Q Q Q Y Y Y Y Y Y Y Y Y Y Y Y Y Y Y Y z $ % R #.<.<.<.<.5.5.X.} ( ( ( ( ( } } } } } }  .o.o.o.o.o.o.o.o.o.o.o.o.o.| | | | | | ( ( ( ( ( T T T Q ( Q Q T ( ( ( ( ( ( Q ( ( | | | | | | | | | | | | | | ( M x z n n n n x x n n n n n n n n n n i q q q q q q q 7 0 i x z e e e e e e e % $ $ $ $ $ $ $ $ * x x x x x x x S Y Y Y Y Y Y Y ! ! ! ! Y Y Y ! T T ! Y Y Y ~ ) } } ) ) ) :.:.5.7.7.x.c.c.c.v.v.v.v.v.v.7.7.5.>.>.o.X.X.X.} } } } ( Y T ( ( } } } } } } ( U n z n n n n n m m m n n n n M M M S U U U U ( } } } T % $ $ $ $ $ $ $ $ w } } X.o.o.#.#.#.o.} } } } } } } } } } } } } Q T T Y Y Y Q T T Y U U U U Y U U U U U U U U U U U Y ( ( ( ( M M M M M M M M M M M M M M M M M M M M M M M M M M M M M z r > $ $ $ $ $ $ $ $ $ $ $ 4 n @.@.@.@.@.# @ @ @ @ @ @ @ s U U U U U U R U U U U U U U U U U U U U U U U U Q Q Q Q Q Q Q Q Q Q Q Q Q ",
"Q Y R U U U U U U R R R U U U U U U R U R R U U U U U U U U U , $ $ $ $ $ $ $ $ $ $ $ $ $ $ $ $ $ $ $ $ , 3 $ $ $ $ $ $ $ $ $ $ $ $ $ $ $ $ , m } } } } } } } } } } } } } } } } ( Q Q Q T Q Q Q Q T T Y Y Y Y Y Y Y Y Y Y Y Y Y Y Y Y Y Y Y s $ $ $ $ > b Q <.<.5.5.5.#.} ( ( ( ( ( } } } } } | o.o.o.o.o.o.o.o.o.o.o.o.o.| | | | | | } ( ( T ( T ( Q Q ( Q Q T ( ( ( ( ( ( ( Q Q } | | | | | | | | | | } M 9 = , , , , , 7 0 t i x n n n n n n x n x q q q q q q q q 7 7 7 7 7 7 7 7 7 7 7 7 % $ $ $ $ $ $ $ $ , x x n x x x x v v v v M M M M ! ! ! ! ! ! Y Y T T ! ! Y Y ~ ) ) ) ) ) ) o.:.<.o.>.5.5.5.5.i.v.v.v.6.5.o.o.o.} } } ( ( T T } U M M M M M M M M M z 9 * * * * * * * * * * % * % * * * * * * * * * * * * * * 3 3 % $ $ $ $ $ $ $ $ $ z } } o.o.o.#.#.#.o.} } } } } } } } } } Q T T T T T Y Y Y Q T Y U U U U Y Y U U U U U U U U U U U U ( ( ( T M M M M M M M M M M M M M M M M M M M M M M M M M z 9 > $ # $ # $ $ $ $ $ $ $ $ $ $ $ $ $ , H ..#.m # @ @ @ @ @ @ @ $ U U U R R U R U U U U U U U U U U U U U U U U U R Q Q Q Q Q Q Q Q Q Q Q Q ",
"U U U U U U U U M M M M M M M M M M M U U U U U U U U U U U M % $ $ $ $ $ $ $ $ $ $ $ $ $ $ $ $ $ $ $ $ $ $ $ $ $ $ $ $ $ $ $ $ $ $ $ $ $ $ $ $ $ t Q } } } } } } } } } } } } } ( Q Q Q Q ( ( ( T Y Y Y Y R R R R R Y Y Y Y Y Y Y Y Y U t % $ $ $ $ $ $ $ $ $ w M o.#.#.#.Q ( Q ( ( } } } } } } o.o.o.o.o.o.o.o.o.o.o.o.| | | | | | | } T T T T ( ( ( ( ( ( T T ( T U Y T T ( ( T Q | | | | | | T M t > $ $ = , , , = = = = , = = = 0 i i x x x x x i q q q q q q q q 9 7 7 7 7 7 7 7 7 7 7 = $ $ $ $ $ $ $ $ $ $ $ $ $ $ $ $ $ $ $ $ $ $ $ $ $ $ $ $ $ $ * * * w e e z M M S ) ) ) ) ) ) U k k k k k k k k k k k k k k k k k k k k k k k t r , , , , , , , , , , * * * * * * * * * * * * * % % * * * * * * * * * * * * * $ # # $ $ $ $ $ $ $ $ $ $ 3 } | o.o.o.#.#.( T Y } } } } } } } } ( T Y Y Y Y Y Y Y Y Y Y Y U U U U Y Y Y U Y Y U U U U Y Y U Y ( ( ( U M M M M M M M M M M M M M M M M M M M b z 9 > % $ $ $ $ $ $ $ $ $ $ $ $ $ $ $ $ $ $ $ $ $ $ $ $ $ $ # @ @ @ @ @ @ @ $ a a s b m M U U U U U U U b b b b b b b b b b b b n R R R R R W Q Q Q Q U ",
"  o ; ; 4 4 4 4 4 4 4 4 4 4 4 4 4 4 4 4 4 4 4 4 4 4 4 4 > ; o o o o o o # $ $ $ $ $ $ $ $ $ $ $ $ $ $ $ $ $ $ $ $ $ $ $ $ $ $ $ $ $ $ $ $ $ $ $ $ $ $ t Q R Y } } } } } } } } } Q Q Q Q ( ( Q Y Y U m m M M M M M M M M M M M m z 9 % $ $ $ $ $ $ $ $ $ $ $ $ $ $ $ r U Y Q Q ( ( ( ( } } } } } o.o.o.o.o.o.o.o.o.o.o.| | | | | | | | } T T T T ( ( ( ( Y z t t t t e e e e e e t t t t r t , $ $ $ $ $ $ $ $ * , , = = = = = = = = = 0 q q q q i i q q q 0 0 9 7 7 7 7 7 7 7 7 7 7 7 7 7 7 & $ $ $ $ $ $ $ $ $ $ $ $ $ $ $ $ $ $ $ $ $ $ $ $ $ $ $ $ $ $ $ $ $ $ $ $ $ $ $ $ $ $ $ $ $ $ $ % $ $ $ $ $ $ $ $ % > > > 9 9 9 9 9 9 , > % $ $ $ $ $ $ $ $ $ $ $ $ # % * * * * * * * * * * * * * * * * * * * * * * * * * * * $ # # $ $ $ $ $ $ $ $ $ $ $ T Y t , , , , , , , , z z z z z z z z m n n z r r r z n n n n Z U U U U U Y Y Y U U U U Y Y Y Y Y ( ( ( M M M M M M M M M M M M M z z 9 9 * % $ $ $ $ $ $ $ $ $ $ $ $ $ $ $ $ $ $ $ $ $ $ $ $ $ $ $ $ $ $ $ $ # @ @ @ @ @ @ @ @ a a a a a a a 4 $ @ @ @ @ @ @ @ @ @ @ @ @ @ @ @ @ @ @ @ @ @ @ @ @ ; r $ @ ",
"    X X X X X X X X @ @ @ @ @ @ @ @ @ @ @ @ @ @ @ X X X X X X X X X X X X # $ $ $ $ $ $ $ $ $ $ $ $ $ $ $ $ $ $ $ $ $ $ $ $ $ $ $ $ $ $ $ $ $ $ $ $ $ $ $ % , w w w w w w w w w w w w w w w 3 % $ $ $ $ $ $ $ $ > , , , , $ $ $ $ $ $ $ $ $ $ $ $ $ $ $ $ $ $ $ $ $ $ $ $ $ $ $ $ $ $ $ $ $ $ $ $ $ $ $ 9 9 9 9 9 9 % $ $ $ $ $ $ $ $ $ $ $ $ $ $ $ $ $ $ $ $ $ $ $ $ $ $ $ $ $ $ $ $ $ $ $ $ $ $ $ $ $ $ $ $ $ $ % % % $ $ $ $ $ $ $ 7 0 q q q q q 0 9 7 7 7 7 7 7 7 7 7 7 7 7 7 7 7 7 7 7 & $ $ $ $ $ $ $ $ $ $ $ $ $ $ # # # $ $ $ $ $ $ $ $ $ $ $ $ # $ $ $ $ $ $ $ $ $ $ # $ $ $ $ $ $ $ $ $ $ $ $ $ $ $ $ $ $ $ $ $ $ $ $ $ $ $ $ $ $ $ $ $ $ $ $ $ $ $ $ # $ % % % % % % % $ $ $ $ * * * * * * * * * * * * * * * * % $ # $ $ $ $ $ $ $ $ $ $ $ > , , , , , , , , , * * > > > > > $ $ $ $ $ $ $ $ $ $ $ $ $ $ $ $ $ $ : : , r r k n n Z U U U U U Y T U M M b z z t 9 9 > % % $ $ $ $ $ $ $ $ $ $ $ $ $ $ $ $ $ $ $ $ $ $ $ $ $ $ $ $ $ $ $ $ $ $ $ $ $ $ $ $ 9 @ @ @ @ @ @ @ @ $ > > > ; $ @ @ @ @ @ @ @ @ @ @ @ @ @ @ @ @ @ @ @ @ @ @ @ @ @ @ @ @ @ @ @ ",
"    X X X X X X X X X X X X X X X X X X X X X X X X X X X X X X X X X X   X $ $ $ $ $ $ $ $ $ $ $ $ $ $ $ $ $ $ $ $ $ $ $ $ $ $ $ $ $ $ $ $ $ $ $ $ $ $ $ $ $ $ $ $ $ % % , , , > > % % $ $ $ $ $ $ $ $ $ $ $ $ $ $ $ $ $ $ $ $ $ $ $ $ $ $ $ $ $ $ $ $ $ $ $ $ $ $ $ $ $ $ $ $ $ $ $ $ $ $ $ $ $ $ $ $ $ $ $ $ $ $ $ $ $ $ $ $ $ $ $ $ $ $ $ $ $ $ $ $ $ $ $ $ $ $ $ $ $ $ $ $ $ $ $ $ $ $ $ $ $ $ $ $ $ $ $ $ $ $ $ $ $ $ $ $ $ $ % 7 7 9 9 9 9 7 7 7 7 7 7 7 7 7 7 7 7 7 7 7 7 7 7 7 7 7 = # $ $ $ $ $ $ $ $ $ $ $ $ $ # $ # $ $ $ $ $ $ $ $ $ $ $ $ # # $ $ $ $ $ $ $ $ $ # $ $ $ $ $ $ $ $ $ $ $ $ $ $ $ $ $ $ $ $ $ $ $ $ $ $ $ $ $ $ $ $ $ $ $ $ $ $ $ $ # $ $ $ $ $ $ $ $ $ $ $ % * * * * * * * * * * * * * * * * * % $ $ * * $ $ $ $ $ $ $ $ $ $ * , , , , , * $ $ $ $ $ $ $ $ $ $ $ $ $ $ $ $ $ $ $ $ $ $ $ $ $ $ $ $ $ $ $ $ $ $ $ $ $ $ $ $ : > $ $ $ $ $ $ $ $ $ $ $ $ $ $ $ $ $ $ $ $ $ $ $ $ $ $ $ $ $ $ $ $ $ $ $ $ $ $ $ $ $ $ $ $ $ $ $ $ $ $ $ w i e @ @ @ @ @ @ @ @ @ @ @ @ @ @ @ @ @ @ @ @ @ @ @ @ @ @ @ @ @ @ @ @ @ @ @ @ @ @ @ @ @ @ @ @ ",
"  X X X X X X X X X X   X X @ @ @ X X X X X X X X X X X X o $ # o o o # # $ $ $ $ % , , 3 9 r w 3 > $ $ $ $ $ $ $ $ $ $ $ $ $ $ $ $ $ $ $ $ $ $ $ $ $ $ $ $ $ $ $ $ $ $ $ $ $ $ $ $ $ $ $ $ $ $ $ $ $ $ $ $ $ $ $ $ $ $ $ $ $ $ $ $ $ $ % > > > % $ $ $ $ $ $ $ $ $ $ $ $ $ $ $ $ $ $ $ $ $ $ $ $ $ $ $ $ $ $ $ $ $ $ $ $ $ $ $ $ $ $ $ $ $ $ $ $ $ $ $ $ $ $ $ $ $ $ $ $ $ $ $ $ $ % 9 e e w > $ $ $ $ $ $ $ $ $ $ $ $ $ $ $ $ $ $ = 7 7 7 7 7 7 7 7 7 7 7 7 7 7 7 7 7 7 7 7 7 7 7 7 7 7 7 7 % $ $ $ $ # $ $ $ $ $ $ $ $ $ $ $ $ $ # # $ $ $ $ $ $ $ $ # # # # $ $ $ $ $ $ # # $ $ $ $ $ , , , , , , , , , , , , $ $ $ $ $ $ $ $ $ $ $ $ $ $ $ $ $ $ $ $ $ $ = , , , , , , , , , % % * * , , , , t t i i i i i i i q q t t t t i i i t * $ $ $ $ $ $ $ $ $ % , , % $ $ $ $ $ $ $ $ $ $ $ $ $ $ $ $ $ $ $ $ $ $ $ $ $ $ $ $ $ $ $ $ $ $ $ $ $ $ $ $ $ $ $ $ $ $ $ $ $ $ $ $ $ $ $ $ $ $ $ $ $ $ $ $ $ $ $ $ $ $ $ $ $ $ $ $ $ $ $ $ $ $ $ $ $ $ $ $ $ $ $ $ $ $ * i t t 3 @ @ @ @ @ @ @ @ @ @ @ @ @ @ @ @ @ @ @ @ @ @ @ @ @ @ @ @ @ @ @ @ @ @ @ @ @ @ @ @ @ @ @ ",
"@ # # $ * * > , , , 9 w w 9 , , , , , , 3 w 9 w t t t s z z z f > > , , , , , 3 9 9 9 9 3 t z z z z z s s t , % $ $ $ $ $ $ $ $ $ $ $ $ $ $ $ $ $ $ $ $ $ $ $ , 9 9 , $ $ $ $ $ % > , , , , $ $ $ $ $ $ $ $ $ $ $ $ $ $ $ $ $ $ $ , z M M M M M M M n x z r % $ $ $ $ $ $ $ $ $ $ $ $ $ $ $ $ $ $ $ $ $ $ $ $ $ $ $ $ $ $ $ $ $ $ $ $ $ $ $ $ $ $ $ $ $ $ $ $ $ $ $ $ $ , w w n U S M f t t t M 9 $ $ $ $ $ $ $ $ $ $ $ $ $ $ $ $ $ , 7 7 7 7 7 7 7 7 7 7 7 7 7 7 7 7 7 7 7 7 7 7 7 7 7 7 7 7 = $ $ $ $ # $ $ $ = = = = = = % $ # # # # $ $ $ $ $ $ $ $ # # # # $ $ $ $ $ $ # # $ $ , Z Z Z Z Z Z Z Z Z Z Z Z Z Z Z Z Z Z Z S | | | | { Y D S S D S S S S S S S S S S S S Y ~ X.>.,.q.6.Z V V V V V V V V V V V i i i i i i i i i i i i i 9 $ $ $ $ $ $ $ $ $ $ $ $ $ $ $ $ $ $ $ $ $ $ $ $ $ $ $ $ $ $ $ $ $ $ $ $ $ $ $ $ $ $ $ $ $ $ $ $ $ $ $ $ $ $ $ $ $ $ $ $ $ $ $ $ $ $ $ $ $ $ $ $ $ $ $ $ $ $ $ $ $ $ $ $ $ $ $ $ $ $ $ $ $ $ $ $ $ $ $ $ $ $ $ $ $ $ t i t t t 3 @ @ @ @ @ @ @ @ @ @ @ @ @ @ @ @ @ @ @ @ @ @ @ @ @ @ @ @ @ @ @ @ @ $ $ $ $ $ $ $ $ $ ",
"9 9 9 9 9 9 9 9 9 w s z z z z z z z z z z z z z z z z n n x z z w 9 9 9 3 3 9 3 3 9 9 9 w z z z z z z M Z Z Z Z Z n z t , , $ $ $ $ $ $ $ $ $ $ $ $ $ % z ( X. .X.X.X.| Y D M M n n n n n n n n n n n 3 $ $ $ $ $ $ % r w r e n Y T >.>.>.>.>.>.>.>.4.6.q.q.7.>.R s z % , w % $ $ $ $ $ $ $ % % * , , , , , , , , , , , , , % $ $ $ $ $ $ $ $ $ $ $ $ $ $ % w n Y >.4.8.8.8.8.8.8.8.8.8.6.,.,.,.x $ $ $ $ $ $ $ $ * > > $ $ $ $ $ $ 7 7 7 7 7 7 7 7 7 7 7 7 7 7 7 7 7 7 7 7 7 7 7 7 7 7 7 7 7 7 = = 7 0 i i p p p p p p p i q , $ # # # $ $ # # $ $ # # # # $ $ $ $ $ $ $ $ $ # $ $ % Z Z Z Z Z Z Z Z Z Z Z Z Z Z Z Z Z Z Z ^ | | | | | | | | | | | | | ^ ^ ^ ^ ~ ~ | ,.0.q.q.q.q.q.q.q.-.^ ! Z V V V V V V V V i i i V V V i i i i t i i i t * $ $ $ $ $ # # # $ $ $ $ $ $ $ $ $ $ $ $ $ $ $ $ $ $ $ $ $ $ $ $ $ $ $ $ $ $ $ $ $ $ $ $ $ $ $ $ $ % * % $ $ $ $ $ $ # # $ $ $ $ $ $ $ $ $ $ $ $ $ $ $ $ $ $ $ $ $ $ $ $ $ $ $ $ $ $ $ $ $ $ $ $ $ $ $ $ $ $ $ w i i i i i i 3 @ @ @ @ @ @ @ @ @ @ @ @ @ @ @ @ @ @ @ @ @ @ @ @ @ @ @ @ @ @ $ , 9 9 9 9 9 9 9 9 9 ",
"9 9 9 9 9 9 9 9 9 t z z z z z z z z z z z z z x M M M M M M n z t 9 9 9 3 3 9 9 9 9 9 9 s z z z z M Z Z Z Z Z Z Z Z Z Z Z Z Z Z n z t , * $ $ $ , w n | X.X.X.X.X.X.o.X. . .X.X.X.X.( T T T F F T S n n 3 $ $ $ $ $ $ r e t M T T  .>.>.>.>.>.>.6.f.f.f.f.f.f.f.f.m.'.5.5.5.5.s $ $ $ $ $ , 3 3 z Z Z Z Z Z Z Z Z Z Z Z S S Z Z Z Z Z Z Z Z Z Z S Z M Y Y 8.8.8.8.8.8.8.8.8.8.8.8.8.6.,.,.,.,.,.V $ $ $ $ % , 9 9 e f f f t , * w B A A A A V B B n i i i i i i i i i i i i 0 0 0 9 9 9 9 0 0 i p p p p p p p p p p p p p i u i u 0 , * $ $ $ # $ $ # $ * * = 7 7 0 0 0 * $ $ # $ $ $ h Z Z Z Z Z Z Z Z Z Z Z Z Z Z Z Z Z D | | | | | | | | | | | | | | | | | | | ,.q.q.q.q.q.q.q.q.q.q.4.^ ) ) Y V V V V V V V i i V V V V n i i i t t i i x V i $ $ $ $ $ $ # $ $ , e e e e e e 9 , * $ $ $ $ $ $ $ $ $ $ $ $ $ $ $ $ $ $ $ $ $ $ $ $ $ $ $ $ $ > > > > % $ $ $ $ $ $ $ $ $ $ $ $ $ $ $ % > > > > > > $ $ $ $ $ $ $ $ $ $ $ $ $ $ $ $ $ $ $ $ $ $ $ $ $ $ w i i i i i i i i 3 $ $ > > w w w w w w , > > > , > > % @ @ @ @ @ @ @ @ @ $ % , 9 9 9 9 9 9 9 9 9 9 ",
"t w 9 9 9 9 9 9 9 f n x z f z z z z z z n n M M v M M M M M M z z w 9 3 3 3 w s s w w t z z z M Z Z Z Z Y Y Y Y U S Z Z Z Z Z S Y ( } o.o.3.3.3.6.3.>.X.o.X.o.X.o.o.o.o. . . . .o.X.o.( T T T T T Y n n n 3 $ $ $ $ $ 3 e z T T ( >.>.>.>.>.3.f.f.f.f.f.f.f.f.f.f.f.].N.5.5.5.Z $ $ $ $ $ > 3 3 v Z Z S Z S Z Z Z Z Z Z S S T ( o.o.o.o.o.o.o.o.o.o.o.o.#.8.8.8.8.8.8.8.8.8.8.8.8.8.,.,.,.,.,.,.Z $ $ $ $ 9 9 9 9 t f f f f z A A A A A V V V V A A V V A A A A V x p p p p p p p p p p p p p p p p p p p p p p p p p p p i u u i u i i i i u u i i u u u i i i i i i i q $ $ $ $ $ $ % t z Z Z Z Z Z Z Z Z Z Z Z Z Z D ~ | | | | -.,.6.q.f.f.f.5.| | | | | ;.4.q.q.q.q.q.q.q.q.q.q.q.q.0.) ) ) ) ~ Z V V V V V x V V V V V V V i t t t i x V V V V e $ $ $ $ $ i V V V V V V V V V V V V V x x x v v w w w 9 , , t , $ $ $ $ $ $ $ $ $ $ $ $ $ $ % > > > , z ) ( ) ) ( n n z z f f f f f f f s f f f f s s s f s t s w w , : $ $ $ $ $ $ $ $ $ $ * , 9 9 e i i t t i i i i i z f t t t i i i i i i i t e 3 , , , , , $ @ @ @ @ @ @ $ % % , 9 9 9 9 9 9 9 9 9 9 ",
"M M z w 9 9 9 9 9 x n n n z z z z x n n n n n Z Y T T T T Y M z z z w 3 w s z z z z z z z M Z Z Z Z S ( } } } } } } } } ( ( 3.3.3.3.3.3.3.3.3.m.m.5.>.X.o.o.o.X.o.X.X.o. . . . .X.X.o.o.} T T T T T M n n x > $ $ $ $ $ e D T T  .>.>.>.>.3.f.f.f.f.f.f.f.f.f.f.f.f.].'.5.5.1.Z * $ $ $ $ % 3 3 r Z Z S S S Z Z Z Z Z Z D ( ~ ~ o.o.o.o.o.o.o.o.o.o.o.#.6.8.8.8.8.8.8.8.8.8.8.8.8.8.,.,.,.,.,.,.Z $ $ $ $ 9 9 9 9 t f f f f V A ! ~ ~ ~ ~ ~ ! A V A A V V A A A V V A B B B B B B B B B V A A A V V V B B B x p p p p p p p i u i i i i i i u u i i u u u i i i u i i i i 7 $ $ $ $ $ $ 9 t t f v Z Z Z Z Z Z S ) 4.q.f.f.f.0.q.f.f.q.q.f.f.f.f.f.q.,.0.c.0.q.q.q.q.q.q.q.q.q.q.q.q.q.q.q.| ) ) ) ) ) Y V V V V V V V V V V V V V x i t i V V V V V V % % $ w D T D D D D D D S Z V V V V V V V V V V x 0 w w w z Y U z $ $ $ $ $ $ $ $ $ $ $ $ $ $ * > > , w Y ( ) ) ) U n n n n z z f f f f f f f z x n z f f f f z n n n n z $ $ $ $ $ $ $ $ $ * 9 9 9 t i i t i i i i i i T } T M i i i i i t t i i i t t 3 , , , , @ @ @ @ @ @ % % % , 9 9 9 9 9 9 9 9 9 9 ",
"M M M M t 9 9 9 t M S M v M x x n n n n v Z T T T T T T T T T z z z f t f z z z x M Z Z Z Z Z Z Z Y } X.>.| } } } } } } | >.3.3.3.3.3.3.3.5.b.m.m.6.:.X. . . . .o.o. . .X.X.X.X.X.X.X.f.f.6.~ T T T D n n n z % $ $ $ $ 3 T T T >.>.>.>.3.f.f.f.f.f.f.f.f.f.f.f.f.f.'.].g.5.>.Z , $ $ $ $ $ 3 3 3 r c U ~ Y Z Z Z Z Z D ~ ~ T } o.o.o.o.#.o.o.o.o.#.>.8.8.8.8.8.q.c.c.F.F.F.F.c.c.x.q.,.,.,.,.,.Z , $ $ $ 9 9 9 9 f f f f x ~ ~ ~ ~ ~ ~ ^ ^ ~ ~ ~ ~ ~ ~ ~ ~ ~ ~ ~ ~ ^ ^ ^ ~ ~ ~ ~ A A A A A A A A A A A A A A A V B p p p p p p i i i p i i u u u u i i u u u u u u i i i u $ $ $ $ $ $ % t t t t i S Z D ) >.f.f.f.f.f.f.f.f.f.q.0.7.q.q.0.f.G.U.U.~.+X+X+X[.L.q.q.q.q.q.q.q.q.q.q.q.q.q.| ) ) ) ) ) ) V V V V V V V V V V V V V V V x V V V V V V x % % , Z X. . .~ D Y Y D Y D D D D D Z V V V V V V x 0 e T X.X.U U , $ $ $ $ $ $ $ $ $ $ $ $ $ $ > > 3 w e T Y Y ( ( M n n n n n n z f s s z n n n n z f f f f n n n n n n 9 $ $ $ $ $ $ $ $ * 9 9 9 e i i t t i i i i i U } } } Y S Z Z Z M x z i i i i , , , , , @ @ @ @ @ $ % % % , 9 9 9 9 9 9 9 9 9 9 ",
"x M M M v z w 9 x M T Y v v M M n n n M Y T T T T T ( ~ T T T Y z z f f f z z Z S S Z Z Z Z Z S ( } } 3.3.3.3.>.o.o.o.>.3.3.3.3.3.3.3.3.3.x.m.m.m.6.o.| | |  . . . . . .X.X.X.X.X.X.X.f.f.f.f.:.T T T D n n n t $ $ $ $ , Z T T >.>.>.3.f.f.f.f.f.f.f.f.f.f.f.f.f.f.E.].I.1. .Z , $ $ $ $ $ , 3 3 w z c T ~ T S Z Z Y ~ ~ ~ ( X.o.o.o.o.#.>.>.3.>.>.8.8.8.8.8.q.G.G.G.G.G.G.G.G.G.G.G.c.,.,.,.-.Z , $ $ $ * 9 9 9 f f f z M Y ^ ~ ~ ~ ~ ~ ^ ~ ~ ^ ) | | | | ) ) ~ ~ ^ ^ ^ ^ ~ ~ ^ ~ A A A A A A A A A A A A A A A A A B p p p p p p p p i i u u u i x i i u u u u u i u i i = $ $ $ $ $ $ e t t t t :.q.f.f.f.f.f.f.7.4.5.>.>.>.:.:.:.:.<.<.<.6.U.^.+X+X+X+X$X$X+Xm.q.q.q.q.q.q.q.q.q.q.q. .) ) ) ) ) ) Z V V ~ Z V V V V V V V V V V V V V V V V V t % % , M X. . . .| ~  .:.:.:. .| ~ Y Y Y Y D D Z Z V v ( X.X.X.X.U b $ $ $ $ $ $ $ $ $ $ $ $ $ $ > > 9 w w z Z Z Z U Z n n n n n n n n z z n n n n n n f f f z n n n n n n t $ $ * * $ $ $ $ * , 9 w 9 t i t t i t w t i M } } } | T S S S S S S S Z z i , , , , , $ @ @ @ @ $ % % % > 9 9 9 9 w 9 9 9 9 9 ",
"i z M M v v n f M M T T U v n v M n Z T T T T T ~ ~ #.#.( T T T z z z z z z Z Z S S S S Z S T } } } o.3.3.3.3.3.3.3.3.3.3.3.3.3.3.3.3.3.i.m.m.m.m.>.X.} } } } } |  . . .X.X.X.X.X.X.X.:.f.f.f.f.6.( T T T Z n n 9 $ $ $ 9 i T ( >.>.>.8.f.f.f.f.f.f.f.f.f.f.f.f.f.f.J.].].5.Y Z , $ $ $ $ $ , 3 3 t c c M ( ~ ~ Y T ~ ~ ( | o.o.o.o.o.o.3.3.>.>.>.5.8.8.8.8.8.F.G.G.G.G.G.G.G.G.G.G.G.G.0.,.,.-.A 7 $ $ $ $ 9 9 9 f f f M M S ~ ^ ) | :.>.>.,.1.1.1.1.1.<.<.<.<.>.1.>.>.:.| ~ ~ ~ ~ ~ D A A A A A A A A A A A A A A A A A x p p p p p p i i u u i B A A B i u u u u u u u u 7 # $ $ $ $ $ 3 t t t t :.5.7.7.5.>.>.:.:.:.>.>.:.>.>.>.:.:.>.>.<.<.g.+X+X+X+X#X+X+X+X+X~.q.q.q.q.q.q.q.q.q.q.q.,.) ) ) ) ) ! V V ) ) D V V V V V V V V V V V V V V V V 9 % % , x X.-. .:.,.4.>.:.:.:.:.:.:. .~ Y Y Y Y D D ~ 5.y.>.X.X.X.( P $ $ $ $ $ $ $ $ $ $ $ $ $ $ * > 9 w w s Z Z Z Z Z M n n n n n n n n n n n n n n n z f f z n n n n n n f % * * * * $ $ $ * , 9 w w 9 t t e w w 9 i i M } } } } } } Y S S S S S S S x , , , , , , @ @ @ @ @ % % % % , 9 9 t t 9 9 9 9 9 ",
"i i f n n M M M M M T T T U n v M U T T T T ( ( ( ~ X.#.X.T T T U z z z z Z Z Z S Y T ( } } } } } } 3.3.3.3.3.3.>.>.>.o.o.| | 3.3.3.3.6.m.m.m.m.3.X.| } } } } } }  . . .X.X.X.X.X.X.X. .o.5.f.8.3.>.| T T T Y S M > $ $ 9 i S ~ >.>.4.f.f.f.f.f.f.f.f.f.f.v.N.N.N.N.N.].].f.Z Z % $ $ $ $ $ > 3 3 k z c S 5.>.>.o.X.| >.3.3.5.5.5.5.5.>.3.3.>.>.>.5.6.8.8.8.q.G.G.G.G.G.G.G.G.G.G.G.G.G.F.4.,.-.A t $ $ $ $ 9 9 e f f z M M M ^ >.<.1.1.1.1.1.1.1.6.7.f.f.g.g.g.g.g.g.g.g.f.s.7.:.) ~ ~ ~ ! A A A A A A A A A A A A A A A A B p p p p p i i i B A A A A A V i u u u u u u u 0 # $ $ $ $ $ * t t t t :.:.>.>.>.>.:.:.:.:.>.>.>.>.>.:.:.:.>.>.>.<.5.L.U.~.oX+X+X+X@X+X+X{.f.q.q.q.q.q.q.q.q.q.q.0.,.| ) ) ) Z D ) ) ) ~ V V V V V V V V V V V V V V V > % % , z X.,.0.f.f.f.f.4.:.:.:.:.:.:.:.X.~ T ~ :.6.y.y.y.5.X.X.X.X.U r $ $ $ $ $ $ $ $ $ $ $ $ $ * > w z z z Z Z Z Z Z Z n n n n n n n n n n n n n n n z f f z n n n n n n f * * * * * $ $ $ * * 9 9 9 9 9 w w w w 9 i i U } } } } } } } } T Y S S S S S t , , , , , $ @ @ @ @ @ % ; ; , 9 e t t w 9 9 9 9 ",
"i i t f n n M M M M S T T T Y M Y T T T T T X.#.#.X.X.o.X.( T T T z z z Z S Y T T T Q } } } ( ( ( } | | | } } } } } } } } } } X.3.3.5.m.m.m.m.6.o.o.| } } } } } } | X.X. . .o. . . .X. .o.o.o.>.>.>.>.>. .( T T T Z $ $ 9 t x ~ >.>.f.f.f.f.f.f.f.f.f.c.N.N.N.N.N.N.N.E.].m.Z M $ $ $ $ $ $ > 3 3 z z c S 5.5.5.5.5.3.3.5.5.5.5.5.>.#.o.>.>.>.>.>.>.>.5.6.8.q.G.F.E.^./././.^.Q.U.H.G.G.G.F.,.-.A t $ $ $ $ , 9 e f f n M M M ) 1.1.<.<.<.6.f.k.v.v.v.v.v.v.k.k.v.v.k.k.v.v.v.v.4.,.>.| ~ ~ ^ ^ ~ ~ ~ ! ! ! ! F A A A A A A A B p p j V A A A A A A A A A A A x u u u u u i i $ $ $ $ $ $ $ t t t t >.>.>.>.>.>.:.:.>.>.>.>.>.>.>.>.>.>.>.>.>.>.<.7.L.L.L.E.[.+X+X+X+X@XOXf.q.q.q.q.q.q.q.q.q.q.q.5.<. .) ) ) ) ) ) ) ~ V V V V V V V V V V V V V x % % % , z | f.f.f.f.f.f.f.7.:.:.:.:.:.:.:.5.f.i.7.y.y.y.y.y.o.#.<.6.7.5.$ $ $ $ $ $ $ $ $ $ $ $ $ * > e z z z Z Z Z Z Z Z M M M M M M M M M n n n n n n x f z n n n n n n z f * * * * * % $ % * * 9 w 9 9 9 9 9 9 9 w i i U | | | } } } } } } } | ) ( ( ( Z t t r , , > @ @ @ @ @ % % % 9 9 t t s s t e w 9 ",
"i i t t f n M M M M S X.} ( T T T T T T T T X.#.#.#.o.o.o.X.o.o.#.X.| Q ( Q Q Q T T Q ( ( ( ( Q ( ( ( ( ( } } } } } } } } } } | 3.3.b.m.m.m.6. .o.| } } } } } } } } X. . .o. .o. . .X.X.o.X.X.:.>.>.>.>.>.>.:.} T T t $ t t i T >.4.f.f.f.f.f.f.f.m.N.N.N.N.N.N.N.N.N.N.].'.Z t $ $ $ $ $ $ % 3 3 z z c S 5.5.5.5.5.3.3.5.>.>.#.#.o.o.o.3.3.>.3.3.>.>.>.>.>.6.8.8.q.~.{.OX{.+XOXOXOXOX/.^.G.F.,.Z t $ $ $ $ , 9 e f f M M M Z Y >.1.1.s.v.v.k.v.k.k.v.k.v.N.N.F.K.K.K.K.K.J.N.N.f.,.,.,.>.) ^ ^ ~ ~ ~ ~ ^ ^ ) ) | | | ) ^ ~ A A B B A A A A A A A A A A A A A A B i u u u i i $ $ $ $ $ $ $ w t t t >.>.>.>.>.>.>.:.>.>.>.>.>.>.>.>.>.>.>.>.>.>.>.<.f.L.L.L.L.E.|.+X@X@X+XOXf.q.q.q.q.q.q.q.q.q.q.4.<.<.<. .) ) ) ) ) ) ~ V V V V V V V V V V V V t % % % , z M f.f.f.f.f.f.f.f.f.:.:.:.:.3.v.v.x.g.f.y.y.y.y.y.y.y.y.y.y.y.z $ $ $ $ $ $ $ $ $ $ $ $ > > e z z z Z Z Z Z Z Z Z S S Z Z Z Z Z Z Z Z Z Z Z M n n n n n n n z f f f , * * * * * % * * * , w 9 9 9 9 9 9 9 e i i T | | | } } } } } } } | } } } Y M z t t t , , @ @ @ @ @ % % % 9 9 t t s s t t t i ",
"i i i t s f n M M M Y X.#.#.X.} ~ T T T T ~ | #.#.X.X.o.#.#.#.o.X.} | | ( ( Q Q T T ( ( ( ( Q ( ( ( ( Q ( ( } } } } } } } } } } 3.x.m.m.m.6. . .| } } } } } } } } } | X.X.X. . . . .o.o. . .X.X.>.>.>.>.>.>.>.>.>.o.D t t t t Z >.q.f.f.f.f.f.m.N.N.N.N.N.N.N.N.N.N.N.N.E.].( > $ $ $ $ $ $ % 3 3 z z z S 5.5.5.3.3.>.o.X.| | | | X.o.o.#.3.3.3.3.3.3.>.3.>.3.3.6.7.8.G.{.{.;X,X;XOXOX*X*X^.G.G.Z t $ $ $ $ % 9 e f z M M M Z Y T s.v.k.v.v.v.v.m.J.L.E.E.E.E.E.E.E.E.E.E.E.E.E.E.E.J.k.s.1.^ ^ ) | | -.:.:.:.:.:.:.:.:.:.-.| A A A A A A A A A A A A A A A A A A A p u u i i * $ $ $ $ $ $ w t t t >.>.>.>.>.>.>.>.>.>.>.>.>.>.>.>.>.>.>.>.>.>.>.>.<.N.L.L.L.L.L.E.+X@X+X+X{.q.q.q.q.q.q.q.q.0.5.<.<.<.<.<.<. .) ) ) ) | Y D D ~ ) X.X.X. .Y V V , % % % % z z 5.f.f.f.f.f.f.f.f.f.:.:.g.m.m.g.x.x.x.f.i.y.y.y.y.y.y.y.y.y.5.$ $ $ $ $ $ $ $ $ $ $ $ > > t z z z Z Z Z S S Z Z S S Z Z Z Z S S Z Z Z Z Z Z Z Z M M M Z n f f f f , * * * * * * * * * , w 9 9 w 9 9 9 9 t i i } } } } } } } } } } | | } } ( M M M s t t t , $ @ @ @ % % % % 9 9 w t s s i i i i ",
"i i i t f f z Z Z Y Q | #.#.#.#.#.X.( T T T ) #.#.X.X.X.#.#.#.#.#.X.} } ( Q Q Q T T T ( ( ( T T T ( T ( ( ( } } } } } } } } } } 8.m.m.m.6.X. .| } } } } } } } } } } } | X.X.X.X. .X.X.o. . .X.X.>.>.>.>.>.>.>.6.f.f.6.i t t t i >.f.f.f.f.x.N.N.N.N.N.N.N.N.N.N.N.N.N.N.I.].V.$ $ $ $ $ $ $ $ 3 3 z z z S 5.5.3.3.>.| | | | | | | | | | X.o.#.>.>.>.>.3.3.>.3.3.3.3.6.8.q.~.@X,X,X,X,X,X,XoXG.G.Z t $ $ $ $ % 9 e f x M M M Z Y Y 6.k.k.v.N.L.E.E.E.E.E.E.E.E.E.E.E.E.E.E.E.E.E.E.E.E.E.E.E.E.0.,.:.:.-.-.:.:.:.:.:.:.:.:.-.-.A A A A A A A A A ~ A A A A A A A A A A A B i i * $ $ $ $ $ $ , t t t >.>.>.>.>.>.>.>.>.>.>.>.>.>.>.>.<.<.<.>.>.>.>.<.<.5.v.L.L.L.L.L.U.{.+X+X+X~.q.q.q.q.q.0.5.<.<.<.<.<.<.<.<.<.>.>.>.>.>.>.>.>.>.>.>.>.>.>.>.) V % % % % % f z | f.v.L.I.L.J.J.J.J.L.I.N.m.v.g.x.x.x.g.g.f.i.y.y.y.y.i.y.y.y.z $ $ $ $ $ $ $ $ $ $ % > , t z z z Z S S S S Z Z S S Z Z Z Z S S S Z Z Z Z Z Z Z Z Z Z Z n f f f f w * * * * > , > * * , 9 9 9 9 9 9 9 w i i f } } } } } } } } } } | | } } M M M M z t t t w $ @ @ # % % % % 9 9 9 t s s i i i i ",
"f i f f z M M Q } Q Q Q o.o.o.o.X.o.#.X.( T ( #.#.#.#.X.#.#.#.#.#.o.| } } Q Q ( ( ( ( ( ( ( ( ( ( ( ( ( ( ( } } } } } } } } } o.m.m.m.6. . .| } } } } ( } } } } } } } } } |  . .X.X.X.X.X.X.X.>.>.>.>.>.>.>.>.>.8.f.f.3.i t t t Y f.f.f.g.N.N.N.N.N.N.N.N.N.N.N.N.N.N.N.J.].].r $ $ $ $ $ $ $ 3 3 z z z S 3.3.5.5.o.| | | | | | | | | | | ..X.X.o.o.o.o.#.>.>.>.3.>.3.3.6.8.G.,X1X1X1X1X*XoXE.G.Z 9 $ $ $ $ % 9 9 f M M M M S Y Y ( y.J.E.E.E.E.E.E.E.E.E.E.E.E.J.v.k.k.k.k.k.k.g.g.f.v.J.E.E.E.E.E.N.f.>.:.:.:.:.:.:.:.:.:.:.F A A A A A A A F ) ) ^ ~ ! ! A A A A A A A A A w $ $ $ $ $ $ , t t t >.>.>.>.>.>.>.>.:.>.>.>.>.>.<.<.<.1.<.<.<.<.<.<.<.<.4.q.c.G.J.L.L.L.E.+X+X+Xk.q.q.q.q.5.<.<.<.<.<.<.<.<.<.>.>.>.>.>.>.>.>.:.>.>.>.5.5.<.>.>.x % % % % % z f Z f.J.I.L.L.L.I.E.E.I.I.J.m.v.g.x.x.h.h.f.g.g.f.i.y.y.y.y.6.y.5.$ $ $ $ $ $ $ $ $ $ > > , e z z z Z Y Y Y Y S Z Z Z Z Z Z Z Z Z Z Z Z S Z U U U Z Z Z Z n f f f f t * * * : > 9 9 , * > w w w 9 9 9 w t i i Z o.#.#.>.#.X.} } } } } } } T M M M M n t t t t ; @ @ $ % % ; ; 9 9 9 t s f f f t t ",
"f f z M M M Z } y.5.} Q X.o.o.o.X.#.#.X.#.X.o.#.#.#.<.5.y.y.<.#.o.o.X.} } } ( ( ( ( ( ( T ( ( Q ( ( ( ( ( ( } } } } } } } } | m.m.m.6. . .| } } } ( ( ( ( ( } } } } } } } } |  .X.X.X.X. .o.X.>.>.>.>.>.>.>.>.5.6.8.f.f.>.t t t i 8.f.f.N.N.N.N.N.N.N.N.N.N.N.N.N.N.N.N.N.'.].<.$ $ $ $ $ $ $ , 3 z z z S 3.5.5.5.X.| | | | | | | | | | ....| | o.o.o.o.o.#.>.>.>.>.3.3.3.3.5.U.1X1X1X*XoXoX^.G.Z , $ $ $ $ % 9 9 i M M M M S Y Y ( ( k.E.E.E.E.W.E.E.E.E.E.N.g.g.g.k.k.k.k.f.f.y.y.<.<.<.<.>.<.6.f.V.V.E.L.k.f.s.6.,.,.:.:.:.F A A A A A A A ) ) ) ) ) ) ) ) ! A A A A A A A w , $ $ $ $ $ * t t z >.>.>.>.>.>.>.>.:.>.>.>.>.>.<.<.<.5.<.<.<.<.<.5.<.<.<.0.q.q.q.q.q.q.q.J.{.+Xc.q.q.q.5.<.<.<.<.<.<.<.<.<.>.>.>.o.X.X.>.>.:.:.>.>.6.6.6.6.6.6.M % % % % % f z z 5.v.L.L.I.E.~.'.'.'.I.I.N.m.v.x.k.h.h.f.g.g.f.g.f.y.y.y.<.y.y.M $ $ $ $ $ $ $ $ % > > 3 w z z z Y Y Y Y Y Y U Z U Y U Z Z Z Z Z Z S S Z U Y Y Y U Z Z n f f f f f * * : : * , 9 9 * , w w 9 9 9 9 e i i i X.>.>.>.>.>.#.#.X.} } } } } ( M M M M M a t t t , @ @ @ % % % ; , 9 9 w t f t t t t ",
"f z M M M M U Q 5.y.r.X...o.o.o.o.#.X.X.#.#.#.#.<.y.6.6.i.y.6.#.#.o.#.| } } } ( ( ( Q Q T T T Q T T ( ( ( ( } } } } } } } } v.m.m.>.X.X.| } } ( T ( ( T ( ( ( } } } } } } } } } X.X. . . . . .:.>.>.>.>.>.>.>.6.6.6.6.f.f.| t t t | f.g.N.N.N.N.N.N.N.N.N.N.N.N.N.N.N.N.N.E.].E.$ $ $ $ $ $ $ % 3 z z z S 3.3.3.5.| | | | | | | | | | | ..| | | o.o.o.o.o.o.>.>.>.>.3.3.>.>.>.6.W.OXoXoXoXoX^.G.Z , $ $ $ $ % 9 9 z M M M M S Y Y Q ( ( k.E.E.E.W.W.E.E.E.k.g.g.g.g.g.k.g.g.f.f.y.y.<.<.<.#.| | | | | | ) 1.f.f.f.f.f.f.f.s.6.) D A A A A A ^ ) ) ) ) ) ) ) ) ) ~ A A A A A A w 9 $ $ $ # $ * t t x >.>.>.:.>.>.>.>.>.>.>.>.>.>.<.<.<.5.<.<.1.<.<.<.<.<.<.4.q.q.q.q.q.q.q.q.q.q.q.q.q.7.<.<.<.<.1.<.<.<.<.>.:.:.:.X.X.X.:.>.>.>.>.>.6.6.6.6.6.6.s % % % % % t z z Z f.L.I.E.'.'.'.'.'.E.I.J.m.m.g.g.x.k.f.h.h.h.g.g.i.y.y.>.5.y.6.% $ $ $ $ $ $ $ > > > 9 w z z z Y Y S S S Y Y Y Y Y Y S Z Z Z Z Z S S Z Z Y Y Y Y S Z x f f f f f , * * * * > 9 9 7 9 9 9 9 9 9 9 e i i z >.>.>.>.>.<.>.>.>.X.} } } } } Z M M M M f t t t w @ @ @ $ % % % > 9 9 9 t f t t t t ",
"n M M M M M Y Q ..y.r.r.5.o.o.o.#.#.X.X.X.#.#.6.y.i.b.V.V.i.y.<.o.o.X.X.} } } } ( ( Q T T T T T T T ( ( ( ( } } } } } } } >.m.m.>.o.X.} } } ( ( T ( ( T ( ( ( Q } } } } } } } } | X.X. .o. . .>.>.>.>.>.>.>.5.6.6.6.6.6.q.f.| t t x f.m.N.N.N.N.N.N.N.N.N.N.N.N.N.N.N.N.N.J.].].r $ $ $ $ $ $ $ 3 z z z S 3.3.5.5.X.| | | | | | | | | ..| | | | o.o.o.o.o.o.o.>.>.>.3.3.>.>.>.>.3.3.i.E.{.{.U.G.Z , $ $ $ $ % 9 9 x M M M M Y Y Y Y ( ( ( k.E.E.E.W.E.E.k.k.g.g.g.g.g.g.g.f.f.f.y.y.<.<.>.X.) ( ( ( ( ( ( ( ( ( ) ( X.>.6.s.f.f.f.f.y.>.>.| ) ) ) ) ) ) ) ) ) ) ) ! A A A A A w 9 $ $ $ # $ $ t t x >.>.>.:.>.>.>.>.>.>.>.>.>.>.<.<.<.<.<.<.1.1.<.<.<.<.<.<.0.q.q.q.q.q.q.q.q.0.0.0.4.<.<.<.<.<.1.<.<.>.>.>.>.:.X.X.X.X.o.>.>.>.>.>.6.6.6.6.6.6.t % % % % % t z z z | J.E.'.'.'.'.'.'.E.I.I.N.m.v.g.x.x.f.h.h.g.g.g.f.y.y.<.>.6.y.M $ $ $ $ $ $ * > > > w w z z n S S S S Y Y Y Y Y Y Y U Z Z Z Z Z S S S S U Y Y Y Y Z x f f f f f t * * * * * 9 9 9 9 9 9 9 9 9 9 e i i T >.>.>.>.>.<.>.>.>.>.X.} } } } Y M M M M z t t t t @ @ @ $ % % % ; 9 9 9 t f f f t t ",
"M M M M M M Y Q Q X.y.y.6.<.#.o.#.#.X.X.#.#.6.y.b.C.C.C.C.i.y.y.#.#.#.#.| } } } T T T T ( T T T T T ( ( ( } } } } } } } |  .n.>.o.| } } } ( ( ( T T ( ( ( ( T Q ( } } } } } } } } |  . .X.X.X.:.>.>.>.>.>.>.6.6.6.6.6.6.6.7.f.>.i t f.N.N.N.N.N.N.N.N.N.N.N.N.N.N.N.N.N.N.N.].].<.$ $ $ $ $ $ $ > k z z S 5.5.5.5.X.| | | | | ..| | | ..| | | | o.o.o.o.o.o.o.#.>.>.>.>.>.3.3.3.3.3.>.3.5.G.G.G.Z , $ $ $ $ * 9 9 M M M M U Y Y Y Y Y T Q Q h.E.E.E.E.f.>.g.g.g.g.g.g.g.g.g.g.k.6.y.<.<.#.X.| ) ( ( ( ( ( ( ~ ~ ~ ~ ~ ( ~ ( ~ ( X.>.>.6.y.E.E.E.E.E.E.E.P.k.| ) ) ) D A A A A w , $ $ $ $ $ $ t t x >.>.>.:.:.>.>.>.>.>.>.>.>.>.<.<.<.<.<.<.<.5.<.<.<.<.<.<.<.7.4.4.5.5.5.<.<.<.<.<.<.<.<.<.<.<.5.<.>.>.>.>.>.:.X.X.X.X.X.>.>.>.>.>.6.6.6.6.6.6.t % % % % % w z z z Z E.'.'.'.'.'.'.'.'.I.I.J.m.m.v.g.g.x.x.x.g.g.g.g.i.y.<.>.<.y.y., $ $ $ $ % > > > , w w t z Z S S S S Y Y Y Y Y Y Y Y Z Z Z Z Z S S S Z Z Y Y Y Y Y x f f f f f f , * * * * , 9 9 9 9 9 9 9 w w e i t #.>.>.#.#.#.#.#.#.#.#.>.| } } } ) M M M M M f s s t $ @ @ $ % % % % , 9 9 w t t t f n ",
"M M M M M Z Q Q Q Q X.r.6.6.#.o.#.#.X.X.<.y.i.m.C.C.V.V.C.y.y.y.<.#.#.#.X.} } } T ( T T ( T T ( Q T ( ( } } } } } } } }  . .o.o.| } } } Q ( ( ( T T ( ( ( ( T T ( ( } } } } } } } |  . .X.X.X.:.>.>.>.>.>.5.6.6.6.6.6.6.6.6.f.f.3.j 8.N.N.N.N.N.N.N.N.N.N.N.N.N.N.N.N.N.N.N.E.].'.$ $ $ $ $ $ $ $ t z z U 5.5.5.5.#.| | | | ....| | ....| | | ..o.o.o.o.o.o.o.o.>.>.>.>.>.>.3.3.3.3.>.>.>.f.G.G.Z % $ $ $ $ , 9 e M M Z U Y Y Y Y Y Y Y T Q Q <.E.E.E.( ( X.f.f.g.g.g.g.g.g.k.k.6.6.5.<.#.X.| | ~ ( ( ( ( ( ~ ~ ~ ~ ~ ~ ( ( ( ( ( ( ~ ~ ~ | >.>.f.K.E.E.E.E.E.| ) ) ~ A A A A w % $ $ $ $ $ $ t t x >.>.>.>.>.>.>.>.>.>.>.>.>.>.>.<.5.5.<.<.<.<.<.<.<.<.<.<.<.<.<.<.<.<.<.<.<.<.<.<.<.<.<.<.<.<.>.>.>.>.>.>.>.X.X.X.X.X.X.:.>.>.>.>.6.6.6.6.6.6.t % % % % % w z z Z E.'.'.'.'.'.'.'.'.'.E.I.I.N.m.m.v.g.x.x.x.g.g.g.f.f.y.5.>.>.6.y.X.$ $ $ $ > > > > , w w w n S S S S S Y Y Y Y Y Y Y Y Z Z Z Z Z S S Z Z Z U Y Y Y Y M f f f f f f t * * * * , 9 9 9 9 9 9 9 9 w w i x #.#.#.>.>.#.#.<.#.#.>.>.#.| } } } Z M M M M M M z t % @ @ @ % % % % > 9 9 w t t z U U ",
"Q Y U Z M Y Q Q Q Q Q } 6.6.6.#.X.X.X.<.y.f.C.C.C.C.V.V.v.y.y.y.6.#.#.#.X.} } } ( ( ( ( ( ( T T Q ( } } } } } } } } } | X.| | ( ( ( ( ( Q T T T T ( ( T ( T T Q ( ( } } } } } } } } o.o.o.o.X.:.>.>.>.>.>.6.6.6.6.6.6.6.6.8.f.f.f.8.x.N.N.N.N.N.N.N.N.N.N.N.N.N.N.N.N.N.N.N.J.].].R $ $ $ $ $ $ $ , m c Q 5.5.5.5.>.| | | | ..| | | | | | | | ..o.o.o.o.o.o.o.o.#.3.>.>.3.3.3.3.>.3.>.3.>.5.G.G.A $ $ $ $ $ 7 9 z M Z Y Y Y Y Y Y Y Y Y Y T ( ( ) k.<.( ( ( 6.y.g.g.g.g.h.h.k.f.y.y.6.>.#.| | | | ~ ( ( ( ~ ~ ~ ~ ~ ( ( ( ( ( ( ( ( ( ( ( ( ~ ~ ~ ( X.P.E.E.E.6.) ) ) A A A A e $ $ $ $ $ $ $ t t z >.>.>.>.>.>.>.>.:.:.>.>.:.>.>.<.1.1.<.<.<.<.1.1.<.<.<.<.<.<.<.<.<.<.<.<.<.<.<.<.<.<.<.<.>.>.>.>.>.>.>.>.>.X. . .X.X.X.X.>.>.>.>.6.6.6.6.6.6.% % % % % % , z U ~.'.'.'.'.'.'.'.'.'.'.~.I.I.J.m.m.m.f.x.x.f.f.h.h.f.h.y.6.>.>.<.y.>.s * % > > > > > 9 w w w Z S S S S U Y Y Y Y Y Y Y U Z Z Z Z Z Z Z Z Z Z Z Y Y Y Y Y n f f f f f f , * * * , 9 w t t e w 9 9 9 w i T >.>.>.>.>.>.>.<.>.>.>.>.>.#.| } } Y M M M M M M s t , @ @ @ @ % % % : 9 9 w t f U U U ",
"Q Q Q Q Q Q Q Q Q Q Q Q } 6.6.y.<.#.<.y.v.C.C.C.C.C.C.m.y.y.y.y.6.<.#.#.#.} } } ( ( ( ( ( ( ( } } } } } } } } } } } } } } } ( ( T T ( ( Q T ( ( ( T T T T ( ( Q T T ( } } } } } } } | o.o.o. .:.>.3.>.>.5.6.6.6.6.6.6.6.7.f.f.f.f.f.m.N.N.N.N.N.N.N.N.N.N.N.N.N.N.N.N.N.N.N.N.I.].f.$ $ $ $ $ $ $ > m c } 5.5.5.5.>.| | | | | | | | | | | | | ..o.o.o.o.o.o.o.o.#.3.>.3.3.3.5.5.>.>.>.3.3.3.c.G.A $ $ $ $ $ 9 9 M M U Y Y Y Y Y Y Y Y Y Y Y T ( ( ( ( Y ( ( y.y.g.g.f.h.h.k.k.f.y.y.6.<.#.| | | | ) ( ( ( ( ~ ~ ( ( ( ( ( ( ( ( ( ( ( ( ( ( ~ ~ ~ ( | | m.E.E.m.) ) ) F A A A 9 $ $ $ $ $ $ $ t t z >.>.>.>.>.>.>.>.>.:.>.>.:.>.>.<.<.1.<.<.<.<.<.5.5.<.<.<.<.<.<.<.<.<.<.<.>.>.>.>.>.>.>.>.>.>.>.>.>.>.>.>.o.X. . .X.X.X.X.:.>.>.>.5.6.6.6.6.6.% % % % % % , Y ~.'.'.'.'.'.'.'.'.'.'.'.'.I.I.I.N.m.m.m.g.g.g.h.h.h.h.h.f.y.<.>.>.5.>.U > > > > > > > w w w z S S S S S Y Y Y Y Y Y Y Y S S Z Z Z Z Z Z Z Z Z Z U Y Y Y Y U f f f f f f z , * * 9 9 t i i i i t e w 9 i X.>.>.>.>.>.>.>.>.>.>.>.>.>.>.#.| } } M M M M M M s t , $ @ @ @ % % % , 9 9 t f U U U U ",
"Q Q Q Q Q Q Q Q Q Q Q Q Q } 5.y.6.6.i.m.C.V.V.C.C.C.m.y.y.y.y.y.6.5.X.X.#.} } } T T T T ( } } } } } } } } } } } } } } } } ( ( ( T ( ( T T T ( ( T T Y Y T ( ( ( T ( ( ( } } } } } } | |  . . .:.>.>.3.>.6.6.6.6.6.6.6.7.f.f.f.f.f.f.N.N.N.N.N.N.N.N.N.N.N.N.N.N.N.N.N.N.N.N.N.N.E.N., $ $ $ $ $ $ $ z z } 3.5.5.#.| | | | | | | ..| | | | | ....o.o.o.o.o.o.o.o.>.3.3.3.>.>.>.3.3.3.3.3.3.3.f.G.A $ $ $ $ $ 9 e M M Y Y Y Y Y Y Y Y Y Y Y Y T T ( ( Y w ( } y.y.h.h.h.h.g.g.g.f.y.y.6.<.>.| | | | | ( ( ( ( ( ( ( ( ~ ( ( ( ( ( ~ ~ ( ( ( ( ~ ~ ( ( ) | X.P.E.P.) ) ) ! A A A , $ $ $ $ $ $ $ t t z >.>.>.>.>.>.>.>.>.:.:.:.>.>.>.<.<.<.<.<.<.<.<.<.<.<.<.<.>.<.<.<.<.<.<.>.>.>.>.:.o.o.X.o.o.o.o.:.>.>.>.:.X.X. . .X.X.X.X.X.>.>.>.>.6.6.6.6.<.% % % % % % 3 Z '.'.'.'.'.'.'.'.'.'.'.'.'.E.I.I.C.m.m.m.m.x.g.g.g.g.g.f.f.y.5.>.>.>.>.X.> > > > > > , w w w Z S S S S S Y Y Y Y Y Y Y U S S S Z S Z Z Z S S S S Z R Y Y Y Y n f f f z n M z , 7 9 9 t t i i i i i i t z <.#.>.>.>.>.>.#.>.>.>.>.>.>.#.#.#.#.X.S M M M M M t t , % $ @ $ ; ; , 9 w t x U U U U U ",
"Q Q Q Q Q Q Q Q Q Q Q Q Q } #.#.6.v.C.C.C.C.C.C.C.h.y.y.y.y.y.y.6.6.#.X.#.X.} } T ( T T ( } } } } } } } } } } } } } } } ( ( ( ( T Q ( T ( ( ( T T Y Y Y T ( ( ( T T ( ( } } } } } } }  . . . .:.>.>.3.>.6.6.6.6.6.6.7.f.f.f.f.f.f.f.N.N.N.N.N.N.N.N.N.N.N.N.N.N.N.N.N.N.N.N.N.N.N.N.} $ $ $ $ $ $ $ z z } #.#.X.| | | | | | | | ....| | | | ....X.o.o.o.o.o.o.o.>.5.3.3.>.>.3.3.>.>.>.>.3.>.6.G.Z $ $ $ $ * 9 z M Z Y Y Y Y Y Y Y Y Y Y Y Y T T ( ( t w ~ #.y.y.f.h.k.h.g.g.g.f.y.y.5.<.>.| | | | | | ) ( ( ( ( ( ( ( ( ( ( ( ( ~ ~ ( ( ( ( ~ ~ ( ( ) | X.y.E.E.| ) ) ~ A A A % $ $ $ $ $ $ % t t z >.>.>.>.>.>.>.>.>.>.>.>.>.>.>.<.<.<.<.<.<.<.<.<.<.<.<.>.>.>.>.>.>.>.>.:.>.>.X.X.X.X.X.X.X.X.X.X.X.o.X.X.X.X.| | | | | | X.o.>.>.>.5.6.6.6.( % % % % % % , Z E.'.'.'.'.'.'.'.'.'.'.'.'.~.I.I.K.m.m.m.m.v.x.x.g.g.g.f.f.i.6.>.>.>.>.>., > > > > > 9 w w z S S S S S S Y Y Y Y Y Y Y Z S S S Z S S Z Z M M S S Z U Y Y Y Y Y z f z M M M M f 9 9 9 t t i i i i i i i M <.#.>.>.>.>.#.#.>.>.>.>.>.>.<.<.<.#.#...M M M M M t t 9 % % @ % ; > 9 9 t U Y } o.o.X.( ",
"Q Q Q Q Q Q Q Q Q Q Q Q Q } #.#.#.6.m.C.C.C.C.v.y.y.y.y.y.y.y.y.y.r.#.o.#.X.} } ( ( ( ( ( ( } } } } } } } } } } } } } } T ( T T T T ( ( ( ( T T T T Y Y T ( ( ( ( ( T ( ( } } } } } }  . . .o.>.>.>.>.>.6.6.6.6.6.6.f.f.f.f.f.f.f.f.f.N.N.N.N.N.N.N.N.N.N.N.N.N.N.N.N.N.N.N.N.N.N.N.m.$ $ $ $ $ $ $ z z } | | | | | | | ....| | | | | | | | | ..| o.o.o.o.o.o.o.#.>.3.3.>.>.>.>.o.o.o.o.#.>.5.G.A $ $ $ $ , 9 n M S Y Y Y Y Y Y Y Y Y Y Y Y T T ( U w e T 6.6.y.f.g.k.k.g.g.g.f.y.y.<.<.>.X.| | | | | | ) ( ( ( ~ ~ ( ( ( ~ ~ ~ ~ ~ ( ( ( ( ( ~ ( ( ~ | X.X.I.E.1.) ) ) ~ ! A $ $ $ # # $ $ * t t t >.>.>.>.>.>.>.>.>.>.>.>.>.>.>.<.<.<.<.<.<.<.<.<.<.<.<.>.>.>.>.>.>.>.>.:.>.X.X.X.X.X.| | | | | | | | | | | | | | | | | | | X.:.>.>.<.6.6.6.Q % % % % % % , Z 6.'.'.'.'.'.'.'.'.'.'.'.'.'.I.I.I.N.m.m.m.m.v.x.x.g.v.v.h.f.y.<.>.>.>.>.n , > > > , w w w Z S S S S S U Y Y Y Y Y Y U Z S S Z Z S S x x x x x M Z Z U Y Y Y Y Z z M M M M M M e 9 w t i z i t t i i i Q <.<.>.>.>.<.>.#.<.<.#.#.>.>.>.<.>.<.5.r.Q M M M M t t w % % % % % 9 9 9 t U o.#.#.#.#.#.",
"} Q Q Q Q Q Q Q Q Q Q Q Q X.#.#.#.#.#.i.V.b.y.y.y.y.y.y.y.y.y.y.y.r.o.o.#.} } ( ( ( ( ( ( T } } } } } } } } } } } } } ( T ( T T ( ( ( ( ( T T T T T Y T T ( T T ( ( ( Q ( ( } } } } }  . .X.o.>.>.>.>.>.6.6.6.6.6.7.f.f.f.f.f.f.f.f.f.f.N.N.N.N.N.N.N.N.N.N.N.N.N.N.N.N.N.N.N.N.N.N.N.a $ $ $ $ $ $ k z | | | | | | | | ....| | | | | | | | | | | X.o.o.o.o.o.o.o.#.>.3.>.>.>.o.o.o.o.o.#.>.>.G.n $ $ $ $ 9 e M M Y Y Y Y Y Y Y Y Y Y Y Y Y Q T ( z w t ( 6.y.y.g.g.k.k.g.g.f.y.y.5.<.<.:.o.| | | | | | | ( ( ( ( ~ ( ( ~ ~ ~ ~ ( ( ( ( ( ( ( ( ( ( ( X.X.X.k.E.k.) ) ) ) ) A $ $ $ $ # $ $ , t t t >.>.>.>.>.>.>.>.>.>.>.>.>.>.>.<.<.<.<.<.<.<.<.<.<.<.>.>.>.>.>.>.>.>.>.>.:.X.X.X.X.| | | | | | | | | | | | | | | | | | | | | X.:.>.>.6.6.6.U % % % % % % % M Z ~.'.'.'.'.'.'.'.'.'.'.'.'.U.I.I.C.m.m.v.m.m.x.x.x.v.v.h.h.y.6.>.>.>.>.Q w , > > 9 w w M Y U S S S S U Y Y Y Y Y Y Z Z Z Z Z Z S M x x x x x x n Z Z U Y Y Y Y M M M M M M M M z M M M M M f i i i i #.#.#.#.>.>.#.>.#.#.#.#.#.>.>.>.>.>.5.r.V.V.Z M M M t t t % % % % % 9 9 9 t U #.#.#.#.#.#.",
"X.| T T Q Q Q Q T T T Q } #.#.#.X.o.o.#.#.y.y.y.y.y.y.y.y.y.r.r.y.5.o.X.X.} } ( ( ( T Q Q ( ( } } } } } } } } } } } ( T T T ( ( ( ( T T Y T T T T T T T T ( ( T ( ( ( ( ( ( T ( } } } | | | o.>.>.>.>.>.6.6.6.6.6.8.f.f.f.f.f.f.f.f.f.f.f.m.N.N.N.N.N.N.N.N.N.N.N.N.N.N.N.N.N.N.N.N.N.z $ $ $ $ $ $ r m | | | | | | | | ..| | | | | | | | | | | | | o.o.o.o.o.o.o.o.o.>.>.>.#.o.o.o.o.o.#.>.>.G.n $ $ $ % 9 i M U Y Y Y Y Y Y Y Y Y Y Y Y ( ( ( T w w e X.y.y.s.g.g.k.k.k.y.y.y.y.<.<.<.#.#.o.| | | | | | X.( ( ( ( ( ( ~ ( ( ( ( ( ( ( ( ( ( ( ( ( ( | | | 6.E.L.) ) ) ) ) x $ $ $ $ $ $ % , t t t >.>.>.>.>.>.>.>.>.>.:.>.>.>.>.>.<.<.<.1.1.1.<.<.<.>.>.>.>.>.:.o.X.X.X.X.X.X.X.X.X.| | | | | | | | | | | | | | | | | | | | | | | >.>.5.6.6.U % % % % % % % Z Z X.'.'.'.'.'.'.'.'.'.'.'.'.E.I.I.J.m.m.g.g.f.g.h.f.h.v.g.g.i.y.<.>.>.>.X.w w 3 , w w z Y Y U S S S S Y Y Y Y Y Y Y Z Z Z Z Z Z Z n x x x x x x x x Z Z R Y Y Y Y U M M M M M M M M M M M U n i t i z >.>.#.>.>.>.>.#.#.#.<.>.>.#.#.#.#.5.5.V.C.C.y.M M M z t t % % % % % 9 9 9 t f } #.#.#.#.#.",
"X.o.X.( Q Q Q Q T T T T X.#.#.#.X.o.o.#.#.5.y.y.y.y.y.y.y.r.r.y.5.#.#.#.X.} } ( ( ( T T ( ( } } } } } } } } } } } ( T T T T ( ( ( T Y T Y T T T T T T T T ( T T T Q ( T ( ( T T ( } } | | | o.>.>.>.>.>.6.6.6.6.6.f.f.f.f.f.f.f.f.f.f.f.f.f.v.N.N.N.N.N.N.N.N.N.N.N.N.N.N.N.N.N.N.N.N.n $ $ $ $ $ $ r m | | | | | | | | | | | | | | | | | | | | | | | o.o.o.o.o.o.o.o.o.#.o.o.o.o.o.o.o.>.>.>.G.V $ $ $ , 9 x S Y Y Y Y Y Y Y Y Y Y Y Y Y ( ( ( Z w w w >.y.y.y.g.g.k.f.y.y.y.y.<.<.<.>.#.#.o.X.| | | | | | X.( ~ ( ( ( ~ ( ( ( ( ( ( ( ( ( ( ( ~ ) | | | | | I.E.-.) ) ) ) t $ $ $ $ $ $ , , t t t :.>.>.>.>.:.>.>.:.:.:.>.>.>.>.>.>.>.>.>.>.<.<.<.>.>.>.>.:.X.X.X.X.X. . .X.X.X.X.X.| | | | | | | | | | | | | | | | | | | | | | | X.>.>.6.6.U % % % % % % % Z Z Z m.'.'.'.'.'.'.'.'.'.'.'.E.I.I.K.m.m.g.g.g.g.h.f.h.x.k.k.f.y.5.>.>.>.>.z w w w w t Y Y Y S S S S S Y Y Y Y Y Y U Z Z Z Z Z Z n x x x x x x x x x x M Z Y Y Y Y Y Y Y U P Z Z Z S U Y Y Y U t i i S #.>.#.>.>.>.>.#.>.>.<.>.>.#.#.#.<.5.y.C.C.V.V...M M M s t , % % % % , 9 9 s f n #.#.#.#.#.",
"o.o.o.o.X.X.( Q T T T } #.#.X.X.X.X.#.#.#.#.y.y.y.y.y.y.y.y.5.#.#.o.#.#.| } } T ( T T T ( ( } } } } } } } } } ( T T ( Q ( ( ( ( ( T T T T T T T T T T T T T ( ( T ( ( T ( Q ( ( ( } } | | X.o.>.>.>.>.5.6.6.6.6.6.f.f.f.f.f.f.f.f.f.f.f.f.f.f.g.N.N.N.N.N.N.N.N.N.N.N.N.N.N.N.N.N.N.N.n $ $ $ $ $ $ , z ....| | | | ....| | | | ....| | | | | | | | | X.o.o.o.o.o.o.o.o.o.o.o.o.o.o.o.o.o.o.>.G.Z $ $ $ 9 9 S Y Y Y Y Y Y Y Y Y Y Y Y Y T Q ( ( t w w w X.y.y.y.f.f.y.y.y.y.y.5.<.<.>.#.#.o.o.o.X.| | | | | | | ) ~ ~ ( ( ( ~ ~ ( ( ( ~ ~ ) ) | | | | | | | X.V.E.m.) ) ) ) , $ $ $ $ $ $ , , t t t ( >.>.>.:.>.>.>.>.>.:.>.>.>.>.>.>.>.>.>.>.>.>.>.>.>.>.o.X.X.X.X.X.X. .X.X.X. . . .| | | | | | | | | | | | | | | | | | | | | | | | :.>.6.6.U : % % % % % % Z Z Z Z ~.'.'.'.'.'.'.'.'.'.'.I.I.I.L.m.m.v.x.g.g.f.f.f.f.g.k.g.i.y.>.>.#.>.Z w w w w S Y Y U S S S S S Y Y Y Y Y Y Y Y U Z Z Z M x x x x x x x x x x x x Z Z R Y Y Y Y Y Y Y Y Y Y Y Y Y Y Y Q z i t ( #.>.>.>.>.>.>.>.#.>.>.>.>.#.#.<.5.5.a.C.C.C.V.C.Y M M M n w % % % ; > 9 9 s f z X.#.#.#.#.",
"#.#.o.o.o.#.#.} T T Q #.#.#.X.X.X.X.#.#.#.#.5.y.y.y.y.y.y.6.5.#.#.#.#.X.} } } T ( ( T T ( } } } } } } } } } } ( ( Q ( ( ( ( ( ( T T T T T T T T T T T T T T T ( T T T ( ( ( ( Q ( } } |  .X.o.>.>.>.>.5.6.6.6.6.6.f.f.f.f.f.f.f.f.f.f.f.f.f.f.f.f.g.v.v.v.m.N.N.N.N.N.N.N.N.N.N.N.N.N.U $ $ $ $ $ $ > M ....| | | | ..| | | | | ......| | | | | | | | | o.o.o.o.o.o.o.o.o.o.o.o.o.o.o.o.o.o.o.f.A $ $ % 9 z Y Y Y Y Y Y Y Y Y Y Y Y Y Y Q Q ( Y w w w w 1.y.y.y.y.y.y.y.y.y.<.<.<.>.#.#.#.#.o.o.X.X.X.X.| | | | | ) ( ( ( ( ( ~ ~ ) | | | | X.| | | | | | | X.y.E.E.:.) ) ) $ $ $ $ $ $ $ , , t t t ) >.>.>.>.>.>.>.>.>.>.>.>.>.>.>.>.>.>.>.>.>.>.>.:.o.X.X.X.X.X.X.X.X. . .X.X. . . .X.| | | | | | | | | | | | | | | | | | | | | | | X.>.6.6.U , % % % % % % Z Z Z Z X.'.'.'.'.'.'.'.'.^.U.I.I.I.I.m.m.v.x.x.g.f.f.g.h.g.g.g.f.y.5.>.} >.X.w w w x Q Y Y S S S S S S Y Y Y Y Y Y Y Y Y Y Z Z x x x x x x x x x x x x x Z Z Z R Y Y Y Y Y Y Y Q Q ( } } } } } S i i #.#.>.>.>.>.>.>.>.>.>.>.>.>.#.#.<.5.5.a.C.C.C.C.C.V.Z M M M z % % ; ; % 9 9 s z z M #.#.#.#.",
"#.#.o.#.o.o.o.X.Q Q X.#.#.o.o.o.#.#.#.#.#.#.#.6.6.6.y.y.6.6.5.#.#.#.X.} } } } ( T T T T ( } } } } } } } } } } ( ( ( T T T ( ( ( ( T T T T T T T T T T T T T T ( T T ( ( ( T T T ( } } |  . . .>.>.>.>.5.6.6.6.6.6.f.f.f.f.f.f.f.f.f.f.f.f.f.f.f.f.f.f.f.5.6.N.N.N.N.N.N.N.N.N.N.N.N.N.U $ $ $ $ $ $ % M | | | | | | | | | | | | | | | ....| | | | ....| X.o.o.o.o.o.o.o.o.o.o.o.o.o.o.o.o.o.o.} 9 $ $ , 9 Y Y Y Y Y Y Y Y Y Y Y Y Y Y Y Q Q ( M w w w t y.y.y.y.y.y.y.y.6.<.<.<.<.#.#.X.| X.X.X.X.| | | | | | | | | ) ( ( ( ( ) | | | | | | | | | | | X.| | | X.E.E.h.| ) Y $ $ $ $ $ $ $ , , t t t T >.>.:.>.:.>.>.>.>.:.>.>.>.>.>.:.>.>.>.>.o.X.X. . .|  . . .X.X.| |  . . . .X.X.X.X.| | | | | | | | | | | | | | | | | | | | | | | X.:.6.6.U , % % % % % % M M M Z Z G.'.'.'.'.'.'.~.I.I.I.I.I.I.m.m.v.g.g.g.f.f.x.v.v.v.x.x.f.6.#.) X.#.s w w X.X.Y Y S S S S S S Y Y Y T ) ( ( ( ( ( T M x x x x x x x x x x x x x M S S S U Y Y Y Y Y Y } } } } } } } } ( i M >.#.#.<.#.<.>.>.>.>.#.#.<.<.>.>.<.5.5.a.C.C.C.C.C.C.a.M M M M % % % % % 9 9 s f f z #.#.#.#.",
"6.6.6.#.o.o.o.o.o.o.#.o.o.o.o.o.#.o.#.#.#.#.X.5.6.6.y.y.6.6.5.#.#.X.} } } } } ( T T T ( } } } } } } } } } } } ( ( ( T T T ( ( ( ( T T T Y T T T T T T T T T T T T ( ( ( ( T T T } } } X. . . .>.>.>.>.5.6.6.6.6.6.f.f.f.f.f.f.f.f.f.f.f.f.f.f.f.f.f.f.7.5.5.f.N.N.N.N.N.N.N.N.N.N.N.N.U $ $ $ $ $ $ $ M | | | | | | ..| | | | | | | | ..| | | | ....| | | o.o.o.o.o.o.o.o.o.o.o.o.o.o.o.o.o.o.Q 9 , 9 9 n Q T Y Y Y Y Y Y Y Y Y Y Y Y Y T T ( e w w w M 6.y.y.y.y.y.y.6.<.<.<.<.>.#.X.| | | | | | | | | | | | | | | | ) ( ( ) | | | | | X.X.| | | | X.X.| | | | V.P.h.6.) Z $ $ $ $ $ $ $ , , t t t T >.>.>.:.>.>.>.>.>.:.>.>.>.>.>.>.>.:.o. .X.X.X. . .| |  . .| } ( ~ )  . . . .X.X.X.X.| | | | | | | | | | | | | | | | | | | | | | X.X.6.5.U , % % % % % % x M Z Z Z ( '.'.'.'.'.E.I.I.I.I.I.I.I.m.m.m.g.g.g.f.g.x.h.v.v.g.x.f.y.>.) } >.Z w M #.>.Y U S S S S S S Y Y T ( ) ( ( ( ) ) ( Z n x x x x x x x x x x x x Z S S S Z U Y Y Y Y Y Q } } } } } } } } n ( #.#.<.5.5.5.5.5.<.>.#.#.#.<.>.>.5.5.5.a.C.C.C.C.V.V.C.r.M M M , % % % % 9 9 t f f f Y #.#.#.",
"6.6.6.<.o.o.o.o.o.o.o.o.o.X.o.o.X.X.X.X.#.X.X.#.y.y.y.y.y.6.5.o.#.o.X.} } | } } } ( ( ( } } } } } } } } } } } } ( T T T ( ( ( ( ( T Y Y Y T T T T T T T T T T T T T ( ( ( ( T } } } | X.X.X. .>.>.>.>.>.6.6.6.6.6.f.f.f.f.f.f.f.f.f.f.f.f.f.f.f.f.f.f.5.5.5.5.N.N.N.N.N.N.N.N.N.N.N.N.T $ $ $ $ $ $ $ M | | | | | | | ....| | | | | | | | | | | | | | | | X.o.o.o.o.o.o.o.o.o.o.o.o.o.o.o.o.o.U 9 9 9 e T Q ( Y Y Y Y Y Y Y Y Y Y Y Y Y T Q U w w w w ( <.y.y.y.y.y.6.<.<.<.>.>.#.X.| | X.X.| | X.X.| | X.X.| | | | X.| ) ~ | | | | | X.X.| | | | | X.| | | | | <.m.h.h.| f $ $ $ $ $ $ $ , , t t t T >.>.>.>.>.>.>.>.>.>.>.>.>.>.>.>.:.X.X.X.X.X.X. .X. .| X.| ( ( ~ ~ ~ |  . . .X.X.X.X.| | | | | | X.X.| | | | | | | | | | | | | | X.X.5.>.U , % % % % % % n M M Z Z Z ~.'.'.~.E.I.I.I.I.I.J.N.m.m.m.m.g.x.g.g.f.f.h.f.f.g.g.g.i.6.) ) #.X.t #.>.>.Y S S S S S S U Y Y ( ) ) ( ( ) ) ) Q R Z Z n x x x x x x x x x x Z Z S S Z Z U U Y Y Y Y } } } } } } } } Q #.<.#.<.5.5.5.5.5.5.5.<.#.<.<.>.>.5.5.r.a.C.C.C.V.a.V.V.C...M M w % ; % % , 9 t s f s z #.#.#.",
"6.6.6.6.#.o.o.o.o.o.o.o.X.X.o.o.X.X.X.X.#.X.X.X.5.y.y.y.y.y.5.o.o.#.#.#.| } } } } } ( ( } } } } } } } } } } } } } ( T T ( ( ( ( ( ( T T Y T Y Y T T T T T T T T T T ( ( ( ( ( } } } X.X.X.o. .>.>.>.>.>.6.6.6.6.6.f.f.f.f.f.f.f.f.f.f.f.f.f.5.5.6.7.8.>.5.<.<.c.N.N.N.N.N.N.N.N.N.N.N.T $ $ $ $ $ $ $ n | | | ..| | ......| | | | | | | | | | | | | | | | X.o.o.o.o.o.o.o.o.o.o.o.o.o.o.o.o.o.x 9 9 9 M Q ( ( Y Y Y Y Y Y Y Y Y Y Y Y Y T Q z w w w w <.<.6.y.y.y.6.<.<.<.<.>.>.o.| | | | | | | X.| | | X.X.| | | | X.X.| X.X.| | | | X.| | | | | | | | | | | | | f.h.f.<.9 $ $ $ $ $ $ $ , , t t t T >.>.>.>.>.>.>.>.>.>.>.>.>.>.>.o.X.X.X.X.X.X.X.X.| | } ) ( ( ( ~ ~ ~ ~ |  . . .X.X.X.X.| | | | | X.X.| | | | | | | | | | | | | | X.X.5.>.U % % % % % % % x M M Z Z Z f.E.I.I.I.I.I.I.J.N.m.m.m.m.m.m.v.g.x.f.f.f.h.f.g.g.g.h.f.y.X.) X.>.( >.>.#.Y S S S S S S U Y Q ) ( ( ( ( ) ) ) T Y Z S S n x x x x x x x x n Z S S S Z Z Z Z U Y Y Y Q } } } } } } } } >.#.<.5.5.5.5.5.5.5.5.5.5.5.<.<.<.5.5.r.a.C.C.C.v.a.a.B.C.C.R M t ; ; % % , 9 w s s s z X.#.#.",
"6.6.6.6.5.o.o.o.X.X.X.X.o.o.o.o.#.#.X.X.X.X.X.X.#.6.6.6.6.6.#.o.o.#.#.#.#.} | } } } ( ( } } } } } } } } } } } } } } ( ( ( T T T T T T T T T T T T T T T T T T T T ( ( ( ( ( } } }  .X.X.o.o.o.>.>.>.>.>.6.6.6.6.6.f.f.f.f.f.f.f.f.f.f.f.f.5.5.5.>.>.5.5.5.5.>.q.f.N.N.N.N.N.N.N.N.N.N.n $ $ $ $ $ $ $ z | | | o...| | | ..| | | ......| | ..| | | | | | | | o.o.o.o.o.o.o.o.o.o.o.o.o.o.o.o.o.t 9 9 9 T ( ( ( Y Y Y Y Y Y Y Y Y Y Y Y T ( T w w w w x <.<.<.y.y.6.<.<.<.<.<.>.#.X.| | | X.X.| | X.| | | | X.| | | | | | | | X.X.| | | X.| | | | | | | | | | X.X.| s.h.h.y.% $ $ $ $ $ $ $ , 9 t t t T >.>.>.>.>.>.>.:.:.>.:.:.>.>.o.X.X. . . . .X.| ) ( ( ( ( ( ( ( ( ( ( ( (  . .X.X.X. .X.| | | | | X.X.| | | | | | | | | | | | | | X.X.>.>.U % % % % % % % s M Z Z Z Z o.I.I.I.I.L.C.m.m.m.m.m.m.m.m.m.m.x.x.f.g.g.g.f.f.h.h.f.f.y.5.) } #.#.>.>.} T U S S S S S Y T ) ) } ( ( ( ) ) ( ( Y U S S Z x x x x x x x x M Z Z Z Z S S Z Z Z Z U Y Y } } } } } } } X.>.>.<.5.5.5.5.5.5.5.5.5.5.5.5.5.5.5.5.r.a.C.C.C.a.a.a.a.V.C.V.Z t ; ; % % , 9 w f f f f Y #.#.",
"6.6.6.6.6.5.#.o.X.X.X.X.o.o.o.o.#.#.X.X.X.X.X.X.#.#.r.r.6.5.#.#.#.#.X.o.#...} } } ( ( ( ( } } } } } } } } } } } } } } ( Q T T T T T T T T T T T T T T T T T T T T Q ( ( ( ( } } | o. . .o.o.o.>.>.>.>.>.6.6.6.6.6.f.f.f.f.f.f.f.f.f.f.f.q.5.5.<.>.>.5.<.5.5.>.6.f.f.g.m.N.N.N.N.N.N.N.n $ $ $ $ $ $ $ w | | X.o.X.| | ....| | | | | ..| | ....| | | | | | | o.o.o.o.o.o.o.o.o.o.o.o.o.o.o.o.o.9 9 9 z ( 5.| T Y Y Y Y Y Y Y Y Y Y Y Y ~ ( Z w w w w ( <.<.<.6.y.<.<.<.<.<.<.>.X.| | | | X.| | | | | | | X.X.| | | | | | | | X.X.| | | X.X.| | | | | | | | | X.X.| f.h.h.y.9 $ $ $ $ $ $ $ , w t t t Y >.>.>.>.>.>.>.>.>.>.:.>.>.>.X.X.X. . . . .| ( ( ( ~ ~ ( ( ( ( ( ( ( ( ( }  . .X.X. . .X.| | | | X.X.| | | | | | | | | | | | | | X.X.>.<.U % % % % % % % t M M Z Z Z | I.I.L.C.m.m.m.m.m.m.N.m.m.m.m.m.v.x.f.g.g.g.f.f.h.h.f.f.y.y.} ( X.#.>.X.( T U S S S S S Y ( ) ( } } ( ( ) ) ( ) Q Y S S Z n x x x x x x x Z S Z Z Z S S Z Z Z Z Z U Y ( } } } } } ..>.>.>.5.5.5.5.5.5.5.5.5.5.5.5.5.5.5.5.5.y.a.V.C.V.a.a.a.a.a.V.C.v.t ; ; % % , 9 w f f f f z #.#.",
"6.6.6.6.6.6.6.#.o.o.o.o.o.#.#.#.#.#.#.#.X.X.X.X.#.#.<.r.<.X.o.#.X.X.X.X.X.| } } } Q ( ( T } } } } } } } } } } } } } } } ( ( Q Q ( T ( T T T T T T T Y Y T T T T ( ( ( ( ( ( } } X.X. . .o.o.o.>.>.>.>.>.6.6.6.6.6.f.f.f.f.f.f.f.f.f.f.f.5.5.>.<.>.>.<.<.5.<.>.>.f.f.f.f.f.g.x.f.f.N.N.n $ $ $ $ $ $ $ % | | o.o.o.X.....| | | | | | | | | | | | | ....| | | o.o.o.o.o.o.o.o.o.o.o.o.o.o.o.o.} w 9 9 U 5.i.) Y Y Y Y Y Y Y Y Y Y Y Y T ( ~ t w w w e <.<.<.<.<.<.<.<.<.<.<.<.#.X.| | | | | | | | | | | | | | | | | | | | X.X.| | | | | | X.X.| | | | | X.| | | | X.h.h.h.i.Q U U t $ $ $ $ , t t t t Y >.>.>.>.>.>.>.>.>.>.>.>.>.:.X.X.X. . . .| ( ( ( ( ~ ( ( ( ~ ( ( ( ( ( ( ( | X.X.X.X. .X.| | | | X.X.X.| | | | | | | | | | | | | X.X.>.B.U % % % % % % % t Z Z Z Z ( } J.J.m.m.m.m.m.m.m.m.N.N.m.m.m.m.m.x.g.g.x.g.x.x.h.h.g.f.y.y.} ) } #.>.} ) T U S S S S U T ) ( ( ( ( ( ( ) ) ( ) ( Y U S Z M x x x x x x n U Y U Z Z Z S Z Z Z Z Z U Y Q } } } } X.#.#.>.>.>.<.5.5.5.5.5.5.5.5.5.5.5.5.5.5.5.y.a.V.C.V.v.a.a.a.a.a.C.C.k ; % % % , 9 w f z f s s o.#.",
"6.6.6.6.6.6.6.6.<.#.o.o.o.#.#.#.#.#.#.#.#.o.o.#.#.#.#.#.X.X.#.#.X.X.X.X.| } } } ( Q ( ( T T T T ( ( ( ( T T T T T T ( ( ( ( ( Q ( ( ( T T T T T T T Y T T T T T ( ( ( ( ( } } } X. . . .o.o.o.>.>.>.>.>.6.6.6.6.6.f.f.f.f.f.f.f.f.f.f.f.| ~ >.>.>.>.5.5.5.<.>.>.5.f.f.f.f.f.f.f.f.N.N.n $ $ $ $ $ $ $ $ R X.o.o.o.X.| | | | | | | | | | | | | | ....| | | X.#.#.o.o.o.o.o.o.o.o.o.o.o.o.o.o.S w 9 e <.f.i.( Y Y Y Y Y Y Y Y Y Y Y T ( ( U w w w w U <.<.<.<.<.<.<.<.<.<.<.>.#.| | | | | | | | | | | | | | | | | | | | | | | | | | | | | | | | | | | X.X.| | | | >.h.y.X.} T T T T , $ $ $ 3 t t t t U >.>.>.>.>.>.>.>.>.>.>.>.>.X.X.X.X.X.X.| ( ( ( ( ( ~ ~ ( ) | | ( ( ( ( ( ( ) X.X.X.X.X.X.X.| | | | X.X.| | | | | | | | | | | | | X.X.i.V.Y % % % % % % % , Z Z S } } } f.m.m.m.g.g.v.m.m.m.N.N.m.m.m.m.N.v.f.f.x.x.x.v.k.h.g.i.y.6.| ) ( X.| ) ) T S S S S S Y ( ) ( ( ( ( ( ( } } ( ( ) Q Y U Z Z x x x x x x M Y Y U Z Z Z Z Z Z Z Z Z Y Y Q } } } X.#.#.#.>.>.>.#.#.<.5.5.5.5.5.5.5.5.5.5.5.5.5.y.a.V.C.v.v.a.a.a.y.#.v.C.9 ; % % % 9 9 t f z z s s Q #.",
"6.6.6.6.6.6.6.6.6.5.#.o.o.o.o.o.X.X.X.X.X.X.#.#.o.X.X.X.#.#.#.#.X.X.X.| | | } } T T T Q ( ( ( T ( Q T T ( ( ( ( T T ( ( ( ( ( T ( ( ( T T T T T T T T T T ( ( ( ( ( ( ( ( } } } | o. . .o.X.:.>.>.>.>.>.5.6.6.6.6.f.f.f.f.f.f.f.f.f.f.5.Y Y >.>.5.5.5.5.<.<.<.<.>.5.f.f.f.f.f.f.f.N.N.x $ $ $ $ $ $ $ $ * | o.o.o.o.X.| | | | | | | | | | | | | | | | | | X.o.o.o.o.5.5.5.>.o.o.o.o.o.o.o.X.x 9 9 S i.i.6.T Y Y Y Y Y Y Y Y Y Y T ( ( ( z w w w w #.<.<.<.<.<.<.<.<.<.<.<.#.X.| | | | | | | | | X.X.| | | | X.X.| | | | | | | | | | | | | | | | X.X.| | | | X.X.6.h.( Q Q Q Q Q m % $ $ $ w t t t t U >.:.>.:.>.>.>.>.>.>.>.>.>.X. .X.X.X.X.) ( ( ( ( ( ( ( ( | | | ( ( ( ( ( ( ( | X.X.X.X.X.X.X.| | | X.X.| | | | | | | | | | | | | X.X.5.V.( % % % % % % % , Z Z } } } } m.m.m.m.m.x.x.x.g.g.g.v.m.m.m.m.m.m.h.h.f.f.f.g.g.g.f.y.y.>.} ) ( ( ) ) ) ( U S S S S Y ( ) ) ) ) ) ( ( ( ( ( ( ) ( Y U Z S n x x x x x U Y Y U Z Z Z Z Z S S S U Y Y Q } } } #.#.>.#.#.>.>.>.>.>.<.5.5.5.5.5.5.5.5.5.5.5.5.a.a.V.V.v.a.a.a.y.#.#.r.V.% % % % % 9 w s s f f f f U #.",
"6.6.6.6.6.6.6.6.6.6.6.5.5.5.5.#.X.X.X.X.X.X.#.#.#.X.X.X.#.#.#.X.| } | | | | } Q T T T T ( ( ( ( ( Q Q T ( ( ( ( T T ( ( ( ( T T ( ( ( ( T T T T T T T Y T ( ( ( T T ( ( ( } } } } X. . .X.X.:.>.>.>.>.>.5.6.6.6.6.f.f.f.f.f.f.f.f.f.f. .Y Y >.>.5.5.5.5.>.<.<.<.<.>.5.q.f.f.f.f.f.N.N.U $ $ $ $ $ $ $ $ $ M o.o.o.o.o.| | | | | | | | | ..| | | | | | | X.o.o.o.o.o.5.5.5.5.5.>.o.o.o.#.>.| j 0 9 6.i.i.X.T Y Y Y Y Y Y Y Y Y T ( ( ( T w w w w Z <.<.<.<.<.<.<.<.<.<.<.>.#.X.| | | | | | | | | | X.X.| | | | X.| | | | | | | | | | | | | | | | X.| | | | X.X.| f.y.Q Q Q Q Q Y >   X # $ t t t t t M >.>.>.:.>.>.>.>.>.>.>.>.>.X. .X.X.X.| ( ( ( ( ( ( ( ( } | | | ( ( ( ( ~ ~ ~ ) X.X.| X.X.X.X.| | | | X.| | | | | | | | | | | | X.X.X.<.V.+.% % % % % % % : M S } } } } m.m.m.m.m.v.x.x.g.g.f.g.x.v.m.m.m.m.h.f.y.y.y.y.i.f.y.y.5.o.} ) ) ) ( ) ) ( Y S S S U T ) ) ) ) ( ( ( ( ( ( ( ( ) ( Y Z Z S M x x x x Z Y Y Y U Z Z Z Z Z S Z U Y Y Y ( } } } } X.o.#.#.#.#.>.#.>.>.<.#.<.>.>.>.<.5.5.5.5.5.a.a.V.v.a.a.a.y.#.#.#.#.#.% % % % % w f s s s f f z M #.",
"6.6.6.6.6.6.6.6.6.6.6.6.6.6.6.<.#.o.#.#.#.#.#.#.#.#.X.X.X.X.| | } | | | } } } Q Q T ( ( ( ( ( ( ( ( T T ( ( ( ( T ( ( ( Q Q T T T Q T T T Y Y Y T T Y Y Y T ( ( T T T Q T } } } } | X.X.X.X.o.>.>.>.>.>.3.6.6.6.6.f.f.f.f.f.f.f.f.f.f.T Y } >.>.5.5.<.5.>.>.<.<.<.>.>.5.8.f.f.f.f.N.N.U $ $ $ $ $ $ $ $ $ > o.o.o.o.o.X.| | | | | | ......| | | | | | | o.o.o.o.o.o.>.5.5.5.5.5.5.5.5.5.5.| x t x i.i.i.( ( Y Y Y Y Y Y Y T Q ( ( ( ~ x w w w w #.<.<.<.<.<.<.<.<.<.<.>.#.#.X.| | | X.| | X.X.| | | | | | | | | | X.X.| | | | X.X.| | | | X.X.| X.| | | | | | X.h.X.Q Q Q Q Q s >       @ r t t t t n +.#.>.>.:.>.:.:.>.>.>.>.:.X.X.X.X.X.) ( ( ( ( ( ( ( } | | | | ( ( ~ ~ ~ ~ ( ( |  . .X.X.X.X.X.| | | X. .| | | | | | | X.X. .| X.X.X.<.V.<.% % % % % % % % M Z } } } X.v.m.m.m.m.m.x.x.x.g.f.f.g.g.x.x.x.x.h.i.y.<.#.o.>.6.6.5.o.o.} ) ) } X.X.) ( Y S S S Y ( ( ) ( ( ( ( } ( ( ( ( } } ( U Z S S S Z M M S U Y Y Y U S Z Z Z Z Z U Y Y Y Y } } } } } } X.X.X.X.X.X.#.>.>.#.#.>.>.>.>.#.#.#.<.5.5.a.a.V.a.a.a.a.#.#.#.#.#...% ; ; % > f f z z z f f f M #.",
"6.6.6.6.6.6.6.6.6.6.6.6.6.6.6.<.#.#.#.#.#.#.#.#.#.#.X.| } } } } | | | | } } Q Q Q ( ( ( ( ( ( ( ( ( T T ( ( ( Q T ( ( ( ( T T T T T T T T T Y Y T T Y Y Y Y ( ( T T Q Q T ( } } } | X.X.X.X.X.>.>.>.>.>.>.6.6.6.6.f.f.f.f.f.f.f.f.f.} x Y >.>.>.>.>.>.<.<.>.<.<.>.>.>.>.>.6.f.f.f.N.N.U $ $ $ $ $ $ $ $ $ $ } o.o.o.o.o.| | | | | | | ......| | | | | o.o.o.o.o.o.o.>.5.5.5.5.5.5.5.5.5.5.| x i <.i.i.6.( ( ( Q T T T T Q T T Q ( ~ ~ e w w w Z <.<.<.<.<.<.<.<.<.<.<.>.#.#.X.| | X.X.| X.X.| | | | | | | | | | X.X.| | | X.X.X.X.X.| | | | X.X.| | | | | | | y.f.Q Q Q Y M t 3 > . .   . + w t t t b +.+.+.#.>.>.>.>.>.>.>.:.:.X.X.X.X.X.( ( ( ~ ( ( ( ( | } | | } ( ( ( ~ ~ ~ ( ~ )  . . .X.X.X.X.X.X.| X.X.| | | | | | | X.X.X.X.X.X.X.<.V.y.% % % % % % % % n M U } } y.g.g.m.m.m.m.x.x.g.g.f.f.g.g.g.x.h.h.h.y.y.#.o.o.o.o.o.o.o.o.} ) | o.o.o.} ) T S S Y T ( ( ) ( ( ( ( ) ) ) ) ) ) ( Y S Z S S S S Z Z S U Y Y Y U Z Z Z Z Z Z Y Y Y Y Y } } } } } } } X.X.X.X.X.X.#.>.#.>.>.>.>.>.#.#.#.#.5.5.a.a.v.v.a.a.r.#.#.#.#.#.H ; ; ; ; , f b M M M n z f S #.",
"6.6.6.6.6.6.6.6.6.6.6.6.6.6.6.<.o.o.#.#.#.#.#.o.X.| | | } } } } } } } } } } } ( ( ( ( ( ( ( ( Q ( ( ( ( T T T Q ( ( Q Q ( ( ( ( ( ( ( T T T T Y T T T T Y T T ( ( ( T T ( ( } } } | X.X.o.o.o.o.>.>.>.>.>.5.6.6.6.f.f.f.f.f.f.f.f.| z z T >.<.<.:.:.:.:.>.5.5.5.<.<.<.<.>.>.5.q.f.N.N.U $ $ $ $ $ $ $ $ $ $ b o.o.o.o.o.X.| | | | | | ..| | | | | | o.o.o.o.o.o.o.o.>.5.5.5.5.5.v.x.f.6.5.>.x x i.i.i.>.T T Q Q ( Q Q T Q ( ( ( ( ( Z w w w w #.<.<.<.<.<.<.<.<.<.<.>.#.#.#.| | | | | | | | | | | | | | | | | | | | | | | | | | | | | | | | | | | | | | | | X.f.<.Q Q Y v s t 3 , +           # , r b +.&.&.&.+.>.>.>.>.>.>.>.>.X.X.X.X.| ~ ( ( ~ ~ ~ ~ ) | | | | } ( ( ( ( ( ( ( ( ( |  . .X.X.X.X.X.X.X.X.X. .| | | | | | X.X.X.X.X.X.X.<.V.p.% % % % % % % % x Z M Y X.g.g.g.f.v.m.v.g.g.f.f.f.g.g.g.h.h.h.h.g.y.y.>.o.o.o.o.o.o.o.o.X.X.o.o.o.o.| ( ( Y Y Y ( } ) ) ( ( } ( ) ) ( ( ( ( Y Y Z Z Z Z Z Z Z Z S Y Y Y Y U Z Z Z Z U Y Y Y Y Y Y Y Q ( } } } } ..X.X.X.X.X.#.#.>.>.>.>.<.<.>.<.#.<.5.5.a.a.v.v.a.a.#.#.#.#.#.#.r ; ; ; % 3 f z M M M M M z U #.",
"6.6.6.6.6.6.6.6.6.6.6.6.6.6.6.<.o.X.#.#.o.#.#.X.| | } | } } } } | } | } } } } } ( ( ( } } } } ( ( ( ( ( T T T T ( ( Q T ( ( ( ( ( ( T T T T T T T T T T Y T T T ( T T ( ( ( } } }  .X.X.o.o.o.o.>.>.>.>.>.3.6.6.6.f.f.f.f.f.f.f.5.x z z | >.>.>.:.:.:.:.>.>.5.5.>.5.5.<.>.>.>.5.f.N.N.Q $ $ $ $ $ $ $ $ $ $ , o.o.o.o.o.o...| | | | | | | | | | | o.o.o.o.o.o.o.o.o.5.5.5.5.5.5.f.v.v.v.x.5.x v i.i.i.X.T ~ Q Q ( Q Q T Q ( ( ( ( ( t w w w Z <.>.>.<.<.<.<.<.<.>.>.#.#.#.X.| | | | | | | | | | | | | | | | | | | | | | | | | | | | | | | | | | | | | | | | >.h.( Q P v z t t , , +                 - ` &.&.&.&.+.>.>.>.>.>.>.>.X.X.X.X.| ( ( ( ~ ~ ~ ~ } | | | | ( ( ~ ( ( ( ( ( ~ ~ )  . .X.X.o.:.:.:.o.X. .X.| | | | | X.o.:.:.>.:.:.X.<.V.V.% % % % $ % % % s Z M Z 6.g.g.g.f.f.f.f.g.g.f.f.f.f.g.g.h.f.h.h.g.i.y.5.o.o.o.o.o.o.o.o.o.o.o.o.o.o.X.( ) T Y T ( } } ) ( ( ( } ) ( ( ( ( Y Y Y Z Z Z Z Z Z Z Z Y Y Y Y Y Z Z Z Z Z Y Y Y Y Y Y Y Y Y Y Q } } } } X.X.X.X.X.#.#.>.>.>.>.#.<.#.<.#.#.5.r.a.a.v.v.v.r.#.#.#.#.#...; % % ; % w s z M M Z M M M R #.",
"6.6.6.6.6.6.6.6.6.6.6.6.6.6.6.5.X.X.o.o.o.o.X.} } } } } } } | | | | } } } } } | } } } } } } } } } } ( T ( T ( ( ( ( T T T ( ( ( ( ( ( ( T T T T T T T T T T T T T ( T T ( ( ( } } |  . .o. .o.o.>.>.>.>.>.>.6.6.6.f.f.f.f.f.f.6.x x z M >.>.>.#.#.#.>.>.>.>.<.>.>.>.5.5.5.<.>.>.5.N.N.X.$ $ $ $ $ $ $ $ $ $ $ | o.>.5.5.#.o.| | | | | | | | | X.o.o.o.o.o.o.o.o.#.5.5.5.5.5.5.5.6.v.v.v.v.5.v ( i.i.i.o.~ ~ ( ( ( ( T T ~ ~ ( ( ( Y w w w w #.<.<.<.<.<.<.<.>.>.>.>.#.#.o.| | | | | | X.| | | | | X.| | | | X.X.| | | | X.X.| | | | X.X.| | | | X.X.| | | | f.h.Z Z v n t t t , , #                     ' &.+.+.+.+.>.>.>.>.>.:. . . . .| ~ ( ( ( ( ~ ( } | | | ~ ( ~ ~ ~ ( ( ( ( ( ( ( |  .o.>.>.>.>.>.>.>.>.:.:.o.o.o.:.>.>.>.>.>.>.>.>.<.V.V., % % $ # % % % t Z Z 5.f.f.g.f.h.h.v.v.g.g.f.f.v.v.h.v.f.f.g.g.g.i.y.6.o.o.o.o.o.o.o.o.o.o.o.o.o.o.o.} ( ) Q ( ( ( ) ) ) ) ( ( ( ( ( ( Q Y Y Y Z Z Z Z Z Z S U Y Y Y Y Y Z Z Z S U Y Y Y Y Y Y Y Y Y Y Q } } } } } X.X.X.X.#.#.>.>.>.#.#.#.>.#.>.>.5.r.a.a.a.a.a.#.#.#.#.#.#.z % % % % % w z z Z M Z Z M M Y #.",
"6.6.6.6.6.6.6.6.6.6.6.6.6.6.6.5.X.X.X.o.o.o.o.o.X.| } } } } } | | | } } } } | | } } } } } } } } } } } } ( ( ( ( ( ( T T T ( ( ( ( ( ( ( T T T T T T T T T T T T T T T T T ( ( } } }  . . . .o.o.:.>.>.>.>.>.6.6.8.f.f.f.f.f.8.v x x x ) >.>.#.#.#.#.#.>.>.>.>.>.>.>.5.5.5.<.<.>.>.N.N.#.$ $ $ $ $ $ $ $ $ $ $ U o.<.5.5.5.o.X.| | | | | | X.o.o.o.o.o.o.o.o.o.o.>.5.5.5.5.5.5.5.5.f.v.v.v.8.Y 5.i.i.6.#.( ( ( ( ( ( T ~ ~ ( ( ( ( M w w w Z <.<.<.>.<.<.<.>.>.>.>.>.#.o.X.| | | | | | X.X.X.| | | X.X.| | | X.X.| | | | X.| | | | | X.X.| | | | X.| | | | >.h.>.v v v f t t r , , #               + < J $.$.&.+.+.+.>.>.>.:.:.o. . . . .| ~ ( ( ( ( ( ( } | | } ( ( ~ ~ ~ ( ( ( ( ( ( ( )  .>.>.>.>.>.>.>.>.>.>.>.>.>.>.>.>.>.>.>.>.>.>.>.>.h.V.s % % $ # $ % % , Y i.h.f.g.f.f.h.h.k.v.g.g.f.h.v.v.v.v.g.g.g.g.g.i.y.y.#.o.o.o.o.o.o.o.o.o.o.o.o.o.o.} ( ( ( ( ( ( ) ) ) ) ( ( } ( ( Q Y Y Y Y S Z Z S U Y Y Y Y Y Y Y Y Z Z Z S U Y Y Y Y Y Y Y Y Y Y Q } } } } } X.X.X.X.X.#.>.#.>.#.#.#.>.>.>.>.5.y.a.a.a.a.r.#.#.#.#.#...3 % % % % % w z z Z M M Z M M ( #.",
"6.6.6.6.6.6.6.6.6.6.6.6.6.6.6.5.o.o.o.o.o.o.o.o.o.o.o.X.} } } } | | | } } } | | | | | | } } } } } | } Q Q Q Q Q T ( ( ( ( ( ( T ( ( ( T T T T T T T T T T T Y T T T T ( ( ( T } } } | X. . . . .o.>.>.>.>.>.6.6.8.f.f.f.f.f.S z z x V >.#.o.o.o.o.o.>.>.>.#.#.#.>.>.>.>.>.>.#.#.#.m.N.i.$ $ $ $ $ $ $ $ $ $ $ s o.5.5.5.5.5.o.o.X.X.X.X.o.o.o.o.o.o.o.o.o.o.o.o.>.5.5.5.5.5.5.5.5.6.v.v.v.f.o.i.i.i.6.>.X.~ ~ ~ ~ ~ ~ ~ ( ( ( ( ~ e w w e #.<.<.<.<.<.<.<.<.<.<.>.o.o.#.| | | | | | | | | | | | X.| | | | | | | | | | | | | | | | | X.| | | | | X.| | X.| y.h.Z v v x s s s w , , # . . .     - ' &.&.%.$.$.$.&.+.+.#.o.X. .X.X.X.X. . .| ( ( ( ( ( ( ( } | | ( ( ( ( ( ~ ~ ~ ~ ~ ( ( ( |  .:.:.>.>.>.>.>.>.>.>.>.>.>.>.>.>.>.>.>.>.>.>.>.>.f.V.U % % $ # # % % a g.g.g.g.x.x.v.v.v.f.f.f.f.f.f.i.y.y.y.y.i.i.i.i.y.y.y.5.o.o.o.o.o.o.o.o.o.o.6.#.o.o.| ) ) ( ( ( ( ( ( ( ) ) ) ) ) Q Y Y Y Y Y Y Y Y Y Y Y Y Y Y Y Y Y U Z S S S Z Y Y Y Y Y Y Y Y Y Y Q } } } } } ..X.X.X.X.#.#.#.#.#.>.>.>.>.<.<.<.y.a.a.v.v.#.#.#.#.#.#.z , % % % % % w f f M M M M M M X.#.",
"6.6.6.6.6.6.6.6.6.6.6.6.6.6.6.6.o.o.o.o.o.o.o.o.o.o.o.o...} } } | | } } } } | | | | } } } } } } | | ( ( Q Q Q T Y Y T T T T T T T T T T T T T T T T T T T T Y Y T T T T ( ( ( } } } | X. . . . .o.>.>.>.>.5.6.6.6.8.8.7.6.Y z z z n X.:.#.#.o.o.o.o.>.>.>.>.#.#.o.o.#.#.>.>.o.#.o.f.N.m.$ $ $ $ $ $ $ $ $ $ $ > o.>.5.5.5.5.<.o.o.o.o.o.o.o.o.o.o.o.o.o.o.o.o.o.>.5.5.5.5.5.5.5.5.5.6.v.v.f.5.f.i.i.<.#.>.X.} } } X.o.o.o.o.o.| Y w w w Y <.<.<.<.<.<.<.<.<.<.<.>.o.#.o.| | | | | | | | | | | | | | | | X.X.| | | | | | | | | | | | X.X.| | | | | | X.X.X.h.>.v v v f s s s 3 , , # . . .     J l.l.l.l.&.$.$.$.O.+.+.X. . .X.X.X.X. . . .( ( ( ( ( ( ~ | | | ( ( ( ( ( ( ( ~ ~ ( ( ( (  . .:.:.>.>.>.>.>.>.>.>.>.>.>.>.>.>.>.>.>.>.>.>.>.>.7.V.Q % % # # # $ % <.g.g.g.g.f.x.x.h.x.f.g.f.f.v.x.y.y.y.y.y.y.y.y.y.y.y.y.y.#.o.o.o.o.o.o.o.o.5.y.y.o.o.X.) ) ( ( ( ( ( ( ) ( ) ) } ( Y Y Y Y Y Y Y Y Y Y Y Y Y Y Y Y Y U S Z S S Z Z U Y Y Y Y Y Y Y Y Y ( } } } } } } X.X.X.X.X.X.X.X.X.X.#.>.>.>.>.5.a.a.a.v.a.#.#.#.#.#.Q t > % % $ % % 9 f t z M M M M M #.<.",
"6.6.6.6.6.6.6.6.6.6.6.6.6.6.6.6.#.o.o.o.o.o.o.o.o.o.o.o.#.} } } | | | } } } } } } } } } } } } | | } ( ( ( ( Y T T T T T T T T Y T T T T Y T T Y T T T T T T T T T T T T ( ( ( } } } |  . . . .o.X.>.>.>.3.6.6.6.6.6.6.6.} z z z n X.:.:.#.#.#.>.o.o.o.>.o.o.#.#.o.o.o.o.>.>.#.#.o.6.N.N.$ $ $ $ $ $ $ $ $ $ $ $ } o.5.5.5.5.5.>.o.o.o.o.o.o.o.o.o.o.o.o.o.o.o.o.>.5.5.5.5.5.5.5.5.5.5.5.6.6.6.i.i.i.>.#.#.#.o.o.#.#.#.#.o.#.#.#.z w w e <.<.<.<.<.<.<.>.<.<.<.<.>.o.#.X.| | | ) ( ( | | | | | | | X.| | | | X.| X.X.| | | | X.| | | | X.| | | | | | | | <.h.Z v v x s s s s 4 , , @           =.l.l.l.l.&.$.$.$.$.+.+.X.X.X.X.X.X.X.X.X.X.) ( ( ( ( ( } | | } ( ( ( ~ ~ ( ( ( ( ( ( ( } X. .:.>.>.>.>.>.>.>.>.>.>.>.>.>.>.>.>.>.>.>.>.>.>.>.5.V.m % % # # # $ % 6.g.g.g.f.f.f.f.k.g.f.g.v.v.v.v.i.y.y.y.y.y.y.y.y.y.y.y.y.5.o.o.o.o.o.o.o.<.y.y.y.>.o.X.) ) ) ( ) } ( ) ( ( ( } } Q Y Y Y Y Y Y Q ( ( ( ( ( Q Y Y Y Y S Z Z Z Z Z Z Z U Y Y Y Y Y Y Y Y } } } } } } } ..X.X.X.X.X.X.X.X.X.X.X.>.>.>.5.a.a.a.a.r.#.#.#.@.U f t > % # # $ $ $ # % % % % , w n #.<.",
"6.6.6.6.6.6.6.6.6.6.6.6.6.6.6.6.5.o.o.o.o.o.o.o.o.o.o.o.#.X.} } } | | } } } } } } } } } } } } | | ( ( ( ( T T T T T T T T T T T T T T T Y T T Y T T T T T T T T T T T T ( T } } } } | X.o.o.o.X.X.>.>.>.6.6.6.6.6.6.6.} z z z Z X.:.:.:.#.#.#.>.o.o.o.:.o.o.o.#.o.o.o.>.>.>.#.#.o.5.N.N.$ $ $ $ $ $ $ $ $ $ $ $ Y Y o.5.5.5.5.5.>.o.o.o.o.o.o.o.o.o.o.o.3.>.>.#.>.5.5.5.5.5.5.5.5.5.5.5.5.5.i.i.i.y.#.#.#.o.o.o.#.#.#.#.o.o.#.#.e w w Y <.<.<.<.<.<.<.>.<.<.<.<.>.o.o.X.| | ( ) ( ( ( | | | | | | | | | | | | | X.X.X.| | | X.X.| | | | X.| | | | | | | f.1.v v v f s s s s t , , .         d l.l.l.l.l.$.$.$.$.$.+.+.+. . .X.X.X.X.X.X. .) ( ( ( ( ~ } | | } ( ~ ( ( ~ ( ( ( ( ( ( ( | X. .:.>.>.>.>.>.:.:.>.>.>.>.>.>.>.>.>.>.>.>.>.>.>.>.>.V.U % $ # # # # % Q g.g.g.f.g.g.f.k.k.f.f.g.k.k.k.g.i.y.y.y.y.y.y.y.y.y.y.y.y.#.o.o.o.o.o.5.y.y.y.y.5.o.o.} ) ) ( ) } } ) ( ( ( ( } Q Y Y Y Y Y ( ( ( ( ( ( ( ( Y Y Y Y S Z Z Z Z Z Z Z Z Y Y Y Y Y Y Y Q } } } } } } } } X.X.X.X.X.X.X.X.X.X.X.#.>.>.5.a.a.a.a.#.@...R M M t t > # # # # # # # # $ % % % % % b <.",
"..6.6.6.6.6.6.6.6.6.6.6.6.6.6.6.6.#.o.o.o.o.o.o.#.#.X.#.#.#.X.} } } } } | | } } } } | } } } } | ( T ( ( T T T T T T T T T T T T Y T T T T T Y T Y T T T T T T T T T T T T T } } } } |  . . .X.X.o.>.>.>.5.6.6.6.6.6.o.z z z Z o.o.#.o.o.o.o.>.>.o.o.#.#.o.o.o.o.>.>.>.>.:.>.#.#.o.#.N.N.t $ $ $ $ $ $ $ $ $ $ $ U U T 5.5.5.5.5.5.<.o.o.o.o.o.o.o.o.o.5.5.5.5.5.5.5.5.5.5.5.5.5.5.5.5.5.5.6.i.i.f.5.>.:.#.#.#.#.:.o.o.#.o.o.o.} w w e <.<.<.<.<.<.<.<.<.<.<.<.<.>.#.#.| | | ( ( ( ( ( ( ( ) ) } | | | | | | | | | | | | | | | | | | | X.X.| | | | | X.X.h.! v v x t s s s s t t t #         5 l.l.l.l.*.' $.$.$.&.+.&.&.X.X. .X. . . . . .| ~ ~ ( ( } } | | } ( ~ ~ ( ( ( ( ( ( ( ( ( | X.X.:.>.>.>.>.o.X.X.>.>.>.>.>.>.>.>.>.>.>.>.>.>.>.>.>.B.Y # # # # # # $ , h.g.g.f.g.h.h.g.x.g.x.g.g.f.f.f.y.y.y.y.y.y.y.y.y.y.y.y.y.5.o.o.o.<.6.y.y.y.y.y.5.o.o.} ) ) ) ) ) } } } ( ( ( ( Q Y Y Y Y Q ( ) ( ( ( } } Q Y Y Y Y U S Z Z Z Z Z Z S U Y Y Y Y Y Y Q } } } } } } } } X.X.X.X.X.X.X.X.X.X.X.X.>.>.y.a.a.a.( M M M Z Z v t t % # # # # # # # # # % % % % % % S ",
"> ..6.6.6.6.6.6.6.6.6.6.6.6.6.6.6.<.o.o.o.o.o.o.#.o.o.#.#.#.#.X.} } } } | | | } } } | | } } } } T T T ( T T T T T T T T T T T T Y T T T T T Y T T T T T T T T T T T T T T T ( } } } |  .X.X.X.X.o.>.>.>.>.6.6.6.6.:.x z z T #.o.#.#.o.o.o.o.>.>.o.#.#.#.o.o.o.o.#.#.>.>.o.>.#.#.o.o.m.N.t $ $ $ $ $ $ $ $ $ $ $ U U U | 5.5.5.5.5.5.5.#.o.o.o.o.o.o.>.5.5.5.5.5.5.5.5.5.5.5.5.5.5.5.5.5.5.7.i.i.i.>.>.:.#.#.o.o.:.:.#.>.o.o.o.M w w T <.<.<.<.<.<.<.<.<.<.<.<.<.>.#.#.| | | ( ( ( ( ( ( ( ( ( ( ( | | | | | | | | | | | | | | | | | | X.X.| | | X.X.| 1.h.v n f s t s s t t t t t ;         5 $.$.$.$.$.$.$.$.&.+.+.&.#.>.X. .o.o.o.X. . .| ( ~ ( ( } } | | } ( ( ~ ( ( ~ ~ ( ( ( ( ( ( | X.o.>.>.:.X.X.X.X.o.>.>.>.>.>.>.>.>.>.>.>.>.>.>.>.>.h.Y # # # # # # $ % H f.h.h.g.h.h.x.g.g.x.g.g.f.f.y.y.y.y.y.y.y.y.y.y.y.y.y.y.y.>.5.6.y.y.y.y.y.y.y.5.o.o.| ) ) ) ) ) ( ( ( ( ( ( ( } ( Q Q ( ( ( ( ) } } } Q Y Y Y Y Y Y U Z Z Z Z Z Z U U Y Y Y Y Y Y Q } } } } } } } } ..X.X.X.X.X.X.X.X.X.X.X.#.>.i.a.a.#.M M M M M M x t t $ # # # # # # # # # $ % % % % % % ",
"* > ..6.6.6.6.6.6.6.6.6.6.6.6.6.6.6.#.o.o.o.o.o.#.#.X.X.X.X.#.#.X.} } | | | } } } | | | } } } } T T ( ( T T T T Y Y T T T T T T T T T T T ( } } T T T T T T Y Y T T T Y Y T ( } } } |  .X.X.X.X.o.>.>.>.>.>.6.6.:.x z x ( #.:.o.#.#.#.#.o.o.o.:.o.o.>.>.>.>.o.o.o.o.o.o.o.o.#.#.#.#.m.N.z $ $ $ $ $ $ $ $ $ $ $ M U Y U X.5.5.5.5.5.5.5.>.o.o.o.o.>.5.5.5.5.5.5.5.5.5.5.5.5.5.5.5.5.5.5.5.6.f.i.>.#.o.:.o.o.o.o.:.:.#.o.#.#.o.e w e <.<.<.<.<.<.<.>.<.<.<.<.<.<.>.#.o.| | | ( ( ( ( ( ( ( ( ( ( ( ( | | | | | X.| | X.| | | | | | | X.X.| | | | X.X.| s.1.v s s t t t s s t t t t ,         5 $.$.$.$.$.$.' &.&.+.+.<.5.5.:.X.o.5.5.3.>.X.} ( ( ( } | | | | } ( ( ( ( ( ~ ~ ~ ( ( ( ( ( ( | X.X.X. .X.X.X.X.X.:.>.>.>.>.>.>.>.>.>.>.>.>.>.>.>.i.Y # # # # # # $ % % Q h.h.g.g.g.g.g.k.v.h.f.f.y.y.y.y.y.y.y.y.y.y.y.y.y.y.y.y.y.y.y.y.y.y.y.y.y.y.5.o.#.X.) ) ) ) ( ( ( ) ) ) ) ( ( ( ( ( ( ( ( ) ( ( ( Q Y Y Y Y Y Y Y Y U U U R Y Y Y Y Y Y Y Y Y Y ( } } } } } } } } } X.X.X.X.X.X.X.X.X.X.X.o.>.h.a.r.M M M M M M M i t t $ # # # # # # # # # # % % % % % % ",
"* * > ..6.6.6.6.6.6.6.6.6.6.6.6.6.6.<.o.o.o.o.o.#.#.X.X.X.X.X.#.o.| } | | | } } | | | | } } } } T T ( ( T T T T T T T T T T T T T T T T } } } } T T T T T T T T T T T Y Y Y ( ( } } } } | X.X.X.o.>.>.>.>.>.>.| x x n X.#.#.:.:.#.#.#.#.o.o.o.:.o.o.>.>.>.>.>.o.o.o.o.o.o.o.#.o.#.#.f.N.Q $ $ $ $ $ $ $ $ $ $ $ M U Y U U } 5.5.5.5.5.5.5.5.>.#.>.5.5.5.5.5.5.5.5.5.5.5.5.5.5.5.5.5.5.5.5.5.6.>.#.#.o.o.o.o.o.o.o.o.o.o.o.o.} w w Z <.<.<.<.<.<.<.<.<.<.<.>.<.<.>.#.o.| | | ) ( ( ( ( ( ( ( ( ( ( ( | | | X.X.X.| | | | | | X.X.| | | | | | | | X.X.| f.X.v v v z t t t t s t t t ,         5 ' $.$.$.' ' %.&.&.+.5.5.5.5.5.o.X.>.5.5.5.>.( ( ( ) | | | | | } ( ( ( ( ( ~ ~ ~ ~ ( ( ( ( ( ) X.X. . .X.X. .X.X.X.>.>.>.>.>.>.>.>.>.>.>.>.>.>.>.6.H # # # # # # $ % % b V.V.b.v.v.g.g.h.h.h.f.y.y.y.y.y.y.y.y.y.y.y.y.y.y.y.y.y.y.y.y.y.y.y.y.y.y.y.5.#.#.#.( ( ( ( ( ( ( ) ) U T ) ) ( ( ( ( ( ( ( ( ( Y Y Y Y Y Y Y Y Y Y Y Y Y Y Y Y Y Y Y Y Y Y Y Y } } } } } } } } } } ..X.X.X.X.X.X.X.X.X.X.X.>.a.y.Z M Z Z M M M x t t e # # # # # # # # # # # % % % % % % ",
"* * , z 6.6.6.6.6.6.6.6.6.6.6.6.6.6.5.#.X.X.X.X.#.#.X.o.#.#.#.#.#.X.} } } } } } | | } } } } } ( T ( ( ( T T T T T T T T T T T T Y Y T } } } } } T T Y T T T T T T T T T T T T ( ( ( } } } |  . .o.>.>.>.>.>.( z x D ~  .o.#.#.o.#.>.>.>.o.o.o.o.o.o.#.#.#.#.#.#.o.o.o.#.#.>.o.o.#.#.f.N.} $ $ $ $ $ $ $ $ $ $ $ M U U U U U Y X.5.5.5.5.5.5.5.5.5.5.5.5.5.5.5.5.5.5.5.5.5.5.5.5.5.5.5.5.5.5.5.5.>.#.#.#.#.#.o.o.o.o.o.o.#.#.M w w #.<.<.<.<.<.<.<.<.<.<.<.<.<.<.>.#.X.| | | | ( ( ( ( ( ( ( ( ( ( ( | | | | | X.| X.| | X.X.X.X.| | | | | | | | | | X.h.E v v v x t t t t s s s t , . . . . 5 _ $.$.$.$.$.+.&.&.<.3.5.5.5.3.>. .X.>.5.5.3.>.} ( } | | | | | } ( ~ ( ( ( ~ ~ ~ ( ( ( ~ ( ( ( | X.X.X. .X.X.X. .X.X.X.:.>.>.>.>.>.>.>.>.>.>.>.>.>.z O O O # # # $ % % % y.V.V.V.V.m.v.f.f.g.g.f.i.y.y.y.y.y.y.y.y.y.y.y.y.y.y.y.y.y.y.y.y.y.y.y.y.y.5.o.o.o.} ( ( ( ( ( M r 9 w w w U ( ( ) ( ( ( ) ) ( Y Y Y Y Y Y Y Y Y Y Y Y Y Y Y Y Y Y Y Y Y Y Y Q } } } } } } } } } } } X.X.X.X.X.X.X.X...X.X.#.a.U M M Z Z M M z t t t w # # # # # # # # # # # $ % % % % % ",
"* * w t o.6.6.6.6.6.6.6.6.6.6.6.6.6.5.#.X.X.X.X.X.o.X.X.#.#.#.#.#.X.} } } } } | | | } } } } ( ( T ( ( ( T T T T T T Y Y T T T T Y Y } } } } } } T T Y T T T T T T T T T Y T T T T ( ( } } }  . .o.>.>.>.>.D z x D ~ T T  .o.o.o.#.>.>.:.o.o.o.#.o.o.>.>.#.#.o.#.o.o.o.#.>.>.o.o.#.#.6.N...$ $ $ $ $ $ $ $ $ $ $ z U U U U U U U T 5.5.5.5.5.5.5.5.5.5.5.5.5.5.5.5.5.5.5.5.5.5.5.5.5.5.5.5.5.5.5.5.>.o.o.#.#.o.o.o.o.o.o.#.#.e w x <.<.<.<.<.<.<.<.<.<.<.<.<.<.<.>.#.X.| | | | ( ( ( ( ( ( ( ( ( ( ) | | | | | X.| X.| T T T ( X.| | X.X.X.| | | | | >.h.] v v v f t t t z s s t t , . . . . 5 _ $.$.$.$.+.+.&.#.3.3.5.5.5.3.3.>.:.5.3.5.3.3.5.5.| | | | | | } ( ~ ( ( ( ( ~ ~ ( ( ( ~ ~ ( ( | X. . . .X.X.X.X.X.X.X.X.X.o.:.>.>.>.>.>.>.>.>.>.>.t O # O # # # % % % % r i.V.V.V.V.V.m.v.g.g.x.f.y.y.y.y.y.y.y.y.y.y.y.y.y.y.y.y.y.y.y.y.y.y.y.y.y.5.o.o.o.X.( ( } Q t 9 9 w w 9 9 9 Z ( ) ( ) ( ) ( ( Y Y Y Y Y Y Y Y Y Y Y Y Y Y Y Y Y Y Y Y Y Y Y Q } } } } } } } } } } } ..X.X.X...} } } } } X.X...M M M Z Z M z t t t t , # # # # # # # # # # # $ % % % % % ",
"* * r t Q 6.6.6.6.6.6.6.6.6.6.6.6.6.5.#.X.X.#.o.X.X.X.X.X.o.#.#.#.X.} } } } } } | | } } } T ( ( ( ( ( ( T T T T T T Y T Y Y Y Y Y T } } } } } ( T T T T T T T T T T T T Y T T T Y Y ( ( } } | X.o.>.>.o.n z z x D T T ~ T o.o.o.#.#.o.o.o.o.#.#.o.o.:.>.o.o.o.o.o.o.o.o.>.>.o.o.#.#.5.N...$ $ $ $ $ $ $ $ $ $ $ k U U U U U U U Y >.5.5.5.5.5.5.5.5.5.5.>.#.#.>.>.5.5.5.5.5.5.5.5.5.5.5.5.5.5.5.5.5.5.>.#.#.>.>.>.>.o.o.#.} w w ( <.<.<.>.<.<.<.<.<.<.<.>.<.<.<.>.o.X.| | | | ) ( ( ( ( ( ( ( ( ( ( ( | | ( Z s t 8 8 8 9 9 9 9 8 t s v T | | X.| | >.h.X.v v v f s t f v x s t t : . .     5 O.&.&.O.+.+.+.#.5.3.3.5.5.5.5.3.3.5.5.3.5.3.3.3.3.| | | | | | | ~ ~ ~ ( ( ( ( ( ( ( ~ ~ ~ ( ( ) |  . . . .X.X.X.X.X.X.X.X. . .:.>.>.>.>.>.>.>.>.>.s $ $ $ # # # % % % % , 3 i.V.V.V.V.V.V.V.b.v.x.f.y.y.y.y.y.y.y.y.y.y.y.y.y.y.y.y.y.y.y.y.y.y.y.y.6.o.o.o.o.) ) Y w 9 9 9 9 9 9 9 9 9 Y } ( ) ) ( ( ( Q Y Y Y Y Y Y Y Y Y Y Y Y Y Y Y Y Y Y Y Y Y Q } } } } } } } } } } } } } } } } } } } } } } X.X.Y M M M M Z z t t t t t % # # # # # # # # # # # $ % % % % % ",
"* * t t W 6.6.6.6.6.6.6.6.6.6.6.6.6.5.o.X.X.#.#.X.X.X.X.X.#.#.#.#.X.} } } } } } | | } ( T T ( ( ( ( ( ( T T T T T T T T Y Y Y Y T } } } } } } ( ( ( T T Y T T T T T T T T T T T Y T ( ( ( } } X. .:.T j z z z z x D T T T ( o.o.#.#.o.o.o.o.#.#.o.o.>.>.o.o.o.o.o.o.o.:.:.:.o.o.#.#.5.N..., $ $ $ $ $ $ $ $ $ $ k U U U U U U U U X.5.5.5.5.5.5.5.5.>.#.#.>.#.o.o.o.>.3.5.5.5.5.5.5.5.5.5.5.5.5.>.>.5.5.5.#.#.>.>.>.o.o.#.S w e <.<.<.<.<.<.<.<.<.<.<.<.<.<.<.<.>.o.X.| | | | ( ( ( ( ( ( ( ( ( ( ( ( ( z 9 9 9 8 8 8 8 9 9 9 9 8 8 8 8 8 8 t v ( | >.h.f.v v v s s f v v v s s t # . .     5 +.&.&.+.+.+.+.5.5.3.3.5.5.5.5.3.3.5.3.3.5.3.3.3.| | | | | } ( ~ ~ ~ ~ ( ( ( ( ( ( ( ~ ~ ~ ( ( ( ( ( ) } | | | | | | | | | | :.>.>.>.>.>.>.>.>.>.| s $ $ $ # # # $ % % , , , r v.V.V.V.V.V.V.V.m.g.x.y.y.y.y.y.y.y.y.y.y.y.y.y.y.y.y.y.y.y.y.y.y.y.y.y.<.o.#.o.} ( w w 9 9 9 9 9 9 9 9 3 M } } ( ( ( ( ( Q Y Y Y Y Y Y Y Y Y Y Y Y Y Y Y Y Y Y Y Q ( } } } } } } } } } } } } } } } } } } } } } } } } X.Z M M M M z t t t t t t $ # # # # # # # # # # # % % % % % % ",
"* * t t Q #.6.6.6.6.6.6.6.6.6.6.6.6.<.o.#.#.#.#.X.o.#.#.X.X.X.X.o.} } } | | | } } ( ( Q ( ( T T T T T T T T T T T T T T T T T ( } } } } } } } } } } } } T T T T T T T T Y Y Y Y Y T ( ( ( } } | | x 0 0 0 0 t j z x S T T T  .:.#.o.o.o.>.>.>.>.o.o.#.#.o.o.o.o.#.#.#.:.:.o.#.#.#.o.5.N...4 $ $ $ $ $ $ $ $ $ $ w Y U U U U Y Y U } 5.5.5.5.5.5.5.<.>.>.#.o.o.o.o.>.>.o.>.>.5.5.5.5.5.5.5.5.5.5.#.o.o.o.o.o.>.>.>.>.o.o.o.Y w M <.<.<.<.<.>.<.<.<.<.<.<.<.<.<.<.>.#.X.| | | | ( ( ( ( ( ( ( ( ( ( ( T t 8 8 9 9 8 8 8 9 9 9 9 9 8 8 9 9 9 9 8 8 8 w n i.h.( v v x x v v v v f s t #   .     5 +.+.+.+.+.#.<.3.3.3.3.3.5.5.5.5.3.5.5.3.3.>.o.| | | | } ( ( ( ( ( ~ ( ( ( ( ( ( ( ( ( ( ( ( ( ( ( Z Z Z Z Z Z Z Z Z Z Z Z Z S Y T ~ ~ T T T T Y f w # # # # O # # % , , , , , b V.V.V.V.V.V.V.V.g.x.y.y.y.y.y.y.y.y.6.6.y.y.y.y.y.y.y.y.y.y.y.y.y.y.y.y.<.o.o.X.z w 9 9 9 9 9 9 9 9 9 % M ( ( ( ( } } ( Y Y Y Y Y Y Y Y Y Y Y Y Y Y Y Y Y Q } } } } } } } } } } } } } } } } } } } } } } } } } } } } } Z M M M M t t t t t t t # # # # # # # # # # # # % % % % % % ",
"* * w s Q Q 6.6.6.6.6.6.6.6.6.6.6.6.#.o.#.#.#.#.X.#.#.#.X.X.X.X...} } } | } ( ( ( ( Q T T T T T Y Y T Y T T T T T T T T T ( } } } } } } } } } } } } } } } T T T T T T T Y Y Y T T T ( ( } } } Y t 0 0 0 0 0 0 0 t i z Z T T ~ :.#.#.o.o.>.>.>.>.o.o.o.#.o.o.>.:.#.#.#.#.:.o.>.#.#.#.>.N...4 $ $ $ $ $ $ $ $ $ $ , Y U U U U Y Y U Y 5.5.5.5.5.5.5.>.>.>.#.o.o.o.#.#.o.o.o.o.o.>.>.5.5.5.5.5.5.5.>.o.o.#.o.o.>.>.>.>.o.o.o.) w ( <.<.<.<.<.<.<.<.<.<.<.<.<.<.<.<.>.#.X.| | | ( ( ( ( ( ( ( ( ( ( ( U w 9 8 8 8 8 8 8 9 9 8 9 9 9 8 8 9 9 9 9 8 8 8 8 9 s h.( v v v v v v v v f s t #   .     5 +.+.+.#.<.3.3.3.3.3.3.5.5.5.5.3.3.3.3.>.| | | | | | | } ( ( ( ( ( ~ ~ ( ( ( ( ( ( ( ( Y S z 9 * % % % % % % % % % % % % % % % % % % % % % % % % % % $ # O O O # # % , , , , , , M V.V.V.V.V.V.V.f.i.y.y.y.y.5.#.o.X.X.X.X.o.5.6.y.y.y.y.y.y.y.y.y.y.y.y.y.5.X.n 9 9 9 9 9 9 9 9 9 9 , # m ( ( ( ( } } Q Y Y Y Y Y Y Y Y Y Y Y Y Y Y Y Y Q } } } } } } } } } } } } } } } } } } } } } } } } } } } } } ( M M M M M t t t t t t w # # # # # # # # # # # $ % % % % % % ",
"* * * z Q W X.6.6.6.6.6.6.6.6.6.6.5.o.o.#.#.X.X.X.X.#.#.#.#.X.| } } } } } ( ( ( Q T Y Y T T T T Y Y Y Y T T T T T T T T ( } } } } } } } } } } } } } } } } } T T T T T T T T Q T ( ( ( ( } ( x 0 0 0 0 0 0 0 0 0 0 0 i z v Y ~  .o.o.o.o.o.>.o.o.o.o.#.#.>.>.>.>.#.#.o.o.:.:.#.#.o.o.o.N...4 $ $ $ $ $ $ $ $ $ $ , Y Y U U U U Y U Y 5.5.5.5.5.5.5.#.>.>.o.o.o.o.>.>.>.o.o.o.o.o.#.#.>.>.<.5.5.5.3.#.#.#.o.o.o.:.#.#.#.o.o.} z <.<.>.<.<.<.<.<.<.<.<.<.<.<.<.<.<.#.#.| | | | ( ( ( ( ( ( ( ( ( ( Z 9 9 9 8 8 8 8 9 9 9 9 8 8 8 9 8 9 9 9 , , , , , , 7 8 M Y v v v x f f x x t t t #         1 +.#.5.5.5.3.3.5.3.5.5.5.5.5.5.5.5.3. .| | | | | | | | | } ( ( ( ( ( ( ( ( ( ( Z t e w 9 9 9 % % % % % % % % % % % % % % % % % % % % % % % % % % % % % O O O # # # # % , , , , , , Q V.V.V.V.V.v.y.y.y.6.5.o.X.X.X.X.X.X.X.X.X.X.5.y.y.y.y.y.y.y.Y s s U U U w 9 9 9 9 9 9 9 9 9 9 > # $ n ) ) ( ) ( Q Y Y Y Y Y Y Y Y Y Y Y Y Y Y Y Y Y } } } } } } } } } } } } } } } } } } } } } } } } } } } } } } ( M Z M Z v t t t t t t , # # # # # # # # # # # % % % % % % % ",
"* * * , z U W Q o.6.6.6.6.6.6.6.6.#.o.o.X.X.X.X.X.X.#.X.X.X.X.} } } } Q ( ( T T Y Y Y Y T T T T Y Y Y Y T T T T T T Y Y } } } } } } } } } } } } } } } } } } ( T T T T T ( ( ( ( ( ( ( ( U e 0 w 9 9 9 0 0 0 0 0 0 0 0 i z x D ( o.o.o.o.o.o.o.o.o.o.#.#.#.>.>.>.#.o.o.o.o.:.o.o.o.o.o.N...4 $ $ $ $ $ $ $ $ $ $ $ Y U U U U Y Y Y U 5.5.5.5.5.5.5.#.>.:.:.o.o.o.>.o.#.o.o.o.#.#.#.#.#.#.#.>.5.5.5.>.#.#.o.o.o.o.X.X.X.X.X.} | <.<.<.<.<.<.<.<.<.<.<.<.<.<.<.<.>.#.o.| | | | ( ( ( ( ( ( ( ( ( U 9 9 9 9 8 8 8 8 9 9 9 9 8 8 8 8 8 8 9 7 , : : : : : : , 9 x v v z t t t s s t t t #         1 +.5.5.5.5.5.3.5.5.5.5.5.5.5.5.5.5.3.| | | | | | | | | | | } ( ( ( ( T M t , % % % 9 9 9 9 9 % % % % % % % % % % % % % % % % % % % % % % % % % % % % % O O # # # # # # $ , , , , , , ..V.V.V.f.y.y.6.#.X.X.X.X.X.X.X.X.X.X.X.X.X.#.6.y.y.y.y.<.k 9 9 9 9 9 9 9 9 9 w 9 9 9 9 9 > $ # # $ n Y T Y Y Y Y Y Y Y Y Y Y Y Y Y Y Y Y Y Y Y Y Y ( } } } } } } } } } } } } } } } } } } } } } } } } } } } } } T Z M M M M f t t t t t > # # # # # # # # # # $ % % % % % % % ",
"* * * * * * * * * * w ..<.5.5.5.#.o.o.o.#.o.X.X.X.| | | } } } } } ( ( ( T T T T T T T T T T T T T T Y U Y T T T T T Y Y ( } } } } } } } } } } } } } } } } } } Y Y Y T T T T ( ( ( ( T x 0 0 0 , = = = , 7 0 0 0 0 0 0 0 z z z v } >.>.>.o.o.o.o.o.o.:.:.o.o.o.o.#.#.#.#.#.#.o.o.o.#.>.N...4 $ $ $ $ $ $ $ $ $ $ $ U Y Y U U U U U U 5.5.5.5.5.5.>.#.#.#.#.o.X.| | | | X.o.#.#.#.o.o.o.o.o.o.>.5.5.5.o.o.#.o.o.} | | | } } } } #.#.>.<.<.>.>.<.<.<.<.<.<.<.<.<.>.#.X.| | | ) ( ( ( ( ( ( ( ( ( w 9 9 8 8 9 9 9 9 8 8 9 9 9 9 8 8 8 8 9 , : : : : , : : , 8 f v x s s s s t t t t t + .       1 #.3.3.5.5.5.5.3.3.3.3.3.3.3.3.3.5.>.| | | | | | | | | | S Z z t , % % % % % % % % = 9 9 9 * % % % % % % % % % % % % % % % % % % % % % % % % % % % % % $ # # # O O # # $ $ , , , , , , ..V.x.6.5.#.X.X.X.X.X.X.X.X.X.X.X.X.X.#.y.y.y.y.<.Q z 9 9 9 9 9 9 9 9 9 9 9 9 w 9 , $ # # # # # O s U Y Y Y Y Y Y Y Y Y Y Y Y Y Y Y Y Y Y Y Y Y Y Q } } } } } } } } } } } } } } } } } } } } } } } } } } } } } Y M M M M Z M t t t t t $ # # # # # # # # # # # % % % % % % % ",
"* * * * * * * * * * * * z #.#.o.o.o.o.o.#.#.X.X.} } | | } } } ( ( ( T T T T T T T T T T T T T T T Y U U U Y T T T Y Y Y T } } } } } } } } } } } } } } } } } } Y Y Y T T T T T ( ( Y t 0 0 0 0 , = = = , , , 0 0 t i t 0 j z z z x | >.>.:.:.o.o.o.o.:.>.o.o.o.o.#.o.#.#.:.#.o.o.o.#.o.7.Q 9 $ $ $ $ $ $ $ $ $ $ $ n Y Y U U U U U U #.5.5.5.5.>.#.#.#.o.| | | | | | | | | o.#.#.o.o.o.o.:.o.#.#.>.>.o.o.>.o.o.} | | | } } } } #.#.#.o.<.>.>.<.<.<.<.<.<.<.<.<.>.#.X.| | | ( ( ( ( ( ( ( ( ( n 8 9 9 9 8 9 9 9 9 8 8 8 9 9 9 8 8 8 8 , , > : : : , : : , 8 f v s s s s s t s t t t   . .     1 <.3.3.5.5.5.5.3.3.3.3.5.3.3.3.3.3. .} | | | | T M t = % % % % % % % % % % % % % % % 9 , % % % % % % % % % % % % % % % % % % % % % % % % % % % % % % % % $ # O O O # $ # # $ , , , , , r o.o.o.o.o.X.X.X.X.o.o.X.X.X.X.X.X.X.X.X.X.9 9 9 9 9 9 9 9 9 9 9 9 9 9 3 , * $ # # # # # # # # O O # * r b U Y Y Y Y Y Y Y Y Y Y Y Y Y Y Y Y Y Y Y } } } } } } } } } } } } } } } } } } } } } } } } } } } } } Y M M M M Z Z z t t t t $ # # # # # # # # # # # % % % % % % % ",
"* * * * * * * * * * * * * , } o.o.o.o.o.#.#.X.} } } } | } } Q Q T T T T T Y Y T T T T Y U U U U U S U U U S Y T T T Y Y T T } } } } } } } } } } } } } } } } } Y Y T T T T T ( ( Z 0 0 0 0 0 0 , = = , , , , = 0 z z x x i e e i z n | #.o.o.o.#.#.#.#.>.#.#.o.#.o.o.:.:.o.o.o.o.| Y n x x , $ $ $ $ $ $ $ $ $ $ $ s U Y U U Y U U U #.5.5.5.5.o.o.#.X.| | | | | | | | | | | o.#.#.o.#.#.>.>.>.>.o.o.>.>.>.#.o.} } } } } } } | #.o.o.#.>.>.>.>.<.<.<.<.<.<.<.>.#.#.| | | ( ( ( ( ( ( ( ( ( ( w 9 9 9 8 8 9 8 9 9 8 8 9 9 9 9 8 8 8 , , , , , : : , : 7 8 8 f v f t t s s f s s s s   . .       ..3.3.3.3.5.5.5.3.5.5.5.5.3.3.3.3.} S S h 9 * % % % % % % % % % % % % % % % % % % % % % % % % % % % % % % % % % % % % % % % % % % % % % % % % % % % % % % $ $ O O # # # # # $ > , , , , k U R R Q } X.X.X.o.X.Q Q M m m 3 3 3 3 3 # # # # # # # # # # # # # # O O # # # # # # # # # # # # # # # # # $ % % % % % % % , , t t n M M Y Y Y Y Q } } } } } } } } } } } } } } } } } } } } } } } } } } } } U M M M M M M v t t t t # # # # # # # # # # # # # % % % % % % ",
"* * * * * * * * * * * * * * * Q o.o.o.o.#.X.} } } } } } ( Q T T T T T T T T Y T T Y U S U U U U S S U U U U U Y T T Y Y Y Y T } } } } } } } } } } } } } } } } Y Y Y T T T T ( S 0 0 0 0 0 0 0 , = = , , , , = = t i i t w w 0 0 i z x } o.#.#.#.#.#.#.>.#.#.#.#.o.o.o.:.X.T n e w 0 x x x t $ $ $ $ $ $ $ $ $ $ $ , U U U U Y Y U U #.5.5.5.>.#.o.o.| | | | | | | | | | | | | o.o.o.#.#.:.:.>.>.o.o.>.#.#.#.o.| } } } } } } | o.o.o.o.o.>.>.>.<.<.<.<.<.<.>.#.#.X.| | | ( ( ( ( ( ( ( ( ( ( t 9 9 9 8 8 8 8 9 9 8 8 9 9 9 9 8 8 , : , , , , : : , 8 8 8 8 x v v t t t s x x s t s   . .     + % >.3.3.3.5.5.5.3.5.>.( M z 3 * % % % % % % % % % % % % % % % % % % % % % % % % % % % % % % % % % % % % % % % % % % % % % % % % % % % % % % % % % % % % % $ $ O O # # # # # # # $ , , , $ m m m m m m s 3 $ $ $ $ $ $ $ $ # # # # # # # # # # # # # # # # # # O O # # # # # # # # # # # # # # # # # # $ % % % % % % % % % % % % % % % % % % % % , , w s n ( } } } } } } } } } } } } } } } } } } } } Z t f M M M M M t t t t # # # # # # # # # # # # # $ % % % % % ",
"* * * * * * * * * * * * * * * * M o.o.#.X.} } ( ( ( ( ( T T T T T T T T Y Y Y U D S U U U U U U S S S S S S S U T T T T Y Y Y T } } } } } } } } } } } } } } } T T T T T T ( T t 0 0 0 0 0 0 9 , = , , , = = = = = = , , 7 9 0 0 w i z x } o.o.o.:.:.o.o.>.:.o.o.#.} Z i 0 0 w w t z x x x x $ $ $ $ $ $ $ $ $ $ $ % U U Y Y Y Y U U } 5.5.5.>.>.#.X.| | | ..X.| | | | | | | | | o.>.#.#.o.o.o.o.o.#.>.#.#.o.o.| } } } } } } X.o.o.o.:.:.>.>.<.<.>.>.>.>.#.o.o.o.| | | } ( ( ( ( ( ( ( ( ( ( U 9 9 9 9 9 8 8 8 9 8 9 9 9 9 9 7 , : : : , , , : , 8 9 8 8 w v v v x t s s n v f t t           # % S ( ( T z z 3 3 % % % % % % % % % % % % % % % % % % % % % % % % % % % % % % % % % % % % , , 9 t t t x x x x x j t 0 9 9 = % % * = 7 7 7 = = * % % % % % % % O O # # # O O O # # # $ $ # $ s b b r $ # # O O O O $ $ # O O O # # # # # # # # # # # # # # # O O # # # # # # # # # # # # # O # # # # # # # # # # $ $ $ $ % % % % % % % % % % % % % % % % w k } } } } } } } } } } } } } } } } } } } ( M 9 , e M M M x t t t w # # # # # # # # # # # # $ % % % % % % ",
"* * * * * * * * * * * * * % % % % U o.| } } ( Q Q ( T T T T T Y Y U U U U U U U S S U U S U U S S S U U S S U U T T T T Y Y Y Y T } } } } } } } } } } } } } } T Y T T T ( ( ( 0 0 0 0 0 0 0 7 , = , , , = = = = = = = = , , , 9 w w t z x | o.o.:.:.:.o.:.( Z z e w 0 0 0 0 0 e x x x x x x : $ $ $ $ $ $ $ $ $ $ $ Z U U U Y Y U U } 5.5.5.>.>.#.o.| | | X...| | o.o.#.o.| | | | X.#.#.o.o.o.o.#.#.o.#.#.#.o.X.} } } } } } o.#.#.o.:.>.o.o.#.#.#.#.>.>.#.o.o.o.| | | ) ( ( ( ( ( ( ( ( ( ( ( t 9 9 8 8 8 8 8 9 , , , , , 7 : : : : , , , , : 7 9 9 8 9 t v v v v z s s v v v f t           % % % % % % % % % % % % % % % % % % % % % % % % % % % % % % % % % % % % % % % = 9 t x V V V V V v V V V V V V V V V V i i i i i 9 7 7 7 7 7 7 7 7 = % % % % % % $ O # # # # O O # # # # O # # # $ # # # # # # O O # $ $ # # O O # # # # # # # # # # # # # # $ $ O # # # # # # # # # # # # # O O # # # # # # # # # # O # # # # O O $ $ $ $ $ % % % % % % % w r Q } } } } } } } } } } } } } } } } } } Z M , , , 7 f x w , , , , * % % % % % % % $ $ % % % % % % % % % ",
"* * * * * * * * * * * * $ $ $ $ $ $ n } } } Q Q Q T T T Y U U U U U S S U U U U U U U U S S S S U U U U S S U Y T T T T Y Y Y Y Y S M N Q } } } } } } } } } } T T T T T T ( T t e 0 0 0 0 0 , , , , , , , , , , , , = , , , = = 9 w w e i x T ( Y Z z t w w w w w w w w 0 0 w t x x x x x x w $ $ $ $ $ $ $ $ $ $ $ t U U U U U U U } 5.5.5.#.#.#.o.| | | | | | | o.#.#.#.#.o.X.| | X.o.o.o.#.#.o.o.o.o.#.#.#.#.X.| } } } | #.#.#.#.o.>.o.o.#.#.#.#.>.>.o.o.o.o.X.| | ( ( ( ( ( ( ( ( ( ( ( ( T 8 8 8 8 8 8 8 , , , , , , , , : : ; % % % % : 8 9 9 8 8 t v v v v v v x v v v v s @       + % % % % % % % % % % % % % % % % % % % % % % % % % % % % % * , , , e e t x x V V V V D D D D D V V V V V v V V V V V V i i i i i i i 0 7 7 7 7 7 7 7 = % % % % % % % $ # # # O # # # # # # # # # $ $ # # # # # # O # $ # # # O # # # # # # # # # # # # # # # $ $ $ O # # # # # # # # # # # # O O # $ # # # # # # # # # # # # # # # O # # # # # # $ % % % % 3 r z Y ( } } } } } } } } Q U U U U U n M M x , , , , , , , , , , , , , , , , , , , , * % % % % % % % % % ",
"* * * * * * * * * * * % $ $ $ $ $ $ $ Y } } ( T Y Y S M M M M U U U U S S U U U U U U U S S S S U U U U Y Y T T T T T T S z 3 % $ $ $ $ $ 4 c U } } } } } } ( Y T T Y T T ( ( v v i 0 0 0 0 , , , , , , , = , , , = = , , = = = = 7 w w 0 0 w w w 0 w w w w w e t w w w w w w t x x x x x x f $ $ $ $ $ $ $ $ $ $ $ > U U U U U U U Y 5.5.5.>.#.#.#.| | | | | | | o.#.#.#.#.#.#.o.X.| X.o.o.#.#.o.:.o.o.#.#.#.#.#.| } } } X.#.#.o.o.#.>.#.o.#.#.#.#.>.:.o.o.o.o.X.| | ( ( ( ( ( ( ( ( ( ( ( ( ( t 8 8 8 8 8 , : : , , : % $ $ $ # $ $ $ $ $ $ $ , 8 8 8 w P Z v v v v v v v v v v +       # % % % % % % % % % % % % % % % % % % = , 0 t t x x x V V V V V V V V V V V V V V V D F ! ! ! Y Z V V V V v v V D D D D V A D D p i i i i 0 9 7 7 7 7 = % % % % % % * 9 e , # # # # # # # # # # # # # $ # # # # # # # $ # # # # # # # # # # # # # # # # # # # $ $ $ O # # O # # # # # # # # # # # # # # # # # # # # # # # # # # # # # # # # # # # # % % % % > r r r r r w , , % % % % % % % % % % % % % , , , , , , , , , , , , , , , , , 7 7 7 7 , , % % % % % % % % ",
"* * * * * * * * * , 7 , $ $ $ $ $ $ $ ; } ( T T S a a a a a a a a a a a s z M U U U U S M M M M M N S S T Y Y Y Y z w $ $ $ $ $ $ $ $ $ $ $ $ $ $ > 4 z S Y Y Y T T T T Y Q Q M v n 0 0 0 0 , , = = , , , , , = , 7 9 0 , , = = , , 7 w 0 0 0 0 w w 0 0 0 0 i i h t w w w w w e x x x x x x z $ $ $ $ $ $ $ $ $ $ $ $ , S U U U U U Y 5.5.5.5.#.#.#.| | | | | | | o.#.#.#.#.#.#.#.#.o.X.#.#.#.#.o.o.>.#.#.#.#.#.#.o.......X.} ( ( ( ( ( ( ( ( ( ( ( ( ( ( ( ( ( ( Q T T ( ( ( ( ( ( ( ( ( ( ( ( b 9 8 8 8 , : : , : % $ $ $ $ $ $ $ $ $ $ $ $ $ $ , 9 9 s #.#.Y v v v v v v v v v 2       $ % % % % % % % % % % % % % 9 e x v V V V V V v V V V V V V V V V V V V V V V V D ! ! ! ! ! ! ! Z V V V v V D ! ! ! ! ! ! ! ! F Z i i i i i i y 7 7 7 = % % % % % = x x n n i = O O # # # O O O O $ * , 0 t B x 0 0 0 9 , , % % O O $ # # O O O O # $ O # O $ $ $ O O # O O O O O # # $ $ $ # O # $ # # # # O O O O # # $ $ $ # # # # # # # # # # # % % % % % 3 r r 9 % % % % % % % % % % % % % % % % % , , , , , , , , , , , , , , 7 i i i i i i i i i 7 % % % % % % ",
"* * * * * * 7 i B B B B i $ $ $ $ $ $ $ 4 Y Z 4 $ $ $ $ $ $ $ $ $ $ $ $ $ $ $ $ 4 4 a a a a a a a a a a a r 4 $ $ $ $ $ $ $ $ $ $ $ $ $ $ $ $ $ $ $ $ $ $ $ % ; r t n n n T Q S v v 0 0 0 0 , , = = , = , , , 9 0 0 0 0 , , = = , , , 9 0 0 0 w w w w w 0 i i i h h f i t t w w t x x x x x x $ $ $ $ $ $ $ $ $ $ $ $ $ $ w z M U U Y 5.5.5.5.#.#.o.| | | | | | U z m n U U ( } } } o.#.#.#.#.#.o.o.>.} Y R R R R R R R R R U s s s s s s s s s s s s s s s s s s s s s s s s s s s n ( ( ( ( ( b 9 8 8 , : : : % $ $ $ $ $ $ $ # # $ $ $ $ $ $ $ % 9 9 9 +.#.#.v v v v v v v v v x +     % % % % % % % % % % % % % i ! D V V V V V V V V V v V V Z S D D D Z V V V V D ! ! ! ! ! ! ! ! ! V V V V Z ! Y F F ! ! ! ~ ! ! F F p i i i i i i i 7 7 = % % % % % x x B B n n x w = * % % % = , 0 t t t t i B x x i 0 e e e e 0 0 0 e e e 0 0 w w w w w w w w w w w w w w w w w w w , , , * % # # $ # # # # # O O # # # # $ $ # $ # # # # # # # # # % % % % % % % % % % % % % % , , % % % % % % % % % , , , , , , , , , , , , * % % 0 i i i i x A D A g i = % % % % % ",
"* * * * 7 x V V V V V V n t $ $ $ $ $ $ $ $ $ $ $ $ $ $ # $ $ $ $ $ $ $ $ $ $ $ $ $ $ $ $ $ ; ; ; $ $ $ $ $ $ $ $ $ $ $ $ $ $ $ $ $ $ $ $ $ $ $ $ $ $ $ $ $ $ $ $ $ $ $ $ $ z v v v 0 0 0 0 9 , = = = = 7 9 0 0 0 0 0 0 , , , = , , , , 9 0 w w w w w w w i i i i h i i h i w w 9 t x x x x x $ $ $ $ $ $ $ $ $ $ $ $ $ $ $ $ $ $ $ 9 z S Y Y Y Y U U } | | | ( z z z z z z z z z z z z z z z z z z r $ $ $ $ $ $ $ $ $ $ $ $ $ % > > > > > > > > > > > % $ $ $ $ $ $ $ $ $ $ $ $ $ $ t ( ( ( ( t 9 7 , , , , % $ $ # # $ # # $ # # $ $ $ $ $ $ $ $ 7 8 9 P #.X.v t : , t x v v v v ;     % % % % % % % % % % % % = v ! ! D Z V V V V V Z Z D D ! ! F F ! ! ! ! Y ! F F ! ! ! ! ! ! ! ! D V V Z D ! ! ! ! F F F ! -.~ ! F F A i i i i i i i 0 7 = % % % % = x x B B x x x t t t t t t t t t t t t t i x x x x n x i e e 0 e q e e e e 0 e e e e 0 0 0 0 e 0 0 0 e 0 0 0 0 0 0 0 0 0 0 0 0 0 9 * $ O # # O O $ $ O O # # # # # # # # # # O O # % % % % * , 9 t z z x x x x x x x Z Z x x z f 7 , , , , , , , , , , , , , % % % % * q i g A A D D D A x , % % % % ",
", 9 i B V V B V F V V V V i i % $ $ $ $ $ $ $ $ $ $ $ $ # $ $ $ $ $ $ $ $ $ $ $ $ $ $ $ $ $ $ $ $ $ $ $ $ $ $ $ $ $ $ $ $ $ $ $ $ $ $ $ $ $ $ $ $ $ $ $ $ $ $ $ $ $ $ $ $ $ $ t v z 0 0 0 0 0 0 0 0 0 0 0 0 0 0 0 0 0 9 , , = = , , = = = 9 w w w w w w w t i i i i i i i e w w w 9 w e t t e $ $ $ $ $ $ $ $ $ $ $ $ $ $ $ $ $ $ $ $ $ $ $ $ $ $ $ $ $ $ $ $ $ $ $ $ $ $ $ $ > > > > , 4 > > > $ $ $ $ $ $ $ $ $ $ $ $ $ $ $ $ $ $ $ $ $ $ $ $ $ $ $ $ $ $ $ $ $ $ $ $ $ $ $ $ $ $ $ $ % , , : , , , , , , : $ $ # # # $ # # # # # $ $ $ $ $ $ $ $ , 8 9 w Z Z v , : : : : 9 x v v > . + % % % % % % % % = , w t z v ! ! ! F F F D F F ! ! Y ! ! ! F F ! ! ! ! Y ! ! ! F ! ! ! ! ! ! ! ! ! ! ! ! ! ! ! F F F ! ! ,.;.! F ! ! x i i i i i i 0 7 7 % % % % , x x B B x x x i t t t t t t t t t t t t i x x x n n x x i e e e q e e e e 0 0 e e e 0 0 0 0 e 0 0 0 e 0 0 0 0 0 0 0 0 0 t e 0 0 0 e 0 w , $ O O O # O # # # # # # # # # # # O O O % > 3 w z z z X.X.X.X. . . .-.:.>.4.4.4.4.Z x x z z i e , , 7 z , 9 e , = $ % % % % % 7 A D A D D D D D D V i 7 % ",
"F F F F F D V D F V V V V x i i % $ $ $ $ $ $ $ $ $ $ $ # $ $ $ $ $ $ $ $ $ $ $ $ $ $ $ $ $ $ $ $ $ $ $ $ $ $ $ $ % * = = = , , = = = * * % $ $ $ $ $ $ $ $ $ $ $ $ $ $ $ $ $ $ > 9 0 0 0 0 0 0 0 0 0 0 0 0 0 0 0 0 9 = , , , , = = = = = , 9 w w w w w w w w e t i i i i 0 0 0 w w w w 0 0 9 $ $ $ $ $ $ $ $ $ $ $ $ $ $ $ $ $ $ $ $ $ $ $ $ $ $ $ $ $ $ $ $ $ $ $ $ $ $ $ $ $ $ $ $ $ $ $ $ $ $ $ $ $ $ $ $ $ $ $ $ $ $ $ $ $ $ $ $ $ $ $ $ $ $ $ $ $ $ $ $ $ $ $ $ $ $ $ $ $ $ $ $ $ $ $ $ % : , , , , , $ # $ # # # # # # # $ $ $ $ $ $ $ $ # # , 8 8 8 I / f : : : , , , > , t > % : , v v x x x v V v v v v v Z ~ F F F F ! ! ! ! ! ! ! ! F F F F F F F F Y ! F F F F ! ! ! ! ! ! ! ! ! ! ! ! ! ! F F ! ~ ,.,.,.^ F ! ! D i i i i i i 7 7 7 = % % % , n n B B B B x x t t q q q q t t q q t t i x x x x n x x x 0 e e e e 0 0 0 0 0 0 0 i x j t 0 0 0 e e e e x B x t 0 t i x x t 0 0 e 0 e e e e 7 $ O # O O $ # # # # # # # # # # O # , 9 9 s z z z :.:.X. . . .X.X.:.>.4.4.4.4.-.x x x x x x f , t x z x x x , $ $ $ % % % % Z D A A D D D D D D D A A ",
"F F F F F F F F F A V V V B f i i w % $ * w t f f f i t e , % $ $ $ $ $ $ $ $ $ $ $ $ $ $ $ $ $ $ $ $ $ $ $ * , , , , , , , , 9 9 w , , , , = = = * % $ $ $ $ $ $ $ $ $ $ $ $ $ $ $ $ , 0 0 0 0 0 0 0 0 0 0 0 0 9 = = = , , , , = = = = = = , 9 w w w w w w w w t i i i i 0 0 0 9 9 w w 0 0 0 7 $ $ $ $ $ $ $ $ $ $ $ $ $ $ $ $ $ $ $ $ $ $ $ $ $ $ $ $ $ $ $ $ $ $ $ $ $ $ $ $ $ $ $ $ $ $ $ $ $ $ $ $ $ $ $ $ $ $ $ % % % % , , , , , , , , > % % % % % $ $ $ $ $ $ $ $ $ $ $ $ $ $ $ $ $ $ $ , t , , , , $ # $ $ # # # # # # $ $ $ $ * , , , , , 7 w w P ) ) f , w f f > , > > > > > > e x v v v v v Z >.} ( } >.;.| | ~ ! F ! ! ! ! ! ! ! ! F ~ { { ~ F F F ! ! F F F F ! ! ! ! ! ! ! ! ! ! ! ~ ~ | | -.,.,.,.,.,.,.! ! ! ! p i i i i 0 7 7 9 9 % % % , n n B A D F A n x i t q q q t t q q t t i x x x B x x x x 0 e e e e 0 0 0 0 0 i x x n n x t 0 e e e i x x x V B B B x x B x t 0 0 e e e e 0 0 0 w w w w w 9 $ O O O # # # # # # # 9 9 9 z z z n ~ :.X. .X.X.X.X.:.>.4.4.4.4.4.M x x x x x x , x x x x x x z % $ $ $ % % % t D D D D D A D D D D A A ",
"F F F F F F F F F A D A A V B x i i i i i i i i f i i i i i i i w , $ $ $ $ $ $ $ $ $ $ $ $ $ $ $ $ $ $ % % = , = = , , , 9 0 0 0 0 0 , , , , = , , , , = = * % $ $ $ $ $ $ $ $ $ $ $ $ % 0 0 0 0 0 0 0 t t 0 9 9 = = = = = , , 7 t t i z z z z x D D D D Y | | T z i i i i i i f i i t t e t i f f z Z Z x x t t w , , , % $ $ $ $ $ $ $ $ $ $ $ $ $ $ $ $ $ $ $ $ $ $ $ $ $ $ $ $ $ $ $ $ $ * * * * * * 9 t f f e w w w w w w w w w w w w w w w w f f f f f f f s s s t t t w , , , , 4 b ( | ~ Y Y Z x i t t i t e w 7 7 , , , , 7 7 7 7 7 7 7 w i i i T ) ) v v v v q > > > > > > > > t i v v v v D ~ :.E.E.6.6.6.4. .| | ~ ! ! ! ! ! ! ! ! F { | | | | ^ ^ ~ ~ ~ ~ F ! ! ! ! ! ! ! ! ! ! ! ~ ,.,.,.,.,.,.,.,.,.,.,.-.^ ~ ! V i i i i 7 7 x n n e % % , n n D F F F ! V n B x i q q q q q q t t t B x x B n B B x t e e e e 0 0 0 t x n n n n n x x e 0 e i n n n D ~ ~ F A B n n n B x i i t 0 0 0 e e e e 0 e e e e $ O O # # # # # # # 9 9 w z z z n U | :.5.>.X.X.X.X.:.4.4.4.4.4.,.Z x x x x x f x x x x x x x i % % % % % % 7 D D D D D D D D D D D A ",
"F F F F F F F F F F F F F Z V V B x f i i i i i i i i i i i i i i i i t w , % $ $ $ $ $ $ $ $ $ $ $ % % % % * , = = 0 0 0 0 0 0 0 0 0 0 9 , 7 9 w 0 w 9 = = = , , , = * $ $ $ $ $ $ $ $ * t i j z n v V V V V Z T ~ ~ ~ ~ ~ ~  .;.;.;.;.;.;.;.;.;.;.;.;.;.;.;.;.;. .S x v V x f f f f f f f f f f f f x Z Z Z Z Z Z Z Z Z Z Z Z Z Z Z Z M x f t t t t t s t t w 3 3 3 3 3 3 3 3 3 3 3 9 s z z z z z e e e z X.X.X.X.X.} ( Q Q Q Q Q Q Q Q Q Q Q Q Q Q Q Q Q Q Q Q Q Q Q Q Q Q U Z Z Z Z Y f.f.f.f.6.~ Y Y Y Z x i i i i i q 7 7 7 7 7 7 7 7 7 7 7 e i i i T ) ! v v v i 0 > > > > > > > > t t x V v Z ~ ~ ~ J.E.c.6.6.6.5.| | | ~ ! ! ! ! ! F ! ~ | | | | | | | | | | | | ^ ! ! ! ! ! ! ! ! ! ! F -.,.,.g.w.0.,.,.,.,.,.,.,.,.,.D i i i j q i n n n n = % % n D F F F F ! Y n n n n n x x x i x x x B B x x B B B B B x i e e 0 0 i x n n n n n n n x x x t x B n n n ~ ~ ~ ~ ~ V n n n B B V Z n x x j t e e e 0 0 e e e * O O # # # # # # # 3 9 t z z z M U U :.L.E.L.<.X.X.X.4.4.4.4.4.4.4.! Y Z x x x x x x x x x x x i & % % % % 0 D D D D D D D A A A A D ",
"F F F F F { { F F -.| ) ^ ! B B V V V V B n n V Z n i i f f f f f i i i i i i i i % % % $ $ $ $ % % * % % % % = , , 0 0 0 0 0 0 0 0 0 0 0 0 0 0 0 0 0 0 9 , , = , , i V v V V V V x z z x V V V V V V V v v V Y ~ ~ ~ ~ ~ ~ | ;.;.;.;.;.;.;.;.;.;.;.;.;.;.;.;.;.;.;.| V V V V x f f f f f f f f f f f f x Z Z Z T S Z Z Z Z Z Z Z Z Z Z Z Z Z Z x s t t t t t t t T ~ ~ ( ( ( ( ( ( ~ ~ ( ( ( ( ( ( ( ( ( ( } ....X.X.X.X...} ( ( Q Q Q Q Q Q Q Q Q Q ( ( ( ( ( } ( Q Q Q Q Q T Z Z Z Z Z f.f.f.f.f.f.X.Y Y Y Y Z n f i i i i q w 9 7 7 7 7 7 7 7 t i i i T ( v n g 0 0 0 : : : > > > > , t t f v v D ~ ~ ~ :.J.G.6.6.6.6.-.| | | { ~ F F F F F { | | | | | | | | | | | | | | ~ ! ! ! ! F F F F F ~ ,.9.H.H.H.F.g.4.,.4.w.D.D.0.F p p D ! ! D Z v n n f % % D F F ! ! ! F F Z x x x B B B B B x n n B B B B V D D D A Z n n n n n n B B B x x x B B B x x x B B B B B ~ ~ ~ ~ D B B x B V D D D B B n n x j 0 0 e e 0 0 e 9 $ $ # # # # # # # 3 9 t z z z U U U ( :.L.E.E.f.X.X.4.4.4.4.4.4.,.) ) ) Z x x x x x x x x x x x x e * % % A D D D D A D V B B B A D ",
"F F F F ! | { G F | | | { -.D B V V V V V V D D D D n i f f f f i i i i i i i i i 9 % % % % $ % % = = , % % % = , , 9 0 0 0 0 0 0 0 0 0 0 0 0 0 0 0 0 0 w , , = , i V v V V V V V Z F F Z V V V V V V V v v V Y ~ ~ ~  .;.;.;.;.;.;.;.;.;.;.;.;.;.;.;.;.;.;.;.;.;.:.6.D V V V V x f f f f f f f f f f f f f n Z ( ( T Z Z Z Z Z Z Z Z Z Z Z Z Z Z Z M z s t t s Z ( ~ ~ ( ( ( ( ( ( ( ~ ( ( ( ( ( ( ( ( ( #.5.<.#.X.X.X...X.....X.X.X.X.X.X...X.X...| | X.X.X.X.X.X.} Q Q Q Q Q P Z Z Z Z ( 5.y.f.f.f.f.>.Y Y Y Y Z M M n z f i i i t w 7 7 7 7 9 i i i i v v v u 0 0 0 0 : : : > > > > , t t t x v D ~ ~ ~ ~ 6.f.6.6.6.6.-.| | | | | ^ ! F F ^ | | | | | | | | | | | | | | | | | ~ ! ! F F F ! F F -.4.H.H.H.H.F.F.D.H.H.F.F.q.F A ! ! ! ! ! ! ! D M n % , F F F ! ! ! F F A x n n B B B B x x n n B B B V D D D D D D D Z B n n n B B B x x x B B B B x x B B B B B F ~ ~ ~ V B x V A D D D D V B n n x x j t e e e 0 0 e $ $ # # # # # # # , 9 t z z z U U U Y X.:.J.E.E.N.5.4.4.4.4.4.4.-.) ) ) ) Z x x x x x x x M n x x x x x A D D D D D A V B B B B A D ",
"F F F F ^ | | ! ^ | | | | | ^ B V V V V V A D D D D Z i i i i i i i i i i i i x f i % % % % $ % % = = = = % % = = = 9 0 0 0 0 0 0 0 0 0 0 0 0 0 0 0 0 0 w , = = 7 V v v V V V V V D ~ F F V V V V V V V V V V D ~ ~  .;.5.7.7.>.;.;.;.;.;.;.;.;.;.;.;.;.;.;.;.;.;.6.6.5.Z V V V V n z f f f f f f f f f i i f z ~ ~ ( ( T Z Z Z Z Z Z Z Z Z Z Z Z Z Z Z Z Z Z Z T ( ~ ~ ( ( ( ( ( ( ~ ~ ( o.>.#.} X.#.5.6.6.6.6.6.6.6.5.5.<.>.>.>.>.>.5.5.#...X.X.X.| | ........X.X...X.( Q Q Q Y Z Z Z Z Y Q X.5.f.f.f.y.>.#.X.Y Y Y Z v v M Z n z f i i t e w e i i i i v v v u 0 0 0 7 : : : > > > > > t t t t v S ~ ~ ~ ~ 4.6.q.6.6.6.| | | | | | | | | | | | | | | | | | | | | | | | | | | | | | ~ ! ! ! ! F F ^ ,.H.F.H.H.F.F.H.H.F.H.H.4.F F F ~ ~ ~ F F ! ! ! D % i ! F ! ! ! ! F A B B n n B B x x x x n n n n V D D D D D D D D D D Z V B B B x x x x B B B B x x x B B x B F ~ ~ D n B B D A Z Z D D D V B n x B Z i e e 0 0 0 0 % $ # # # # # # # % 9 z z z n U U U | :.:.5.6.L.E.E.f.4.4.4.4.4.4.:.) ) ) ) S x x x x x x >.A n V Z A D D D D A A A B B B B B B A D ",
"F F F F { | | -.| | | | 0.q.6.A Y ) D A B A D D D D x i i i i i i i i i i B D D f f 9 % % % $ % % * = = = = = = = , , 0 0 0 0 0 0 0 0 0 0 0 0 0 0 0 0 0 9 , = = e V v v V V V V D F | ( F D V V V V V V V V V Z ~ ~ 6.i.W.[.[.[.[.E.g.;.;.;.;.;.;.;.;.;.;.;.;.;.3.6.6.6.| V V V V V V x f f f i f f f f i i i f Y ~ ( ( ( ( T S S S Y Y T T T T T Y Z Z Z Z Z Y ( ( | 5.5.} ( ( ( ( ( ( <.5.6.6.5.5.5.6.6.6.6.6.6.6.6.6.6.5.6.5.6.6.6.6.6.6.#.X.X.X.X.X.......} X.X.X.X...( Q T Q Z Z Z Z T Q X.X.5.f.f.f.5.>.>.) Y Y Y Z Z M Z M M M v x i i i i i i i x v v v 0 0 0 0 7 : : : > > > > > t t t t n Z ~ ~ ~ ~ :.6.E.m.6.6.4.| | | | | | | | | | | | | | | | | | | | | | | | | | | | | | ~ ! ! ! ! ! F ,.D.F.H.H.F.F.H.H.H.H.c.,.,.;.,.,.,.~ ! F ! ! ! ! v ! ! ! ! ! ! ! V B B B n n B B x x x x n n B Z D D D D D D D D D D D D D D Z B B x x x p y y x x x x x x x B F ~ ~ Z n B B x x x x V D D D D A A D D i e e 0 0 e e , O # # # O # # # $ 9 z z z U U U } :.>.5.5.5.5.N.E.E.J.0.4.4.4.4.4.,.| ) ) ) ! x x x x x 6.D A D D D D D D D D B B B B B B B B D D ",
"| ^ ! ! | | -.-.| | | -.q.f.q.q.-.-.-.D D A D D D D f i i i i i i f i z D D D D f i i * % % $ % % % % * = = = = = = , 0 0 w 9 9 9 0 0 0 0 0 0 0 0 0 0 0 9 = = = e V V V V V V S D F | | } ~ V V V V V V V V V V ~ 6.i.i.i.x.m.[.[.[.[.[.N.>.;.;.;.;.;.;.;.;.;.;.6.6.6.6.6.Z V V V V v v n z f f i i i i i f f f Z ( } } ( ( ( ( ( ( ( ( ( ( ( ( ( ( ( Y Z S T ( ( ( 5.6.6.5.X.( ( ( o.5.6.6.6.6.5.5.6.6.6.6.6.6.6.6.6.6.6.6.6.6.6.6.6.6.5.5.5.X.X.X...X.X.X.} } X.X.........( T Q T Z Z Z Q Q } | X.y.f.f.f.5.>.>.| T Y Y Y A Z v v C C Z Z n i i i i f v v v x 0 0 0 0 7 > > > , > > > : t t t t z Z ~ ~ ~ ~ | 6.W.W.N.6.6.4.;.| | | | | | | | | | | | | | | | | | | | | | | | | | | | | | ^ ~ ~ ~ ~ ,.w.F.F.H.F.H.H.H.D.4.,.,.,.,.,.,.,.~ ! ! ! ! ! ! ! ! ! ! ! ! ! ! n n B B n n n n x B B Z Z A D D D D D D D D D D D D D D D D D D A V B i 0 0 0 0 x n n n x D ~ >.5.~ V n x x x x n B Z D D D D D D D D x e e e e 0 0 9 O # # # # # # O # 9 s z z U U T X.>.5.5.5.5.5.5.f.E.E.E.m.4.4.4.4.4.4.:.) ) ) ) Z x x S 7.D D D D D D D D D D V D ;.>.>.,.~ V D D ",
"| | | | | | -.-.| | | ;.q.q.q.q.4.-.-.D F D D D D A i i i i i i f f Z D D D D D x i i t * % % % % % % % % % = = , = , , = = , = 0 0 0 0 0 0 0 0 0 0 0 0 , = = = 9 Z D D D D F F D ~ | | | | Y S V V V V V V V V <.i.i.>.( T T } m.[.[.[.[.[.N.;.;.;.;.;.;.;.;.;.5.6.6.6.6.>.V V V V V Z Y Y x f i i i i f f f f n ( } } } } ( ( ( ( ( ( ( ( ( ( ( ( ( ( ( ( ( ( ( <.6.6.6.6.6.X.X.5.5.5.6.6.6.6.6.6.6.6.6.6.6.6.6.6.6.6.5.<.>.>.<.<.5.6.5.5.5.X.X.X...} X.X.| X.X.X.....X.X.| ( Q Q T Y Y Q Q ( | | o.f.f.f.f.7.>.>.>.) Y Y Y Y Y A Z C C Z v v x i i x v v v f 0 0 0 0 7 > > > > > > > , e t t t h V ~ ~ ~ ~ ~ 6.W.W.W.c.6.6.6.4.-.| | | | | | | | | | | | | | | | | | | | | | | | | | ;.;.,.4.,.,.,.,.c.F.F.H.F.F.H.9.,.,.,.,.,.,.,.,.;.! ! ! ! ! ! ! ! F ! ! ! ! ! ! n n B x x n n n B B V D D D D D D D D D D D D D D D D D D D D D D D B 0 0 0 0 0 V ) >.6.i.i.i.i.f.:.n n x x x x V D D D D D D D D D D Z e e q e 0 0 w O # # O O # # # # 3 t z M U U  .>.5.5.5.5.5.5.5.5.g.J.E.E.E.m.0.4.4.4.4.4.-.) ) ) ~ Z T 7.~  .;.;.;.;.;.| | | :.>.>.>.>.>.>.D D D ",
"| | | | | -.-.;.;.;.;.,.f.q.q.q.f.,.-.F F F D D D n i i z Z D D D D D D D D D D Z i i i i 9 * % % % % % % % * = , , , , = = = , 0 0 0 0 0 0 0 0 0 0 0 0 , , , , w V D D F F F F F | | | | | | | | | | | X.>.5.i.5.#.T T T T T T T } m.[.[.[.[.'.f.;.;.;.;.;.;.;.:.6.6.6.6.x.} V V V V ) | | } z f f i i z z f f z ( } } } } } } } } } } } o.o.o.| ) ( ( ( ( ( X.5.5.6.6.6.6.6.6.6.6.5.5.6.6.6.6.5.5.<.<.<.<.5.6.6.6.6.6.<.>.>.>.<.<.>.>.X.X.X.X.......} X.X.X.X.X...} } X.X.X.X.( Q Q Q Q Q Q Q | | | <.f.f.f.f.f.5.>.>.>.| T Y Y Y Y Y Y A Z Z v v f v v v v u 0 0 0 0 7 : > > > > > > , w t t t t v T ~ ~ ~ ~ 6.W.E.E.E.J.q.6.6.6.7.4.>. .| ;.:.>.>.6.6.6.6.6.8.8.8.8.8.8.8.8.8.8.8.8.8.8.8.8.8.8.8.f.F.F.F.H.H.H.D.,.,.,.,.,.,.,.,.;.~ F ! ! ! ! ! ! ! ! ! ! ! ! ! ! n n n x x x x x V A D D D D D D D D D D ) D D D D D D D D D D D D D Z 0 0 n Z >.i.i.i.i.f.v.N.J.L.L.J.| A B V A D D D D A D D D D D D D i 0 q q e e e $ # # # O # # # # > t z M U T o.5.5.5.5.5.5.5.5.i.f.f.g.J.E.E.E.J.f.4.4.4.4.4.:.) ) ) >.6.>.>.>.>.>.>.>.>.>.>.>.,.>.>.>.,.~ D D D ",
"-.>.4.q.q.q.q.q.q.q.f.f.f.q.q.q.f.0. .F F F D D D x n D D D D D Y Y D D D D D D D z i i i i i i * % % % % % * = = * = , = = = , 0 0 0 0 0 0 0 0 0 0 0 0 , , , = j V D D F F F F } | | | | | | | } } ( ( T Y Y Y Y Y Y Y Y Y T T T T T } C.[.[.[.[.W.f.6.6.6.5.3.:.5.6.6.6.v.n.Y V V V ) | | | ( z f f f f z z z f ( ) } } } } } X.5.f.g.g.g.g.g.g.g.>.X.6.6.6.6.6.6.6.6.6.6.6.6.6.6.6.5.5.5.<.<.<.<.<.<.<.<.<.6.6.6.6.6.>.>.>.>.<.<.>.>.X...X.X.......} X.X.X.X.X.X.} ..X.X.X.X.X.( Q Q Q Q Q Q ) X.| | 5.f.f.f.f.f.y.<.>.>.>.~ Y Y Y Y Y Y Y Y Y Y Z v v v v 0 0 0 0 0 7 , > > > > > > , , t t t t v v Z ~ ~ ~ 6.W.E.E.E.E.E.E.E.J.J.J.J.m.x.8.8.8.8.8.8.8.8.8.8.8.8.8.8.8.8.8.8.8.8.8.8.8.8.6.6.6.6.6.6.8.c.c.D.H.H.H.F.F.F.F.H.H.F.F.g.,.~ ! ! ! ! ! ! ! ! ! ! ! ! ! V n n x B V Z D D D D D D D D D D D Y | X.D D D D D D D D D D ~ | >.6.i.i.i.i.i.i.i.i.N.L.L.L.L.L.I.I.I.K.g.>.~ D D D D A D D D D D D D Z 0 0 q e e e $ # # # # # # # # % t z M U | <.5.5.5.6.i.i.f.f.f.f.f.f.f.g.J.E.E.E.U.k.4.4.4.4.4.,.-.6.7.,.>.>.>.>.>.>.>.>.>.>.;.{ ~ F D D D ~ ,.",
"f.f.f.q.q.q.f.f.q.q.f.f.f.f.q.q.f.f.:.D D D D D D D D D D D ~ | ,.,.,.| ! D D D D D f i i i i i i , % % % % * = % % % % * = = , 0 0 0 0 0 0 0 0 0 0 0 0 , , , e V V V D D D ~ } | | | | | } ( Y Y Y Y Y Y Y Y Y Y Y Y Y Y Y Y Y T T T T T o.'.[.[.[.[.E.v.6.6.6.6.6.6.6.6.v.n.v.Y V V Y | | | | Z z f z i f f f x ( ) | } o.>.>.g.g.g.g.g.g.g.g.g.g.f.| <.5.6.6.6.5.5.5.5.5.5.5.5.<.<.<.<.<.<.<.<.<.<.<.<.<.5.5.6.5.6.6.6.6.5.<.>.>.>.<.#.X.X.X.X.X.| | ....X.X.} } ....X.X.X.| ( Q Q Q Q Q Q Q Q | X.X.X.<.f.f.f.f.f.f.5.>.>.<.X.X.#.>.>.#.X.} T Y Y v v v g 0 0 0 0 0 7 : > > > > > , > > t t t i v v V Z ~ ~ q.E.E.W.W.E.W.W.E.Y.J.J.C.m.i.8.8.8.8.8.8.8.8.8.8.8.8.8.8.8.8.8.8.8.8.6.5.5.5.5.5.5.5.5.5.5.5.5.5.5.5.6.6.f.f.f.c.c.f.f.8.6.5.3.>.:.| | ~ ~ ! ! ! ! ! ! D n V Z Z Y Y Y Y D D D D D Y Y ( | X.X.X.} Y D D D D ( X.6.y.i.i.i.i.i.i.7.6.6.5.5.6.m.L.L.K.Y.Y.I.I.I.L.L.L.K.K.m.6.| D A D D D D D D D i 0 e e 0 e % # # # # # # # # $ t z M U :.5.5.6.f.f.f.f.f.f.f.f.f.f.f.f.f.g.N.E.E.E.E.J.f.4.4.4.q.%XL.7.6.6.5.>.>.>.>.>.-.D D D D ! ^ -.>.>.>.",
"q.6.6.3.3.5.6.q.q.q.f.f.f.f.q.q.f.f.q.D D D D D ~ -.| | -.,.,.,.,.,.,.,.,.,.,.,.~ D D x i i i i i i * % % % * % % % % % % % % = 0 0 0 0 0 0 0 0 0 0 0 0 9 , 9 V V V v Z D ~ | | | | | | ( T T Y Y Y Y Y Y Y Y Y Y Y Y Y Y Y Y Y Y Y T T T T ( x.'.[.[.[.[.m.x.q.6.6.6.6.6.v.n.n.n.<.| f.f.g.m.n.>.z 0 z i i f f Z ( ( | } | 5.5.5.g.g.g.g.g.g.g.g.g.f.5.X.5.5.<.<.<.<.<.<.<.<.<.<.<.<.<.<.<.<.<.<.5.5.5.5.6.6.6.y.y.6.6.6.6.6.5.5.>.>.>.>.X.X.X.X.X.| X...X.X.| ..} ..X.X.X.} Q Q Q Q Q Q Q Q Q Q ( X.X.X.X.>.>.6.i.f.f.f.<.>.<.>.>.>.>.>.>.>.>.>.Y Y v v v i 0 0 0 0 0 7 : , : > > > , > > w t t z v v V v S ~ f.E.E.E.W.E.I.K.J.J.J.J.C.m.f.8.8.8.8.5.5.5.5.5.5.5.5.5.5.6.8.8.8.8.5.5.5.5.5.5.5.5.5.5.5.5.5.5.5.5.5.5.5.5.5.5.5.5.5.5.5.5.5.5.5.5.5.5.5.#.>.#.X.} } ) ( ( ( } ) ) ( ( ( ( ( X.X.X.X.X.X.X.X.| X.X.X.X.X.| #.6.i.i.y.6.6.5.5.5.<.<.<.<.>.>.<.<.5.m.L.K.Y.I.C.f.f.f.f.f.v.C.K.L.L.N.f.:.( D D D D Z 0 0 0 0 e , # # # # # # # # $ r z Z U <.5.6.f.f.f.f.f.f.f.f.f.f.f.f.f.f.f.f.g.m.E.E.E.E.E.v.4.'.&X%X7.8.7.8.6.>.>.>.>.^ | ;.,.>.>.>.>.>.>.>.",
"5.5.3.3.3.3.5.5.q.q.q.f.q.q.c.^.~.c.f.~ D D D ~ 4.4.,.,.,.,.,.,.0.g.4.,.,.,.,.,.,.! D D D n f i i i i % % % * % % % % % % % % % * 9 0 0 0 0 0 0 0 0 0 0 0 0 x V V V V v D | | | | | | ( T T Y Y Y Y Y Y Y Y Y Y Y Y Y Y Y Y Y Y Y Y Y T T ( T ( } <.K.[.[.m.m.m.v.g.q.7.q.m.n.n.n.m.n.n.m.n.n.n.f.i 0 i i i i i T ( ( | | | X.5.<.5.f.g.g.f.g.g.g.g.g.g.} >.<.<.<.<.<.<.<.<.<.<.<.<.<.<.<.<.<.5.6.6.6.6.6.6.6.y.i.i.i.i.i.6.6.6.6.5.>.>.>.>.X.X.X.X.X.X.....| | ....X.X.X.X.T Q Q Q Q Q Q Q Q Q Q Q } X.X.X.#.>.>.>.<.6.7.6.<.<.>.>.#.X.| | | X.>.Y ) C v v 0 0 0 p B i 0 : : : > > > , > > , t t t v v V V v Y f.E.E.E.I.J.J.J.J.J.J.J.Z.m.b.8.8.8.6.5.5.5.5.5.5.5.5.5.5.5.8.8.8.8.5.5.5.5.5.5.5.5.5.5.5.5.5.5.5.5.5.5.5.5.5.5.5.5.3.>.o.o.o.o.o.o.o.o.| ( ( ( ( ( ( ( ( ( ( } ) ) ) ( ( ( } X.X.X.X.X.X.X.X.X.X.X.X.X.X.X.X.X.X.<.<.<.>.<.5.5.<.<.<.<.>.>.<.<.<.<.K.K.L.m.f.f.f.f.f.f.i.i.i.f.v.m.N.m.g.f.i.6.o.Y x 0 e 0 0 9 # # O O # # # # # 3 z U Y 5.5.i.f.f.f.f.f.f.f.f.f.f.f.f.f.f.f.f.f.f.f.v.L.E.E.E.E.&X&X%X7.7.7.7.7.5.>.>.>.>.,.,.>.>.,.,.>.>.>.>.",
"5.5.3.3.3.3.5.5.3.q.q.q.q.q.U.^.~.~.c.>.D D D c.F.D.D.c.g.q.w.D.c.c.w.,.4.0.q.c.4.| D D D D D n i i i 9 % % % % % % % % % % % % % = 0 0 0 0 0 0 0 0 0 0 0 0 i V V V V Z | | | | | | ( T T T Y Y Y Y Y Y Y Y Y Y Y Y Y Y Y Y Y Y Y Y Y Y T T T T T } } X.f.v.m.m.n.m.m.m.m.m.n.n.m.m.n.n.n.n.n.n.v.i 0 e t t t v ( ( ( | | } } X.<.<.5.6.f.f.f.g.g.g.g.g.#.X.<.<.<.<.<.<.<.<.<.<.<.<.<.<.<.<.5.6.6.6.6.6.6.y.i.i.i.i.i.i.i.i.6.6.6.6.5.>.>.>.#.X.....X.X.X...| | ..X.X.X.X.} Q Q Q Q Q Q Q Q Q Q Q Q Q X.X.X.X.>.>.>.>.>.>.>.>.>.X.| | | | | | | ( Y ) Y v x 0 0 0 F A B p : : : > > > > > > > t t t f v v V v S f.E.U.J.J.J.J.J.J.J.J.J.J.m.m.b.i.8.6.5.5.5.5.5.5.5.5.5.5.5.8.8.8.8.5.5.5.5.5.5.5.5.5.5.5.5.5.5.5.5.5.5.5.5.5.5.3.#.o.o.o.o.X.X.X.X.| | } ( ( ( ( ( ( ( ( ( ( ( ) ) ) ) ( ( } } } } } } } } } } } } } } } } } } X.o.<.<.>.>.<.5.<.<.>.>.>.>.>.5.<.<.K.K.L.i.i.i.f.f.f.f.i.i.i.i.f.f.f.f.f.f.f.f.f.6.D i 0 0 e w # # # # # # # # # * z U X.5.5.f.f.f.f.f.v.v.v.m.N.m.v.f.f.f.f.f.f.f.f.f.f.f.m.J.L.&X&XL.7.7.7.6.5.>.>.>.>.>.>.>.>.>.>.>.>.>.>.>.",
">.>.>.>.o.o.3.5.3.5.f.f.q.f.~.^.^.^.~.g.D D | {.{.H.D.D.c.c.c.D.c.F.Q.Q.U.c.c.c.9.,.D F D D D D Z f i i % % % % % % % % % % % % % % 9 0 0 0 0 0 0 0 0 0 0 0 e v V V V ( | | | | | } T T T Y Y Y Y Y Y Y Y Y Y Y Y Y Y Y Y Y Y Y Y Y Y Y T ( ( T T T ( } } X.>.5.8.x.m.m.n.n.n.m.m.n.n.n.n.n.n.n.v.z 0 0 0 9 0 Y ( ( ) } } } } } X.5.5.5.5.6.f.g.g.g.g.g.>.} >.<.<.>.<.<.<.<.<.<.<.<.<.<.<.5.6.6.6.6.6.y.i.i.i.i.i.i.i.i.i.i.i.6.6.6.6.5.>.>.>.X.........X.X.X.X.X.X.X.X.X.( Q Q Q Q T Q Q Q Q Q Q Q Q ( X.X.X.X.>.>.>.>.>.>.>.| | | | | | | | | Y Y ) ) v g 0 0 p 9.9.B B > : : > : : > > > > , t t t z v v v v x.K.J.J.J.J.J.J.J.J.J.J.J.J.m.m.m.v.i.5.5.5.5.5.5.5.5.5.5.5.8.8.8.8.5.5.5.5.5.5.5.5.5.5.5.5.5.5.5.5.5.5.5.5.5.>.o.o.o.o.o.| X.X.X.X.X.X.} } ( ( ( ( ( ( ( ( ( ( ( ( ( ( ( ( ( ( ( ( ( ( ( ( ( ( ( ( ( ( ( ( ( ( ( | o.<.<.<.<.5.<.5.>.>.>.>.5.5.<.<.L.L.L.i.6.5.6.i.f.f.f.f.f.i.f.f.f.f.f.i.5.f.f.6.D A t e e e # # O O # # # # # # x U >.5.5.f.f.f.v.N.N.N.C.N.N.N.N.v.f.f.f.f.f.f.i.8.7.7.7.7.8.v.f.7.7.6.>.>.:.:.:.o.o. . . . . . . . . .o.:.",
":.:.o.o.o.>.>.5.3.3.f.f.q.c.^.^.^.^.~.~.~ D 6.{.{.{.U.D.c.c.c.c.c.U.Q.Q.Q.Q.c.c.,.,.D F D D D D D D x i e % % % % % % % % % % % % % = 0 0 0 0 0 0 0 0 0 0 t i V V V D | | | | | | T T T T Y Y Y Y Y Y Y Y Y Y Y Y Y Y Y Y Y Y Y Y Y Y Y Y ( T T T T T } } } } X.o.o.>.i.v.n.n.m.m.m.n.n.n.n.n.n.m.i 0 9 9 t T ( ( ( } } } } } } } X.5.5.5.5.5.5.i.f.g.g.<.} X.<.<.<.<.<.<.<.<.<.<.<.<.<.<.5.6.6.6.y.i.i.i.i.i.i.i.i.i.i.i.i.i.6.6.6.6.6.5.>.>.#.............X.X.X.X.X.X.X.Q Q Q Q Q Q Q Q Q Q Q Q Q Q Q } X.X.X.X.>.>.>.>.>.>.| | | | | | | | ) Y Y ) | Z i 0 0 ) 9.9.B B , , > : : > , > > > > w t t t v v v v Z.J.J.J.J.J.J.J.J.J.J.J.J.J.J.m.m.m.f.i.5.5.5.5.5.5.5.5.5.6.8.8.8.8.6.5.5.5.5.5.5.5.5.5.5.5.5.5.5.5.5.5.5.5.5.o.o.o.o.o.X.| X.X.X.X.| | | } ( } ( ( ( ( ( ( ( ( ( ( ( ( ( ( ( ( ( } ( ( ( ( ( } ( ( ( ( ( ( ( ( ( ( } o.>.<.<.<.5.5.>.>.<.>.5.5.<.5.L.L.L.<.o.o.o.o.<.i.f.f.f.f.f.f.f.i.>.X.X.f.f.6.D D n e e 0 * # # O # # # # # # s U >.5.6.f.f.v.C.C.N.N.C.N.N.N.N.N.v.f.f.f.f.f.i.7.7.7.7.7.8.7.7.6.3.>. . . . . . . . .| | | | | | | |  . .",
"o.o.o.o.:.:.:.3.3.3.q.f.f.c.~.~.^.^.^.^.m.~ 6.'.{.{.{.^.F.c.c.c.D.Q.Q.Q.Q.Q.Q.D.,.,.~ F F D D D D D D n i * % % % % % % % % % % % % % 9 0 0 0 0 0 0 0 t n V V V V S | | | | | | T T T T T Y Y Y Y Y Y Y Y Y Y Y Y Y Y Y Y Y Y Y Y Y Y Y Y T T T T T T ( } } } } | o.o.o.#.6.v.m.n.n.n.n.n.n.m.m.6.9 9 e M T ( ( ( ( } } } } } } } } o.5.5.5.5.5.5.5.5.5.5.X.| <.<.<.<.<.<.<.<.<.<.<.<.<.5.6.6.i.i.i.i.i.i.i.i.y.i.i.i.i.y.i.i.y.6.6.6.6.6.<.>.>.X.X.} | ........} | X.X.X.Q Q Q Q Q Q Q Q Q Q Q Q Q Q Q Q X.X.X.X.X.>.>.>.>.>.| | | | | | | | | ! Y ) | ~ i 0 0 2.9.2.B x > > > > > > > > > > > e t t t z v v Y J.J.J.J.J.J.J.J.J.J.J.J.J.J.J.J.m.m.v.f.6.5.5.5.5.5.5.5.5.6.8.8.8.8.6.5.5.5.5.5.5.5.5.5.5.5.5.5.5.5.5.5.5.5.#.o.o.o.o.o.| X.X.X.X.X.X.X.X.} } } ( ( ( ( ( ( } } ( ( ( ( ( ( ( ( } } ( ( ( ( ( ( ( ( ( ( } ( ( ( ( ( ( X.o.>.<.<.5.<.<.<.<.5.<.5.<.6.L.L.K.o.o.o.o.o.o.o.>.i.f.f.f.i.>.X.X.X.X.i.f.>.D D x x i e 7 $ # # # # # # # # 3 U #.5.6.f.x.N.N.N.N.N.N.N.N.N.N.N.N.g.f.f.f.f.f.7.7.7.7.7.8.6.3.>.>.>. . . .| | | | | | | | | | | | | | | ",
"o.o.o.o.:.:.:.>.3.3.6.f.f.f.U.^.^.^.^.^.~.>.6.J.{.{.{.{.{.[.^.[.{.Q.Q.Q.Q.Q.Q.U.,.,.~ ! ! D D D D D D D Z e % % % % % % % % % % % % % , 0 0 0 0 0 0 i V V V V V S | | | | | | } T T T T Y Y Y Y Y Y Y Y Y Y Y Y Y Y Y Y Y Y Y Y Y Y Y Y Y Y T T T T T T } } } } } } X.#.#.#.<.5.7.i.x.n.n.m.m.6.0 9 i >.o.( ( ( ( ( } } } } } } } } } <.5.5.5.5.5.5.5.5.5.>.} #.<.<.<.<.<.<.<.<.<.<.<.<.6.6.6.i.i.i.i.i.i.i.i.y.y.i.i.i.i.i.i.y.6.6.6.6.6.5.>.>.X.X.| | ......X.} | | X.X.Q Q Q Q Q Q Q Q Q Q Q Q Q Q Q Q ( X.X.X.X.#.>.>.>.>.| | | | | | | | | | ~ | | | Z 0 A 9.9.-.B t > > > > > > > > > > , t t t t t v v } J.J.J.J.J.J.J.J.J.J.J.J.J.J.J.J.m.m.v.f.y.6.5.5.5.5.5.5.5.8.8.8.8.8.6.5.5.5.5.5.5.5.5.5.5.5.5.5.5.5.5.5.5.>.o.o.o.o.o.o.| X.X.X.| | X.X.X.| } } ( } ( ( ( ( ( } ( ( ( ( } } ( ( } ( ( ( ( ( ( ( ( ( ( ( } } ( ( ( ( } X.o.#.<.<.<.<.5.5.5.5.<.5.<.i.L.L.C.o.o.o.o.o.o.5.f.f.f.f.5.X.X.X.X.X.X.i.f.o.D D n x x i 7 , $ # # # # # $ # $ U Y <.6.g.N.N.N.N.N.N.N.N.N.N.N.N.N.v.f.f.f.f.f.7.7.7.7.7.6.3.3.>.>. . . .| | | | | | | | | | | | | | | | ",
"o.o.o.o.o.o.o.o.3.5.5.6.q.q.f.U.^.^.~.~.~.f.7.7.U.{.{.{.{.{.{.{.{.[.~.Q.Q.Q.Q.^.,.,.^ D D D D D D D F F D A = % % % % % % % % % % % % * 0 0 0 0 0 i V V V V V S | | | | | | | T T T T T Y Y Y Y Y Y Y Y Y Y Y Y Y Y Y Y Y Y Y Y Y Y Y Y Y Y T T T T ( ( ( | | | } } } X.#.#.>.>.>.>.>.5.m.m.>.0 9 i >.<.>.~ ~ ~ ( ( ( } } } } } } } } o.<.5.5.5.5.5.5.5.5.>.} X.<.<.<.<.<.<.<.<.<.<.<.5.6.6.6.i.i.i.i.i.i.i.i.i.y.y.i.i.i.i.y.y.6.6.6.6.5.6.<.>.X...} ......| | ....X.X.| } Q Q Q Q Q Q Q Q Q Q Q Q Q Q Q Q X.X.X.X.X.#.>.>.>.| | | | | | | | | | | | | | | i ) 9.9.F B , , , > > > > : : : , t t t t t t x v ( m.C.J.J.J.J.J.J.J.J.J.J.J.J.J.Z.n.m.m.f.i.6.5.5.5.5.5.5.5.8.8.8.8.8.6.5.5.5.5.5.5.5.5.5.5.5.5.5.5.5.5.5.3.o.o.o.o.o.o.o.X.X.X.| | | | X.X.X.X.| } ( ( ( ( ( ( ( ( ( ( ( ( ( ( ( ( ( } ( ( ( } } } ( ( ( ( ( ( ( ( } X.o.o.o.>.>.5.5.5.5.>.>.<.<.<.x.K.K.f.o.o.o.o.o.i.f.f.f.f.>.X.X.X.o.X.X.X.6.f.:.D D Z x x x 9 7 , # # # # # # # O n U U U #.N.N.N.N.N.N.N.N.N.N.N.C.C.C.g.f.f.f.f.7.7.7.6.5.3.>.>.>.>. . .| | | } } } | | | } | } | | | |  .",
"o.o.o.>.o.o.o.o.>.3.5.3.5.q.f.q.U.~.~.^.~.f.6.7.i.x.v.N.U.~.{.+X&X&X&XoX{.+X&X&XQ.0.) D D D D D D D F F D D D , % % % % % % % % % % % % 0 z x x z V V V V V Y | | | | | | | } T T T ( T Y Y Y Y Y Y Y Y Y Y Y Y Y Y Y Y Y Y Y Y Y Y Y Y Y Y T T T T T T ( ( | | } } } X.#.#.>.>.>.>.5.5.8.Z 0 0 i >.<.<.>.~ ~ ~ ( ( ( ) } } } } } } | | } } X.o.>.>.5.5.5.5.| } >.<.<.<.<.<.<.<.<.<.<.6.6.6.6.i.i.i.i.i.i.i.i.i.y.i.i.i.i.i.y.y.6.6.6.6.6.6.5.>.>.X.} ..X.X.X.X.....X.X.| X.} ( Q Q Q Q Q Q Q Q Q Q Q Q Q Q } X.X.X.X.X.#.>.#.| | | | | | | | | | | | | | | B A 9.9.B i , , : : > > > : : : t t t t t t t z Z y.n.m.N.J.J.J.J.J.J.J.J.J.J.J.J.m.m.m.m.f.i.6.5.5.5.5.5.5.5.8.8.8.8.8.6.5.5.5.5.5.5.5.5.5.5.5.5.5.5.5.5.>.o.o.o.o.o.o.o.o.X.X.X.X.X.| | o.o.o.X.X.X.X.| } ( ( ( ( ( ( ( ( ( ( ( ( ( ( } ( ( ( ( ( ( ( ( ( ( ( ( ( ( | X.o.o.>.>.>.5.5.5.5.>.>.<.5.<.C.K.K.>.o.o.o.o.6.f.f.f.i.>.X.X.o.X.X.X.X.X.6.f.:.D D A Z x x i 7 7 * # # # # # # O * S n M Q N.N.N.N.N.N.N.N.N.N.N.N.N.C.v.f.f.f.i.7.7.7.3.>.3.3.>.>. . .| | | | } } } | | | | } | | | |  . .",
"o.>.>.>.>.>.o.o.o.3.5.5.5.5.6.q.q.m.E.~.F.q.6.6.f.x.x.x.N.J.E.&X&X&X&X&X&X&X&X&X{.^.k.^ D D D ~ ~ ) ^ ~ ! D D n % % % % % % % % % % % % t v M Z | ( Y D ~ } | | | | | | | | T T T T ( T Y Y Y Y Y Y Y Y Y Y Y Y Y Y Y Y Y Y Y Y Y Y Y Y Y Y Y T T T T T T T } | } } } o.#.#.>.<.5.5.5.5.z 9 9 i >.<.<.<.>.( ( ~ ( ( ( ( } } } } } } | | } } } | | } } X.X.#.X.} X.<.>.>.<.<.<.<.<.<.6.6.6.6.6.6.i.y.i.i.i.i.y.y.i.i.i.i.i.i.i.6.6.6.6.6.6.6.6.>.>.X.X.X.X.X.X.X...X.X.X.X.X.....( Q T Q Q Q Q Q Q Q Q Q Q Q X.X.X.X.X.X.o.>.X.| | | | | | | | | | ) B A D D B B B B B , : : : : > , > > : , t t t t t t t v S f.h.m.m.N.J.J.J.J.J.J.J.J.J.J.J.m.m.m.m.f.f.6.5.5.5.5.5.5.5.8.8.8.8.8.5.5.5.5.5.5.5.5.5.5.5.5.#.>.>.>.o.o.o.o.o.o.o.o.o.o.| X.X.| X.X.o.o.o.o.o.o.o.o.o.X.X.| } ( } } ( ( ( ( } } ( ( ( ( ( ( ( ( ( ( ( ( ( ( ( ( | X.o.o.#.<.5.<.5.5.<.<.>.>.5.5.5.Y.K.x.( | o.o.5.f.f.6.5.>.X.X.X.X.X.X.X.o.X.>.f.o.D D A A B x x 9 7 7 % # # # $ # $ $ w z z z m.N.N.N.C.N.N.N.N.N.N.N.N.N.m.g.f.f.i.7.7.6.>.>.3.3.>.o. .| | | | | | | | | | | | | | | | |  . .",
">.>.>.>.>.o.o.o.o.>.5.5.5.5.3.3.5.6.q.f.q.6.6.6.i.x.x.x.x.N.J.I.{.&X&X&X&X&X&X&X&X^.^.L.;.^ | | | | -.-.| ^ ~ D % % % % % % % % % * 0 0 M M M | | | | | | | | | | | | | | } T T ( T T Y Y Y Y Y Y Y Y Y Y Y Y Y Y Y Y Y Y Y Y Y Y Y Y Y Y Y Y T T T T T T T ( | } } } o.#.#.>.<.5.5.5.5.z 9 z >.<.<.<.<.o.( ( ( ( ( ( ( ( } } } } } | | } } } | } } } } } } } } } >.>.>.<.<.<.<.<.5.6.6.6.6.6.6.6.y.i.i.i.y.y.y.i.i.i.i.i.i.i.6.6.6.y.i.i.i.6.<.>.#.X.X.X.X.X.X.....X.X.X.......| Q T Q Q Q Q Q Q Q Q Q Q ( X.X.X.X.X.X.#.>.| | | | | | | | | | | | V B B B B B B B 7 , : : : : > , , > > , t z n z t t x Z ( f.f.v.m.m.C.J.J.J.J.J.J.J.J.J.Z.m.m.m.m.f.f.6.6.5.5.5.5.5.5.8.8.8.8.8.5.5.5.5.5.5.5.5.5.5.5.>.o.o.o.o.o.o.o.o.o.o.o.o.o.o.X.X.X.X.o.o.o.o.o.o.o.o.o.o.o.o.o.o.o.X.} } ( ( ( ( ( ( ( ( ( ( ( ( ( ( ( ( ( ( ( ( ( } X.X.o.o.>.<.<.5.<.<.<.<.>.>.5.5.y.Y.Y.T S D o.>.f.i.5.<.>.X.X.X.o.o.X.X.X.o.o.>.f.o.D D Z n x x x i 7 7 7 # # # $ $ $ $ t z z z y.N.N.N.C.C.N.N.N.N.N.N.N.N.v.g.f.f.7.7.8.3.>.>.>.>.o. .| | | | | | | | | | | | | | | | |  . . .",
"o.o.o.o.>.o.o.o.o.o.3.5.5.5.5.5.5.5.5.5.6.6.6.6.i.x.x.x.x.x.m.J.J.E.+X&X&X&X&X&X&X{.^.^.c.g.4.-.| | | | | | | ) % % % % % % % % % % 9 z v v ( | | | | | | | | | | | | | | ( ( ( ( T T Y Y Y Y Y Y Y Y Y Y Y Y Y Y Y Y Y Y Y Y Y Y Y Y Y Y Y Y T T T T T T T ( } } } } o.#.#.>.5.5.5.<.<.z Z >.>.5.5.5.5.} ( ( ( ( ( ( ~ ~ ( } } } } } } } } | | } } } } } } } } } X.>.<.>.>.>.>.<.6.6.6.6.6.6.6.5.6.6.y.i.i.i.i.i.i.i.i.i.i.i.y.y.i.i.i.i.i.6.5.>.>.X.X.......X.X.X.....X.X.X.X.X.} Q Q Q Q Q Q Q Q Q Q ( X.X.X.X.X.X.>.>.>.| | | | | | | | | | | | ! B B B B B B t > > : : > > > > > > > > v v n t t z v v >.f.f.f.m.m.m.J.J.J.J.J.J.J.Z.m.m.m.m.m.m.f.f.y.y.5.5.5.5.5.5.6.8.8.6.5.5.5.5.5.5.5.5.5.5.5.5.3.o.o.o.o.o.o.o.o.o.o.X.X.X.X.| | X.o.o.o.o.o.o.o.o.o.o.o.o.o.o.o.o.o.X.} ( ( ( ( ( ( } } ( ( ( ( ( ( ( } ( ( ( ( } X.X.X.o.o.#.<.<.<.>.>.>.>.5.5.5.5.m.I.>.S S Y >.f.f.5.<.<.o.X.X.X.X.X.X.X.X.X.X.X.f.o.D D n x x x x x 9 7 7 % # # O O O $ z z z z } N.N.N.N.N.N.N.N.N.N.N.v.g.f.f.f.f.7.7.6.3.3.3.>.o. .| | | } | | | } } | } } | | | | | |  . . .",
"o.o.o.o.>.>.o.o.o.>.3.3.5.5.5.5.3.5.5.5.5.6.7.6.7.x.x.x.x.x.x.m.J.J.J.~.&X&X&X&X&X&X^.^.G.c.c.g.,.| | | | | | | % % % % % % % % % % * v v S | | | | | | | X.>.3.5.>.| | | T T ( T T Y Y Y Y Y Y Y Y Y Y Y Y Y Y Y Y Y Y Y Y Y Y Y Y Y Y Y Y T T ( T T T T T ( } } } | o.#.#.<.<.<.<.<.>.T 5.>.<.5.5.5.>.( ( ( ( ( ( ~ ~ ~ ~ } } } } } | } } | } } } } } } } X.#.X.} >.<.>.>.>.>.<.<.<.5.6.6.6.6.5.6.6.6.6.6.y.i.i.y.i.i.i.i.i.y.i.i.i.i.i.i.6.6.<.>.#.X.......X.X.X.X.X.X.X.X.X.X.X.} Q Q Q Q Q Q Q Q ( X.X.X.X.#.>.<.<.>.>.o.| | | | | | | | X.:.X.| A D D D A x > > > : : > > > > > > > , v v x t t x z v 6.f.f.f.v.m.m.m.J.J.J.N.m.n.m.m.m.m.m.m.m.h.f.i.y.5.5.5.5.5.5.5.5.5.5.5.5.5.5.5.5.5.5.5.5.5.5.>.o.o.o.o.o.o.o.| X.X.X.X.X.| X.X.o.o.o.o.o.o.o.o.o.o.o.o.o.o.o.o.o.o.o.X.} ( ( ( ( ( } ( ( ( ( } } ( ( } ( ( } ( } X.X.X.o.o.o.>.<.<.>.>.>.>.3.3.5.5.I.x.S S S o.f.f.6.5.<.>.X.X.o.o.X.X.>.>.o.X.X.X.6.5.D D n x x x x x i 7 7 7 O # O O $ > z z z z M N.N.N.N.N.N.N.N.N.v.f.f.f.f.f.f.i.8.7.5.3.3.3.o. .| | | | } | | } } | | } | | | | | | |  . . .",
"o.o.o.>.o.>.>.>.>.3.3.3.5.5.3.5.3.3.5.5.5.5.6.6.6.f.x.x.x.x.x.x.x.m.J.J.I.[.&X&X&X&X+X^.U.c.c.c.g.-.| | | | { ! % % % % % % % % % % % = v }  .>.>.>.>.5.6.6.6.6.6.3.| | } T ( ( T T Y Y Y Y Y Y Y Y Y Y Y T T T Y Y Y Y Y Y Y Y Y Y Y Y Y T T T ( ( T T T T T | } } X.#.#.#.>.>.<.>.>.>.5.6.5.<.>.>.5.( ( ( } } } ( ~ ~ ~ ~ ( ( } } } } } } } } } } } } | X.#.#.#.X.X.#.#.#.#.#.#.>.>.<.>.<.<.5.6.6.6.6.6.6.6.6.y.y.i.i.i.i.i.i.i.i.i.i.i.y.6.6.5.>.>.X.....X.X.X.X.>.>.>.>.#.X.X.X.X.( Q Q Q Q Q Q } X.X.#.>.>.>.>.>.>.>.>.<.>.#.X.X.#.>.>.>.>.>.>.| ~ Y Y D Y e > > > > > > > > > > > > 3 t v v t t i z U f.f.f.f.f.m.m.m.m.m.m.m.n.n.m.m.m.m.m.m.m.h.f.i.y.5.5.5.5.5.5.5.5.5.5.5.5.5.5.5.5.5.5.5.5.5.5.>.o.o.o.o.o.X.| | | X.X.| X.X.X.o.o.o.o.o.o.o.o.o.o.o.o.o.o.o.o.o.o.o.o.X.X.} ( ( ( ( ( ( ( ( ( ( ( ( ( ( ( ( } ( } X.X.| X.o.o.#.>.5.5.5.<.<.>.>.>.8.m.D S S T f.f.7.5.<.5.o.X.X.X.X.X.o.i.i.i.>.X.X.>.6.D D V x x x x x x 7 7 7 $ O O O O 9 z z z z z m.N.N.N.N.m.v.g.f.f.f.f.f.f.f.f.8.7.6.>.>.3.o. .| | | | | | | | | | | | | | | | | | |  . . . .",
"o.o.o.3.3.3.3.3.3.3.3.5.5.5.3.3.3.3.5.5.5.5.5.6.6.i.x.x.x.x.x.x.x.x.x.x.v.v.J.+X&X&X&X{.U.c.c.c.g.;.| -.-.) Y D % % % % % % % % % % % % 9 | 6.6.6.6.6.6.6.6.6.6.6.4.| | T T ( ( T T T Y Y Y Y Y Y Y Y Y T T T T T T Y Y Y Y Y Y Y Y Y T T T T T ( ( T T T T T | } } X.#.#.>.<.<.>.>.>.8.N.N.i.<.>.<.X.( ( ( } } } } ( ~ ( ( ( ~ ) } } } } } } } } } } } X.#.#.#.#.#.X.| X.X.#.#.#.#.#.#.>.>.>.<.<.6.6.6.6.6.6.6.6.y.i.i.i.i.y.y.y.y.i.i.i.6.6.6.6.>.>.#.....X.X.X.X.>.>.>.>.>.>.#.X.X.} Q Q Q Q Q | X.o.>.>.>.>.>.>.>.>.>.>.<.<.>.>.>.>.>.>.>.>.>.>.| ! ! Y D D 9 > > > > > > > > > > > > 3 w t v z t t M 6.i.f.f.f.f.f.m.m.m.m.m.m.n.m.m.m.m.m.m.m.m.h.f.i.y.6.5.5.5.5.5.5.5.5.5.5.5.5.5.5.5.5.5.5.5.5.5.#.o.o.o.o.X.X.| | X.X.X.X.X.X.o.o.o.o.o.o.o.o.o.o.o.o.o.o.o.o.o.o.o.o.o.X.X.X.| } } } ( ( ( ( ( ( ( ( ( ( ( ( } ( } X.X.X.X.X.o.o.o.>.5.<.<.<.>.>.>.>.D S S Y i.f.i.5.<.<.>.X.X.X.X.X.X.>.i.i.i.8.>.X.X.5.D D A x x x x x x e 7 7 * O O O O t z z z z z o.v.v.f.f.f.f.f.f.f.f.f.f.f.f.8.8.7.5.>.>.>. . .| | | | | | | | | | | | | | | | |  . . . . . .",
"o.o.>.5.5.5.5.5.3.3.3.3.3.3.3.3.3.3.3.3.5.3.3.6.6.8.x.x.x.x.x.x.x.x.x.x.x.x.x.x.~.&X&X&XE.c.c.g.w.-.-.-.) Y Y Z % % % % % % % % % % % % % t >.6.6.6.6.6.6.6.6.6.6.4.| } T T T T T T T T T T T T Y Y Y T T T T T T ( ( Y Y Y Y Y Y Y T T T T ( ( ( ( T T T ( ( } } } o.o.o.>.<.<.<.<.<.v.n.N.f.<.>.>.( ( ( ( } } } } } ( ( ( ( ( ( ( } } } } X.X.X.X.| X.X.X.X.X.X.X.X.X.X.X.#.#.X.X.X.X.#.<.<.<.<.<.6.6.6.6.6.6.6.y.y.y.i.i.i.y.y.i.i.y.5.5.6.6.6.5.>.>.X.X.X.X.X.X.>.>.>.>.>.>.<.>.X.X.( Q Q Q | X.X.>.<.<.<.>.>.>.>.>.>.<.<.<.>.>.>.>.>.>.>.<.<.X.Y Y Y Y Y D , , , , > : : : : > > > , , w w z v n z Y y.y.i.f.f.f.f.f.m.m.m.m.m.m.m.m.m.m.m.m.m.m.f.f.i.6.6.5.5.5.5.5.5.5.5.5.5.5.5.5.5.5.5.5.5.5.5.5.o.o.o.X.X.X.X.X.X.X.X.X.| X.X.o.o.o.o.o.o.o.o.o.o.o.o.o.o.o.o.o.o.o.o.o.o.X.X.X.X.| ( ( ( ( ( ( ( ( ( ( ( ( ( ( } } X.X.X.| | X.o.o.o.o.>.>.>.>.<.5.( S S D 6.f.f.5.<.<.<.:.X.X.o.o.o.X.5.8.8.8.i.i.o.X.| D D D Z x x x x x i 7 7 = # # # # z z z z z z n f.f.f.f.f.f.f.f.f.f.f.f.f.7.7.7.6.>.>.>. . .| | | | | | | | | | | | | | | | |  . . . . . . .",
">.>.>.5.5.5.5.5.3.3.3.3.3.3.3.3.3.3.5.3.5.5.3.3.6.6.f.x.x.x.x.x.x.x.x.x.x.x.x.x.x.E.+X&X[.c.q.-.-.-.{ ^ Y Y Y x % % % % % % % % % % % % % % t o.6.6.6.6.6.6.6.6.6.:.| T T T T T T T T T T T T T T T T T T T T T T T ( ( Y Y Y Y Y Y T T T ( ( ( T T T T T ( T } } } o.o.#.<.<.<.<.<.<.n.m.N.v.<.>.} ( ( ( ( } } } } } } ( ( ( ( ( ( ( } } X.#.#.#.#.X.#.X.X.X.X.X.o.X.X.X.X.#.#.o.X.X.X.#.<.<.<.<.<.5.6.6.6.6.6.i.i.i.y.i.i.i.i.i.i.6.6.5.6.6.6.6.6.<.>.>.X.X.X.X.X.#.>.>.>.<.<.<.<.<.#.} Q Q } X.X.>.>.<.<.<.>.>.>.>.>.>.>.<.<.>.>.>.>.>.>.>.<.<.X.Y Y Y Y Y A , , > > > > : : : : > > , , w w w v v v } y.y.y.f.f.f.f.f.f.m.m.m.m.m.m.m.m.m.m.m.m.m.f.f.i.6.6.6.5.5.5.5.5.5.5.5.5.5.5.5.5.5.5.5.5.5.5.5.o.o.o.X.X.X.| X.X.X.X.X.X.X.o.o.o.o.o.o.o.o.o.o.o.o.o.o.o.o.o.o.o.o.o.o.o.X.X.X.X.X.} ( ( ( ( ( ( ( ( ( ( ( ( ( } } X.X.X.X.X.| o.o.o.o.o.>.>.<.>.D S S Y 6.f.f.i.<.<.<.<.X.X.X.o.o.o.X.6.8.8.i.i.i.6.o.X.Y D D D D D Z x x x 7 7 = # # # # z z z z z z z f.f.i.8.8.8.8.8.7.7.7.7.7.7.7.5.>.>.>. . . .| | | | | | | | | | | | | | |  . . . . . . . . .",
"o.o.>.>.3.5.5.3.5.5.3.3.3.3.5.5.5.5.5.5.5.5.5.5.5.6.f.x.x.x.x.x.x.x.x.x.x.x.x.x.x.x.J.{.E.c.-.| | ^ ! Y Y Y Y z % % % % % % % % % % % % % % 3 e >.6.6.6.6.6.6.4.:.| ( ( T T T T T T T T T T T T T T T T T ( T T T T T T T T Y Y Y ( T T T T ( T T T T T T T T } } } #.#.>.<.<.<.<.<.>.g.N.m.v.<.>.( ( ( ( ( } } } } } } } ( ( ( ( ( ~ } | X.#.#.#.#.#.#.#.#.X.X.#.#.#.#.X.#.#.#.#.#.#.#.<.<.<.>.<.<.5.6.6.6.5.5.i.i.i.i.i.i.i.i.i.i.6.6.6.6.6.6.6.6.5.<.>.>.X.X.....X.>.>.>.>.>.>.>.>.>.#.Q Q X.X.X.>.>.<.<.>.>.<.<.>.>.>.>.>.>.<.>.>.>.>.>.>.>.>.~ Y Y Y Y Y n : : > : > > , , > > > > > > w w w t v v } y.6.y.f.f.f.f.f.f.f.m.n.n.m.m.m.m.m.m.n.v.f.f.f.f.6.y.6.6.6.5.5.5.5.5.5.5.5.5.5.5.5.5.5.5.5.5.5.o.o.| X.X.| | X.X.X.X.X.| o.o.o.o.o.o.o.o.o.o.o.o.o.o.o.o.o.o.o.o.o.o.o.o.o.X.X.X.X.| ( ( ( ( } ( ( ( ( ( ( ( ( } } X.X.X.X.X.o.o.o.o.o.#.5.5.5.T S S Y i.f.f.f.f.<.<.<.<.X.X.X.X.o.o.X.i.i.i.i.i.i.i.7.5.5.D A D D D A Z x x 9 7 % # O # # z z z z z z Z 7.7.7.8.7.7.7.7.7.7.7.7.6.6.3.>.>.>.o. . .| | | | | | | | | } } | | |  . . . . . . . . . . .",
"o.o.o.>.o.>.>.3.5.3.3.3.5.5.5.5.5.5.5.5.5.5.5.5.5.6.f.x.x.x.x.x.x.x.x.x.x.x.x.x.x.v.J.E.E.c.| ~ Y Y Y Y Y Y Y w % % % % % % % % % % % % % % 9 e T | | | | | | | | } ( ( T T T T T T ( ( ( ( T T T T T T ( ( ( ( T T T T T T T Y T ( T T T T T T T T T T T T T } } | o.#.<.<.<.<.5.<.>.7.m.N.v.<.} ( ( ( ( ( } } | | } } } } ( ( ( ( ~ } X.X.#.#.#.#.#.#.#.#.#.#.#.#.#.#.o.#.#.#.#.>.<.<.<.<.<.<.<.<.<.6.6.6.6.5.i.i.i.i.i.i.i.f.i.i.6.6.6.6.6.6.6.6.6.5.>.>.>.>.X.X.X.>.>.>.<.>.>.>.>.>.>.X.Q X.X.X.>.>.>.>.>.>.<.>.>.>.>.>.>.>.<.>.>.>.>.>.>.>.| Y Y Y D A A z : : : : > > , > > > > > > > w w w w Z v } y.6.6.i.f.f.f.f.f.f.f.b.m.m.m.b.v.x.h.f.f.f.f.f.f.6.y.6.6.6.5.5.5.5.5.5.5.5.5.5.5.5.5.5.5.5.5.>.o.X.| X.X.X.X.X.X.| | X.X.o.o.o.o.o.o.o.o.o.o.o.o.>.>.>.#.o.o.o.o.o.o.o.o.o.o.X.X.| X.} ( } ( } } ( ( ( ( ( ( ( } } | X.X.X.o.o.o.o.o.o.>.5.<.( S S } i.f.f.f.f.f.<.<.<.>.X.X.X.X.X.o.>.i.i.i.i.i.i.i.i.i.8.X.A A D D A A n x q 7 % # O # # z z z z z z } 7.7.7.7.7.7.8.7.8.6.6.5.>.3.3.>.>.>. . . .| | | | | | |  . . . . . . . . . . . . . . . . . .",
"o.o.>.>.>.>.>.3.5.5.3.3.3.3.5.5.5.5.3.3.3.3.5.5.6.6.f.x.x.x.x.x.x.x.x.x.x.x.x.x.x.m.J.E.E.L.| Y Y Y Y Y Y Y Y 9 % % % % % % % % % % % % % % e e | | | | | | | | | T T ( ( ( T T T ( ( ( ( ( ( T T T ( ( ( T T T ( T T T T T T T T T T T T T T T T T T T T T T ( } X.#.#.5.5.5.5.5.<.>.<.m.N.n.<.( ( ( ( ( ) } } } } | } } } } } } } X.X.X.X.X.#.#.#.#.#.#.#.#.#.X.#.#.#.#.#.#.#.>.<.<.<.<.<.<.<.<.<.<.6.6.6.6.6.y.i.i.i.i.i.i.f.f.i.y.6.6.6.6.6.6.6.5.6.6.<.>.>.>.>.>.<.<.<.>.<.5.5.<.>.>.>.Q | X.X.>.>.>.>.>.>.<.<.>.>.>.>.>.>.<.<.>.>.>.>.| ! D D Y Y A A A t : : > > > > > > > > > > : : w w w } m.S Y 6.6.6.i.i.y.6.6.6.i.f.f.x.v.f.f.f.f.f.f.f.f.f.f.i.y.y.6.6.6.5.5.5.5.3.>.5.5.5.5.5.5.5.5.5.5.3.#.o.X.X.X.X.X.| X.X.| | | o.o.o.o.o.o.o.o.o.o.o.o.>.>.>.>.<.<.>.#.o.o.o.o.o.o.o.o.X.X.X.X.( ( ( ( ( ( ( ( ( ( ( ( ( } | X.| o.o.o.o.o.o.o.<.<.o.S S } f.f.f.f.f.f.f.5.<.<.o.X.X.X.X.X.X.>.i.i.i.i.i.i.i.i.8.8.g.) D D D A A V x t 7 % # O O $ z z z z z z 7.7.7.7.7.7.7.7.6.3.>.>.>.3.3.3.3.>. . . . . . . . . . . . . . . . . . . . . . . . . . . . . .",
"o.o.>.>.o.o.>.3.5.5.3.3.3.3.5.5.5.5.3.3.5.5.5.6.6.6.f.x.x.x.x.x.x.x.x.x.x.x.x.x.x.N.G.E.E.E.U.Y Y Y Y Y Y Y Y % % % % % % % % % % % % % % 3 e z | | | | | | | | T T T ( ( T T T T ( ( ( ( ( ( T T T T ( ( ( T T ( ( T T T T T ( T T T T T T T T T T T T T T T } } o.#.#.5.5.5.5.5.<.<.<.f.m.N.o.( ( ( ( ( } } } } } } X.X.X.X.#.#.#.X.X.X.X.X.o.#.#.#.o.#.#.o.#.X.X.#.#.#.#.#.>.<.<.<.<.<.<.<.<.<.<.<.6.6.6.6.i.i.i.i.i.i.i.f.f.f.f.i.6.6.6.6.6.i.i.y.y.y.6.5.<.>.>.>.>.>.<.5.6.6.6.6.6.<.>.X.} X.X.X.X.#.>.>.>.<.<.>.>.>.>.>.>.<.<.X.) ! D Y Y D D Y Y A A A i : : > > > > > > , > > > : , w w t m.N.6.Y 6.6.6.y.y.6.6.6.6.y.f.f.f.f.f.f.f.f.f.f.f.f.f.f.i.y.y.6.6.6.5.5.5.>.o.o.o.3.5.5.5.5.5.5.5.>.o.o.o.X.X.X.X.| | X.X.| | | o.o.o.o.o.o.o.o.o.o.o.#.>.>.>.>.<.<.<.5.>.#.o.o.o.o.o.o.o.X.X.X.| ( ( ( ( ( ( ( ( ( } | X.| | X.| o.o.o.o.o.o.>.>.<.( S >.f.i.f.f.f.f.f.f.6.<.<.X.X.X.X.X.X.X.5.8.i.i.i.i.i.i.i.i.8.'.q.-.Y D A A V x i 7 % # O O # z z z z z T 8.i.f.f.f.f.8.8.7.6.>.>.>.3.3.3.3.>. . . . . . . . . . . . . . . . . . . . . . . . . . . . . .",
"o.o.o.>.o.o.>.3.5.5.5.3.3.3.5.5.5.3.3.3.5.5.6.6.6.8.x.x.f.f.f.f.x.x.x.x.x.x.x.x.x.N.G.E.E.E.E.) Y Y Y Y Y Y Y % % % % % % % % % % % % % , e e M | | | | | | } T T T T T ( ( T T T T ( T T ( T T T T T ( T T T T ( ( T T T T ( ( T T T T T T T ( } } } ( T ( T } } o.o.o.5.5.5.5.>.>.<.<.6.m.m.<.} ( ( ( ( } } } } } X.o.X.X.#.#.#.#.X.X.X.X.X.#.#.#.X.X.X.X.X.X.X.X.X.X.#.>.<.<.<.<.<.<.<.<.<.<.<.<.<.6.6.6.6.i.i.y.y.i.i.i.f.f.f.f.f.i.y.6.y.i.i.i.i.y.i.i.y.6.5.>.>.>.>.<.6.6.6.6.6.6.5.>.X.X.X.X.X.X.X.>.>.>.>.>.>.>.<.<.>.<.#.~ Y Y D Y Y Y D D D Y A A A i : > > > > > > > , > > > : 9 w w Q N.N.N.Z 6.6.6.y.6.6.6.y.y.y.i.f.f.f.f.f.f.f.f.f.f.f.f.i.6.6.y.y.y.6.5.5.5.o.o.o.o.>.5.5.5.5.5.5.o.o.o.o.o.o.X.X.X.| X.X.X.X.X.X.o.o.o.o.o.o.o.o.o.#.o.>.<.>.>.5.5.5.5.<.5.>.>.#.o.o.o.o.o.o.X.X.X.} } ( ( ( ( } } X.X.X.X.X.X.X.o.o.o.o.o.o.#.>.>.<.} >.f.i.i.i.i.f.f.f.f.i.5.<.X.X.X.o.o.X.o.5.8.8.8.i.i.i.i.8.8.i.|.{.-. .D A D n x i 7 % # O # # i z z z M 8.f.f.f.f.i.i.i.f.i.7.6.3.3.3.3.3.3.o. . . . . . . . . . . . . . . . . . . . . . . . . . . . . .",
"o.o.o.o.o.o.>.3.5.5.5.5.3.3.5.5.3.3.3.3.5.6.6.6.6.7.i.6.6.6.6.6.i.x.x.x.x.x.x.x.x.N.G.U.E.E.E.>.Y Y Y Y Y Y D % % % % % % % % % % % = w e e e ( | | | | | } ( ( T T T T T T T T T T T T T T T T T T T T T T T T ( T T T T T ( ( ( T T T T T } } } | | | | | | | } o.o.o.>.<.<.<.>.<.<.>.o.v.m.i.} ) ( ( ) } } } } } #.X.X.X.o.#.#.o.o.X.X.X.X.#.#.#.X.X.X.X.X.X.X.X.X.X.X.#.<.<.<.>.>.<.<.<.<.<.<.<.<.6.6.6.6.i.i.i.i.i.i.i.i.f.f.f.f.f.i.i.i.i.i.i.i.i.i.i.i.6.6.5.>.>.>.<.6.6.6.6.6.6.6.<.#.X.X.X.X.X.#.>.>.>.<.5.5.5.<.<.>.#.Y Y Y Y D D Y D D D Y Y A A A i > > > > > > > > > > > > , w w w i.N.N.N.} <.6.6.y.6.6.6.y.y.y.y.6.f.f.f.f.f.f.f.f.f.f.i.y.y.6.6.y.y.y.5.5.>.o.o.o.o.#.5.5.5.5.5.#.o.o.o.o.o.o.X.X.X.X.X.X.X.X.X.o.o.o.o.o.o.o.o.o.o.o.o.5.<.<.5.5.5.5.5.<.<.>.>.>.#.o.o.o.o.o.o.X.X.| } } ( ( ( | X.X.X.X.X.X.X.X.o.o.o.o.o.o.>.>.<.5.i.f.f.i.i.i.f.f.f.f.f.f.5.5.>.X.X.X.o.o.>.5.8.8.8.8.i.i.i.8.i.8.{.+X,.-.D D A x x t 7 % # O # % w z z z 5.f.i.x.x.x.f.f.f.f.f.f.8.6.3.3.3.3.3.3.3.>.>.>.>.>.>.>.>. . . . . . . . . . . . . . . . . . . . .",
">.>.o.o.o.o.3.3.5.5.5.5.5.5.5.5.5.5.5.6.6.6.6.6.6.6.6.6.6.6.7.7.6.i.f.x.x.x.x.x.x.v.G.J.E.E.E.g.Y Y Y Y Y Y Z % % % % % % % % % , r e e e e t | | | | | ( T T T T T T ( ( ( T T T T T ( T T T T T T ( T T T T T T T T T T T T T T T T T T } | | | } | } | | | | | o.o.o.o.>.<.<.<.>.>.o.#.6.v.5.} } } | | } } } } } X.#.#.#.X.X.X.X.X.#.#.#.#.#.#.#.<.<.<.#.#.#.#.#.#.#.#.#.>.>.>.<.<.<.<.<.<.<.<.<.<.6.6.6.6.i.i.i.i.i.y.y.i.f.f.h.x.x.i.y.y.y.i.i.i.i.i.i.i.i.6.5.<.>.<.<.5.6.6.6.6.6.6.<.>.X.X.X.X.X.>.>.<.6.6.6.6.6.6.6.<.~ D D D D Y Y Y A A D Y Y A A A i > : : > > > > > > > , , 9 w w w m.N.N.N.6.} 6.6.y.y.y.y.6.6.6.6.y.y.i.f.f.f.f.f.f.i.y.y.6.6.6.6.y.6.6.5.5.#.o.o.o.o.>.5.5.5.5.#.o.o.o.o.o.o.o.X.X.X.X.X.X.X.X.X.o.o.o.o.o.o.o.o.o.o.o.o.<.<.5.5.5.5.>.>.>.>.>.<.<.<.#.o.o.o.o.o.X.X.X.} } } } X.X.X.X.X.X.X.X.X.X.o.o.o.o.o.>.<.5.6.6.i.i.i.f.f.f.i.i.i.f.f.f.6.<.<.o.X.X.X.X.>.5.i.i.i.i.i.8.8.8.i.i.[.+X5.-.D D V t 9 7 7 $ O O O , w z z Y m.N.G.J.G.G.G.G.m.f.f.f.f.8.6.>.>.3.3.3.3.>.>.3.3.3.3.>.>.o. . . . . . . . . . . . . . . . . . . .",
">.>.>.o.o.o.>.3.5.5.5.7.6.6.6.7.6.6.6.7.6.6.6.6.6.6.6.6.6.7.7.7.6.6.7.f.x.x.x.x.x.x.m.G.J.E.E.N.Y Y Y Y Y Y Z % % % % % % % % % e e e e e e Z | | | | } ( T T T T T T ( ( ( T T T T ( ( T T T T T T ( ( T T T T T ( T T T T ( ( T T T T ( | | } } } } } | | } X.X.o.o.o.o.>.<.<.<.>.>.o.#.#.o.o.} } } | | } } } } | } X.#.#.X.X.X.X.X.o.#.#.#.#.X.<.<.<.<.<.#.#.o.X.#.#.X.#.#.>.<.<.<.<.<.<.<.<.<.<.5.6.6.6.6.i.i.i.i.i.y.y.i.f.f.h.x.x.f.y.y.y.h.f.f.i.y.i.i.i.6.5.5.>.<.<.<.6.6.6.6.6.6.5.>.X.X.X.X.>.>.5.6.i.i.i.i.y.6.6.6.! D D D D Y Y Y A A A Y Y Y A A i > $ $ $ % > > : > > , , w w w w N.N.N.V.v.S 6.6.6.y.y.y.6.6.6.6.y.y.y.6.y.i.i.y.6.y.y.y.6.6.6.6.y.6.5.5.3.o.o.o.o.o.>.5.5.5.#.o.o.o.o.o.o.o.o.X.X.X.X.X.| | X.X.o.o.o.o.o.o.o.o.o.o.o.o.>.<.<.<.5.5.>.>.>.>.>.>.<.<.5.#.o.o.o.o.o.X.X.X.| X.X.X.X.X.X.X.X.| X.X.o.o.o.o.o.>.<.6.6.6.i.f.f.f.f.f.i.i.i.i.f.f.f.6.<.<.<.>.X.X.o.<.<.i.i.i.i.i.8.8.i.i.i.E.+X5.-.D z 9 7 7 7 7 % O O $ 9 9 z z 8.G.G.J.J.G.G.G.G.G.G.f.f.f.i.7.6.>.3.3.3.3.>.>.>.3.3.3.>.>.>. . . . . . . . . . . . . . . . . . . .",
">.>.o.o.o.o.>.3.5.5.6.6.6.6.7.7.6.6.7.7.6.6.6.6.6.6.6.6.6.6.6.7.6.6.6.6.f.x.x.x.x.x.v.N.N.N.G.G.Y Y Y Y Y Y z % % % % % % % % * e e e e t M } | | | | } ( T T T T T T T ( T T T T ( } } ( ( T T T T ( ( T T T T ( ( ( T T T T ( ( T T T } } } } } } } } | #.#.#.o.o.#.#.o.#.>.<.5.5.#.o.o.o.o.o.} } } } } } } } | | } | #.#.#.#.#.#.X.#.#.#.X.X.<.<.<.<.<.<.#.#.o.X.X.X.X.o.X.>.<.<.<.<.<.<.<.<.<.6.6.5.6.y.6.i.i.i.i.i.y.y.i.f.f.f.x.x.x.i.y.y.h.h.f.f.y.y.i.i.y.6.6.<.<.<.>.<.6.6.6.6.6.6.>.>.X.#.>.>.6.6.y.i.i.i.i.i.i.y.>.Y Y Y D D Y Y Y A A A Y Y Y A A t : $ $ $ $ > > : > > , w w w w w N.N.V.V.N.Z 5.6.6.6.y.y.6.6.6.6.y.6.6.6.6.6.6.6.6.6.y.y.6.6.6.6.6.6.5.5.>.o.o.o.o.o.>.3.>.o.o.o.o.o.o.o.o.o.o.X.| | X.X.| | X.X.o.o.o.o.o.o.o.o.o.o.o.o.>.<.<.<.>.>.>.>.<.>.5.5.5.5.5.5.>.o.o.o.o.X.| | X.| X.X.X.X.| | | | o.o.o.o.o.>.5.5.6.6.6.6.f.f.f.f.f.f.f.f.i.i.f.f.i.5.<.<.<.<.<.>.>.<.<.8.8.8.i.8.8.8.i.i.i.N.+X,.| q 7 7 7 7 7 7 $ O O * w 9 z } i.G.G.G.G.G.G.G.G.G.G.G.f.f.f.8.7.3.3.3.>.3.>.>.3.3.3.3.>.>.o. . . .|  . .| | | |  . . . . . . . . .",
">.>.o.o.o.o.>.3.5.5.6.6.6.6.7.7.6.6.7.7.7.7.6.6.6.6.6.5.5.5.5.6.6.6.6.6.6.i.x.x.x.x.x.v.N.N.G.G.~ Y Y Y Y Y z % % % % % % % % * e e e z M S | | | | } } } ( T T T T T T T T T T T ( } } } ( ( ( T T ( ( ( T T T ( ( ( T T T ( ( ( T T ( } } } } } } } } } X.#.#.#.#.#.#.o.#.#.<.5.5.#.#.o.o.o.o.} } } } } } } } | } } } | X.#.#.#.#.#.#.#.X.X.>.<.<.<.<.<.<.<.#.#.#.X.X.X.o.X.>.<.<.<.<.<.<.<.<.5.6.6.6.i.i.i.i.y.y.i.i.i.i.i.f.f.f.x.x.x.i.y.i.h.h.f.f.y.y.i.i.y.6.6.6.>.>.>.>.5.6.6.6.6.6.<.>.>.>.>.5.6.6.i.i.i.i.i.i.y.i.>.Y Y Y D Y ! Y Y A A A D Y Y A A 9 * $ $ $ $ > > > > , w w w w w w v.N.N.N.N.} ( 6.6.6.5.5.5.y.6.6.6.6.6.y.y.6.6.6.6.6.y.y.y.6.6.6.6.5.5.5.o.o.o.o.o.o.o.o.o.o.o.o.o.X.X.o.o.o.X.| | | | X.| | X.X.o.o.o.o.o.o.o.o.o.o.o.o.#.<.<.<.<.>.>.>.<.5.5.5.5.5.5.5.>.>.o.o.o.X.X.X.| | X.X.X.X.X.| X.o.o.o.o.#.3.3.5.5.6.6.6.y.f.f.f.f.f.f.f.f.f.f.f.f.i.y.5.<.<.<.5.<.<.<.5.8.8.8.i.i.8.8.i.i.i.m.+X-.x 7 7 7 7 7 7 7 O O $ 9 w n D 5.f.G.G.G.G.G.G.G.G.G.G.G.m.f.f.8.7.5.3.3.>.>.>.>.3.3.3.3.>.>. . .| | | | | | | | |  . . . . . . . . .",
"o.o.o.o.o.o.>.3.5.5.6.6.6.6.6.7.6.6.6.7.7.7.7.6.7.7.7.7.6.6.5.5.6.6.6.6.7.7.8.f.x.x.x.x.v.G.G.G.| Y Y Y Y Y e % % % % % % % % % r e x M M T | | | | } } } ( T T ( ( ( T T ( ( ( T ( } } ( ( ( ( } T ( ( ( ( T T T T T T T T T T ( ( T } } } | } | } } } } } o.o.o.o.o.#.o.o.o.>.5.>.o.o.o.o.#.| | | } } } | | | } } } } } } X.X.#.#.X.X.#.#.#.<.1.1.1.<.<.<.<.#.#.#.o.X.X.X.X.#.<.<.<.<.<.<.<.<.6.6.6.6.i.i.i.i.i.i.i.i.i.i.i.f.f.f.f.f.f.f.f.f.h.f.f.f.y.i.i.i.i.6.6.6.5.>.>.>.>.6.6.6.y.6.5.>.>.>.<.6.6.y.i.i.i.i.i.i.y.y.| Y ! ! ! ! ~ ~ ! A A A A D A Z A 9 % $ $ $ % > > > , w w w w w w w y.N.N.m.N.6.Z 6.6.6.5.5.5.5.6.6.6.6.6.6.6.6.6.6.6.6.5.5.5.5.6.6.5.5.5.5.o.o.o.o.o.o.o.o.o.o.X.| X.X.X.o.o.o.X.X.| | X.X.X.X.X.X.o.o.o.o.o.o.o.o.o.o.o.o.o.>.>.>.<.5.<.>.>.>.5.5.>.<.>.>.>.<.>.o.o.o.| X.X.X.X.| X.X.| o.o.o.o.o.>.<.<.<.5.6.6.6.6.i.i.f.f.f.i.i.f.f.i.i.i.i.i.i.7.5.<.<.5.<.<.5.i.i.i.8.8.8.8.8.i.8.i.i.|. .7 7 7 7 7 7 7 % O O $ w k D Y 8.x.G.G.G.G.G.G.G.G.G.G.G.N.i.f.7.7.5.3.>.>.>.3.3.3.3.3.3.3.o. .| | | | | | | | | | |  . . . . . . . .",
"o.o.o.o.o.o.>.3.5.6.6.6.6.6.6.7.6.6.7.7.6.6.7.7.6.7.7.7.6.6.6.5.5.6.6.6.7.7.7.6.7.i.f.x.x.v.G.G.>.Y Y Y Y Y 9 % % % % % % % % % , z M M S | | | | | | } } } T T T T ( T T ( ( ( T ( ( ( ( ( ( ( } } ( ( ( ( T T T T T T T T T T ( ( ( } | } } } | } | } } } } o.o.o.#.#.#.o.o.o.#.#.o.o.o.o.o.} } | | } } | } | } } } } } } } | X.X.X.X.#.#.<.<.1.1.1.<.<.<.<.<.#.#.X.X.X.X.X.X.>.<.<.<.<.<.<.5.6.6.6.6.6.6.6.y.i.i.i.i.i.i.i.f.f.f.x.f.f.f.f.f.f.f.x.i.y.i.i.i.i.6.6.6.6.5.>.>.>.5.6.i.i.i.6.5.>.>.5.6.6.i.i.y.i.i.i.i.y.y.! D ! ! ! ~ ~ ~ ~ D A A A A A A A , % $ $ $ > , w w 9 w w w w w w w Q N.m.m.N.<.Z } 6.5.5.5.5.5.5.6.y.6.6.6.6.6.5.5.5.5.5.5.5.5.5.5.5.5.5.5.o.o.o.o.o.o.o.o.X.| | | X.X.X.o.o.X.X.X.X.X.X.X.| | X.X.X.X.X.o.o.o.o.o.o.o.o.o.o.>.>.>.5.5.<.5.>.>.5.5.>.>.>.>.>.>.<.#.o.o. .| X.X.X.| X.X.o.o.o.o.o.>.<.<.<.<.5.5.6.6.6.i.i.i.f.f.f.i.f.f.i.i.f.i.i.i.8.8.6.5.5.6.7.i.i.i.8.7.8.8.8.i.8.8.8.i.i.x 7 7 , = , * $ $ O O $ w D D T 8.x.G.G.G.G.G.G.G.G.G.G.G.N.i.i.7.7.3.>.>.>.>.3.>.3.3.3.3.o. .| | | | | | | | | | | |  . . . . . . . .",
"o.o.o.o.>.>.>.5.5.6.6.6.6.6.6.6.6.6.7.7.6.6.6.6.6.6.7.7.6.6.7.5.5.6.7.6.6.7.6.6.6.6.6.i.x.x.v.N.6.Y Y Y Y Y 3 % % % % % % % % % % , M Z } | | | | | | | ( ( ( T T T T T T T ( ( ( ( ( ( ( ( ( ( } ( } T T T T T T T T ( T T T T T T ( | | | } } | | } } } } } } X.o.o.o.#.#.o.o.#.o.o.o.o.#.X.} } } } } } } } } } } } } } } } } } } } X.#.#.<.<.1.1.<.<.<.<.<.<.<.#.#.#.X.X.X.X.>.<.<.<.>.<.<.5.6.6.6.6.6.6.5.5.y.i.i.i.i.i.i.f.x.x.x.x.f.f.x.x.x.x.x.i.i.i.i.i.i.6.6.6.6.6.6.5.5.6.6.y.i.i.y.6.5.6.6.6.y.i.i.i.i.y.i.i.y.6.D Y Y D ! ~ ~ ~ ~ D A A A A A A A : $ $ $ % , > , w w w w w w w w w z N.m.N.m.o.T Z 5.5.5.5.5.5.5.5.6.6.6.5.5.5.5.5.5.5.5.5.5.5.5.5.5.5.5.>.o.o.o.o.o.o.o.X.X.X.X.X.X.X.X.o.o.| X.X.X.X.X.X.X.X.X.X.| X.X.X.| o.o.o.o.o.o.o.o.#.5.>.5.5.5.5.>.<.<.<.<.<.<.>.5.5.5.>.o.o.o.X.X.X.| | o.o.o.o.o.o.#.<.<.<.5.5.<.>.5.6.6.y.f.f.f.f.i.i.f.f.f.i.i.i.i.i.8.8.i.i.i.i.i.i.i.i.i.i.8.8.i.i.i.8.8.f.( 7 7 7 = # O # $ $ $ $ % r D D | 8.m.G.G.G.G.G.G.G.G.G.G.G.N.i.i.7.6.3.3.3.>.>.>.>.>.>.>. . .| | | | | | | | | | | | |  . . . . . . . .",
"o.o.o.o.>.>.>.5.5.6.6.6.6.6.6.6.6.6.7.7.6.6.6.6.6.6.6.6.6.6.6.6.5.6.7.7.6.6.6.6.6.6.6.6.i.f.x.v.7.! Y Y Y Y , % % % % % % % % % % % , } | | | | | | | | ( ( ( T T T T T T T T T ( ( ( ( ( ( ( ( ( ( ( ( T T T T T T T ( ( ( T T T T T } | | | } | | } } } } } } } | o.o.o.o.o.o.o.o.o.o.#.#.o.} } } } } } } } } } | #.X.X.| } } } } } X.#.#.<.<.1.1.<.<.<.<.<.<.<.#.#.#.#.o.X.#.#.<.<.<.>.<.<.6.6.6.6.6.6.6.6.5.y.i.i.i.i.i.i.f.x.x.x.x.f.f.h.x.x.x.x.i.i.i.i.i.i.6.6.6.6.6.6.6.6.6.6.6.y.i.i.6.6.6.6.6.i.i.i.i.i.y.y.i.y.:.D Y Y D ~ ~ ~ ~ ~ A A A A A A A A : $ $ $ : , , , 9 w w w w w w w w w y.m.m.<.o.o.( o.>.5.5.5.5.5.5.5.5.5.5.5.5.5.5.5.5.5.5.5.5.5.5.5.5.5.#.o.o.o.o.o.X.X.X.X.X.X.X.X.X.X.X.X.| X.X.X.X.X.X.X.X.X.X.| X.X.X.X.X.X.o.o.o.o.o.o.#.5.5.5.5.5.5.>.>.<.<.<.<.5.5.5.5.5.5.#.o.o.X.X.X.o.o.o.o.o.o.o.#.<.<.<.>.<.<.<.<.<.5.6.y.f.f.f.f.i.i.f.f.f.i.i.i.i.i.8.8.i.i.i.i.i.i.i.i.i.i.i.i.i.8.i.i.i.f.e 7 7 7 * # # O $ $ $ $ * t D D } 8.m.G.G.G.J.G.G.G.G.G.G.G.N.i.i.8.6.3.3.>.>.>.:.o.>.>.o. .| | | | | | | | | | | | | | |  . . . . . . .",
">.>.o.o.o.o.o.3.3.6.6.6.6.6.7.6.6.6.7.7.7.6.6.6.7.6.6.6.6.6.7.6.5.5.6.6.6.6.6.6.6.6.7.6.6.6.i.8.7.) Y Y Y Y % % % % % % , = % % % % % ( | | | | | | | | } } ( T ( T T ( ( ( T T ( ( ( ( ( ( } } ( ( ( ( ( T T T T T T T ( ( ( T T T T ( } | | | } } } | | | | | } } } o.#.#.o.o.o.o.o.o.o.o.#.} } } } } } } } } } X.#.#.#.#.#.X.X.X.X.o.#.#.#.<.1.1.<.<.<.<.<.<.<.#.X.X.X.X.#.#.#.>.<.<.<.<.<.6.6.6.6.6.6.6.6.y.i.i.y.y.y.y.i.f.x.x.f.f.f.x.x.x.f.f.f.i.y.y.i.i.i.y.6.6.6.6.6.6.6.6.6.6.i.i.i.y.6.6.6.i.i.i.i.i.i.i.i.i.i.) Y Y Y Y ~ ~ ~ ~ ! A A A A A A A B : $ $ $ > > > > , w w w w w w w w w M m.6.o.o.o.o.o.o.o.#.5.5.5.5.5.5.5.5.5.5.5.5.5.5.5.5.5.5.5.5.3.>.o.o.o.o.o.o.o.o.| | | X.X.X.X.X.X.X.X.X.X.X.X.| | | X.X.X.X.| | X.X.X.X.X.X.o.o.o.o.o.#.5.5.5.5.<.<.>.5.5.5.5.5.>.6.6.5.>.<.<.o.o.o.o.o.o.o.o.o.o.o.o.>.>.<.<.<.5.5.<.<.<.5.6.8.i.i.f.f.f.f.f.f.f.i.i.i.i.i.8.i.i.i.8.8.8.8.i.i.i.i.i.i.i.i.8.8.i.o.7 7 7 7 % # O O O # # # , t D D Y 8.N.G.G.G.J.G.G.G.G.G.G.G.c.f.8.6.5.3.3.>.o. . . . . . .| | | | | | | | | | | | | | | |  . . . . . . .",
">.>.o.o.>.>.>.5.5.5.5.5.6.6.7.7.6.6.7.7.7.7.6.6.7.7.6.6.6.6.7.5.5.6.6.6.6.6.6.6.6.7.7.6.6.6.6.5.7.>.Y Y Y Y % % % % % % , , , * % % % M | | | | | | | | | } } T T T T T T T T T ( } } ( ( ( ( } ( ( ( ( ( ( T T T T T T ( ( ( T T T T T ( | | | } } } } | | | | } } } | #.#.o.o.o.o.#.o.o.o.o.X.} } } } } | } } } X.#.#.#.#.#.X.#.o.X.X.o.#.#.#.#.<.<.<.<.<.<.<.<.X.X.X.o.X.#.#.#.#.<.<.<.<.<.6.6.6.6.6.6.6.y.i.i.i.y.y.i.y.i.f.h.h.f.f.x.x.x.x.f.x.f.f.y.y.i.i.i.y.6.6.6.6.6.6.6.6.6.6.y.i.i.i.6.6.y.i.i.i.i.i.i.i.i.i.i.~ Y Y Y ! ~ ~ ~ ~ A A A A A A A A B : $ $ $ > > > > > > , , , , > , , w w M o.o.o.o.o.o.o.o.o.o.>.5.5.5.5.5.5.5.5.5.5.5.5.5.5.5.3.>.o.o.o.o.o.o.o.o.o.o.o.o.| | X.X.X.X.X.X.X.| X.X.X.X.| | | X.X.X.X.| | X.X.X.X.X.X.o.o.o.o.o.o.5.5.5.5.<.<.<.5.5.5.5.5.>.5.6.6.6.5.<.#.o.o.o.o.o.o.o.o.o.#.>.>.>.<.>.>.5.5.<.<.<.5.6.8.i.i.f.f.f.f.f.f.f.i.i.i.i.i.i.i.i.i.8.8.8.8.i.f.i.f.f.i.i.i.8.8.f.Y z 9 7 7 # # O # # # # # , e D D D 5.G.G.G.G.J.J.G.G.G.G.G.G.f.f.i.6.3.3.3.o. . . .| | | | | | | | | | | | | | | | | | | |  . . . . . . .",
">.o.o.3.3.3.5.5.5.5.5.5.3.5.5.7.6.6.6.6.6.6.6.6.7.7.6.6.6.6.6.5.5.6.6.6.7.7.7.7.7.7.6.7.6.5.5.5.6.7.Y Y Y Y % % % % % * , , , , , * % e | | | | | | | | | } ( T T T T T T T T T T ( ( ( ( ( ( ( ( ( ( ( ( ( ( T ( ( T T ( ( T T T T T T T ( } | } } } } } } | | } } } o.#.#.#.o.o.o.o.o.#.#.#.X.| | } } | | } } } X.#.#.#.#.#.#.#.#.X.X.X.X.#.#.#.#.#.<.<.1.<.<.X.X.#.#.#.#.#.#.#.>.<.<.<.<.<.6.6.5.5.6.6.6.y.y.i.i.i.i.i.i.i.f.h.f.f.f.h.h.x.x.x.x.x.x.i.y.y.i.i.y.6.6.6.6.5.5.6.6.6.6.y.i.i.i.i.y.i.i.i.i.i.i.i.i.y.y.i.Y Y Y Y ~ ~ ~ ~ ~ A A A A A A A A B : $ $ $ > > > > > > > : : > > > > , w s o.o.o.o.o.o.o.o.o.o.o.o.3.5.5.5.5.5.5.>.o.#.>.>.#.o.o.o.o.o.o.o.o.o.o.o.o.o.o.o.o.o.X.X.X.X.X.| | | | | X.X.X.X.X.X.X.| | X.X.X.X.X.X.| X.o.o.o.o.o.#.>.<.5.5.>.>.>.>.<.5.5.5.5.5.6.6.6.6.<.<.#.o.o.o.o.o.o.#.5.5.<.5.<.<.5.5.5.5.5.5.5.6.6.i.i.i.f.f.f.f.f.f.f.f.i.7.i.i.i.i.i.i.i.i.8.8.i.f.f.f.f.f.i.i.8.i.i.n x j 7 = # # # O # # # # , w Z D D  .G.G.G.G.G.G.G.G.G.G.G.G.f.f.i.6.3.3.>. .| | | | | | | | | | | | | | | | | | | | | | | |  . . . . . .",
"o.o.o.3.3.3.3.5.5.5.5.5.3.3.5.6.6.6.6.6.6.6.6.6.6.6.6.6.6.6.5.5.5.5.6.6.7.7.7.7.6.6.6.6.6.5.5.5.6.7.~ Y Y Y % % % % % = , , , , , , , , | | | | | | | | | } } T T T T T T T T T T ( ( ( ( ( ( ( ( ( ( ( ( ( ( } ( ( ( T T T T T ( ( T T T T } } } } } } } } } } } } | #.#.#.#.#.#.o.o.o.o.#.#.} | | | } | | } } } X.#.#.#.#.#.o.#.#.X.X.X.X.#.#.#.#.#.#.#.#.#.#.#.#.#.#.#.#.#.#.#.>.<.<.<.<.<.<.6.5.6.6.6.6.6.i.i.i.i.i.i.i.i.f.f.f.f.f.f.h.x.x.x.x.x.x.f.y.i.i.i.i.6.6.6.6.6.6.6.6.6.6.i.i.i.i.i.i.i.i.y.i.i.i.i.i.y.y.7.Y Y Y Y ~ ~ ~ ~ ! A A A A A A A A B ; $ $ $ % > > > > > > > : > > > > , w w o.o.o.o.o.o.o.o.o.o.o.o.o.>.5.5.5.>.o.o.o.o.o.o.o.o.o.o.o.o.o.o.o.o.o.o.o.o.o.o.o.o.o.o.o.o.o.o.o.o.| X.X.X.X.X.X.X.X.o.o.o.o.o.o.X.X.X.o.o.o.o.o.o.#.>.<.5.5.>.>.>.>.<.<.5.5.<.5.6.6.6.6.5.<.<.>.#.o.>.<.>.>.5.5.5.5.<.<.<.5.5.5.5.5.5.6.6.i.f.f.f.f.f.f.f.f.f.i.8.7.i.i.i.i.i.i.i.i.i.i.i.i.f.f.f.f.f.i.i.f.X.x z 9 7 % # # # # # # # # % w t D D Y G.G.G.G.G.G.J.G.G.G.G.m.f.f.i.6.3.3.| | | | | | | | | | | | | | | | | | | | | | | | | |  . . . . . .",
"o.o.o.>.3.3.5.5.3.3.5.5.5.5.5.5.6.6.6.3.5.6.7.7.6.6.6.6.5.5.3.3.3.3.5.6.6.6.6.6.6.7.6.6.7.6.5.5.5.7.| Y Y Z % % * = , , , , , , , , , , Y | | | | | | | | } } ( T T T T T T T T T T ( ( ( ( ( ( ( ( ( ( ( ( } } } } ( T T T T T T T T T T T ( } } } } } } } } } } } o.#.#.#.o.#.#.#.o.o.#.#.X.} } } } } | | } } } X.#.#.#.#.X.X.#.#.#.#.X.X.X.#.#.#.#.#.#.#.#.#.#.#.#.#.#.#.#.#.#.>.>.>.<.<.<.<.5.6.6.6.6.6.y.i.i.y.i.i.y.y.y.x.f.f.h.x.f.f.f.f.h.h.h.x.f.i.i.i.i.i.6.6.6.6.6.6.6.6.6.6.i.i.y.i.i.i.i.y.y.i.i.i.i.y.y.y.1.D D D Y ~ ~ ~ ~ A A A A A A A A A B : $ $ $ $ > > > > > > : : > > > > , w w X.o.o.o.o.o.o.o.o.o.o.o.o.o.o.#.o.o.o.o.o.o.o.o.o.o.o.o.o.o.o.o.o.o.o.o.o.o.o.o.o.o.o.o.o.o.o.o.o.o.o.o.o.o.o.o.o.o.o.o.o.o.o.o.o.o.o.X.o.o.o.o.o.o.>.>.<.5.<.>.>.<.<.<.<.5.5.5.5.6.6.6.6.6.5.5.5.5.5.<.<.>.>.>.5.5.5.5.<.<.<.<.5.5.6.6.6.6.i.f.f.f.f.i.i.f.f.i.i.8.8.8.i.i.i.i.i.i.i.i.i.i.f.f.f.f.f.f.f.f.f.Z x x 7 7 * # # # # # # # # % w w t M D G.G.G.G.G.G.G.G.G.G.G.f.i.i.f.8.3.>.| | | | | | | | | | | | | | | | | | | | | | | | | | |  . . . . .",
"o.o.o.o.>.3.3.3.3.3.5.5.5.5.5.6.6.6.3.3.5.5.5.5.5.5.3.3.5.5.5.3.3.3.5.5.5.6.6.6.6.6.6.6.6.6.5.3.5.6.| Y Y Z % % , , , , , , , , , , , , Y | | | | | | | | } ( ( ( T T T T T T T T T ( ( ( ( ( ( ( ( } } ( ( ( ( } } ( ( T T T T T T ( ( T T ( | } } } } } } } } } } o.#.o.o.o.#.#.#.o.o.#.X.} } } } } } | | } } } X.#.#.#.#.X.X.#.#.o.#.X.X.o.#.#.#.#.#.#.#.X.#.#.o.#.#.#.#.#.#.>.>.>.>.<.<.<.<.<.5.6.6.6.i.i.i.i.i.i.i.i.y.y.i.f.h.h.x.f.f.f.f.h.f.f.h.f.i.i.i.i.i.6.6.6.6.6.6.6.6.6.i.i.y.y.i.i.i.i.y.y.i.i.i.i.i.y.y.:.D D D ! ~ ~ ~ ~ A A A A A A A A A A % $ $ $ % > > > , > > : : > > > > 9 w w Q o.o.o.o.o.o.o.o.o.o.o.o.o.o.o.o.o.o.o.o.o.o.o.o.o.o.o.o.o.o.o.o.o.o.o.o.o.o.o.o.o.o.o.o.o.o.o.o.o.o.o.o.o.o.o.o.o.o.o.o.o.o.o.o.o.o.o.o.o.o.o.o.#.<.>.>.5.6.5.5.>.>.<.<.5.5.5.5.6.6.6.6.6.6.6.5.5.5.5.5.5.>.5.5.5.5.<.<.>.>.5.5.6.6.6.6.6.f.f.f.f.f.i.i.i.f.i.i.8.8.i.i.i.i.i.i.i.i.i.i.i.f.f.f.f.f.f.f.f.6.x x x 9 7 7 % # # # # # # # $ w w w w M G.G.G.G.G.G.G.G.G.G.N.f.i.i.f.8.5.>.| | | | | | | | | | | | | | | |  . . . . . . . . . . . . . . . .",
"o.>.o.o.o.3.5.5.3.3.3.3.5.5.5.6.6.3.5.5.5.5.5.5.3.3.5.5.5.5.3.3.3.3.5.5.5.5.5.6.6.6.6.5.5.3.5.3.5.7.>.Y Y Z % * , , , , , , , , , , , , } | | | | | | | | } ( ( } ( ( ( T ( T T T T ( ( ( ( } ( ( ( ( } ( ( ( ( } ( ( ( T T T T T T ( T T T } } } } | } | | } | } } | o.#.o.o.o.o.o.#.o.| } } | } } } } } } } } } X.X.#.X.X.X.X.X.X.X.X.X.X.X.X.#.#.X.o.X.X.X.X.X.X.X.X.X.X.#.#.<.<.>.>.<.<.<.<.<.<.5.6.6.i.i.i.i.i.i.i.i.i.y.i.f.f.x.x.x.x.f.f.f.f.f.f.f.i.i.i.i.i.6.6.6.5.6.6.6.6.y.i.i.i.i.i.i.i.y.y.i.i.i.i.i.i.f.f.) Y D D ~ ~ ~ ~ ~ A A A A A A A A A A % $ $ $ % > > > > > > , , > > > > w w w R o.o.o.o.o.o.o.o.o.o.o.o.} o.o.o.o.o.o.o.o.o.o.o.| | X.o.o.o.o.X.o.o.o.o.o.o.o.o.o.o.o.o.o.o.o.o.o.o.o.o.o.o.o.o.o.o.o.o.o.o.o.o.o.o.o.o.o.o.o.o.<.<.<.<.6.6.6.6.6.5.<.<.<.<.5.6.6.6.6.6.6.6.6.6.6.6.6.6.6.6.6.5.5.5.5.5.5.6.6.6.6.6.6.6.i.f.f.f.f.i.i.i.f.i.i.i.8.8.i.i.i.i.8.8.8.8.i.8.i.f.i.i.i.i.f.f.f.| x x x 0 7 7 7 $ # # # # # # $ w 9 e M M G.J.G.G.J.G.G.G.G.G.N.x.f.f.f.f.f.>.| | | | | | | | | | |  . . . . . . . . . . . . . . . . . . . . .",
">.>.o.o.o.>.5.5.3.3.3.3.3.5.5.5.3.3.3.5.5.5.5.5.3.5.5.5.5.5.3.3.3.3.5.5.5.5.5.5.5.5.5.3.3.3.5.5.5.7.>.Y Y Z % = , , , , , , , , , , , 9 | | | | | | | | | | ( } } } ( ( ( ( T T T ( ( ( ( ( } ( ( ( ( ( ( ( ( ( } } ( ( ( T T T T T T T T T } } } } | | | | | | } } } o.o.o.o.o.o.o.o.} } } } | } } } } } } } } } X.o.#.X.X.X.X.X.X.X.X.X.X.X.#.#.#.X.X.X.X.X.X.X.X.X.X.X.X.#.>.<.<.>.>.<.<.<.<.<.<.<.6.6.i.i.i.i.i.i.i.i.i.y.y.i.f.x.x.x.x.x.f.f.f.f.f.i.i.i.i.i.y.6.6.6.5.5.5.6.i.i.i.i.i.i.i.i.i.i.i.i.i.i.i.i.i.f.f.! Y D D ~ ~ ~ ~ ! A A A Z A A Z A A A : $ $ $ : > > > , > > > , > > > , w w w P o.o.o.o.o.o.o.o.o.o.o.} Y | o.o.o.o.o.o.o.o.| } } } } } } } } } } } } X.o.o.o.o.o.o.o.o.o.o.o.o.o.o.o.o.o.o.o.o.o.o.o.o.o.o.o.o.o.o.o.o.o.o.o.>.<.<.5.5.6.6.6.6.6.6.6.6.5.6.6.6.6.6.6.6.6.6.6.6.6.6.6.6.6.6.6.6.6.6.6.6.6.6.6.6.6.6.6.6.i.f.f.i.f.i.i.f.f.i.i.i.8.8.8.i.i.i.8.8.8.8.7.7.f.f.i.i.i.i.f.f.f.Z x x x i 7 7 7 7 O O # # # # $ 3 9 M M M f.G.G.G.J.J.G.G.G.G.G.G.N.f.f.f.f.>.| | | | | | | | | |  . . . . . . . . . . . . . . . . . . . . . .",
">.>.o.o.o.o.>.3.3.3.5.5.5.3.3.3.3.3.3.3.3.3.5.5.3.3.3.3.3.3.3.3.3.5.5.5.5.5.5.5.5.5.3.5.5.5.5.5.5.6.5.~ Y Z % = , , , , , , , , , w t S | | | | | | | | | | } | | } } } ( ( ( ( ( ( ( ( } } ( ( ( } ( ( ( ( } } ( ( ( ( ( T T T ( T T T ( ( } | | | } } } | | } } } } o.#.#.o.o.o.X.} } } } } | } } } } } } } } } X.#.#.X.X.X.o.X.X.#.#.#.X.X.X.#.#.#.X.X.o.#.#.#.#.X.X.X.X.X.#.>.<.<.>.>.>.<.<.<.<.<.5.6.6.6.6.y.i.i.i.i.i.i.i.i.f.f.f.f.f.h.h.h.f.f.i.i.i.i.i.i.6.6.6.6.6.6.6.i.i.i.i.i.i.i.i.i.i.i.y.y.i.i.i.i.i.i.6.Y Y Y D ~ ~ ~ ~ Y A A A A A A A A A A : $ $ $ : > > > > > > > > > > > w w w w L Q o.o.o.o.o.o.o.o.o.} e Z T  .o.o.o.o.o.o.| } } } } } } } } } } } } } } X.o.o.o.o.o.o.o.o.o.o.o.o.o.o.o.o.o.o.o.o.o.o.o.o.o.o.o.o.o.o.o.o.o.o.>.<.<.<.6.6.6.6.6.6.6.6.6.6.6.6.6.6.6.6.6.6.6.6.6.6.6.6.6.6.6.6.6.6.6.6.6.6.6.6.6.6.6.i.f.f.f.f.f.i.i.i.i.f.f.i.i.i.i.i.i.i.i.i.8.i.i.f.f.f.f.f.f.f.f.f.f.i.x x x x i 9 7 7 7 % # # # # # # , e Z Z Z f.G.G.G.G.G.G.G.G.G.G.G.G.x.f.f.f.3.| | | | | |  . . . . . . . . . . . . . . . . . . . . . . . . . .",
">.>.o.o.o.o.o.>.3.3.5.5.5.5.3.3.3.5.3.3.5.5.5.5.3.3.3.3.5.5.3.3.3.5.5.5.5.5.5.5.3.3.3.3.5.5.5.5.5.6.6.>.} z % = , , , , , , w t t t h | | | | | | | | | | | | | | | } } } } ( ( ( ( ( ( ( ( ( ( ( } } ( ( ( ( ( ( ( ( ( ( T T T T T T T ( ( T } } } } | | | } } } } } #.#.#.o.o.o.} } } } } | | } } } } } } } } } X.#.#.X.X.X.#.X.X.#.#.#.X.X.X.#.#.#.X.X.X.#.#.#.#.X.X.X.X.#.#.#.#.>.<.>.>.<.<.<.<.<.<.6.6.6.6.6.6.i.i.i.i.i.i.i.i.i.f.f.i.i.i.i.i.i.i.i.i.i.6.6.6.6.6.6.6.6.6.i.i.i.i.i.i.i.i.i.i.i.i.i.i.i.i.y.i.y.X.Y Y Y ! ~ ~ ~ ~ A A A A A A A A A A A $ $ $ $ ; > > > > > > > > > > > w w w w M H Q X.o.o.o.o.o.o.o.t e z Y 0 } o.o.o.| } } } } } } } } } } } } } } } } } X.o.o.o.o.o.o.o.o.o.o.o.o.o.o.o.o.o.o.o.o.o.o.o.o.o.o.o.o.o.o.( o.o.#.<.<.5.6.6.6.6.6.6.6.6.6.6.6.6.6.6.6.6.6.6.6.6.6.6.6.6.6.6.6.6.6.6.6.6.6.6.6.6.6.6.i.f.f.f.f.f.f.i.i.i.f.f.f.i.i.i.i.i.i.i.i.i.8.i.f.f.f.f.f.f.f.f.f.f.f.>.x x x x i 9 9 7 = # # # # # # # % t Z Z Z 6.G.G.G.G.G.G.G.G.G.G.G.G.x.f.f.f.6.|  . . . . . . . . . . . . . . . . . . . . . . . . . . . . . . .",
"o.o.o.o.o.o.o.o.>.5.5.5.3.3.3.3.3.3.5.5.5.5.5.5.5.5.3.3.5.5.5.5.5.5.5.5.5.5.3.3.3.3.3.3.3.3.5.5.5.6.5.5.3.Z % = , , , t z z z t t t T | | | | | | | | | | | | | | | | } ( ( ( ( ( ( ( ( ( ( ( ( ( ( ( ( ( ( ( ( ( ( } } ( ( T T T T T ( ( ( T T T } } o.#.X.} } } } } o.#.#.#.o.o.} } } } } } } } } | } } } } } X.X.#.o.o.#.X.#.o.#.#.#.o.X.X.X.#.#.X.X.X.X.X.o.#.#.o.X.#.#.#.#.#.#.o.#.>.>.<.<.<.<.<.<.6.6.6.6.6.6.6.y.y.y.y.i.i.i.i.i.i.i.i.i.i.i.i.y.6.6.6.6.6.6.6.6.6.6.6.6.i.i.i.i.y.y.i.i.i.i.i.i.i.i.i.i.i.i.y.! Y Y Y ! ~ ~ ~ ~ A A A A A A A A A A B $ $ $ $ $ ; : : > > > > > > > > , , 9 w z H H U Y Q Q Y U z , w e t Y y 9 U o.| } } } } } } } } } } } ( } } } } } } } X.o.o.o.o.o.o.o.o.o.o.o.o.o.o.o.o.o.o.o.o.o.o.o.o.o.o.o.#.#., r X.#.<.<.5.6.6.6.6.6.6.6.6.6.6.6.6.6.6.6.6.6.6.6.6.6.6.6.6.6.6.6.6.6.6.6.6.6.6.6.6.6.6.6.6.6.i.i.f.f.i.f.f.f.f.f.f.f.i.8.i.i.i.i.i.i.i.f.f.f.i.i.i.i.i.i.f.f.( x x x x x 9 9 = # # # # # # # # O t Z M M 3.N.G.G.G.G.G.G.G.G.G.G.G.x.f.f.i.8.>.>.>.>.o.>.o.o. . . . . . . . . . . . . . . . . . . . . . . . .",
"o.o.o.o.o.o.o.o.>.>.>.o.o.>.>.3.3.5.5.5.5.5.5.5.5.3.3.3.5.5.5.5.5.5.5.5.5.5.3.3.3.3.3.3.3.5.5.5.6.6.5.5.5.n % = t n S S S S S S S ~ | | | | | | | | | | | | | | | | | } ( ( ( ( ( ( ( ( ( ( ( ( ( ( ( ( ( ( ( ( ( ( } } } } T T T ( ( ( ( T T T T T } | #.#.X.} } } } X.#.#.#.#.#.o.} } } } } } } } | } } } X.#.X.X.#.#.#.#.X.X.#.#.#.#.#.X.X.X.#.#.o.#.X.X.X.o.#.#.X.X.#.#.#.#.#.#.#.X.>.>.<.<.<.<.<.<.5.6.6.6.6.5.6.6.6.5.6.6.6.y.6.y.i.i.i.i.y.6.6.6.6.5.5.<.<.<.<.<.<.<.6.6.i.y.y.6.i.y.y.i.i.i.i.i.i.y.i.i.i.i. .Y Y Y Y ~ ~ ~ ~ ~ A A A A A A A A A A f $ $ $ $ $ $ $ $ $ $ $ $ % ; > > > > , > , 9 9 9 9 9 9 > > > > 9 e e Y S 9 9 x } } } } } } } } } } } M v T } } } } } } } X.o.o.o.o.o.o.o.o.o.o.o.o.o.o.o.o.o.o.o.o.o.o.o.o.o.>.5.( , , r o.<.<.5.6.6.6.6.6.6.6.6.6.6.6.6.8.y.y.y.y.y.y.y.y.y.6.6.6.6.6.6.6.6.6.6.6.6.6.6.6.6.6.6.i.i.i.f.f.f.f.f.f.f.f.f.f.f.i.i.i.i.i.i.i.8.f.f.f.i.i.i.i.i.i.i.f.S x x x x x 9 = # # # # O O O # # O w Z M M o.f.N.G.G.G.G.G.G.G.G.G.G.i.f.i.i.8.5.>.>.>.>.>.>.>.>.o. . . . . . . . . . . . . . . . . . . . . . .",
"o.o.o.o.o.o.>.>.o.o.o.o.o.o.o.>.3.3.5.5.5.5.3.3.5.5.3.3.3.3.5.5.3.3.5.5.5.5.3.3.3.5.5.5.3.3.3.3.6.6.5.5.5., % t S S S S S Y } | | | | | | | | | | o.o.o.| | | | | | | | ( ( ( ( ( ( } } ( ( ( ( ( ( ( ( ( ( ( ( ( ( ( ( } } ( T T ( ( T T T T T T T T } | #.#.X.} } } } o.#.o.o.#.#.o.| } } } } | o.#.| | X.#.#.X.X.X.X.#.#.#.X.#.o.X.X.#.#.#.#.X.X.X.#.#.X.X.X.#.#.#.#.#.X.X.X.X.X.X.X.#.<.>.>.<.<.<.<.<.<.<.5.5.6.6.6.6.6.6.6.5.5.5.6.6.6.y.6.6.6.6.5.<.<.<.<.<.<.<.<.<.<.5.6.6.6.6.6.6.i.i.i.i.i.i.i.i.y.6.6.6.5.! Y Y Y D ~ ~ ~ ~ ~ A A A A A A A A A A 9 $ $ $ $ $ $ $ $ $ $ $ $ $ $ $ $ % * > > > > > , , > > > > > > w e e Y Y n w 9 t T } } } } } } } } Z v v } } } } } } } } } X.o.o.o.o.o.#.3.>.>.>.#.o.o.o.o.o.o.o.o.o.o.o.o.#.5.5.( , , , z 5.<.6.6.6.6.6.6.6.6.6.6.y.i.i.i.i.i.f.f.f.f.f.f.f.6.6.6.6.6.6.6.6.6.6.6.6.6.6.6.y.i.f.f.i.f.f.f.f.f.f.f.f.f.i.i.f.f.f.f.f.f.f.f.i.f.f.f.f.f.i.i.i.f.f.f.Z x x x x x 9 $ # # # # # # # # $ O * e M Z } f.f.x.N.G.G.G.G.G.G.G.x.f.f.f.i.i.f.3.>.>.o.>.>.>.>.>. . . . . . . . . . . . . . . . . . . . . . .",
"o.o.o.o.o.o.>.>.o.o.o.o.o.o.o.o.>.3.5.5.5.5.3.3.5.5.3.3.3.3.5.5.3.3.5.3.5.5.3.3.3.5.5.5.3.3.3.3.6.6.5.5.| % % x S S S T | | | | | | | | | | | | | o.o.o.o.| | | | | | | } ( ( ( ( ( } } } ( ( ( ( ( ( ( ( ( ( ( ( ( ( ( } } ( T T T ( T ( ( T T T T T ( } X.#.#.| } } } | o.o.o.#.#.o.o.| } } X.#.#.X.| X.X.X.} } | X.#.#.#.#.#.#.o.X.X.#.#.#.#.X.X.X.X.#.X.#.X.#.#.#.#.#.o.X.X.X.X.X.X.#.o.>.>.<.<.<.<.<.<.<.<.<.<.<.5.5.6.6.6.6.6.5.6.6.6.6.6.6.6.<.<.<.<.<.<.<.<.<.<.<.<.<.6.6.6.6.6.6.y.i.i.i.i.i.y.6.6.6.6.6.6.>.Y Y Y ! ) ^ ~ ~ ~ ! A A A A A A A A A % $ $ $ $ $ $ $ $ $ $ $ $ $ $ $ $ $ $ $ : > > > > > : > > > > > e e e Y Y Y S 0 9 w v ( } } } } } T v v T } } } } } } } } } } o.o.o.o.o.3.3.3.5.5.5.>.o.o.o.o.o.o.o.o.o.o.o.5.5.5.M , , , , } 5.6.6.6.6.6.6.6.8.i.i.i.i.i.i.i.i.f.f.f.f.f.f.f.i.6.6.6.6.6.6.6.6.6.6.y.i.i.i.i.i.f.f.i.i.f.f.f.f.f.f.f.f.f.i.f.f.f.f.f.f.f.f.i.f.f.f.f.f.i.i.i.f.f.f.Z x x x x x t $ O # # # # # # # O O % w e M D f.f.f.f.f.f.x.c.m.N.m.i.i.f.f.f.f.f.f.6.>.o.o.>.>.>.:. . . . . . . . . . . . . . . . . . . . . . .",
"| | |  .o.o.o.o.o.o.>.>.>.>.o.o.o.>.>.>.3.5.3.3.5.5.5.3.3.3.5.5.5.3.3.3.5.5.5.3.5.5.6.5.5.5.3.3.6.6.3.3.z % % M S S S | | | | | | | | | | | | |  .o.#.#.#.o.| | | | | | | ( ( ( ( ( ( ( ( ( ( ( ( ( ( ( ( ( } ( ( ( ( ( } } ( T T T T T ( T T T T T T } } } X.o.o.} } } } o.o.o.#.#.#.o.o.X.X.#.#.X.} } } | } } } } } } X.X.#.#.#.#.X.X.X.X.#.#.o.X.#.o.#.#.#.X.#.X.#.#.X.X.X.X.X.X.#.#.#.#.X.>.<.<.<.<.<.<.<.<.<.<.<.<.<.<.5.6.6.6.6.6.6.6.6.6.6.5.<.<.<.<.<.<.<.<.<.<.<.<.<.6.6.6.6.6.6.6.i.i.y.6.6.6.6.6.6.6.6.6.6.~ Y Y | -.-.) ~ ~ ! A A A A A A A A A $ $ $ $ $ $ $ $ $ $ $ $ $ $ $ $ $ $ $ $ $ > > > > > > > > > m y.C.i.D Y Y Y Y U h t 9 9 x Y } } } M v T } } } } } } } } } } } o.o.o.o.>.3.3.5.5.5.5.3.#.o.o.o.o.o.o.o.o.o.>.5.5.5.m , , , , z <.6.6.6.6.6.6.8.i.i.i.f.f.f.i.f.f.f.f.f.f.i.i.f.i.6.6.6.6.6.6.6.6.6.6.f.f.i.f.i.i.i.f.f.f.f.f.f.f.i.i.f.f.i.i.i.f.f.f.f.f.f.i.i.i.f.f.f.f.i.i.f.f.f.f.Z x x x x x x $ O # # # # # # # O O % w r n Z 6.f.f.f.f.i.i.f.f.f.i.i.i.f.f.f.f.f.f.i.6.o.>.>.>.>.o. . . . . . . . . . . . . . . . . . . . . . .",
"| | | | |  .o.o.o.o.>.>.>.o.o.o.o.o.o.o.o.o.>.3.5.5.5.5.3.6.6.6.6.6.5.5.5.5.6.6.6.6.6.6.6.5.5.5.6.6.5.>.% % % n S S T | | | | | | | X.o.o.o.o.X.o.#.#.#.#.#.| | | | | | | | ( ( ( ( ( ( ( ( ( ( ( ( } ( ( } } ( ( ( ( ( } } } T T T T T T T T T T T } } } } } o.#.o.| } } X.o.o.#.#.o.o.o.o.#.#.o.} } } } } | } } } } } } } } X.X.X.X.X.X.X.#.#.#.#.#.X.o.#.#.#.X.X.#.#.o.X.X.X.#.#.#.#.#.#.X.X.>.<.<.<.<.<.<.<.>.>.<.<.<.<.<.<.6.6.6.6.6.6.6.6.6.5.<.<.<.<.<.<.<.<.<.<.<.<.<.6.6.6.6.6.6.6.y.i.y.6.6.6.6.6.6.6.6.6.6.>.! | | -.-.-.^ ~ ~ A A A A A A A A g $ $ $ $ $ $ $ $ $ $ $ $ $ $ $ $ $ $ $ $ $ > > > > > , U y.I.W.W.W.i.o.T Y Y Y Y } :.T i 9 9 9 9 y M ( } } } } } } } } } } } } o.o.o.#.3.3.5.5.5.5.5.3.>.o.o.o.o.#.#.>.>.>.5.5.5.5.r , , , , 4 5.6.6.6.6.6.6.i.i.i.i.f.f.f.f.f.f.f.f.f.f.f.i.i.f.6.6.6.6.6.6.6.6.6.i.f.f.f.f.i.i.i.f.f.f.f.f.i.i.i.i.f.f.i.i.i.f.f.f.f.f.f.i.i.i.f.f.f.f.i.f.f.f.f.f.Z x x x x x x = # # # # # # # # O O $ r r k Z } 8.f.f.i.i.i.f.f.f.f.i.i.f.f.f.f.f.f.f.f.>.>.>.>.>.o. . . . . . . . . . . . . . . . . . . . . . .",
"| | | | | | | o.o.o.o.o.o.o.o.o.>.>.>.>.>.>.o.>.3.3.5.5.5.6.6.6.6.6.6.6.6.6.6.6.6.6.6.6.6.6.5.5.6.5.3.S % % % M S S } | | |  .o.#.#.#.#.>.>.>.>.#.#.#.o.o.o.o.| | | | | | | } } } } } } } ( ( ( ( ( ( T ( } } } ( ( ( ( ( } ( T T T T T T T T T ( } | } } } } o.o.o.o.o.o.o.o.o.o.o.o.o.o.o.o.o.} } } } } } } } } } } } } } } } } } } } X.X.X.#.#.#.#.#.#.X.X.X.| X.X.X.X.#.#.#.#.#.#.#.#.#.X.X.X.>.>.>.<.<.#.#.#.#.<.<.>.<.<.<.<.6.6.6.6.6.6.6.6.5.<.<.>.>.<.<.>.>.>.>.#.#.<.6.6.6.6.6.6.6.6.i.i.i.6.6.6.6.6.6.6.6.6.6.:. . . .-.-.| ~ ~ D A A A A A A B i $ $ $ $ $ $ $ $ $ $ $ $ $ $ $ $ $ $ % % $ > > s ..C.W.W.W.W.W.W.i.:.:.:.} Y Y Y o.:.:.o.| Y x j j } } } } } } } } } } } } } X.o.o.o.5.5.5.3.>.3.3.3.3.3.5.>.>.5.5.5.5.5.3.3.3.3.3.w , , , , , W 6.6.6.6.6.i.f.f.f.i.f.f.i.i.i.f.f.f.i.i.i.i.f.f.6.6.6.6.6.6.6.6.i.f.f.f.i.i.i.f.f.f.i.i.i.i.f.f.f.f.f.f.f.f.f.f.f.f.f.f.f.f.i.i.f.f.f.f.f.f.i.f.f.f.T x x x x x x h # # # # # # # # O $ # 9 w r M } | 6.f.f.f.f.f.f.f.f.f.f.f.f.f.f.f.f.f.f.5.o.>.>.>.o. . . . . . . . . . . . . . . . . . . . . . .",
"| | | | | | | | o.o.o.o.o.o.o.o.o.o.>.>.o.o.o.o.>.3.5.5.5.5.6.6.6.6.6.6.6.6.6.6.6.6.6.6.6.6.6.5.6.5.3., % % % n S S } | | o.o.o.#.#.#.#.>.>.>.>.#.#.o.o.o.o.o.| | | | | | | | } } } } } } ( ( ( ( ( T T T ( } } ( ( ( ( ( } ( T T T T T T T ( } } } | | } } } o.o.o.o.o.o.o.o.o.o.o.o.o.o.o.o.} } } } } } } } } } } } } | | } } } } } } | } | } X.X.#.#.#.X.} } } } } } } } | X.#.#.#.#.#.#.X.X.X.X.>.>.>.#.#.#.#.>.<.<.<.<.<.<.>.<.5.6.6.6.6.6.6.6.<.<.>.>.>.#.#.#.#.#.#.#.#.6.6.6.6.6.6.6.5.i.i.i.i.6.6.6.6.6.6.6.6.6.5.:. . .-.-.-.~ ~ ~ A A A A A A i i $ $ $ $ $ $ $ $ $ $ $ $ $ $ $ $ : > > s Q a.I.W.W.W.W.W.W.I.V.5.:.:.:.:.>.o.} } :.:.:.o.>.o.>.:.o.| } } } } } } } } } } } } X.o.o.>.5.5.5.3.3.3.3.3.3.3.5.5.5.3.5.5.5.5.3.5.3.3.3., , , , , , s 6.6.6.6.6.i.f.f.f.i.f.f.i.i.i.i.f.f.i.i.i.i.f.f.i.6.6.6.6.6.6.i.f.f.f.f.i.i.f.f.f.f.i.i.i.i.f.f.f.f.f.f.i.i.f.i.f.f.f.f.f.f.i.i.f.f.f.f.i.f.i.i.f.f.>.x x x x x x x % # # # # # # # $ $ # , w w n } } | 6.f.i.i.f.f.f.f.f.f.f.f.f.f.i.f.f.f.8.>.>.>.>.o. . . . . . . . . . . . . . . . . . . . . . .",
"| | | | | | | |  .>.>.o.>.>.o.o.o.o.o.o.o.o.o.o.>.3.5.5.5.5.6.6.6.6.6.6.6.6.6.6.6.6.6.6.6.6.6.5.3.5.X.% % % % e S S | | o.o.#.o.o.o.#.#.o.>.o.o.o.o.o.o.#.#.o.| | | | | | | | | ( ( } ( ( ( ( ( ( T T T T T } } ( ( ( ( ( ( ( T T T T T ( | } } } | | | } } | #.o.o.#.#.#.#.#.o.o.o.o.o.#.#.X.} } } | } | | } | } } } | | } } } } } } } } } } } } } X.#.#.} } } } } } } } } } } | X.#.X.#.#.#.#.X.X.o.X.#.#.X.X.>.<.<.<.<.<.<.<.<.<.<.<.<.<.5.5.5.5.<.<.>.>.>.#.#.#.X.#.#.X.#.>.6.6.6.6.6.6.5.y.y.y.y.6.6.6.6.6.6.6.6.6.6.6.<. .-.-.| ) ~ ~ ! A A A A n i i $ $ $ $ $ $ $ $ $ $ $ $ $ $ $ z ..h.I.W.W.W.W.W.Z.i.<...X.:.o.o.o.o.:.:.o.o.o.>.>.:.:.:.o.o.>.>.>.>.| } } } } } } } } } } } o.o.#.5.3.5.3.3.5.5.5.5.5.5.5.5.3.3.3.3.5.5.5.5.5.5.X., , , , , , 4 5.6.6.6.6.f.f.f.i.i.f.f.f.f.f.f.f.f.f.f.f.f.f.f.f.i.6.6.6.i.i.i.f.f.f.f.i.i.f.f.f.f.f.i.f.f.f.f.f.f.f.f.i.i.i.i.i.f.i.i.i.i.i.i.f.f.i.i.i.i.i.i.f.f.f.v x x x x x x t # O # # # $ $ $ # # $ w r z } | | | 6.i.f.f.f.f.f.f.f.8.8.f.f.i.f.f.f.f.>.>.>.>.>. . . . . . . . . . . . . . . . . . . . . . .",
"| | | | | | | | |  .>.>.>.>.>.>.o.o.o.o.o.o.o.o.o.o.>.5.5.5.5.6.6.6.6.6.6.6.6.6.6.6.6.6.6.6.6.5.3.3.z % % % % * S S | o.o.o.#.#.o.o.o.o.o.o.o.o.o.o.o.o.#.#.o.| | | | | | | | | | ( ( ( ( ( ( ( T T T T T T ( } ( ( ( ( ( ( ( T T T ( T } | } | | | | | } } X.#.o.o.#.#.#.#.o.o.o.o.o.#.#.#.X.} } } } } | | | | } } } | | | } } } } } } } } } } } } | #.#.} } } } } } } } } } } } | X.X.#.#.#.X.X.#.#.o.o.#.X.#.<.<.<.<.<.<.<.<.<.<.<.<.<.<.<.<.<.<.<.>.>.>.#.#.#.#.X.X.X.X.#.#.#.5.6.6.6.6.6.6.y.y.6.5.6.6.6.6.6.6.6.6.6.6.6.5.:.-.-. .~ ~ ! A A A A g i i $ $ $ $ $ $ $ $ $ $ $ k k k M ............y.o.S n M U U U :.o.o.o.o.>.>.o.>.o.o.>.>.>.>.o.>.>.>.o.o.:.| } } } } } } } } } } o.o.>.5.3.5.5.3.5.5.5.5.5.5.5.5.3.3.3.3.5.5.5.5.5.5.Q , , , , , > $ } 6.6.6.6.f.f.f.i.i.f.f.f.f.f.f.f.f.f.f.f.f.f.f.f.f.f.f.i.i.i.i.f.f.f.f.i.i.f.f.f.f.f.f.f.f.f.f.f.f.f.f.i.i.i.i.i.f.f.i.i.i.i.f.f.f.f.i.i.i.i.i.f.f.f.X.x x x x x x x $ O O O # # # $ # # # $ 9 r D } | | | 8.i.f.f.f.f.i.i.i.8.f.f.i.f.i.f.f.>.>.o.>.>.>. . . . . . . . . . . . . . .} } |  . . .| ",
"| | | | | | | | | | o.o.>.o.o.o.>.o.o.o.o.o.o.>.o.o.o.o.>.3.3.5.5.6.6.6.6.6.6.6.6.6.6.6.6.6.6.5.3.>.* % % % % % 9 S | o.o.#.#.#.o.o.>.#.#.#.o.o.o.o.#.o.o.o.>.| | | | | | | | | | } ( ( ( ( ( T T ( T T T T T ( ( ( ( ( } } ( T ( ( ( ( } } } } } } } } } } o.#.o.o.#.#.#.#.o.o.#.#.#.#.#.#.o.} } } } } } } } } } } } | | | } } | | } } } } } } } } } } X.} } } } } } } } } | | } } } X.#.X.X.} | #.#.#.X.X.X.o.>.>.>.>.<.<.<.<.<.<.>.>.#.#.#.#.>.<.<.<.<.>.#.#.#.X.o.X.X.X.X.#.#.#.>.5.6.6.6.6.6.6.6.5.6.6.6.6.6.6.6.6.5.6.6.6.6.| | | ~ ~ ! A A A A i i i $ $ $ $ $ $ $ $ $ $ $ ; 4 a k k k k k k k b U z k k z S U o.:.:.>.>.>.>.>.>.>.>.>.>.>.>.>.>.>.>.>.o.:.:.| } } } } } } } } } o.o.3.5.3.3.5.5.5.3.5.5.5.5.3.3.5.5.3.3.5.5.5.5.5.5.n , , , , ; $ $ m 6.6.6.6.i.f.f.f.i.i.i.f.f.f.i.i.i.f.f.f.f.f.f.f.f.f.f.f.f.f.f.f.f.f.f.f.f.f.i.i.i.f.f.f.f.i.i.i.i.f.f.i.i.i.i.f.f.f.f.i.i.i.i.f.f.f.f.i.i.i.i.f.f.f.f.S Z D T x x x , # # O # # # $ # # # $ $ $ % 9 n } }  .8.f.f.f.8.8.8.8.8.i.f.i.i.i.i.f.3.>.>.>.>.>.>.o. . . . . . . . . . .| } } } }  .| } } ",
"| | | | | | | | | | |  . . .o.o.>.>.o.o.o.o.o.>.o.o.o.o.o.>.3.3.5.5.5.5.5.5.5.6.6.6.6.6.6.6.6.6.| U % % % % % % % w | o.o.o.#.#.o.o.>.>.#.#.o.o.o.o.#.#.o.o.:. .| | | | | | | | | } ( ( } ( ( T T ( ( T T T T ( ( ( ( ( } } T T T ( ( ( } } } } } } } } } } #.#.o.o.#.#.#.#.o.o.#.#.#.#.#.#.o.} } } } } } } } } } } } | | } } } | | } } } } } } } } } } } } } } } } } } } } | | } } } } } } } } } X.#.#.X.X.X.X.#.#.>.>.<.>.>.#.#.X.#.#.#.#.#.#.#.#.>.<.>.#.#.#.#.X.| } } } } X.#.X.X.#.#.#.>.<.<.#.#.X.5.6.6.6.6.6.5.5.5.6.6.6.6.:.| | ~ ~ A A A A A i i i $ $ $ $ $ $ $ $ $ $ $ $ $ $ $ w k k k k b U U n k k k z U  .:.:.>.>.>.>.>.>.o.>.>.:.>.>.>.>.>.>.>.o.:.:.o.| } } } } } } } } o.o.3.3.5.3.5.3.3.3.3.5.3.5.3.3.5.5.5.5.5.5.5.5.5.5.r , , , > $ $ $ $ 5.6.6.6.i.f.f.f.f.i.f.f.f.f.i.i.i.f.i.f.f.f.f.f.f.f.f.f.f.i.i.f.f.f.f.f.f.i.i.f.i.i.i.i.f.i.i.i.i.f.f.i.i.f.i.f.f.f.f.f.f.i.i.f.f.f.f.f.f.i.i.f.f.f.f.6.T T T Z x x w # # O O # # $ # $ $ $ $ O $ $ , 9 M } 6.f.f.8.8.i.i.8.8.f.f.f.i.f.f.f.5.>.>.>.>.>.>.>. . . . . . . . . . .} } } } } } } } } ",
"| | | | | | | | | | | | | | | | >.>.o.o.o.o.>.>.>.>.o.o.o.o.>.5.5.5.5.5.5.5.5.5.5.5.5.6.6.6.6.6.U U % % % % % % % % z #.o.o.o.o.o.:.>.>.#.o.o.o.>.>.>.#.o.o.o.o.| | | | | | | | | } ( ( } ( ( T T ( T T T T T T ( ( ( } } ( T T T T T T } } } } | | } } } } #.o.o.o.o.o.#.o.o.o.o.o.o.o.#.#.#.} } } | } } } } } } } } } | | } } } } } } | | | } } } } } } | } } } | | | } } } } } } } } } | } } } | #.#.#.X.#.#.#.#.o.X.X.X.#.#.X.X.X.X.#.X.X.#.X.#.X.#.X.X.X.X.| } } } } } } } | X.X.#.X.#.#.#.#.#.#.#.#.5.6.6.6.6.5.6.6.6.6.6.6.<.| | ~ ! A A A A A i p i $ $ $ $ $ $ $ $ $ $ $ $ $ $ $ $ > s k k n U U M k k k k U } >.>.>.>.:.>.>.>.o.o.:.:.:.:.>.>.>.>.:.:.:.:.>.o.o.| } } } } } } o.o.3.3.5.5.5.3.3.3.3.5.3.3.3.3.5.5.5.5.3.>.5.5.5.3.4 , , , % $ $ $ $ m 6.6.6.i.f.f.f.f.i.i.f.f.f.f.i.i.i.i.i.f.f.f.f.f.i.i.i.i.i.i.i.6.i.f.f.f.f.f.y.6.6.6.6.i.i.f.f.f.f.f.f.i.f.f.f.f.f.f.f.f.i.f.f.f.f.f.f.f.i.f.f.f.f.f.f.| T T D x x 9 # # O O O # $ # O # O O O $ O $ 3 3 w Y f.f.f.f.i.f.8.8.f.f.f.f.f.f.f.3.>.>.>.>.>.>.>.o. . . . . . . . .| } } } } } } } } } ",
"| | | | | | | | | | | | | | | | o.o.o.o.o.o.>.>.>.o.o.o.o.o.>.5.5.5.5.5.5.5.5.5.5.5.5.5.5.6.6.>.U U % % % % % % % % % z o.o.o.o.o.:.>.>.#.#.o.o.>.>.>.#.o.o.o.o.| | | | | | | | | | ( ( } ( ( T ( ( T T T ( T T T ( ( } ( T T T T T T T } } } } | | } } } } #.#.o.o.o.o.o.o.o.o.o.o.o.o.#.#.#.} } } | | } } } } } } } } } } } } } } } } | | } } } } } } } | } | } } | | } } } } } } } } | } } } } } X.#.#.#.#.#.#.#.X.X.X.#.#.#.X.X.X.X.X.X.X.X.| } } } } } } } } } } } } } } } } } } } } } } } } X.X.#.#.5.6.6.6.6.6.5.6.6.6.6.6.<.| | ~ A A A A A A x p i $ $ $ $ $ $ $ $ $ $ $ $ $ $ $ $ $ $ a k z U U Z k k k k M } >.>.>.>.:.>.>.o.o.o.:.:.:.>.>.o.:.:.:.:.:.:.o.o.>.>.o.| } } } } | o.>.3.5.5.5.5.3.3.3.5.3.3.3.3.5.5.5.>.o.o.>.5.5...t , , , % $ $ $ $ $ 5.6.6.y.f.f.f.f.i.i.f.f.f.f.f.f.i.i.i.f.f.f.i.i.i.i.i.f.i.i.6.6.6.y.i.f.i.6.6.6.6.6.6.i.f.f.f.f.f.f.f.f.f.f.f.f.f.f.f.f.i.f.f.f.f.f.f.f.f.f.f.f.f.f.f.6.T T Y x x * # # O O O # # # O O O O O O O O * 3 3 3 T f.f.f.f.f.8.f.f.f.f.f.f.f.f.>.>.>.#.o.>.>.>. . . . . . . . . .} } } } } } } } } } ",
"| | | | | | | | | | | |  .| | | o.>.>.>.o.o.o.>.>.>.o.o.o.o.o.>.>.>.>.>.>.>.>.3.3.3.3.3.5.5.6.>.U U % % % % % % % % % % 3 o.o.o.#.#.>.>.o.o.o.#.o.o.o.o.#.#.#.| | | | | | | | | | | } ( ( ( ( T T T T T ( ( ( ( ( ( ( T T T ( ( ( T T T } } } } } } } } } } #.#.o.o.o.#.#.#.o.o.o.o.o.#.#.#.o.} } } | | | } } } } } } } } } } } } } } } } } } } } } } } } } } } } } } } } ( ( ( } } } } } } } } } } } | X.#.#.X.X.#.#.#.#.X.X.X.X.X.| } } } } } } } | | } | | | } } } } } | } } } } } } } } } } } } } X.#.>.6.6.6.6.6.6.6.6.6.6.6.:. . .) A A A A A A x i i $ $ $ $ $ $ $ $ $ $ $ $ $ $ $ $ $ $ $ w k z M U k k k k z T o.o.o.:.:.:.>.o.o.>.>.:.o.:.:.:.>.>.>.>.>.>.:.:.>.>.>.>.o.| } } } o.o.>.3.3.3.3.5.5.5.5.5.5.5.5.3.>.o.o.o.o.o.5.5.Q k , , , ; $ $ $ $ $ m 6.6.6.i.i.f.f.f.f.i.i.i.f.f.f.i.i.i.f.f.f.i.i.f.f.f.f.i.6.6.6.6.6.6.y.6.6.6.6.6.6.6.y.f.i.f.f.i.i.f.f.f.f.i.i.f.f.f.f.i.i.i.i.f.f.f.f.i.f.f.f.f.f.f.f.T T T x x O $ $ # # # # # # # # O O # # # # # , 3 3 3 } f.f.f.f.f.f.f.f.f.f.f.i.8.o.>.>.>.>.>.>.o. . . . . . . . .| } } } } } } } } } } ",
"| | | | | | | | | | | | o.o.o.o.o.>.o.o.o.o.>.>.>.>.o.o.o.o.>.>.o.>.o.o.o.o.>.o.o.>.>.>.5.5.6.X.U U % % % % % % % % % % % * } o.#.>.>.:.o.o.o.#.o.o.o.o.#.#.| | | | | | | | | | | | | ( ( ( ( T T T T T ( ( T T ( ( T T T T ( T ( ( T ( } } } } } } | | } } o.#.o.o.#.#.#.#.o.o.o.o.#.#.#.#.o.} } } } } } } } } } } } } } } } } } } } } } } } } } } } } ( ( ( Q Q Q Q Q Q Q Q Q Q Q ( } } } } } } } } } } } } } } } } } } } } } | | } } } } } } } | } } } } } | } } } } } ( Q Q Q Q Q Q Q Q Q Q Q } } X.#.#.5.6.5.5.6.6.6.6.6.<.( |  . .| A A A A A g i i i $ $ $ $ $ $ $ $ $ $ $ $ $ $ $ $ $ $ $ $ , k k k k k k k k Y >.>.o.o.:.:.>.>.o.>.:.:.o.o.:.:.>.>.o.o.>.:.:.>.>.>.>.:.:.:.| } } X.o.o.o.>.3.3.5.5.5.5.5.>.>.>.o.o.o.o.o.o.o.} r.p.m , , , $ $ $ $ $ $ ; 6.6.6.i.f.f.f.f.f.i.i.f.f.f.f.i.i.f.f.f.f.i.f.f.f.f.i.6.6.6.6.6.6.6.6.6.6.6.6.6.6.6.i.i.i.f.f.i.i.f.f.f.i.i.i.i.f.f.f.f.i.i.i.f.f.f.f.i.f.f.f.f.f.f.f.( T T v x O # # # # O O # # # # O O # # # # # $ 3 3 3 9 >.f.f.f.f.f.i.f.f.f.i.i.3.o.>.>.>.>.>.>. . . . . . . . .| } } } } } } } } } } } ",
"| | | | | | | | | | | X.o.o.o.o.o.o.o.o.o.o.o.o.>.o.o.o.o.o.>.>.>.>.>.o.o.o.o.o.o.o.o.o.>.5.6.( U U % % % % % % % % % % % % % U #.#.:.:.o.o.#.#.o.o.o.o.#.X.| | | | | | | | | | | ( ( ( ( } ( T T T T T T T T T T ( T T T T T T T T T ( } } | | | | | | } } X.#.o.o.o.o.#.o.o.o.o.o.#.#.#.#.X.} } } } } } } } } } } | | } | | } } } } } } } } ( Q Q Q Q Q Q Q Q Q Q Q Q Q Q Q Q Q Q Q Q Q Q ( ( ( } } } } } } } } } } } } } } } } } } } } } } } } } } } } } } } } } } } Q Q Q Q Q Q Q Q Q Q Q Q ( } } } #.#.<.6.5.5.5.5.6.+.b 9 9 9 t ~ | ! A A B i p i i i $ $ $ $ $ $ $ $ $ $ $ $ $ $ $ $ $ $ $ $ $ ; r k k k k k k M >.>.>.>.:.>.>.>.>.>.:.:.o.o.>.>.>.>.>.o.>.>.o.>.>.>.:.:.:.:.:.} } } o.o.o.o.o.o.#.o.#.o.o.o.o.o.o.o.o.o.o.o.o.Q ..B.m , , , $ $ $ $ $ $ $ R 6.6.6.f.f.f.f.f.f.i.f.f.f.f.i.i.i.i.i.y.y.6.6.y.y.6.6.6.6.6.6.6.6.6.6.6.6.6.6.6.6.i.i.f.f.f.i.i.f.f.f.f.f.i.i.i.f.f.f.f.i.i.f.f.i.f.f.i.f.f.f.f.f.i.( T T V x # # # O O O O # # # # O # # # # # # # , 3 3 3 e 6.f.f.i.i.8.8.f.f.f.8.o.>.>.>.>.>.>. . . . . . .| } } } } } } } } } } } } } } ",
"| | | | | | | | | | | | o.o.o.o.o.o.o.o.o.o.o.o.o.o.o.o.o.o.o.>.>.>.>.o.o.o.o.o.o.o.o.o.o.>.6.Y U Z % % % % % % % % % % % % % % z #.o.o.o.o.#.#.o.o.#.#.o.| | | | | | | | | | | ( ( ( } } } ( T T T T T T T T T T T T T T T T T T T T ( | | | | | | | | } } X.#.o.o.o.o.o.o.o.o.o.o.o.#.#.#.X.} } } } } } } } } } | | | | | } } } } } } ( Q Q Q Q Q Q Q Q Q Q Q Q Q Q Q Q Q Q Q Q Q Q Q Q Q Q Q Q Q Q Q ( } } } } } } } } } } } } } } } } } } } } } } } } } } } } } } } Q Q Q Q Q Q Q Q Q Q Q ( } } } } X.#.#.6.5.5.X.R r 9 9 9 9 9 9 9 Y ~ B g p p p i i i % $ $ $ $ $ $ $ $ $ $ $ $ $ $ $ $ $ $ $ $ $ $ 4 k k k k k z >.>.>.>.>.>.>.>.>.>.>.>.o.>.>.>.>.>.>.>.>.>.o.o.o.o.:.:.>.:.o.} } } } o.o.o.o.o.o.o.o.o.o.o.o.o.o.o.o.o.o.o.o.Q [ S.R , , > $ $ $ $ $ $ $ 4 6.6.6.i.i.i.i.i.i.i.i.y.y.6.6.6.6.6.6.6.6.6.6.6.6.6.6.6.6.6.6.6.6.6.6.6.6.6.6.6.6.i.f.f.f.f.i.i.f.f.f.f.f.f.i.i.f.f.f.f.f.f.f.f.i.i.i.f.f.f.f.o.S x S T T V j # # # # O O % * , = % $ # # # # # # # $ 3 3 3 3 M f.f.i.i.i.i.f.f.f.3.o.o.>.>.>.>.o. . . . . .} } } } } } } } } } } } } } } } ",
"| | | | | | | | | | | | | o.o.o.o.o.o.o.o.o.o.o.o.o.o.o.o.o.o.o.o.o.o.o.o.o.o.o.o.o.>.o.o.5.5.U U w * % % % % % % % % % % % % % % z o.o.o.o.>.>.>.>.>.o.| | | | | | | | | | | } ( ( ( ( } } } T T T T T T T T T T T T T T T T T T T ( } | | } } } } | | } } } o.#.#.#.o.o.#.#.#.o.o.#.#.#.#.| } } | } } } | | | } } } | } } } } | } ( Q Q Q Q Q Q Q Q Q H b z k k k k z b M Q Q Q Q Q Q Q Q Q Q Q Q Q Q Q Q Q ( } } } } } ( ( Q Q Q Q Q ( ( } ( ( ( } } } } } } } } } } ( Q Q Q Q Q Q Q Q Q ( } } } } } } X.} Y z w 9 9 9 9 9 9 9 9 9 9 9 i i i g g g i i i , $ $ $ $ $ $ $ $ $ $ $ $ $ $ $ $ $ $ $ $ $ $ $ , k k k k k :.:.>.>.>.o.o.>.>.o.o.o.>.>.>.>.>.>.>.>.>.o.o.o.X.| | | | } } } } } } } X.o.o.o.o.o.X.X.o.o.o.o.#.#.#.o.o.o.o.} R S.p.4 , $ $ $ $ $ $ $ $ $ #.6.6.6.6.6.6.6.6.6.6.6.6.6.6.6.6.6.6.6.6.6.6.6.6.6.6.6.6.6.6.6.6.6.6.6.6.6.6.6.6.i.i.f.f.f.f.f.f.f.f.f.i.f.i.f.f.f.f.f.f.f.f.i.i.i.f.X.M z 9 , , t Z T T V j # # # $ , 9 9 9 9 9 9 9 9 * $ # # # # # * 3 3 3 3 X.i.f.f.f.f.f.i.8.>.>.>.>.>.>.o. . . . . .} } } } } } } } } } } } } } } } } ",
"| | | | | | | | | | | | | | o.o.o.o.o.o.o.o.>.>.o.o.o.o.o.o.o.o.o.o.o.o.o.o.o.o.o.o.>.>.o.6.X.U n w , % % % % % % % % % % % % % % % U o.o.o.>.>.>.>.>.o.| | | | | | | | | | | } } ( } ( } } ( T T T T T T T ( ( T T T T T T T T T T ( ( } | } } } } } | } } } | o.o.#.o.o.#.#.#.o.o.#.#.o.o.} } } | | } | | } | } } } } } } ( Q Q Q Q Q Q Q Q U z w , > > > ; ; > > > > ; ; ; > w k U Q Q Q Q Q Q Q Q Q Q Q Q Q Q Q Q Q Q Q Q Q Q Q Q Q Q Q Q Q Q Q Q Q Q Q Q Q Q ( } } ( Q Q Q Q Q Q Q Q ( } } } } } Q M s 9 9 9 9 9 9 9 9 9 9 9 9 9 9 9 9 i i g g g g i i 7 $ $ $ $ $ $ $ $ $ $ $ $ $ $ $ $ $ $ $ $ $ $ $ $ , k k k k ( :.>.>.>.o.o.>.>.o.>.>.>.>.>.>.>.>.>.>.| } } } } } } } } } } } } } } } } } } } } } } } T T T Q } X.o.o.o.o.o.| R B.S.k , $ $ $ $ $ $ $ $ $ s 6.6.6.6.6.6.6.6.6.6.6.5.5.#.#.#.#.#.#.#.#.#.5.5.6.6.6.6.6.6.6.6.6.6.6.6.6.6.6.6.i.i.f.f.f.f.f.f.f.f.f.f.f.f.f.f.f.f.f.f.f...U s > $ $ % , , , , e v T T V j # # % 9 9 9 9 9 9 9 9 9 9 9 9 % # # # # # , 3 3 3 w 6.f.f.f.f.f.f.3.>.>.>.>.>.o. . . . . . .} } } } } } } } } } } } } } } } } ",
"U T | | | | | | | | | | ( ( } }  .>.>.>.o.o.o.o.o.o.o.o.>.>.o.o.o.o.>.>.o.>.o.o.o.>.>.>.>.6.T U t w , % % % % % % % % % % % % % % % * U o.o.o.o.o.o.>.#.o.| | | | | | | | | | } ( ( } } } } ( T Y U D U U U U U Y Y T ( T ( T T T T T ( T | } } } } } } | | } } o.o.o.o.o.o.#.#.o.o.o.#.o.| } } } } } } } } } } } } } } } Q Q Q Q Q M t r w > > > > > > > > > > > > > > ; ; > > > > > > , s b z R Q Q Q Q Q Q Q Q Y U U U U Y Q Q Q Q Q Q Q Q Q Q Q Q Q Q Q Q Q Q Q Q Q Q Q Q Q Q Q Q Q Q } } ( U z w 9 9 9 9 9 9 9 9 9 9 9 9 9 9 9 9 9 9 9 9 i i g p p i i i , $ $ $ $ $ $ $ $ $ $ $ $ $ $ $ $ $ $ $ $ $ $ $ $ ; s k k n :.:.:.>.>.>.>.:.:.>.>.:.>.:.:.>.:.>.o.} } } } } } } } } } } } } } } } ( S n m c m c c z z z z m m U Y Q | | Q R a.S., > $ $ $ $ $ $ $ $ $ $ Q ..6...} } } } } ........X.X.X.X.X.X.X.X...X.X.X.X...........} } ..6.6.6.6.6.6.6.i.i.f.f.f.f.f.f.f.f.i.i.f.f.f.6.} b 4 $ $ $ $ $ $ $ , 9 , , , 9 x v V v j # # 7 9 9 9 9 9 9 9 9 9 9 9 9 9 , # # # O $ 3 3 3 3 S f.f.f.f.f.6.>.>.>.>.>.o. . . . . .| S s t t t t w , , , , t t t z M U ( ",
"* * * * * * * * , k z m M M M M M M M M M N U Y T T T T >.>.>.>.o.o.o.>.>.>.o.o.o.o.>.>.5.5.t S w w 9 % % % % % % % % % % % % % % % $ $ , M o.o.o.#.#.#.#.o.| | | | | | | | | } ( ( ( ( ( ( T T U U S D U U U U U U U Y T T T T T T T T T ( } } } } } } | | } } } o.o.o.o.o.#.o.o.o.o.o.o.} } } } } } } } } } } } } } } Y M k r * $ $ $ $ $ % > > > > > > > > > > > > > ; ; > > > > > > > % $ $ $ : r z M M n s a a a a a a a a a a a w % $ $ $ $ $ $ $ 4 r s s l l z b b M M M M M M M M M M 9 9 9 9 9 9 9 9 9 9 9 9 9 9 9 9 9 9 9 9 9 9 9 9 w i i i p i i i p e % $ $ $ $ $ $ $ $ $ $ $ $ $ $ $ $ $ $ $ $ $ $ $ $ 4 s k M o.:.:.>.>.>.>.:.:.:.:.o.:.o.:.:.>.| } } } } } } ( U S U U z s r > % $ $ $ $ $ $ $ $ $ $ $ $ $ $ $ $ ; m U R R r.S., ; $ $ $ $ $ $ $ $ $ $ $ $ $ $ $ $ $ $ $ $ $ $ $ $ $ $ $ $ $ $ $ $ $ $ $ $ $ $ $ $ $ $ $ $ ; w b Q } #.6.i.i.f.f.i.f.5.#.#.#.#.#.Q z > $ $ $ $ $ $ $ $ , , 3 9 3 , , , 9 x x x x j # # 7 9 9 9 9 9 9 9 9 9 9 9 9 9 9 , # # O O $ 3 3 3 9 3.f.f.f.8.#.>.>.>.>.o. . . .| S r , 4 , 4 4 , , , , , , , , , , , , , > ",
"* * * * * * * * * * * * * * * * * * * * * * * * * * * * * * * , 3 k n Q } } o.o.o.o.o.o.5.} w e w w 9 % % % % % % % % % % % % % % % $ $ $ $ $ w U X.#.#.#.#.| | | | | | | | | } ( ( ( ( ( T T Y U U U U U U U U U U U S U U Y T T T T T T T ( } | | } } } } } } } } X.#.#.#.o.o.#.#.#.#.X.} } } } } } } } Y U z s , * $ $ $ $ $ $ $ $ $ $ $ $ % > > > > > > > > > > > > > > > > > > : % $ $ $ $ $ $ $ $ $ $ $ $ $ $ $ $ % ; ; ; ; $ $ $ $ $ $ $ $ $ $ $ $ $ $ $ $ $ $ $ $ $ $ $ $ $ $ $ $ $ # # $ $ % % , 7 9 9 9 9 9 9 7 9 9 9 9 9 9 9 7 7 7 e i i i i p p p p p i , $ $ $ $ $ $ $ $ $ $ $ $ $ $ $ $ $ $ $ $ $ $ $ $ $ $ > $ $ $ $ $ $ $ $ > , 4 4 4 4 4 4 , $ $ $ $ $ $ $ $ $ $ $ $ $ $ $ $ $ $ $ $ $ $ $ $ $ $ $ $ $ $ $ $ $ $ $ $ $ , s A., $ $ $ $ $ $ $ $ $ $ $ $ $ $ $ $ $ $ $ $ $ $ $ $ $ $ $ $ $ $ $ $ $ $ $ $ $ $ $ $ $ $ $ $ $ $ $ $ $ $ $ $ $ , 4 w r r r r r r r r % $ $ $ $ $ $ $ $ $ $ $ , 3 3 3 , , , , x x x x j # # $ 9 9 9 9 9 9 9 9 9 9 9 9 9 9 9 % # # # # $ 3 3 3 n f.i.5.>.>.>.>.#.o. . .| z , , , , , , > > > > > > > % % % $ $ $ # # # ",
"* * * * * * * * * * * * * * * * * * * * * * * * * * * * * * * * * * * s z t r w 3 , % $ O O , w w w 9 % % % % % % % % % % % % % % $ $ $ $ $ $ $ $ $ $ , , , 3 M U | | | | | | } ( ( ( ( ( T T Y U U U U U U U U U U S S U U S S Y T ( T T T T ( } } } } } } | | } } } } | ( k k k k k k k k k k k k r , $ $ $ $ $ $ $ $ $ $ $ $ $ $ $ $ $ $ $ $ % > > > > > > ; > > > > > > > % % $ $ $ $ $ $ $ $ $ $ $ $ $ $ $ $ $ $ $ $ $ $ # $ $ $ $ $ $ $ $ $ $ $ $ $ $ $ $ $ $ $ $ $ $ $ $ $ $ $ $ $ $ $ # $ $ $ $ # # , 9 9 9 9 9 7 7 9 9 9 9 9 9 7 9 9 i i i f f p p p p p i i i w : $ $ $ $ $ $ $ $ $ $ $ $ $ $ $ $ $ $ $ $ $ $ $ $ $ $ $ $ $ $ $ $ $ $ $ $ $ % $ $ $ $ $ $ $ $ $ $ $ $ $ $ $ $ $ $ $ $ $ $ $ $ $ $ $ $ $ $ $ $ $ $ $ $ $ $ $ $ $ $ 4 , $ $ $ $ $ $ $ $ $ $ $ $ $ $ $ $ $ $ $ $ $ $ $ $ $ $ $ $ $ $ $ $ $ $ $ $ $ $ $ $ $ $ $ $ $ $ $ $ $ $ $ $ $ $ $ $ $ $ ; > 3 w w r $ $ $ $ $ $ $ $ $ $ $ $ $ $ * , , , , 9 x x x x j # # # # % * , 9 9 9 9 9 9 9 9 9 9 9 7 # # # # $ $ , 3 3 >.>.>.>.>.>.>.>.>.| S $ # # # # # # # O O O O # # # # # # # # # # # # ",
"% $ $ $ $ $ $ # # $ $ $ $ $ $ % % % $ % * * * * * * * * * * % % $ $ # O O O O O O O O O O O O * w w w % % % % % % % % % % % % % % $ $ $ $ $ $ $ $ $ $ $ $ $ $ $ $ $ $ $ $ $ $ > , t n S T T T U S S U U U U U U U S S S U U U U U U U T T T T T T z z z k k s t $ $ $ $ $ $ % $ $ $ % > > > > % $ $ $ $ $ $ $ $ $ $ $ $ $ $ $ $ $ $ $ $ $ $ $ $ $ $ $ % % % $ $ $ $ $ $ $ $ $ $ $ $ $ $ $ $ $ $ $ $ $ $ # $ $ $ $ $ $ $ $ $ $ $ $ $ $ $ $ $ $ $ $ $ $ $ $ $ $ $ $ $ # # $ $ $ $ $ $ $ $ $ $ # # $ $ $ $ # # % 9 9 9 9 9 9 7 t f f f f f f x A Z A A F F p B G F x g i i i i i e , % $ $ $ $ $ $ $ $ $ $ $ $ $ $ $ $ $ $ $ $ $ $ $ $ $ $ $ $ $ $ $ $ $ $ $ $ $ $ $ $ $ $ $ $ $ $ $ $ $ $ $ $ $ $ $ $ $ $ $ $ $ $ $ $ $ $ $ $ $ $ $ $ $ $ $ $ $ $ $ $ $ $ $ $ $ $ $ $ $ $ $ $ $ $ $ $ $ $ $ $ $ $ $ $ $ $ $ $ $ $ $ $ $ $ $ $ $ $ $ $ $ $ $ $ $ $ $ $ $ $ $ $ $ $ $ $ $ $ $ $ $ $ $ $ $ $ $ $ $ $ $ $ $ $ $ $ $ $ , 7 9 w x x x x j # # # # # # # # # $ % % , , , 7 7 9 9 $ # # # $ O O $ w } o.>.>.>.| } n , O O # # # # # # # # # # O O # # # # # # # # O # # # ",
"O O O O O O O O O O O O O O O O O O O O O O O O O O O O O O O O O O O O O O O O O O O O O O O O % w w , % % % % % % % % % % % % % $ $ $ $ $ $ $ $ $ $ $ $ $ $ $ $ $ $ $ $ $ $ $ $ $ $ $ $ * , w x x x x x x x x t 9 3 9 3 3 3 w w w w w w w 9 , % , r t t r , $ $ $ $ $ $ $ $ $ $ $ $ $ $ $ $ $ $ $ $ $ $ $ $ $ $ $ $ $ $ $ $ $ $ $ $ $ $ $ $ $ $ $ $ $ $ $ $ $ $ $ $ $ $ $ $ $ $ $ $ $ $ $ $ $ $ $ $ $ # # $ $ $ $ $ $ $ $ $ $ $ $ $ $ $ $ $ $ $ $ $ $ $ $ $ $ # # # # $ $ $ $ $ $ $ $ $ $ # # $ $ $ $ # # : z z b Y | >.,.,.,.,.,.,.,.,.,.,.,.,.-.! ! F ! ! ! ! A x i i i p p f f f i e , , $ $ $ $ $ $ $ $ $ $ $ $ $ $ $ $ $ $ $ $ $ $ $ $ $ $ $ $ $ $ $ $ $ $ $ $ $ $ $ $ $ $ $ $ $ $ $ $ $ $ $ $ $ $ $ $ $ $ $ $ $ $ $ $ $ $ $ $ $ $ $ $ $ $ $ $ $ $ $ $ $ $ $ $ $ $ $ $ $ $ $ $ $ $ $ $ $ $ $ $ $ $ $ $ $ $ $ $ $ $ $ $ $ $ $ $ $ $ $ $ $ $ $ $ $ $ $ $ $ $ $ $ $ $ $ $ $ $ $ $ $ $ $ $ $ $ $ > , , , , , , 9 9 x x x x x i # # # # # # # # # # # # # # # # # # $ $ # # # O O O O O O # # # # # # O O O O # # # # # # # # $ $ # O # # # # # # # $ O # # # ",
"O O O O O O O O O O O O O O O O O O O O O O O O O O O O O O O O O O O O O O O O O O O O O O O O O $ , w * % % % % % % % % % % % % % $ $ $ $ $ $ $ $ $ $ $ $ $ $ $ $ $ $ $ $ $ $ $ $ $ $ $ $ $ $ $ $ $ $ $ $ $ $ $ $ $ $ $ $ $ $ $ $ $ $ $ $ # # $ $ $ $ $ $ $ $ $ $ $ $ $ $ $ $ $ $ $ $ $ $ $ $ $ $ $ $ $ $ $ $ $ $ $ $ $ $ $ $ $ $ $ $ $ $ $ $ $ $ $ $ $ $ $ $ $ $ $ $ $ $ $ $ $ $ $ # $ $ $ $ $ $ $ $ $ : , , , , , , , , , , $ $ $ $ $ $ $ $ # # # # $ $ $ $ # # # # # # # # $ $ $ $ # # # # % r f U X.6.6.6.5.5.6.6.6.<.,.,.f.f.f.f.0.,.,.,.,.,.^ ! ! ! ! ! ! ! ! V g g g p i p g g f i i i i t 7 , $ $ $ $ $ $ $ $ $ $ $ $ $ $ $ $ $ $ $ $ $ $ $ $ $ $ $ $ $ $ $ $ $ $ $ $ $ $ $ $ $ $ $ $ $ $ $ $ $ $ $ $ $ $ $ $ $ $ $ $ $ $ $ $ $ $ $ $ $ $ $ $ $ $ $ $ $ $ $ $ $ $ $ $ $ $ $ $ $ $ $ $ $ $ $ $ $ $ $ $ $ $ $ $ % % % > , , % % % ; 4 4 w w 4 4 4 4 9 9 3 , , > $ $ $ $ $ $ $ $ % w x U S Z Z Z Z Z Z Z Z x n x x x x x w # # # # # # # # # # # # # # # # # # # $ , # $ # # # # # O $ # # # # # # # # # # $ $ $ # # # # $ $ O O O # # # # # # # # # # # ",
"O O O O O O O O O O O O O O O O O O O O O O O O O O O O O O O O O O O O O O O O O O O O O O O O O O $ Z v * % % % % % % % % % % % % % * * * * * * * % $ $ $ $ $ $ $ $ $ $ $ $ $ $ $ $ $ $ $ $ $ $ $ $ $ $ $ $ $ $ $ $ $ $ $ $ $ $ $ $ $ $ $ # # # $ $ $ $ $ $ $ $ $ $ $ $ $ $ $ $ $ $ $ $ $ $ $ $ $ $ $ $ $ $ $ # $ $ $ $ $ $ $ $ $ $ $ $ $ $ $ $ $ $ $ $ $ $ $ $ $ $ $ $ $ $ $ $ $ $ $ $ $ : 9 t z x n n n n n n n n n n n n n n n n n n n n z f i f x U M f t , , , , , # # * , , , 9 n E ( X.X.5.6.6.6.6.6.6.5.5.6.6.1.,.,.,.,.f.f.f.f.f.,.,.,.,.-.! ! ! ! ! ! ! ! ! x p p p i g g g f i i i p i p p p i i i i i i f p p p p i i q w % $ % : , 3 w w f f f z z M m m M r ; $ $ $ $ $ $ $ $ $ $ $ $ $ $ $ $ $ $ $ $ $ $ $ $ $ $ $ $ $ $ $ $ $ $ , , 9 9 * * % $ $ $ $ $ $ $ $ $ $ $ $ $ $ $ $ $ $ $ $ $ $ $ % , 9 w t e e e e t t w w w n X.X.X.X...X.....X.} U U U U U U U U U T ) X.o.X.X.X.X.o.o.o.X.X.X.X.X.X.X.| T T Y Z w , $ # # # # # # # # # # # # # # t Z Y Y Y Y Y U M z 3 O $ # # # # # # # # # O # # # $ # # # # $ $ O O # # # # # # # # # # # # ",
"O O O O $ % % % % % $ O O O O O O O O O O O O O O O O O * > % O O O O O O O O O O O O O * > > > * > e Z Z e , % % % % % % % * , w e e e e e e e e e t z j j i i 9 , * * $ $ $ $ $ $ $ $ $ $ $ $ $ $ $ $ $ $ $ $ $ $ $ $ $ $ $ $ $ $ $ $ $ $ $ $ # $ $ $ $ $ $ $ $ $ $ $ $ $ $ $ $ $ $ $ $ $ % % % % % $ $ $ $ $ $ $ $ $ * > > % $ $ $ $ $ $ $ $ $ $ $ $ $ # $ * 7 w e , $ $ $ $ $ $ , 9 w w x n n n M U Y Y M n n n n n n n n n n n n n n x z f f f f f T T T T T T T T T T T T T T T X.X.X.X.X.5.6.6.6.6.6.6.6.5.6.6.6.1.,.,.,.,.4.'.'.E.K.1.,.,.,.,.! ! ! ! ! ! ! ! ! B p i i i i g g p p i i i i i i i p p p i i f f i i i i i x Z Z Z z e e e e e U Y Y Y Y } #.#.#.#.#.#.4 $ $ $ $ $ $ $ $ $ $ $ $ $ $ $ > 9 M D D x 9 $ $ $ $ $ $ $ $ $ $ % , , x x i e e e e e e e e e e e e > $ $ $ $ $ $ $ $ $ : , e f i t t t e e e e t e e e w Q X.X.X.#.#.X.X.X.#.>.>.>.#.>.5.6.6.6.6.<.X.X.o.o.X.X.X.X.o.X.X.X.X.X.X.X.X.( T T ( Q Q Q Q Q Q Q Q Q ( Q T Q Q ( X.:.5.5.5.5.5.5.5.5.5.5.5.5.>.>.X.( ~ ~ ~ ~ ~ ~ T T ~ 3.5.) ) ) S Z Z Z Z M x z t , % # # # # # # # ",
"$ r z z z z z z z z z z n M U Y ( ( ( T U Z Z Z Z Z Z Z Z Z Z Z Z Z Z Z Z Z Y Y Y Y Y Y Y Y Y Y D Y D D Y t e e w 9 9 w 0 e e e e e e e e e e e e e t j j j z z z z j t e e e e e e e e e w 0 0 w w 9 , , , , $ $ $ $ $ $ $ $ $ $ $ % * * * * * * * * * * * % $ $ $ $ $ $ $ $ $ $ $ $ $ * 7 7 7 7 7 7 7 7 w i z Z Y M n x x x z z z z z i t t t w 9 9 9 9 t f z z x x x $ $ $ $ $ w w w t x n n n Z Y Y Y Y U n n n n n n n n n n n n x f f f f f f f f U T T T T T T T T T T T T T T ( X.X.X.<.6.6.6.6.6.6.6.6.5.5.6.6.6.<.,.,.,.,.k.].].].I.,.,.,.,.) ! ^ ^ ^ ! ! ! ! A i i i i i g p p p i i i i i i g x x x x x f f i i i i x Z Z Z Z Z v e e e e Z Y Y Y Y Y ( #.#.#.#.#.o.$ $ , t t t e , $ $ > , e t t i D ! D D D D Z > $ % % * * * * , , , , n n n x t e e e e e e e e e e e $ $ $ $ $ $ > , , , e z z z z z z i i i e e e e e t } X.X.#.<.<.>.#.>.>.>.<.6.6.6.6.6.6.6.6.6.>.X.X.o.X.X.X.X.o.o.X.X.X.X.X.X.X.) T T ( Q Q Q Q Q Q ( ) Q Q ( | X.X.X.>.5.5.5.5.5.5.5.5.5.5.7.f.f.7.5.5.5.5.>.| ) ~ ~ ~ ) >.5.5.>.) ) ) Y Z Z Z Z Z Z Z Z Z Z , # # # # # ",
"% ( Q Q ( ( ( ( Q Q Q Q ( ( ( ( ( ( ( ( ( ( Y Z Z Z Z Z Z Z Z Z Z S Y T }  . . . . . . . . . . . . . . . .x e e t t e t e e t e e e e e e e e e t t i j j j j j z z z z t e e e e e e e e e t e t i j z x x x z e e e e e e e e e e e e e e e e e e e e e e e e e w % $ $ $ $ $ $ $ $ $ 7 7 7 7 7 7 7 7 7 e i S Y Y Y Y Y Y Y Y Y Y Y Y S Z x f f f z z z f z Z Z Z Z Z * # $ $ , w w t x n n n Z Y U Y Y Y Y M n n n n n n n n n n n z f f f f f f f f v T T T T T T T T T ( ( ( ( ( ( X.X.<.6.6.6.6.6.6.6.6.6.6.6.6.6.6.6.<.>.>.>.<.J.].].].K.,.,.,.:.! -.,.,.,.-.! ! ! F A A B p i i i i i i i i x A A A A A A A ~ Z f f g n Z Z Z Z Z Z Z v e e e x Y Y Q Q Y Y ( #.#.#.#.>.r , 9 t t t z D Z x x j i i j Z D | -.| ~ Y D Z , , , , , , , , , , , 9 x n n n x i i i i i i i q q e , $ $ $ : 7 7 7 7 7 i z z z x x z z z z i t t e e e ..X.X.<.<.<.<.>.>.>.>.<.6.6.6.6.6.i.v.i.6.5.X.X.X.X.X.X.X.X.X.X.o.X.X.X.X.X.| Q Q Q ( Q Q ( Q ) X.X.) X.X.X.X.o.o.5.6.5.5.5.5.5.5.5.6.f.k.k.k.k.g.f.7.5.5.5.5.5.5.5.5.5.5.5.5.>.) ) ) T Z Z Z Z Z Z Z Z Z Z , O O # # ",
"% Q Q Q ( ( ( Q ( Q Q Q ( ( ( ( ( ( Q ( ( ( ( ( T S Z Z Z S Y T ( ( ( ( |  . . . . . . . . . . . . . . . .x e e e t t t e e e e e e e e e e e e t t i j j j z j z z z z z i e e e e e e e e e t x z z z z x x x x i e e e e e e e e t i j j e e e e w 9 , , , , % $ $ $ $ $ $ $ $ $ $ $ 7 7 7 7 7 7 7 7 7 t i S Y Y Y Y Y Y Y Y Y Y Y Y Y Y Y Z z f z z z z f Z Z Z Z Z , # # # 9 w e x n n M U Y Y Y Y ( T Y U n n n n n n n n n n n z f f f f f f f f f Y T T T T T T T } X.X.X.X.} ....#.6.6.6.6.6.6.6.6.6.6.6.6.6.6.6.6.5.5.6.6.6.6.f._.].].!.6.,.,.-.^ :.,.,.,.-.! ! ! ! ! ! A i p i x B g i g A A A A A A X.y.f.f.( x Z Z Z Z Z Z Z Z Z Z Z t e t ( #.#.#.#.#.#.#.#.>.5.y.f , w t i Z D D D D D D D D D D D ~ -.-.-.-. .~ 9 , , , , , , , , 7 t 9 , 9 i x n n n n x n x x i q q e $ $ % , , , 7 7 , i z z x x z z z z z i t e e w e X.X.o.<.<.<.<.>.>.>.<.<.6.6.6.6.i.v.v.v.6.6.>.X.X.X.X.X.X.X.X.o.o.X.X.X.X.X.X.Q Q ( ( Q Q ( ) o.X.X.X.o.X.X.X.o.o.>.5.5.5.6.5.6.6.5.6.k.k.k.k.k.k.k.k.g.g.7.5.5.5.5.5.5.5.5.5.5.>.) ) ) T Z Z Z Z Z Z Z Z Z M # O O # ",
"* U ( ( ( Q ( Q ( ( Q Q ( ( ( ( } ......X.X.X.X.X.....X.X.X.X.X.X.X.<.5.6.<.>.>.>.5.5.5.5.5.5.:. . . . . .t e e e e e e e e e t t t e e e e e e t t i j z z z z j j j j z j t e t t e t e e e t x x z z x x x x x x x z i t t i z x x x z x x w e , $ $ $ $ $ $ $ $ $ $ $ $ $ $ $ $ $ $ 7 7 7 7 7 7 9 7 7 i i x Y Y Y Y Y Y Y Y Y Y Y Y Y Y Y Y D x z z f f f Z Z Z Z Z f # # # 9 w z v n M Y U Y Y U Y T } ( Y M n n n n n n n n n n x f f f f f f f f f v T T T T Y Y T X.X.X.X.......X.5.5.6.6.6.6.5.6.5.5.6.6.6.6.6.6.6.5.5.6.6.6.6.6.6.N.'.].].K.,.,.,.,.,.,.,.,.^ ! ! ) -.,.,.A B A A A V x V A A A A ! y.f.f.f.f.f.( Z Z Z Z T ( ( ( T Z Z Z t e ( #.#.>.<.<.5.5.y.y.y.y.f , e t D D D D D D Y | | | ~ D D D | -.-.-.-.-.| x i i i t e i i i i i , , , , q n n n n x x i q q q e $ $ $ $ , , , , , e z z z z z z z z z i t t w w w ..X.>.>.>.>.>.>.>.<.<.>.6.6.6.y.v.v.v.v.6.6.6.>.o.X.X.X.X.X.X.o.o.o.X.X.o.X.o.| Q Q Q Q ( | X.o.o.X.X.o.o.X.X.X.X.:.5.5.4.6.6.6.6.5.5.0.k.k.N. X+X|.U.N.N.N.N.v.i.5.5.6.6.4.4.4.5.>.) ) ) Y Z Z Z Z Z Z Z Z Z % # # # ",
"> z ........( ( ( ( ( } X.y.i.i.i.i.i.i.i.i.i.i.i.i.i.i.i.i.i.i.i.i.i.i.i.i.i.i.i.i.i.i.i.i.i.i. . . . . .e e e e e e e t e e e t t e e e e e t t t e t i z z z j j j j j j t e t t t t e e e t x x z z j x x x v S Z Z Z Z Y ~ ) | | | | | | ( i $ $ $ $ $ $ $ $ $ $ $ $ $ $ $ $ $ $ $ 7 7 7 7 7 7 9 9 9 i i f x T } X.X.} ( Y Y Y Y Y Y Y Y Y Y Y Y Z x f f M Z Z Z Z Z % # # , w s n n U Y U U U Y Y Y } } } Z n n n n n n n n n n n f f f f f f f f z n U T T T T Y T X.X.X.X.......#.6.5.6.6.6.6.6.6.6.6.6.6.6.6.6.<.<.<.<.>.>.X.X.X.X.X.>.F.].'.'.m.,.,.,.,.,.,.-.-.:.:.:.,.:.A A A A A A A A A A A A y.f.f.f.f.f.f.X.#.h.y.1.>.X.X.X.X.X.Y Z Z t Q y.y.y.y.y.y.y.y.y.y.y.f , w t D D D D D D  . . . . .| D D ~ -.-.-.-.-.-.| v x i i i i i i i i 0 , , , , w n n n n x q q q q e * $ $ $ $ % , , , 7 z z z z z z z z z t t t w w w ..X.>.>.>.>.>.>.>.<.<.>.<.6.6.v.v.v.v.h.6.6.6.6.<.:.X.X.X.X.>.>.<.<.>.:.o.o.o.X.X.| X.X.X.o.o.o.o.X.X.o.o.X.X.X.X.o.>.6.4.4.6.5.5.5.5.5.7.f.E.+X+X+X X~.!.!.!.!.F.m.k.g.g.g.f.0.4.4.>.) ) ) Y Z Z Z Z Z Z Z Z , # # # ",
"% M ........} } } ........i.i.i.i.i.i.i.i.i.i.i.i.i.i.i.i.i.i.i.y.6.5.5.5.5.<.<.X.X.| ( ( ( ( |  . . . .:.M t t e e e e e e e e t t e e e e t t t t e e e i j j j j j j j j e e e e e t t t e t t t e e e x x S | |  .:.:.,.,.:.:.:.,.,.-.| | | | , $ $ $ $ $ $ $ $ $ $ $ $ $ $ $ $ $ $ 7 7 7 7 7 7 7 7 e f f f i x | X.X.X.X.X.) T Y Y Y Y Y Y Y Y >.>.:.} Y Z Z Z Z Z Z 9 # # : w t n Z Y Y Q Q ( T Y Y } } } } ( Z M n n n n n n n n x f f f f f f x n x Z T Y T X.1.y.5.X.X.X.X.....>.<.<.<.<.<.<.#.X.X.X.X.X.X.X.X.X.X.X...X.X.X.X.....X.X.X.>.m.'.].'.f.,.,.,.:.:.,.,.,.:.,.| A A A A A A A A A A A X.f.f.f.f.f.f.1.X.X.i.V.V.V.V.V.k.h.y.6.T Z Z ( y.y.y.y.y.y.y.y.y.y.y., , , , Z Y  . .| |  . .-. . . .| D ~ -.,.>.;.-.-.-.| A A Z x i i i i i i , , , , t n x n n q q e e e e $ $ $ $ $ $ $ , , , 9 z z z z z z z x t t e w w w ..o.>.>.>.>.>.>.>.>.<.>.>.<.i.v.v.v.v.i.6.6.6.6.6.6.5.5.5.6.6.6.6.6.6.6.X.X.X.X.X.X.X.X.X.X.X.X.X.X.X.o.X.X.X.X.X.X.o.5.6.5.5.5.5.4.5.5.5.5.g. X+X+X+X X!.!.!.!.!.F.m.F.F.n.n.n.n.7.5.X.) ) ) Z Z Z Z Z Z Z Z , # # # ",
"% M ........| ....X.......i.i.i.i.i.i.i.y.y.i.y.i.y.y.y.6.5.5.5.<.<.>.>.#.#.X.X.) ) ( ( ( ( ~ ~ ( | 6.i.i.f.i.f.6.<.<.( ( Y v x e t e e e e t t t t e e e e i j z z j j j i e e e e e e t t e t t t t t t x S | | :.:.:.:.:.q.n.m.m.4.:.,.:.| | | ) t $ $ $ $ $ $ $ $ $ $ $ $ $ $ $ $ $ 7 7 7 7 7 7 7 7 i i f f i i M #.#.#.#.X.X.X.| ( ( } } Y Y Y X.>.>.>.>.>.( T T Y Z M # % , w w x U Y Q Q Q } } } } } } } } } } } T S n n n n n n n z f f f x n n n x U T X.r.r.r.y.5.X...X.X...X.....X.X.X.X.....X.X.X.X.X.X.....X.X.X...X.X.X.X.X...X.X.X.X.X.#.P.].!.,.,.,.:.:.,.,.,.,.,.| A A A A A A A A A A ) f.f.f.f.f.f.<.X.X.X.X.h.V.V.h.k.m.V.V.V.m.T Z ( y.y.y.y.y.y.y.y.y.y.y., , , , f D  . .-.-.:.>.5.5.6.6.4.,.,.5.4.4.4.5.>.-.-.D A A A A A V x x x t , , 0 x x x n n q q e e f n $ $ $ $ $ $ $ $ , , , 9 i z x x z z z e t t w w z ..#.>.>.>.>.>.>.>.>.>.>.>.<.6.v.v.v.i.6.6.6.6.6.6.6.6.6.6.6.6.6.6.6.6.<.X.| } } } } ( ( ( ( ( ( } X.X.o.o.X.X.X.X.X.X.X.:.X.o.:.>.>.>.>.>.>.5.N.+X+X+X+X}.!.!.!.!.!.G.m.F.n.m.n.n.m.7.5.) ) ) ~ Z Z Z Z Z Z Z , # # # ",
"* M ....X.X...............y.i.i.i.6.5.5.5.5.5.5.5.5.5.5.<.<.>.>.>.>.>.#.X.X.X.} ) ) ( ( ( ( ~ ~ ~ ~ ) } ) | <.<.y.f.i.i.y.y.f.f.i.<.( x e e e e t t e e e e t i z z z z i e e e e e e t i z x x x x x z x v | | :.:.:.:.:.>.m.N.m.m.m.6.,.,.-.| | | D Z , $ $ $ $ $ $ $ $ $ $ $ $ $ $ $ 7 7 7 7 7 7 7 9 i i i i i i i X.5.5.<.#.X.X.X.X.X.X.X.X.T Y ~ >.<.y.f.f.f.f.f.f.f.f.f w w w w z Y Y Q Q Q ( } } } } | y.7.5.o.} } } Z v n n n n n x f f z n n n n n Y #.r.y.y.y.y.X...X.X.X.| X...X.X.X.X.X.X.X.X.X.| } ........X.X.X.X.....X.X.| ..X...X.X.X...| >.<.:.,.,.,.:.,.,.,.,.,.| A A A A A A A A A >.f.f.f.f.f.1.X.X.X.X.X.X.>.V.V.m.y.y.f.V.V.V.v.Z X.y.y.y.y.y.y.y.y.y.y.y., , , , f D | -.>.4.4.4.6.4.4.4.4.4.4.4.4.4.4.4.4.4.,.| A A A A A A A A A V , 9 x x x x n n i q i x n f $ $ $ $ $ $ $ $ * 7 , , 7 9 t i t e e e w w w w e X.#.<.<.<.>.>.>.>.>.>.>.>.>.>.y.i.6.6.6.6.5.6.5.5.<.<.>.#.o...} } } } } } } ( ( Q Q Q Q Q Q Q Q Q ( ( } } | X.X.X.X.X.X.X.X.o.o.X.X.X.X.X.X.X.X.v.+X X+X+X].!.!.!.!.!.K.m.m.m.n.n.n.n.6.:.) ) ) Y Z Z Z Z Z Z * # # # ",
", m ....X.X.X.............5.6.5.5.5.5.5.5.5.5.5.5.5.<.<.<.>.>.>.#.#.X.X.X.X.X.} ) ( ( ( ( ( ~ ~ ~ ~ ~ D S S S S S S T T | #.<.f.i.6.#.) Y i e e e e e e e e e e t i t t e e e t e e t z x v v x x x Z Z x )  .:.:.:.:.:.:.:.,.m.m.m.m.n.4.,.:.| | | D D S w $ $ $ $ $ $ $ $ $ $ $ $ $ $ 7 7 7 7 7 7 7 e i i i i i i i T 5.5.5.<.#.X.X.X.X.X.X.X.X.T Y | f.f.f.f.g.F.J.G.N.v.Y w w w w f Y Y Y E Q Q } } } } } 6.y.y.y.y.>.} ( M n U Y M n n f f z n n n n n #.y.r.y.1.#.X.X.....X.X.| | ..X.X.X.X.X.X.X.X.| | ....X.X...X.X.X.| ......X.X.X.X.....X.X.X.| X.X.X.X.:.,.:.,.,.,.,.,.| A A A A A A A ) y.f.f.f.f.1.X.X.X.X.X.X.X.X.X.y.V.V.f.y.y.y.k.V.V.f.y.y.y.y.y.y.y.y.y.y.y.y., , , , i D | 4.4.4.4.4.4.4.4.4.0.f.k.k.q.4.4.4.4.4.4.4.| ) ) ~ A A A A A V , i x x x V ! D B x n n n t $ $ $ $ $ $ $ $ $ , , , 7 7 7 e e e e e e w w w e X.#.<.<.<.<.>.>.>.>.>.>.>.>.>.<.5.5.<.>.>.>.X.X.X.X...} } } } } } } } ( ( Q Q Q Q Q Q Q Q Q Q Q Q Q Q ( ( ) } | | | X.X.X.X.o.o.X.X.X.X.X.X.X.X.X.v. X+X+X+X].!.!.!.!.!.K.m.m.n.n.n.n.m.>.) ) ) ) S Z Z Z Z Z # # # # ",
", z ......................5.5.5.5.5.5.5.5.5.5.5.<.>.#.#.#.#.#.#.X.X.X.X.| | } ) ) ( ( ( ~ ~ ~ ~ ~ ~ ( D S S S S S S S S S S Y T Y T T T T Y t e e e t t t t t e t t e e e e t t e t S ) X.#.) D x n D D Y | :.:.:.:.:.:.:.:.:.4.n.F.F.F.m.>.:.| | | D D D D 9 $ $ $ # $ $ $ $ $ $ $ $ $ 7 7 7 7 7 7 7 i f i i i i i i M 5.6.5.5.>.#.X.X.X.X.X.X.X.X.} } <.f.f.f.v.J.J.J.J.J.f.w w w w r Z U Y Y Q Q ( } } } } o.y.y.y.y.y.6.| ( Z ( } } ( Y x f f n n n n Q y.y.y.<.( ( ] X.........X.X.| X.....X.| ....X.X.X.X.| | | X.X.X.| | ..} X.X.X.X.} } X.X.X.X.X.| ..X...X.X.>.=X>X=Xs.,.,.A A A A A ) y.f.f.f.i.1.X.X.X.X.X.X.X.X.X.X.X.X.v.V.V.y.y.y.y.f.m.i.y.y.y.y.y.y.y.y.y.y.y.y., , , , f ! 4.4.6.6.6.6.6.6.4.6.g.c.c.c.c.k.f.7.4.4.4.4.5.| | | ~ A A A A V , x n x x ~ ^ ^ ^ D x x x x % $ $ $ $ $ $ $ $ % , , , , , 9 e t e e e e e w w X.#.>.>.>.>.>.>.>.<.>.<.<.>.>.>.>.<.<.>.>.X.X.....} } } } } } } ( ( Q Q Q Q Q Q Q Q Q Q Q Q Q Q Q Q Q Q Q ( ( } | | | X.X.X.X.X.X.X.X.X.X.o.X.X.X.X.F.+X+X+X+X].!.!.!.!.!.F.n.F.n.m.m.m.7.) ) ) ) ~ Z Z Z Z x # # # # ",
", z ......................5.5.5.5.5.5.5.5.5.<.#.>.<.>.>.#.o.X.X.X.X.| | | | ) ) ) ( ( ( ~ ~ ~ ( ~ ~ ( Y S S S S S S S S S Y T T Y T T T T T x e e e t e t t e e t t e e e e t t t | >.>.:.>.X.Y x n D Y | :.:.:.:.:.:.:.:.:.:.:.6.F.F.F.m.c.:.| | | D D D D D , $ $ # $ $ $ $ $ $ $ $ % 7 7 7 7 7 7 w f f f i i i i i v 6.i.5.5.5.#.X.X.X.X.X.X.X.X.X.X.X.<.f.f.g.J.J.J.J.J.f.P w w w w n M U Y Y Q Q } } } } } 5.y.y.y.y.y.6.| } } } } i.P.n z f n n n P r.y.y.+.( ( ( ( X.........X.X.X.......X.| ....X.X.| | X.X.X.X...X.} ..} } X.X.X.X.} } X.X.X.X.| | ......X.X.X.V.>X>X:Xf.,.D A ! >.f.f.f.f.y.>.X.X.X.X.X.X.X.X.X.X.X.X.X.X.>.V.V.h.y.y.y.y.y.y.y.y.y.y.y.y.y.y.y.y.y.y., , , , f X.4.4.4.4.6.4.6.6.4.4.4.f.f.g.c.c.c.c.k.f.0.7.4.5.| | ) A A A A x , t n x B ^ ^ ^ ^ ^ ~ B x x x > $ $ $ $ $ $ $ $ $ * , , , , 9 t e e t t e e w ..X.X.o.#.>.>.>.>.<.<.<.<.<.>.>.>.<.<.>.#.X.X.....} } } } } ( ( Q Q Q Q Q Q Q Q Q Q Q Q Q Q Q Q Q Q Q Q Q Q Q ( } | | | X.X.X.X.X.X.X.X.X.o.o.X.X.X.<.F.+X+X+X+X].!.!.!.!.J.n.F.n.m.m.m.7.X.) ) ) ) Y Z Z Z t # # # # ",
", z ........X.X.X.X.X.} Z 5.5.5.5.5.5.5.5.#.<.#.>.>.<.#.X.X.X.X.X.| | | } ) } ) ) ( ( ( ~ ~ ( ( ~ ( ( Y S S S S S S S S Y T T T Y Y T T T Y M e e e e e e e e e t t e e e e e i Z X.>.>.:.:.X.Y Z n D ) | :.:.:.:.:.:.:.:.:.,.:.,.6.F.F.m.m.0.| | | ~ D S D D S % $ $ $ $ $ $ $ $ $ $ % 7 7 7 7 7 7 t f i i i i i i i i i.h.6.5.5.#.#.X.X.X.X.X.X.X.X.X.X.X.<.f.f.f.f.f.f.f.f.7.w w w w n n M U Y Y Q ( } } } } } 5.y.y.y.y.y.<.} } } } Z.T.P n x n M U ( +.+.( ( ( ( ( ..X.X.......X.X.X.X.....| ......X.X.| | X.X...............X.X.X.....} ..........| ..........X.X.X.6.:X>X=X,.>.7.f.f.f.y.1.X.X.X.X.X.X.X.X.X.X.X.X.X.X.X.X.X.X.y.V.m.y.y.y.y.y.y.y.y.y.y.y.y.y.y.y.y.y.6., , , , n X.4.4.4.4.6.4.6.4.4.4.4.>.X.X.X.>.y.k.c.c.c.c.k.f.>.| | ^ ~ D D i , i n x A ^ ^ ^ ^ ^ ^ ^ D x n x > $ $ $ $ $ $ $ $ $ $ $ * , , 7 w e s z n R } } X.X.....X.X.o.#.o.+.+.<.>.>.>.>.>.<.>.X.X.X.X...} } } ( Q Q Q Q Q Q Q Q Q T Y Y Y Y Y Y Y Y Y Y Y T Q Q Q Q ( ( | | | X.o.o.X.o.X.X.X.o.o.X.X.X.X.>.5.k. X+X+X X].!.!.!.K.n.F.F.n.m.m.7.5.| ) ) ) ~ Z Z Z 9 # # # # ",
", z ..........X.X.X.X.U Z } 5.5.5.5.5.<.#.#.<.>.<.<.#.X.X.X.X.| | | } ) ) ) ) ) ) ( ( ( ( ~ ~ T T T T Y S S S S S S S D T T T T Y Y T T T U Z t e e e e e e e e t t e e e e t V Z Z X.>.>.:.X.Y D D Y | | | | | | | | | | |  . .:.,.7.N.m.m.F.:.| | ) D S D D S n $ $ $ $ $ $ $ $ $ $ % 7 7 7 7 7 9 f f i i i i i i i Z h.h.y.5.5.>.#.X.X.X.X.X.X.X.X.X.X.X.X.<.f.f.f.f.f.f.f.f.Q w w z n n n Z Y Y Q ( } } } } } } >.y.y.y.y.y.} } } } T.T.Q n Z Y Q ( ( ( ( ( ( ( ( ( X.X.X.......| | X.X.....| X.......X.X.X.X.X.............X.X.X.X.X.............} X.X...........X.X.X.k.>X>XV.f.f.f.6.>.X.X.X.X.X.X.X.X.X.X.X.X.X.X.X.X.X.X.X.X.X.k.V.k.y.y.y.y.y.y.y.y.y.y.y.y.y.y.y.y.Q , , , , Z X.>.4.4.4.4.4.6.4.4.4.>.X.X.X.X.X.X.#.<.f.c.c.c.c.k.,.| | | | A n n n n x ! ^ ^ ^ ^ ^ ^ ^ ^ ^ A n n t , % $ $ $ $ $ $ $ $ $ $ % , , , X.X.} } } } ..X.....X.X.X.X...X.X.<.>.>.>.>.>.>.+.X.X.X.X.} } } ( Q Q Q Q Q Q Q Q Q T Y Y Y Y Y Y Y Y Y Y Y Y Y Y Q Q Q ( ( } | | | X.o.o.o.X.X.o.o.o.X.o.X.X.X.1.5.7.].+X+XXX}.!.!.F.n.n.F.n.n.m.7.5.1.} ) ) ) Y Z Z * # # # # ",
", z ..................U M ..5.5.5.5.<.<.>.>.>.>.>.o.X.X.X.X.| | | ) ) ) ) ) ) ) ( ( ( T T T T T T T T Y S S S S S S S Y T T Y Y Y T T T T Z Z z e e e e e e t t e e e e t i V V Z Z T >.:.>.| Y Y Y ( | | | | | | | | | | | | | | :.:.7.F.F.F.n.:.| | ~ D D D D D e $ $ $ $ $ # $ $ $ * 7 7 7 7 9 e i i i f f f i i z i.h.f.i.5.5.<.#.#.X.X.X.X.X.X.X.X.X.X.X.X.<.f.f.f.f.f.f.f.f.t f n n n n M Y Y Q Q } } } } } } } } >.6.y.y.X.} } 5.T.T.Z Y Q Q Q ( ( ( ( ( ( ( ( X.X.X.X.X.X.| X.| X.X.X...................X.X.X...........X.X.....X.X.X.X.X.X.X.} } } ........X.X.X.X.X._.>Xf.f.5.X.X.X.X.X.X.X.X.X.X.X.X.X.X.X.X.X.X.X.X.X.X.X.X.>.m.V.f.y.y.y.y.y.y.y.y.y.y.y.y.y.y.y.U , , , , s #.#.5.6.4.4.6.4.4.5.>.X.X.X.X.X.X.X.X.....X.5.f.k.k.k.f.4.| ) A x Z Z A F ^ ^ ^ ^ ) X.X.| ^ ^ ^ ! A n n n x f i e , % $ $ $ $ $ $ , , 6.6.6.6.} } } ..X.X.X.X...X.X.X.#.>.>.>.>.>.>.>...........} } ( Q Q Q Q Q Q Q Q Q T Y Y Y Y Y Y Y Y Y Y Y Y Y Y Y T Q Q ( ( ( | | | | o.o.o.o.X.X.X.o.o.o.X.X.X.:.1.5.5.N. X+X+X|.!.U.m.n.n.n.n.m.f.5.5.<.| ) ) ~ Z Z # O O # # ",
", z ..................Y M ..<.5.5.<.<.<.>.>.>.>.#.X.X.X.X.| | | ) ( ( ( ( ~ ( ( ( ( ( Y T T T T T T T Y S S S S S S S Y T Y Y Y Y Y T T T Z Z M e e e e e e t t e e e e t n Z Y <.k.m.m.k.6.( Y Y Y | | | | | | | | | | | | | | | | :.:.q.n.F.F.f.4.| | Y D D D D D , $ $ $ $ $ $ $ $ , 7 7 7 7 9 i i i i i f f i i } h.h.i.y.5.5.<.#.#.X.X.X.X.X.X.X.X.X.X.X.X.X.<.f.f.f.f.f.f.f.X.n n n n n n U Y Q Q ( } } } } } } } } } } X.} } } h.).).Q Q Q Q Q ( ( ( ( ( ( ( } X.X.X.X.X.X.X.X.X.X.X.X.X.......X.....X.X.| | X...........| X.X...X.X.X.X.X.X...} } ......X...| | X.X.X.X.XXf.X.X.X.X.X.X.X.X.X.X.X.X.X.X.X.X.X.X.X.X.X.X.X.X.X.X.X.y.V.V.h.y.y.y.y.y.y.y.y.y.y.y.y.y.y.M , , , , , X.#.#.5.6.4.6.4.5.#.X.X.X.X.X.X.} ....} } } } } X.q.c.k.k.k.f.) n Z ( 5.m.9.-.^ | X.X.X.X.X.^ ^ ^ ^ ! Z x n n x n n n t % $ $ $ $ $ t 5.6.6.<.} } } ..X.X.X.X...X.X.X.#.>.>.>.>.>.>.+.........} } } ( Q Q Q Q Q Q Q T Y Y Y Y Y Y Y Y Y Y Y Y Y Y Y Y Y Y Q Q Q ( ( } | | | | o.o.o.X.X.X.X.o.o.X.X.X.X.>.5.5.5.7.L.+X+X'.!.E.F.n.n.n.F.v.5.5.5.5.:.) ) T Z # # # # # ",
", z ....X.X...........( M X.#.<.<.<.<.<.>.>.>.>.X.X.X.X.X.| | } ( ( ( ( ( ( ~ ~ ( ( ( T Y T Y Y T T T Y S S S S S S Y T T T T Y T T T T T U Z Z q 9 9 0 e e t t e e e e n <.v.v.v.v.m.m.v.v.) D Y ( | | | | | | | | | | | | | | | | | :.:.f.m.F.m.7.5.| | Y D D D D Z $ $ $ $ $ $ $ $ , 7 7 9 7 w f i i i i f f i M h.h.h.i.y.5.5.5.#.#.o.X.X.X.X.X.X.X.X.X.X.X.X.X.#.f.f.f.f.f.f.f.P n n n n n Z Y Y Q Q ( } } } } } } } } } } } } } Z.).V.Q Q Q Q Q ( ( ( ( ( ( ( ....X.X.X.X.X.X.X.X.X.X.X.| ....X.X.X.| X.X.| | X.X.....X.X.| | ......X.X.| X.X.X.X.} } X...X.X.| X.X.X.X.X.i.f.X.X.X.X.X.X.X.X.X.X.X.X.X.X.X.X.X.X.X.X.X.X.X.X.X.X.X.X.k.V.V.m.h.f.f.y.y.y.y.y.y.y.y.y.y.n , , , , , } X.X.X.>.>.5.>.#.X.X.X.X.X.} } } } } } } } } } } } X.f.k.k.k.} ( ( ( 5.m.m.m.c.f.6.<.X.X.X.X.^ ^ ^ ) X.n x x x x n n n t , , > : $ s 5.6.5.} } } } ..X.X.........X.X.#.>.>.>.>.>.#.X...X...} } } } ( Q Q Q Q Q Q Y Y Y Y Y Y Y Y Y Y Y Y Y Y Y Y Y Y Y Y T Q Q ( ( } | | | | X.:.X.X.X.X.o.o.X.X.X.X.X.X.>.1.1.1.5.7.J.E.!.!.!.L.m.m.F.F.6.5.5.5.5.>.| X.x # # # # # ",
", z X.X.X.X.X...........T >.#.#.<.<.<.<.>.>.>.#.o.o.X.X.| | ) ) ( ( ( ( ( ( ~ ( ( ( ( T Y Y Y Y Y Y T T D S S S S S Y T T T T T T T T T T Y Z Z , = = = 9 e e t e e t x | m.v.v.v.v.v.v.v.v.) D Y | | | | | | | | | | | | | | | | | | | | >.f.F.m.c.5.5.| | ) Y Y Y ~ z $ $ $ $ $ $ $ , 7 7 7 7 t i t i i i i f i r.h.h.h.i.y.5.5.5.#.#.#.X.X.X.X.X.X.X.X.X.X.X.X.X.X.#.y.f.f.f.f.f.( M n n n M Y Y Y Q Q Q } } } } } } } } } } } } } T.P.( Q Q Q Q Q ( ( ( ( ( ( ( ......X.X.#.X.X.X.X.X.X.X.| | } X.X.X.| | | | X.X.X.X...X.X.X.| ......X.X.| X.X.X.X.X.X.X.X.X.X.X.X.X.X.X.X.+.y.X.X.X.X.X.X.X.X.X.X.X.X.X.X.X.X.X.X.X.X.X.X.X.X.X.X.X.X.#.m.V.V.V.V.V.m.y.y.y.y.y.y.y.y.y.n , , , , , U X.X.X.X.X.X.X.X.X.o.X.X.....} } } } } } } ( ( ( ( ( ( ( ( ( ( ( ( ( ) 0.m.m.m.m.m.J.~.U.#.X.X.^ ) X.X.T x x x x n V Z Z , , , , , r z <.} } } } } } X...........X.X.>.>.>.>.>.>.X.X.X.X...} } } } Q Q Q Q Q Q Y Y Y Y Y Y Y Y Y Y Y Y Y Y Y Y Y Y Y Y Y Y Q Q ( ( ( } | | | | X.X.X.X.X.o.X.X.X.X.o.X.X.X.>.1.1.5.5.5.5.s.K.!.!.F.m.F.F.v.5.5.5.5.5.5.5.% # # # # # ",
"> z ........X.X.X.X.o.#.>.>.>.>.>.>.#.#.#.#.>.o.X.X.X.| | } ( ( ( ( ( ( ( ( ( ( ( ( ( ( T T Y T T T T T T D S S S S Y T T Y Y Y Y T T T T T Z Z = = = = = 7 e e e z Z Z Q m.m.m.v.v.v.v.m.m.) Y | | | | | | | | | | | | | | | | | | | | | | >.7.m.m.7.5.>.| | | | | | ) % $ $ $ $ $ $ * 7 7 7 9 t w 9 i i i f f +.S.h.h.i.y.y.5.5.5.#.#.#.X.X.X.X.X.X.X.X.X.X.X.X.X.X.X.X.6.f.f.f.f.( Q v M Z R Y Y Y Q Q Q ( } } } } } ( ( ( ( ( ( X.V.X.Q Q Q Q Q Q ( ( ( ] ] ] ..X.X.X.X.X.X.#.#.X.X.X.X.X.X...X.X.X.| | ......X.} | X.X.X.X.X.X.X.X.X.X.X.X.X.X.X.X.X.X.X.X.} | | X.X.X.} } } k.E.y.X.X.X.X.X.X.X.X.X.X.X.X.X.X.X.X.X.X.X.X.X.X.X.X.X.X.X.1.V.V.V.V.V.V.y.y.y.y.y.y.y.y.<.x , , , , , f X.X.X.X.#.#.X.X.X.X.} } } } } ..} } } } ( ( ( ( ( ( ( ( ( ( ( ( ( ( ( ( } >.f.m.F.~.~.~.v.#.5.5.<.X.X.X.n n x A ! ~ ~ ^ n , , , , t z Y } } } } ( } ..} } } } ..X.X.>.>.>.>.>.+...X.....} } } } ( Q Q Q Q Q Y Y Y Y Y Y Y Y Y Y Y Y Y Y Y Y Y Y Y Y Y Y Y Y Q Q } ( } | | | | | X.X.o.o.o.o.o.X.X.X.o.o.o.o.:.1.5.5.5.5.5.5.6.k.m.F.m.m.m.n.f.1.1.1.1.5.% $ # # # # ",
"% z ........X.X...o.#.#.>.>.>.>.>.>.#.#.<.#.#.X.X.X.X.| | } ( ( ( ( ( ( ( Y T T ( ~ ( ( ~ T Y Y T T T Y T T Y D S S Y T Y Y Y Y Y Y T T T T S Z = = = = = = e t M Z Z Z T m.m.m.v.v.v.v.m.m.X.| | | | | | | | | | | | | | | | | | | | | | | | >.5.7.7.5.5.>.| | | | | | t $ $ $ $ $ $ $ , 7 7 7 7 7 t i i i f P (.(.h.h.i.y.y.5.5.5.>.#.#.#.X.X.X.X.X.X.X.X.X.X.X.X.X.X.X.X.#.6.6.#.( ( Q R R R Y Y U E Q Q Q ( ( ( Q Q Q Q Q Q Q Q Q Q Q Q Q Q Q Q Q ( ( ( ( ( ] ..X.X.X.X.X.X.#.#.#.#.X.X.X.X.....X.X.| | ......X.| | X.| X.X.+.+.+.+.X.X.X.X.....X...X.X.| | ....| X.X.X.....} <.'.'.f.X.X.X.X.X.X.X.X.X.X.X.X.X.X.X.X.X.X.X.X.X.X.X.X.X.X.X.h.V.V.V.V.Z.f.y.y.y.y.y.y.y.#.x 9 , , , , 9 X.X.X.X.#.#.X.X.X.} } } } } ....} } } ( ( ( ( ( ( ( ( ( ( ( ( ( ( ( ( ( ( ( ( ( f.~.~.~.W.5.G.G.G.G.<.X.n n x ~ ~ ~ | J.D 7 , , 7 t z Y } } } } ( ( ( ( } } } X.X.X.#.>.>.#.X.X.X.X...} } } } } Q Q Q Q Q Y Y Y Y Y Y Y Y Y Y Y Y Y Y Y Y Y Y Y Y Y Y Y Y Y T Q Q } ( } | | | | X.X.o.X.o.o.X.X.X.X.o.o.X.o.X.X.>.5.5.5.5.5.5.5.5.7.k.m.m.n.n.n.7.5.5.5.% $ # O # # ",
"% m ..............#.>.#.#.>.>.>.>.>.<.<.#.#.X.X.X.X.| | | ) ) ) ( ( ( ( ~ Y Y Y T ~ ~ ~ ~ ( T Y T T T T T T T T T T T T T Y Y Y T Y Y T T T S Z w = = = = = t Z Z Z Z Z Z v.m.m.v.v.m.m.m.v.| | 6.y.#.| | | | | | | | | | T T T T T ( ) ( | | | 5.4.5.5.5.5.,.| | | | | ~ $ $ $ $ $ $ $ $ , 7 7 7 e i i i i i A.(.(.h.h.i.y.6.5.5.5.<.#.#.#.X.X.X.X.X.X.X.X.X.X.X.X.X.X.X.X.} Q ( ( ( ( ( Q Y Y Y Y Y Y Q Q Q Q Q Q Q Q Q Q Q Q Q Q Q Q Q Q Q Q Q Q Q ( ( ( ( ( ( ..X.X.X.X.#.#.#.#.#.#.#.#.X.X.....X.X.X.X.X...X.X.X.X.| | | X.X.X.+.+.X.X.| | } ..........| | ........X.X.X...X.X.f.'.'.y.X.X.X.X.X.X.X.X.X.X.X.X.X.X.X.X.X.X.X.X.X.X.X.X.X.X.X.V.).`.`.`.Z.y.y.y.y.y.y.y.+.x w , , , , , } X.X.X.X.#.X.X.} } } } } } ..} } } } ( ( ( ( ( ( ( ( ( ( ( ( ( ( ( ( ( ( ( ( ( ( } 5.6.X.X.G.G.G.G.G.<.n n V ~ ~ >.J.v.Z , 7 , , t z Q ( ( } } } } } } } } } ......X.#.X.X.X.X.X.X...( ( } } ( Q Q Q Q T Y Y Y Y Y Y Y Y Y Y Y Y Y Y Y Y Y Y Y Y Y Y Y Y Y Y Q Q ( ( } | | | | | X.X.X.X.X.X.X.X.X.X.X.X.X.X.X.o.>.>.<.<.1.5.5.5.5.5.5.f.m.n.n.n.6.5.| % $ # # # O ",
"% M ............X.>.>.>.>.>.>.>.>.>.>.<.o.X.X.X.X.X.| | } ) ) ) ) ( ( ( ~ Y Y Y T T ~ ~ ~ ( ~ T Y T T T T T T T T T T T T Y Y Y Y Y Y T T T S Z M 9 = = = e Z Z Z Z Z Z Z X.m.m.v.v.v.m.m.f.X.y.y.y.6.| | | | | | | | | ( T T T T T T T T T ) | X.4.4.4.5.4.4.5.:.| | | | > $ $ $ $ $ $ $ $ , 7 t f f i i i +.(.(.(.h.h.y.y.6.5.5.5.<.#.#.#.X.X.X.X.X.X.X.X.X.X.X.X.X.X.X.} ( Y Y Y U Y ( Q Q R Y Y Y Y Q Q Q Q Q Q Q Q Q Q Q Q Q Q Q Q Q Q Q Q Q Q ( ( ( ( ( ( ( ....X.X.X.X.#.#.#.X.#.#.X.X.X.....X.X.X.X.X...X.X.X.X.| | X.X.X.+.+.+.+.X.| | } ..........X.X.........X.X.X.X.X.X.X.f.'._.#.X.X.X.X.X.X.X.X.X.X.X.X.X.X.X.X.X.X.X.X.X.X.X.X.X.X.1.`.`.`.`.`.y.y.y.y.y.y.y...x w , , , , , Z X.X.X.#.#.X.X.} } } } } ......} } ( ( ( ( ( ( ( ( ( ( ( ( ( ( ( ( ( ( ( ( ( ( ( ( ( ( } X.<.G.G.G.G.m.n n x ~ ~ J.J.7.Y , 7 , , t z } ( ( } } ( } } } } } ........X.X.....X.X.X.X.( ( ( } } ( Q Q Q Q Y Y Y Y Y Y Y Y Y Y Y Y Y Y Y Y Y Y Y Y Y Y Y Y Y Y Y Y Q Q ( ( } | | | | | X.X.X.X.X.X.X.X.X.X.X.X.X.X.o.o.X.X.X.X.X.:.:.:.:.>.>.<.1.6.7.5.5.) % % # # $ % ",
"% M ............X.#.#.#.#.#.#.<.#.#.#.<.>.X.X.X.o.o.| | } ) ) ) ( ~ ~ ~ ~ Y Y T T Y Y T ~ ~ ~ ~ ~ Y T T T T T T T T T T T T T T T T T T T T Y Z Z Z M z Z Z Z Z Z Z Z Z Z S o.v.m.m.m.m.m.6.y.y.y.y.6.| | ( ( T T T T ) ( T T Y Y T T T T T T T | 5.4.4.5.4.6.6.4.4.5.6.>.t $ $ $ $ $ $ $ $ % 7 t i i i i E (.(.(.(.h.i.y.y.5.5.5.5.<.#.#.#.X.X.X.X.X.X.X.X.X.X.X.X.X.X.X.( Q R Y Y U P U Q Q Y U U U Y Y Q Q Q Q Q Q Q Q Q Q E Y Y Q Q Q Q Q Q Q ( ] ( ( ( ( ( ....X.X.X.X.#.#.X.X.X.#.X.X.X.X.X.X.| | X.X.| X.X.X...X.X.X.X.X.X.X.+.+.+.X.| | X.X.......X.X.X.X.X.X.X.X.X.} | X.X.....#.m.V.V.k.6.X.X.X.X.X.X.X.X.X.X.X.X.X.X.X.X.X.X.X.X.X.X.+.+.i.`.`.'.'.Z.y.y.y.y.y.y...n w , , , , , s X.#.X.X.X.#.X.} } } ..............( ( ( ( ( ( ( ( ( ( ( ( ( ( ( ( ( ( ( ( ( ( ( ( ( ( } } X.>.x.G.G.G.! Z A ~ ~ J.J.:.T , 7 , , t z } } } } } } } } } } ....X...X.....X.X...X.....} } } } ( Q Q Q Q Q Y Y Y Y Y Y Y Y Y Y Y Y Y Y Y Y Y Y Y Y Y Y Y Y Y Y Y Y Y Q ( ( } | | | | | | X.X.X.o.o.o.X.X.X.X.X.X.X.o.o.X.X.X.X.X.X.X.X.o.o.X.X.X.X.:.5.F.} % % $ % % % ",
"% n ............X.#.#.#.#.#.>.<.>.>.#.<.>.>.X.X.X.o.| | } ) ) ) ( ~ ~ ~ ~ Y T T T T Y Y T T ~ ~ ~ ~ T T T T T T T T T T T T T T T T T T T T Y Z Z U S Z Z Z Z Z Z Z Z Z Z Z Y ) f.m.m.m.k.y.y.y.y.y.>.) ~ T T T Y T T T T T Y Y Y Y T T T T T T T :.4.5.5.5.7.7.4.4.5.5.6.s $ $ $ $ $ $ $ $ % 7 9 i i i U (.(.(.(.S.h.i.y.y.5.5.5.5.<.#.#.o.X.X.X.X.X.X.X.X.X.X.X.X.X.X.X.( Q R Y U U P Z Z U U U U P Y U E Q Q Q Q Q Q Q Q Y Y Y Y Y Y Q Q Q Q Q ( ] ] ( ( ( ( ..X.X.X.X.X.#.#.X.X.X.#.X.X.X.X.X.X.| | ..X.X.X.........+.+.X.X.X.X.+.+.+.+.| | X.X.X.......X.X.| | X.X...X.X.| X.X.....X.X.>.k.F.V.V.k.1.X.X.X.X.X.X.X.X.X.X.X.X.X.X.X.X.X.X.X.X.+.+.V.`.`.`.`.f.y.y.y.y.y...n w , , , , , , X.#.X.X.X.X.X.} } } } ....} ....} } ( ( ( ( ( ( ( ( ( ( ( ( ( ( ( ( ( ( ( ( ( ( ( ( } } } } X.X.>.g.G.~ ~ ~ ~ ~ N.J.| ~ , 7 , , w z } } } } } } } ( } } ..X.X...X.X.X.X.X.......} } } } } ( Q Q Q Q T Y Y Y Y Y Y Y Y Y Y Y Y Y Y Y Y Y Y Y Y Y Y Y Y Y Y Y Y Y Q Q ( ( } | | | | | X.X.X.o.o.o.X.X.X.o.o.X.X.o.X.X.X.X.X.X.X.X.X.o.o.X.X.X.X.X.5.K.>.% % % % % % ",
"% m ......X.X.X.X.>.>.>.>.>.>.>.>.>.>.>.>.>.>.X.X.X.X.| } ) ) ( ( ( ( ( ~ T T T T T T T T T Y Y T Y T T Y T Y Y T T T Y Y T T T Y T T Y T T T T T T Z Z Z Z Z Z Z Z Z Z Z Z Y Y T | i.v.y.y.y.y.6.>.( T T T T T Y Y T T T T Y Y Y Y T T T T Y Y T ~ 4.5.5.6.7.7.4.4.4.4.5.n $ $ # $ $ $ $ $ , 7 7 w z +.(.(.(.(.(.v.h.y.y.6.5.5.5.5.5.#.#.o.X.X.X.X.X.X.X.X.X.X.X.X.X.X.X.( Q R P P U P U U U U U U P U U Y E Q Q Q Q Q E Y Y Y Y Y Y Y E Q Q Q Q ( ( ( ( ( ( ....X.+.X.X.#.#.#.X.X.#.#.#.#.#.#.X.X.........X.X.X...X.X.+.+.+.X.X.X.X.+.+.X.X.X.+.X.+...X.| X.X.X.| X.X.....| | X.......X.X.| | >.h.V.F.V.V.V.P.Z.+.P P P P U ( X.X.X.X.X.X.X.X.X.X.X.X.).`.'.'.P.y.y.y.y.y...Z w , , , , , , Q #.#.X.X.X.X.X.} } } } } } } } } } ( ( ( ( ( ( ( ( ( ( ( ( ( ( ( ( ( ( ( ( ( ( ( } } } } } X.X.X.X.>.~ ~ ~ ~ ~ >.J.<.) 7 , , , 9 z } } } } ( Y U U ( ....X.X.X.X.....X.X.X.X...} } } } ( Q Q Q Q Q T Y Y Y Y Y Y Y Y Y Y Y Y Y Y Y Y Y Y Y Y Y Y Y Y Y Y Y Y Y Q Q ( ( ( | | | | | | X.X.o.o.X.X.X.:.o.o.X.X.X.X.X.X.o.o.:.:.X.X.o.o.X.X.X.X.o.>.K.6.% % % % % % ",
"% m ........X.X.o.>.>.>.>.>.>.>.>.>.>.>.>.>.>.#.X.X.X.| | ) ) ( ( ( ( ( T T T T T T T T T T Y T T T T T Y Y Y Y T T T Y Y T T T T T T Y Y T T T T T Z Z Z Z Z Z Z Z Z Z Z Z T T T T T T T ) ~ T T T T T T T T T Y Y T T T T T Y T Y T T T T Y Y T T X.6.4.4.4.6.5.<.>.>.#.P $ $ $ $ $ $ $ % 7 7 z e.(.(.(.(.(.(.S.a.i.y.y.6.5.5.5.5.5.#.#.X.X.X.X.X.X.X.X.X.X.X.X.X.X.X.X.( Q U P P U U U U U U P P P U U Y Y Y Q Q Q Y Y Y Y Y U Y Y Y E Q Q Q Q ( ( ( ( ( ( X...X.X.X.#.#.#.#.X.X.#.#.#.#.#.X.X...........X.| ..X.X.X.+.+.+.+.X.X.X.X.+.X.X.X.X.X.+.X.X.| | | X.X.X.......X.X.X.......X.X.| | X.X.X.5.V.]. X X|.|.<., , , , , , t M Q X.X.X.X.X.X.X.X.1.'.'.'.`.f.y.y.y.5...Z 9 , , , , , , M #.#.X.X.X.X.X.} } } } } } } } } } ( ( ( ( ( ( ( ( ( ( ( ( ( ( ( ( ( ( ( ( ( ( ( } } } } ....X.X.X.X.| ~ ~ ~ ~ ~ J.J.k.t , , , , z } } } ( U S Z U ......X.X.X.X.....X.X.X.....} } } } Q Q Q Q Q Q T Y Y Y Y Y Y Y Y Y Y Y Y Y Y Y Y Y Y Y Y Y Y Y Y Y Y Y Y Y Q Q ( ( ( } } } } | | | X.X.o.X.X.X.o.o.o.X.X.X.X.X.X.o.o.o.X.X.X.o.X.X.X.X.X.o.o.K.f.% % % % % % ",
"% k ....#.X.....o.>.#.#.>.>.>.>.>.>.>.>.>.>.>.#.X.X.X.| | ) ) ( ( ( ( ( T T T Y Y Y T T T T T T T T T T T T T T T Y T T T T T T T T T T T T Y T } X.Z Z Z Z Z Z Z Z S U Y T T T T T Y Y T T T T T T T T Y Y T T Y T T T Y Y Y Y Y Y Y T T T Y Y T T T 5.4.5.5.>.#.#.X.X.X.n % # $ $ $ $ $ r R A.(.(.(.(.(.(.(.(.x.h.i.y.y.5.5.5.5.5.5.#.#.X.X.X.X.X.X.X.X.X.X.X.X.X.X.X.X.} Q U P U U U P U Y Y U P P P U Y Y Y Y Y U U Y Y Y Y U U Y Y E Q Q Q Q ( ( ( ( ( ( X.X.+.#.#.X.X.X.X.X.X.#.#.X.X.X.X.X.X.X.X.....| X.X.X.X.X.+.+.+.+.X.X.X.X.+.+.X.X.X.X.X.X.X.| } ..X.X.X.| | } X.X.X.X.X.X.........X.X.X.X.X.h.|.|.|.|.|._.b , , , , , , , , f U X.X.X.( ( ( r.'.'.`.P.y.y.y.<...Z , , , , , , , r o.X.X.X.X.X.X...} ......} } } } } } ( ( ( ( ( ( ( ( ( ( ( ( ( ( ( ( ( ( ( ( ( } } ..} ..} } X.X.X.X.X.X.~ ~ ~ ~ f.J.J.n , , , , x } } ( U Z Z S ........X.X.X.X.......X.X.X.X.} } } } Q Q Q Q Q Q T Y Y Y Y Y Y Y Y Y Y Y Y Y Y Y Y Y Y Y Y Y Y Y Y Y Y Y Y Y Q Q ( ( ( ( } | | | | | | X.X.X.X.X.X.X.X.X.X.X.X.X.X.X.X.X.X.X.X.o.o.o.X.X.X.:.o.J.J.> % % % % % ",
"% w ..#.>.>.X...#.>.#.#.>.>.>.>.>.>.>.>.>.>.>.#.X.X.X.| | ) ) ( ( ( ( ( T T T Y Y Y T T T T T T T T T T T T T T Y Y T T T T T T Y Y T T T T Y ( X.X.Z Z Z Z Z S Y T T T T T T T T T Y Y T Y T T T T T T Y Y Y T T T T T Y Y Y Y Y Y T T T T Y Y T T T o.4.4.<.#.X.X.X.X.#.b , # $ $ $ $ $ ` A.(.(.(.(.(.(.(.(.v.h.h.y.y.y.5.5.5.5.5.5.#.#.X.X.X.X.X.X.X.X.X.X.X.X.X.X.X.X.} Q Y U U U U U Y Y Y U U P P U U Y Y Y U U U Y Y Y Y U U U Y E Q Q Q Q ( ( ( ( ( } X.X.X.#.#.X.X.X.X.#.#.#.#.X.X.X.X.X.X.X.X.....X.X.X.X.X.X.+.+.+.+.X.X.X.X.+.X.X.X.+.X.X.X.X.| ....X...X.X.....X.X.X.X.X.X.........X.X.X.X.X.X.1.'.|.|.|.|.|.<., , , , , , , , , , w b m m m m e.`.`.`.f.y.y.+...Z , , , , , , , , } X.X.X.X.X.X...} } ....} } } } } } ( ( ( ( ( ( ( ( ( ( ( ( ( ( ( ( ( ( ( ( ( } } ..} } } } X.o.X.X.#.#.X.~ ~ ~  .J.J.( , , , , n } Q S Z Z Z } ........X.X.X.X.....X.X.X.X.X.} } } } ( Q Q Q Q Q T Y Y Y Y Y Y Y Y Y Y Y Y Y Y Y Y Y Y Y Y Y Y Y Y Y Y Y Y T Q Q ( ( ( ( ) | | | | | | | X.X.X.X.X.X.X.o.o.X.X.o.X.X.X.X.X.X.X.o.o.o.X.X.X.o.X.N.J.M % % % % % ",
"% > ..#.>.#.>.>.>.>.>.#.>.>.>.>.>.>.#.#.<.#.#.#.X.X.X.| | ) ) ( ~ ~ ( ~ ~ T T T T T T T T T T Y T T Y Y T Y T T Y Y Y T Y Y T T Y Y Y T T T ( X.X.} Z Z Z Z Y T T T T T T T Y Y T T Y T Y Y Y T T Y T T Y Y T T T T T T T T T T T T T T T T T T T T T ~ 4.4.#.#.X.#.X.#.#.b , # $ $ $ $ : ` z.(.(.(.(.(.(.(.v.h.h.i.y.y.y.6.5.5.5.5.5.#.#.X.X.X.X.X.X.X.X.X.X.X.X.X.X.X.X...Q Y U P U U Y Y Y Y U U U U U U U Y Y Y U U Y Y Y Y Y Y Y Y Y Q Q Q Q ( ( ( ( ( ..X.X.X.#.#.X.#.X.X.#.#.#.#.X.X.X.X.X.X.X.X...X.+.X.X.X.X.X.+.+.X.X.X.X.+.+.+.+.X.X.+.X.X.X.X.......X...X.....X.X.......| | ..X.X.X...X.X.X.X.X.| X.P.].|.|.|.|.e.<...s , , , , , , , , 9 a z b m ).'.'.P.y.<.....M , , , , , , , , U X.X.X.X.X.X.} } } ..} } } ....} } } ( ( ( ( ( ( ( ( ( ( ( ( ( ( ( ( ( ( ( ( } } } } } } } ..o.X.X.#.>.#.o.~ ~ -.J.J.T 7 , , , t S Z Z Z Z Q ......X...X.X.....X.X.X.X.......} } } } } Q Q Q Q Q Q Y Y Y Y Y Y Y Y Y Y Y Y Y Y Y Y Y Y Y Y Y Y Y Y Y Y Y Y Q Q Q Q ( ( ( ( } | | } | | | | X.X.X.X.X.X.o.o.X.X.o.o.o.X.o.o.X.X.X.o.X.X.X.X.X.X.m.J.k.% % % % % ",
"% % ..>.<.#.>.>.>.>.#.#.>.>.>.>.>.#.#.#.#.#.#.#.X.X.X.| | ) ) ( ~ ~ ~ ~ ( T T T T T T T T T T Y T T Y Y Y Y T T Y Y Y T Y Y Y Y Y Y Y T T T X.X.X.Y Z Z Y T T T T T T T T T Y Y T T Y T Y Y Y T Y Y T T T T T T T T T T T T T T T T T T T T T T T T T T 1.5.#.X.#.#.X.X.#.b , # $ $ $ $ 2 ` z.(.(.(.(.(.A.h.h.h.h.i.y.y.y.6.5.5.5.5.<.#.#.X.X.X.X.X.X.X.X.X.X.X...} } } } } Q Y Y Y Y Y Y Y Y Y U U Y U U U U U Y Y U U Y Y Y U Y Y Y Y Y Q Q Q Q ( ( ( ( ( ] ..X.X.#.#.#.#.X.#.#.#.#.#.X.X.+.X.X.X.X...X.+.X.X.+.+.X.X.X.+.X.X.X.X.+.+.+.+.X.X.X.X.X.X.X.......X.X.X.....X.........| | X.X.X.X...X.....X.X.| | X.>.V.|.|.|.P.<.e.e.b , , , , , , , , , , , , m C.'._.<.......m , , , , , , , , t X.X.X.X.X.} } } } } } } ......} } } ( ( ( ( ( ( ( ( ( ( ( ( ( ( ( ( ( ( } } } } } } X.X.X.o.o.X.X.X.#.#.#.X.~ 6.J.J.Y 7 , , , 9 M M M Z R ....X.X.X.X.X.X.....X.X.X.X.........} } } } ( Q Q Q Q Q Y Y Y Y Y Y Y Y Y Y Y Y Y Y Y Y Y Y Y Y Y Y Y Y Y Y Y Y Q Q Q Q ( ( ( ( ( } } | | | | | | X.X.X.o.o.o.o.X.X.o.o.o.o.o.o.:.X.X.X.X.X.X.X.X.X.g.J.J.9 % % % % ",
"% % Y >.#.#.#.>.>.<.#.#.#.#.<.<.>.>.>.#.>.>.>.X.X.X.X.| | } ( ( ~ ( ( ( ~ T T T T T T T T T Y Y T Y Y Y Y Y Y T T T Y Y T T T T T T T T T T X.X.X.S Z S T T T T T T T T T T Y Y T T Y Y Y Y T T Y Y T T T T T T T T T T T T T T T T T T T T T T T T T T :.#.X.X.#.#.#.#.#.b , # $ $ $ $ s ` h.A.A.A.v.f.h.h.h.h.i.y.y.y.y.y.5.5.5.5.>.#.#.X.X.X.X.X.X.X...} ( ( ( Q Q Q ( ( ( Y Y Y Y Y Y U U U Y Y Y U U U U U U Y Y Y Y U U U Y Y Y Y E Q Q Q Q ( ( ( ( ( ..X.X.X.X.X.#.#.#.#.X.X.#.#.#.X.X.+.| | | ..+.+.X.X.+.+.+.+.X.X.X.X.X.+.+.+.+.X.X.X.X.| X.X.X.X.X.| X.X.X...} } ........} } X.X.X.| ....| X.X.X.X.| X.>.>.<._.|.|.'.h.e.e.r , , , , , , , , , , , , , s ( H H H H f , , , , , , , , , X.X.X.X.X.} } } } ..} } } } ..} } } ( ( ( ( ( ( ( ( ( ( ( ( ( ( ( } } } } } } } } } X.X.X.X.o.X.X.X.X.#.#.#.#.J.J.m.Y 7 7 7 7 , , , , U X.X.X.X.X.X.X.........X.X.X.X.X.X.....} } } } } ( Q Q Q Q Y Y Y Y Y Y Y Y Y Y Y Y Y Y Y Y Y Y Y Y Y Y Y Y Y Y Y T Q Q Q Q ( ( ( ( ( ( } | | | | | } | X.o.o.o.o.X.X.X.X.o.o.o.o.X.X.X.X.X.X.X.X.X.X.X.g.K.K.i % % % % ",
"% % w >.#.#.<.<.>.#.#.#.#.#.<.<.#.<.>.>.>.>.#.X.X.X.X.| | } ( ( ( ( ( ( ~ ~ Y Y Y T T T T T Y Y T T Y Y Y Y Y T T T T Y T T T T T T T T T ( X.X.} Z Z T Y Y T T T T Y Y T T Y T T T Y Y T T T T Y Y T T T T T T T T T T T T T T T T T T T T T T T T T T X.X.X.X.#.#.#.#.#.b w # $ $ $ $ 9 ` h.h.a.a.f.f.h.h.h.h.i.y.y.y.y.y.5.5.5.5.#.#.o.X.X.X.X.X.X.} ( Q Q Q Q Q Q Q ( ( ( Y Y Y Y Y U U U U Y Y Y U U U U U U U Y Y Y Y U U U Y Y U E Q Q Q Q ( ( ( ( ( ..X.X.X.X.X.#.#.#.#.X.X.X.#.X.X.X.X.X.| | | X.+.X.X.+.+.+.+.X.X.X.X.X.+.+.+.+.+.X.X.| | X.X.X.X.| | X.X.( ( } } ..X.....| | X.X.X.| ....| | X.X.X.X.X.>.>.#.>.y.].|.|. X X].( , , , , , , , , , , , , , , , , , , , , , , , , , , , , Y X.X.#.X.X.} } } ....} } } } } } } ( ( ( ( ( ( ( ( ( ( ( ( ( ( ( } } } } } } } } } } X.X.o.o.X.X.X.X.X.#.#.#.v.J.f.Y w 7 7 7 , , z } X.X.X.X.X.X.X.#.#.o.X...X.X.....X.X...X...} } } } } ( Q Q Q T Y Y Y Y Y Y Y Y Y Y Y Y Y Y Y Y Y Y Y Y Y Y Y Y Y Y T Q Q Q Q ( ( ( ( ( ( ( } | | | | | | X.o.o.o.X.X.X.X.X.o.o.o.o.X.X.X.X.X.X.X.X.X.X.X.7.K.K.t 9 % % % ",
"% % % >.>.>.>.>.>.>.#.#.>.>.>.>.>.>.>.>.>.>.o.X.o.o.| | | } ) ) ( ( ( ( ~ ~ T Y Y Y Y T T T T Y T T Y Y T Y T T T T Y Y T T T T T T T T T X.X.X.T T T T Y Y T T T Y Y Y T T T T T T T T T T T T T T T T Y T Y Y T T T T Y Y T ~ ~ ~ ~ ~ T T T T Y T T ( ) X.#.#.X.X.X.X.#.b , $ $ $ $ % 3 ` h.h.a.a.a.a.h.h.h.h.y.y.y.y.y.y.5.5.5.<.#.#.X.X.X.X.X.X...Q ( ( ( ( ( ( ( ( Q ( Q U U U Y Y Y Y U U Y Y U P U U U U P P P U U U Y Y U U U U E Q Q Q Q ( ( ( ( ] ..X.X.X.#.X.#.#.X.X.X.X.#.#.#.#.X.#.X.| X.X.X.+.X.X.X.X.+.X.X.X.+.+.X.X.+.+.+.+.+.X.| X.........X.X.} ( ( ( ( ..X.X.X.X.X.X.X.X.......X.X.X.........X.>.>.>.>.>.>.V.}.|.|.|. X].( , , , , , , , , , , , , , , , , , , , , , , , , , , f X.X.#.#.X.} } } } ..} } } } } ( ( ( ( ( ( ( ( ( ( ( ( ( ( ( ( ( ( ..} } } } ....} } X.X.X.X.o.o.o.o.#.#.#.#.<.N.y.Y t , 7 7 , U X.X.X.X.........X.#.#.#.#.X.........X.X.X.X.....} ( } } } } Q Q Q Y Y Y Y Y Y Y Y Y Y Y Y Y Y Y Y Y Y Y Y Y Y Y Y Y Y Q Q Q Q Q Q ( ( ( ( ( ( ( } | | | | | | X.X.| | | | X.X.X.:.o.X.X.X.X.o.o.o.o.X.X.X.X.5.K.K.t q % % % ",
"% % % ..>.>.>.>.>.>.>.>.>.>.>.>.>.>.>.>.>.#.X.o.o.o.| | | } ) ) ( ( ( ( ~ ~ T Y Y Y Y Y T T T T T T T T T T T T T T Y Y Y T T T T T T T T X.X.T T T T T Y Y Y T T Y Y Y T T T T T T Y Y T T T T T T T T Y Y Y Y Y T T T Y T ( ( ( ( ( ( ( ( ( ( ( ( ( ( ( X.#.#.X.X.X.X.#.b , $ $ $ $ > 9 ` h.h.a.a.a.h.h.h.h.a.y.y.y.y.y.y.5.5.5.>.#.#.X.X.X.#.X.X...Q ( ( ( ( ( ( ( ( Q E Y U U U Y Y Y U U U U Z Z Z P U P U P P P P P Y Y Y U U U U E Q Q Q Q ( ( ( ( ] ..X.X.X.#.X.#.#.#.X.X.X.#.#.#.#.#.#.X.X.X.X.X.+.X.X.X.X.X.X.X.+.+.+.X.+.+.+.+.+.X.X.X.X.......X.X.X.( ( ( ( ( ( X.X.X.X.X.X.X.......X.X.X.X.........>.>.>.>.>.>.>.>.>.V.}.|. X X X].+.r , , , , , , , , , , , , , , , , , , , , , , , , X.X.X.#.X.X.} } ....} } } } ( ( ( ( ( ( ( ( ( ( ( ( ( ( ( ( ( ( ( } } } } ..........X.X.X.X.X.o.o.o.#.#.#.#.#.5.<.Y t , , , w ....X.X.X.......X.X.#.#.#.#.o.........X.X.X.X.........} } } } } ( Q Y Y Y Y Y T Q Y Y Y Y Y Y Y Y Y Y Y Y Y Y Y Y Y Y Y Q Q Q Q Q Q ( ( ( ( ( ( ( ( } | | | | | X.| | | | | | | X.X.X.X.X.X.X.o.o.o.o.X.X.X.X.5.K.K.t q % % % ",
"% % % Q >.>.>.>.<.<.#.>.#.#.>.>.>.>.>.>.>.X.X.X.X.X.| | | } ) ) ( ( ( ~ ( ( T T T T T T T T T T T T T T T T T T Y Y T T T T T T Y Y Y T T ( T Y Y Y Y Y T T T T Y Y Y Y T T T Y T Y Y Y T T T T T T T T T T T T T T T T Y ~ ( ( ( ( ( ( ( ( ( ( ( ( ( ( ( X.#.#.X.X.#.#.#.M , # $ $ $ , 9 Q h.a.a.a.h.h.h.h.h.i.y.y.y.y.y.y.5.5.5.#.#.#.o.#.#.#.#.X.X.( Q Q Q Q ( Q Y Y U U U U Y Y Y U P P P P P P P U U U Z Z P P P P P Y U Y Y Y Y Y Y Q Q Q Q ( ( ( ( ( ..X.X.X.X.X.X.X.X.X.X.X.X.X.#.#.X.X.X.| X.X...X.X.X.+.X.X.X.X.X.+.+.X.X.+.+.+.+.X.X.X.X...X.X.X.} ( ( ( ( ( ( ( } } ......X.X.X.........X.} X.X.X.X.X.>.#.#.>.>.>.>.>.>.>.V.].|.|.|.|.|.B.U , , , , , , , , , , , , , , , , , , , , , , Y #.X.X.X.X.} } } } } } } } ( ( ( ( ( ( ( ( ( ( ( ( ( ( ( ( ( ( ( ( } } X.X.X.X.X.#.#.#.X.X.X.X.#.#.#.#.#.#.#.<.>.Y t , , , s X.X.X.X.X.X...X.X.X.#.#.#.#.#.o.X.X.X.........X.X.X.X.X.X...} } } ( Y Y Y Y Q Q Q Q Y Y Y Y Y Y Y Y Y Y Y Y Y Y Y Y Y Y Q Q Q Q Q Q ( ( ( ( ( ( ( ( ( | | | | | | | | | | | | | | | | X.X.X.X.X.X.o.o.o.X.X.X.5.K.K.t 0 % % % ",
"% % % M >.>.>.>.<.#.#.#.>.>.>.>.#.#.>.<.o.X.X.X.X.X.| | | ) ) ) ( ( ~ ~ ( ( ( ( ( ( ( ~ ( ( ( ( ~ ~ T T T T T T Y Y T T T T T T T T Y T T T Y T Y Y T T T T T T Y Y Y T T T T Y T Y Y Y T T T T Y T T T T T T T T T T T Y ~ ( ( ( ( ( ( ( ( ( ( ( ( ( ( ( X.#.#.X.X.#.#.#.P , # $ $ $ , 9 Q h.h.a.a.h.h.h.h.a.i.y.y.y.y.y.6.5.5.5.#.#.#.#.#.#.#.#.#.X.} Q Q Q Q ( Y R Y U U U U Y Y U U P P P P P P U U U U Z Z P P U U U Y Y Y Y Y Y Y Y Q Q Q Q ( ( ( ( ( ..X.X.+.X.#.X.X.#.#.X.X.X.X.#.#.#.#.X.X.X.X.....+.+.+.+.X.X.X.X.+.+.X.X.+.+.+.+.X.X.X.X.X.X.X.} ( ( ( ( ( ( ( ( ..} ....X.X.X.X.} } ....X.} X.....X.X.>.>.#.>.>.>.>.>.>.>.>.>.k.].|.|.|.|.|.|.B.U , , , , , , , , , , , , , , , , , , , t #.X.X.X.X.X.} } } ..} } } } ( ( ( ( ( ( ( ( ( ( ( ( ( ( ( ( ( ( ( ( } ..X.X.X.X.X.o.#.X.#.#.#.#.#.#.#.#.#.<.6.>.Y t , , , , ( X.X.X.X.....X.X.o.#.#.#.#.#.#.X.X.X.X.......X.X.....X.X.X.X...} } Y Y Y Q Q Q ( Q T Y Y Y Y Y Y Y Y Y Y Y Y Y Y Y Y Y T Q Q Q Q Q ( ( ( ( ( ( ( ( ( | | | | | | | | | | | | | | | | | | X.X.X.X.o.o.o.X.X.X.5.K.K.t , % % % ",
"% % % M #.<.<.>.>.>.>.>.>.>.>.>.#.>.>.#.X.X.X.X.X.| | | | ) ) ) ( ( ~ ~ ( ( ( ( ( ( ~ ~ ( ( ( ( ~ ~ ~ ~ ~ T T T Y T Y T Y Y T T T T T T T T T T T T T T T T Y Y T T T T T T Y Y T T T Y T T Y Y Y Y Y T Y Y T Y T T T T Y ~ ( ( ( ( ( ( ( ( ( ( ( ( ( ( ( } #.#.#.#.#.#.X.Z , # $ $ $ , 9 o.h.h.a.a.h.h.h.a.a.y.y.y.y.y.y.6.5.5.5.#.#.#.#.#.#.#.#.#.X...Q ( ( ( Q Q R R U U Y Y Y Y U U U U P P P P Z P U U U Z U U U U U Y U U U U Y Y Y Q Q Q Q Q ( ( ( ( ] X.X.+.#.X.#.#.#.#.X.X.#.#.#.#.#.X.X.X.X.X.X.X.....X.+.+.+.X.X.X.+.X.X.X.X.X.X.| | ..X.....( ( ( ( ( ( ( ( ( ( ( ....} ..X.X.X.| | ..X.} } X.X.X.X.| X.>.#.>.>.>.>.>.>.>.>.>.>.>.y.E.|.|.|.|.|.|.|.B.Q w , , , , , , , , , , , , , , , , X.X.X.o.o.X.X.X.......} } } ( ( ( ( ( ( ( ( ( ( ( ( ( ( ( ( ( ( ( ( } } X.X.X.X.X.o.X.#.#.#.#.#.#.#.#.<.5.6.6.>.Y t , , , , H X.X.........X.X.#.#.#.#.#.#.#.o.X.X.X.X...o.#.#.#...X...X.X.X.X.} Y Y Y Q Q ( } ( Q T Y Y Y Y Y Y Y Y Y Y Y Y Y Y Y Y Y Q Q Q Q Q Q ( ( ( ( ( ( ( ( | | | | | | | | } } | | } | | | | | | | | X.X.o.X.X.X.X.5.K.K.i % % % % ",
"% % % H #.#.#.#.>.>.>.>.>.>.#.>.<.>.>.X.X.X.X.X.| | | | } ) ) ) ) ( ~ ~ ~ ( ( ( ( ( ~ ( ( ( ( ( ( ~ ~ ~ ( ( T Y T T ~ ~ Y Y Y T T T T T T T T T T T T T T T T Y T T T T T T Y Y T T T T T T Y Y Y Y Y T Y Y Y Y T T T T T T ( ( ( ( ( ( ( ( ( ( ( ( ( ( ( ) #.#.#.#.#.#.X.Z * # $ $ $ , 9 5.m.h.a.h.h.h.h.a.a.y.y.y.y.y.y.5.5.5.5.>.#.#.#.#.#.#.#.#.X.X.( ( ( Q ( Q R R Y Y Y Y Y U U U U U U P P Z Z U U U U S U U U U U U U Y U U Y Y Y Q Q Q Q Q ( ( ( ( ] ..X.+.#.#.#.#.#.#.X.X.#.#.#.#.+.X.X.X.X.X.X.X.....X.X.X.+.X.X.+.+.X.X.X.X.X.| | | ....} ( ( ( ( ( ( ( ( ( ( ( ( ..X.....X.X.X.| | X.X...X.X.X.} } | X.>.>.#.#.>.>.>.>.>.>.>.>.>.#.>.>.k.'.|.|.|.|.|.|.|._.T Z x t , , , , , , , , , , , U X.X.#.#.X.X.X.X.} ..} ..} ( ( ( ( ( ( ( ( ( ( ( ( ( ( ( ( ( ( ( ( ( } ..X.X.X.X.o.X.X.#.#.#.#.#.<.5.6.6.6.6.<.Y * * * * * z X.X.........X.X.#.#.#.#.#.#.#.#.o.X.X.X.X.#.#.#.#.......X.X...X.X.Y Y T Q Q } } ( ( Q T Y Y Y Y Y Y Y Y Y Y Y Y Y Y Y Y Q Q Q Q Q ( ( ( } } ( ( ( } | } | | | | | | } ( ) ) } } } } | | | | | | X.X.X.X.X.X.5.K.K.s % % % % ",
"% % % R #.>.>.>.>.>.>.>.>.>.>.>.>.>.#.X.o.o.X.| | | | } ( } ( ( ) ) ( ( ( ( ( ( ( ( ) ) ( ( ( ( ) ) ) ( ( ( T Y Y T ~ ~ ~ T T T Y T T Y T T T T T T T T T T Y Y T T T T T T T Y T T T T T T T Y T T T Y T T T T Y Y Y Y T T T ( ( ( ( ( ( ( ( ( ( ( ( ( ( ( #.#.X.X.#.#.X.P # $ $ $ $ , 9 r.m.h.h.h.h.h.h.h.h.i.y.y.y.y.y.5.5.5.5.5.>.#.#.#.#.#.#.#.X.X.} ( ( ( ( ( Y R R R Y Y Y U U U U U U U U U U U Z Z U U U U P P U Y Y Y U U U U Y Q Q Q Q Q ( ( ( ( ] ..X.X.#.#.#.#.X.X.#.#.#.#.#.#.X.X.X.X.X.X.X.X.| | } } ..X.+.+.X.X.+.+.+.+.X.X.X...} ( ( ( ( ( ( ( ( ( ( ( ( ( ( X.X.X.X.X.....X.X.X.X.X.X.X...X.} X.>.>.>.>.>.>.>.>.>.>.>.>.>.#.#.>.>.>.>.<.k.E.|.|.|.|.|.) ) ~ ~ ) w , , , , , , , , , s X.X.X.#.X.X.X.X.X.} } } } } } ( ( ( ( ( ( ( ( ( ( ( ( ( ( ( ( ( ( ( } } X.X.X.X.X.X.X.#.#.#.#.<.6.6.6.6.6.6.6.Y * * * * * s ....X.X.X.X.....#.#.#.#.#.#.#.#.#.o.X.X.#.#.#.#.#...........+.o.X.T Y T Q ( ( ( ( ( ( Q Q Q Q Q T Y Y Y Y Y Y Y Y Y Y Q Q Q Q ( ( ( ( ( ( ( ( ( ( | } } } ( ( } } } ( ( ( ( ( ( ( | | | | | | | X.X.X.o.o.o.5.J.K.% % % % % ",
"% % % U +.#.>.>.>.>.>.>.>.>.>.>.>.#.X.X.o.X.| | | | | ) ( } ( ( ) ) ) ) ( ( ( ( ) ) ) ) ( ( ( ( ) ) ) ) ( ( T T Y ( ( ~ ~ ~ T T ~ ~ ( ~ T T T T T T T T T T Y Y T T T T T T T T T T T T T T Y Y T T T Y T T T T Y Y Y Y T T T T ( ( ( ( ( ( ( ( ( ( ( ( ( ( X.#.X.X.#.#.X.P # # $ $ $ , 9 y.m.h.h.h.h.h.h.h.i.y.y.y.y.y.6.5.5.5.5.5.5.>.#.#.#.#.#.#.X.X.X.( ( ( ( ( Y Y R R Y Y U U U U U U U U U U U U Z Z S U U U P P Y Y Y Y U U Y U Y Q Q Q Q Q ( ( ( ( ] ..X.X.#.#.#.#.X.X.#.X.#.#.#.#.X.X.| X.X.X.X.X.| | | | ....X.X.X.+.+.+.+.X.| | X.} ( ( ( ( ( ( ( ( ( ( ( ( ( ( ( } X.X.X.X.....X.X.X.X.| | X.X.X...#.>.>.>.>.>.>.>.>.>.>.#.>.>.#.>.#.>.>.>.>.>.>.y.L.|.|.|.:.) ~ ~ ) x , , , , , , , , , s X.X.X.X.X.X.X.X.X.} } } ..} } } } } ( ( ( ( ( ( ( ( ( ( ( ( ( ( ( ( ( } X.X.#.#.#.#.X.X.#.#.#.5.6.6.6.6.6.6.6.Y * * * * * s } ..X.X.X.X.....#.#.#.#.#.#.#.#.#.#.#.#.#.#.#.#.#.......X.o.#.#.#...Y Y ( ( ( ( ( ( ( ( Q Q Q Q Q Q T Y Y Y Y Y Y Y Q Q Q Q ( ( ( ( ( ( ( ( } ( } | } } } ) ( ( ( ( ( ( ) ( ( ( ( } | | | | | | X.X.o.o.o.o.5.J.m.% % % % % ",
"% % % U X.>.>.#.#.#.#.#.#.#.#.#.X.X.X.X.X.| | | | | } ( ( ( ( ( ) ) ) ) ( ( ) ) ) ) ) ) } } ) ) ) ) ) ) ( ( T T T ( ~ ~ ( ( ~ ( ~ ~ ( ( ( T Y Y T Y Y Y T T T Y Y Y T T T T T T Y Y T Y T T T T T T Y Y T T T T T Y T T T T T T T ~ ( ( ( ( ~ ~ ~ ( ( ( ( ( X.#.X.X.X.#.#.P $ $ $ $ $ , 9 x.m.x.a.h.h.h.a.h.i.y.y.y.y.y.5.5.5.5.5.5.5.5.#.#.#.#.#.#.X.X.X.( Q ( ( ( Q Y R Y Y Y U U P P Z Z U Z U U P P Z P U U P Z P U Y Y Y U U Y Y Y Y Q Q Q Q Q ( ( ( ( ..X.X.X.#.#.X.X.X.X.#.#.X.#.X.X.+.X.| | ..X.....X.X.X.| X.X.X.X.X.X.X.X...X.X.X.( ( ( ( ( ( ( ( ( ( ( ( ( ( ( ( ( ( } X.| } ....X.X.....| X...X.X.X.X.X.>.>.>.>.>.>.>.#.>.#.>.>.>.>.#.#.>.>.>.>.>.7.f.g.E.'.E.7.4.-.) Z , , , , , , , , , r X.X.X.X.#.#.X.#.X.X.} } ..} } } } } } } } } ( ( ( ( } } ( ( ( ( ( ( ( } } X.#.#.#.#.#.#.#.#.<.6.6.6.6.6.6.6.6.v * * * * : s Q ..X.X.X.X.....#.#.#.#.#.#.#.#.#.#.#.#.#.#.#.#.+.....X.#.#.#.#.#.#.Y Y ( ( ( ( ( ( ( ( ( Q Q Q Q Q Q Q Q Q Q Q Q Q Q Q Q ( ( ( ( ( ( ( ( ( ) } | | } } } ) ( ( } ( ) ) ) ) ) ) ( ( } | | | | | X.X.X.X.X.X.f.J.y.% % % % % ",
"% % % R X.>.>.X.X.X.X.X.X.o.X.X.X.X.X.X.| | | | | } ) ( ( ( ( ( ) ) ) ) ( ( ) ) ) ) ) ) } ( ) ) ) ) ) ) ( ( T T ~ ( ~ ( ( ( ( ( ~ ~ ~ ( ( ( T Y T Y Y Y T T T T Y Y Y T T T T T Y Y Y Y T T T T T T Y Y Y T T T T T T T T T T Y T T T T T T T T T Y T ( ( ( | #.X.X.#.#.#.M $ $ $ $ $ , 9 b.m.b.a.h.h.h.a.h.y.y.y.y.y.y.5.5.5.5.5.5.5.5.#.#.#.#.#.#.X.X.X.} Q ( ( ( ( Y R R U Y U U P P Z Z Z Z U U U P P P U U Z Z P U Y Y U U U Y Y Y Y E Q Q Q Q ( ( ( ( ..X.X.X.X.#.X.X.X.X.X.X.X.X.X.X.X.X.X.X...........| X.| X.X.X.X.....| | X.X.} ( ( ( ( ( ( ( ( ( ( ( ( ( ( ( ( ( ( ( } X.| } } ..X.X.....X.X.....X.X.X.X.X.X.X.X.X.>.>.#.#.>.>.>.>.>.#.#.>.>.>.>.>.5.f.f.f.E.'.0.4.4.) Z , , , , , , , , , s X.X.X.X.X.#.#.#.X.X.X.} } ..} } } } } } } } } ( ( ( } } } ( ( ( ( ( ( } } X.X.#.#.#.#.#.#.#.1.6.6.6.6.6.6.6.6.v * * * * > b Q ....X.X.X.....#.#.#.#.#.#.#.#.#.#.#.#.#.#.#.#.X...X.#.#.#.#.#.#.5.} Y T ( ( ( ( ( ( ( ( ( Q Q Q Q Q Q Q Q Q Q Q Q Q Q ( } ( ( ( ( ( ( ( ) | | | | | | } ) ( ( ) } ) ) ) ) ( ( ) ) ) | | | | | | X.X.X.X.X.g.J.<.% % % % % ",
"% % % R X.>.#.X.X.X.X.X.X.X.X.X.X.X.| | | | | | } ) ) ) ) ) ) ( ) ) ( ( ( ) ) ) ( ( ( ( ( ( ) ) ) ) ) ) ( ( T T ( ( ~ ~ ~ ~ ~ ( ( ( ( ( ( ( ~ ( ~ T T T Y T T T Y Y T T T Y Y Y T T T T T T T T T T T Y Y Y Y T T T T T Y Y Y Y T T T T Y Y Y Y Y T T ~ ) ) } #.X.X.X.#.#.M $ $ $ # # , 9 m.m.m.h.a.a.a.a.i.y.y.y.y.y.6.5.5.5.5.5.5.5.5.#.#.#.#.#.#.#.X.X.} Q Q Q Q ( Y Y Y U U U U P U S U U U U U U Z Z Z U U U P P Y Y U P P U U Y Y Y Y Q Q Q Q Q ( ( ( ] X.X.X.X.X.#.#.#.#.#.#.X.X.X.X.X.X.X...........X.X.X.X.X.X.X.......| | | } ( ( ( ( ( ( ( ( ( ( ( ( ( ( ( ( ( ( ( ( | X.X.X.X.| | X.....X.X.X.X.....X.X.X.X.X.X...X.X.#.#.>.>.>.>.#.>.>.>.>.#.#.#.>.g.E.'.'.'.f.4.4.) f , , , , , , , , , f X.X.X.X.X.X.X.X.X.X.o.X.} } } } } } } ....} } } } ( } } } } ( ( ( ( ( ( } ..X.#.#.#.#.#.#.<.6.6.6.6.6.6.6.6.6.v * * * * > b Q X...........X.#.#.#.#.#.#.#.#.#.#.#.#.#.#.#.#.X.o.#.#.#.#.#.#.<.5.#.Y Q ( ( ( ( ( ( ( ( ( ( Q Q Q Q Q Q Q Q Q Q Q Q ( ( ( ( ( ( } ( ( ) | | | | | | } } ) ( ) ) ) ) ) ) ( ( } ( ( ( } } } | | | X.X.X.X.X.F.K.) % % % % % ",
"% % % R X.>.o.X.X.X.X.X.X.X.X.X.X.| | | | } } ) ) ) ) ) ) ) ) ( ) ) ( ( ( ( ) ) ( ( ( ( } } ) ) ) ) ) ) ( ( ( T ( ( ~ ~ ~ ~ ( ( ( ( ( ( ( ( ~ ~ ( ( T T Y T T T T T T T Y Y Y Y T T T T T T T Y T T Y Y Y Y Y T T T T T T T Y Y T T T T T T Y Y T T T T ) ) ( #.X.#.#.#.#.n $ $ $ $ # , 9 m.m.m.m.h.a.a.h.a.y.y.y.y.y.6.5.5.5.5.5.5.5.5.#.#.#.#.#.#.#.X.X.} Q Q Q Q Q Y Y Y U U P U Z P U U U U U U U P P P U U U P U Y U U U P U U Y Y Y Y Y Q Q Q Q ( ( ( ( X.X.X...X.#.#.#.#.#.#.X.X.X.X.#.X.X.......} } X.X.X.X.X.X.X.X.....| | | ~ ( ( ( ( ( ( ( ( ( ( ( ( ( ( ( ( ( ( ( } X.X.X.X.X...X.| ....X.| X.X.....X.X.X.X.X.X.....X.#.#.>.>.>.>.#.>.>.>.>.#.#.>.>.>.J.'.'.'.E.0.>.~ 9 , , , , , , , , , P X.X.X.X.o.o.X.X.X.X.o.#.X.} } } } } } ......} } } } } } } } } ( ( ( ( ( } } X.#.#.#.#.#.<.6.6.6.6.5.6.6.6.6.6.x * * * * > m R X.#.#.o.o.X.X.#.#.#.#.#.#.#.#.#.#.#.#.#.#.#.#.#.#.#.#.#.#.#.#.5.5...9 S ( } ( ( ( ( ( } ( ( Q Q Q Q Q Q Q Q Q Q Q Q ( ( ( ( ( ( ( ( ) | | | | | | } } } ) ) ) ) ) ) ) ( ( } } ( ( ( ( } } | | | | X.X.X.X.K.K.) % % % % % ",
"% % % R X.#.X.X.o.o.X.X.X.X.X.| | | | } ( ( } ( ( ) ) ) ) ) ) ) ) ( } } ( } ) ) ( ( ) ) } ( ( ) ) ) ) ) ( ( ( T ( ( ( ( ( ( ( ( ( ( Q ( ( ~ ~ ~ ( ( ~ T Y Y T T T T T T T T T T T T Y Y T Y Y Y T T Y Y Y Y Y Y Y T T T T T T T Y T T T T T T T T T T T ~ ) ( X.#.#.#.#.#.z # # $ $ # , 9 m.m.m.m.b.f.f.h.h.i.y.y.y.y.y.5.5.5.5.5.5.5.5.#.#.#.#.#.#.#.X.X.( ( ( Q Q ( Y Y Y U U P P P U Z U U P U U U U P P P U P P U Y U U P P U P U Y U U Y E Q Q Q ( ( ( ( X.........X.#.X.X.X.X.X.X.X.X.X.X.| X.....} } ..X...} X.X.X.X.| | X.X.| ( ( ( ( ( ( ( ( ( ( ( ( ( ( ( ( ( ( ( ( ..X.X.X.X...........X.X.| | } ....X.X.} ..| } ....X.>.>.>.>.>.#.#.>.>.>.>.>.>.>.>.>.>.f.E.'.'.E.| v , , : , , , , , , , ( #.#.X.X.#.o.X.X.X.X.X.#.X.X.} } } } } } X.X.} } ..} ....} } } } ( ( ( ..} ..X.#.#.#.#.#.5.6.6.6.5.5.6.6.6.6.6.s * * * * * b R X.#.#.#.#.#.#.#.#.#.#.#.#.#.#.#.#.#.#.#.#.#.#.#.#.#.#.#.#.#.#.5.5.5.9 z ( ( ( ( ( ( ( } } ( Q Q Q Q Q Q Q Q Q Q Q ( ( ( ( ( ( ( ( } | | | | | | | | | } ) ( ( ) ) ) ) ( ( ) ) ( ( ) ( ( } | | | | X.X.o.o.K.K.Z % % % % % ",
"% % % R X.o.o.X.o.X.X.| | | | | | | } } ( } ( ( ) ) ) ) ) ) ) ) } } } } | } ) ) ) ) ) ) ( ) ) ) ) ) ) ) ( ( ( ( ( ( ( ( ( ( ( ( ( ( ( ( ( ~ ~ ~ ( ( ~ ~ T Y T T T T T T T T T T Y Y Y Y Y Y Y Y T T Y Y Y Y Y Y Y T T T T T T T Y T T T T T T T T T T T T ( ( X.#.#.#.#.#.m # # $ $ $ , 9 m.m.m.m.m.b.f.h.h.h.i.y.y.y.y.8.5.5.5.5.5.5.5.#.#.#.#.#.#.#.X.} ( ( ( ( Q Y Y Y Y U U P P U U Z U U P U U U U P P P U U U Y U U U Z Z U P P U U U U U Q Q Q Q ( ( ( ..........X.X.X.X.X.X.X.X.X.X.X.X.| X.X.X.......X...} } | X.| | X.X.X.X.) ( ( ( ( ( ( ( ( ( ( ( ( ( ( ( ( ( ( ( ( ( } X.X.........X.X.| | | ..........} ..} } ....X.>.>.>.>.>.#.#.>.>.>.>.>.>.>.>.>.>.>.f.N.'.'.f.X., , % , , , , , , , X.#.X.X.X.X.X.X.X.X.X.#.#.X.X.X.} } } } X.X.X.X.} } } } ..} } } } } } } ..} X.X.#.#.#.#.#.<.6.6.6.5.6.6.6.6.6.5.s * * * * * b R X.#.#.#.#.#.#.#.#.#.#.#.#.#.#.#.#.#.#.#.#.#.#.#.#.#.#.#.#.#.<.5.5.5.z 0 ( ( } ( ( ( ( ( ( Q Q Q Q Q Q Q Q Q Q Q ( ( ( ( ( ( ( ( } } | | | | | | | X.| } ) ( ( ) } ) ( ( } ) ) ( ( ( ( ( ) | | | | X.o.o.o.K.K.Z % % % % % ",
"% % % R | o.X.X.o.o.| | | | | | | | ) ) ) ) ( ( ( ( ( ( ( ( ( } | | | | | | } ( ( ( ) ) ) ) ) ) ( ( ( ( ) ( ( ( ( ( ( ( ( ( ( ) ) ) ) ( ~ ~ ( ( ( ~ ~ ~ ( T T T T T T T T T T T T T T T Y Y Y Y T T Y Y Y Y Y Y Y Y T T T T T T Y Y T T T T T T T Y T T T ( ( X.#.#.#.#.#.b # # $ $ $ , b m.m.m.m.m.m.m.x.h.h.h.i.y.y.y.y.6.5.5.5.5.5.>.#.#.#.#.#.#.#.X.( ( Q Q Y Y Y Y Y Y Y U P P Z Z P Z P P P P P P U U U P U U Y U U S Z Z P P P P P Y Y Y Y Q Q Q ( ( ( ( ..X.X.X.X.+.X.X.#.#.X.X.X.X.X.X.| | ........X.X.....| | | X.X.X.X.X.....( ( ( ( ( ( ( ( ( ( ( ( ( ( ( ( ( ) ( ( ( ( } X.X.X.....X.X.....| X.X.X...X.| ..X.......| >.>.>.>.>.>.>.>.>.>.>.>.>.>.#.#.#.>.6.g.J.'.g.g.z , % % , , , , , t X.>.#.#.X.X.X.X.X.X.X.X.X.X.X.X.X.} } X.X.X.X.X...} } } } } } } } } } ....X.X.X.#.#.#.#.#.#.<.6.6.6.6.6.6.6.6.5.9 * * * * * b Q X.#.#.#.#.#.#.#.#.#.#.#.#.#.#.#.#.#.#.#.#.#.#.#.#.#.#.#.#.#.5.5.5.5.U 9 T ( ( ( ( ( ( ( Q Q Q Q Q Q Q Q Q ( ( ( ( ( ( ( ( ( ( } | | } } | | | | X.X.} } ( ( ( } ) ) ) ( } ) ( ( ( ( ( ) ) | | | | X.X.o.o.K.K.Y % % % % % ",
"% % % R o.o.X.X.o.o.X.| | | | | | | ) ) ) ) ( ( ( ( ( ( ) ) } | | | | | | | | } ( ( ) ) ) ) ) ) ( ( ( ( ) ) ( T ( ( ( ( ( ( ( ) ) ) ) ( ~ ~ ( ( ( ~ ~ ~ ~ T T T T T T T T T Y T T T T T Y Y Y Y Y Y Y Y Y Y Y Y Y Y T T Y Y T T Y Y T T T T T T T Y T T T ~ ( X.X.X.X.X.#.9 # $ $ $ $ 9 b m.m.m.m.m.m.m.m.x.h.h.i.y.y.y.y.y.5.5.5.5.5.>.#.#.#.#.#.#.X.X.( ( Q U Y Y Y Y Y Y Y U U Z Z U Z Z U P P Z P P U U U P U Y U U U U Z Z P P P P P P U Y Y Y Q Q Q ( ( ( } X.X.X.X.X.X.X.#.#.#.X.X.X.X.X.X.X.....| } X.X.....X.X.X.X.X.X.X.X.....X.( ( ( ( ( ( ( ( ( ( ( ( ( ( ( ( ) ( ( ( ( ( X.X.X.X.X.X.X.X.} X.X.X.X.X.X.} ..| ......| X.>.>.>.>.>.>.#.>.>.>.>.>.#.#.#.#.>.>.g.g.'.v.g.+., $ % % , , , , 9 >.<.<.>.X.X.X.X.X.X.X.X.X.X.X.X.X.X.X.#.#.X.X.X.X.} } ..} } } } ..} } ..} X.X.X.#.#.#.#.<.<.6.6.6.6.6.6.6.6.6.5.9 * * * * * b Q +.#.#.#.#.#.#.#.#.#.#.#.#.#.#.#.#.#.#.#.#.#.#.#.#.#.#.#.#.#.5.5.5.5...9 n ( ( ( ( ( ( ( Q Q Q ( ( ( ( ( ( ( ( ( ( ( ( ( ( } | | | } } | | | | | o.X.} } ) ( ( } } ) ) ( ( ) ) ( ( ( ( ) | | | | | X.X.X.X.K.K.( % % % % % ",
"% % % Y X.X.X.X.o.X.X.| | | | | | | ) ) ) ( ( ( ( ( ( ( ) } } | | | | | | | | | | } } } ) ) ) ) } } ( ( ) ) ( ( ( ( ( ) ) ( ) ) ) ) ) ( ~ ~ ( ( ( ( ~ ( ~ T Y Y T Y T T T Y Y Y T T T T Y Y Y Y Y Y Y Y Y Y Y Y Y T T T Y Y Y T Y T T T Y Y Y T T Y Y T T T ( X.X.X.X.X.#.9 $ $ $ $ % 9 b m.m.m.m.m.m.m.m.m.x.h.h.i.y.y.y.y.6.5.5.5.5.#.#.#.#.#.#.#.X...( ( Q U R R Y Y Y Y Y Y U P U U U U U U Z Z U U P U P P U Y U U U U U U P P P P U U U Y Y Y Q Q Q ( ( ( ( X.X.X.X.} } X.#.#.#.X.X.X.X.X.X.X.X...| X.X.X...X.X.X.........X.......X.X.( ( ( ( ( ( ( ( ( ( ( ( ( ( ( ( ( ( ( ( ( } X.X.X.X.X.X.} } ....X.X.X.X.X.| ..X.X...X.X.>.>.>.>.>.>.#.#.>.>.>.>.#.#.#.#.>.>.f.g.E.v.g.i., $ $ $ * , , , s >.>.>.>.#.X.X.#.#.X.X.X.X.X.#.X.X.X.X.X.#.X.X.X.X.} } } } } ......} } } X.X.X.X.#.#.#.#.5.6.6.6.6.5.6.6.6.6.6.6., * * * * * b Q +.#.#.#.#.#.#.#.#.#.#.#.#.#.#.#.#.#.#.#.#.#.#.#.#.#.#.#.#.#.5.5.5.5.5.w 0 } } ( ( ( ( ( ( ( ( ( ( ( ( ( ( ( ( ( ( ( } } | | | | | | | o.o.X.X.X.o.X.} | ) ( ( ( } ) ( ( ( } ( ( ( ) } } | | | | } X.X.X.X.K.K.} % % % % % ",
"% % % Y X.X.X.X.X.X.X.| | | X.| | | } ) ) ) ( ( } ( ( ( ) } | | | | | | | | | | | | } } ( ) ) ) } ( ( ( ) ) ) ) ) ) ) ) ) ) ) ) ) ) ) ( ~ ~ ( ( ( ( ( ( ~ T Y Y Y Y T T T Y Y Y T T T T Y Y Y Y Y Y Y Y Y Y Y Y Y Y T T Y T Y Y T T T T Y Y Y Y T Y Y T T T ( X.X.X.X.X.#., $ $ # $ * 9 b m.m.m.m.m.m.m.m.m.m.x.h.h.i.y.y.y.6.5.5.5.>.#.#.#.#.#.#.#.X...( ( Q Y U Y Y Y Y Y Y Y Y U U U U U U U Z Z U U U U P U Y Y P P U U U U U U U U U U Y Y Y Y Q Q Q Q ( ( ( ( X.X.....} } X.#.#.+.X.X.X.X.X.X.....| X.X.X.X.X.X.X.................X.X.} ( ( ( ( ( ( ( ( ( ( ( ( ( ( ( ( ( ( ( ( ( X.X.X.X.X.X.} ....X.X.X.X.X.X.X.X...X.X.X.X.#.>.>.>.>.>.#.#.>.>.>.>.>.#.#.#.>.>.y.f.E.v.g.g., $ $ $ $ : , , M >.>.>.>.>.#.#.#.#.#.#.>.>.<.<.#.X.X.X.X.#.X.#.#.X...} } } } ......} } } X.X.X.X.#.#.#.<.5.6.6.6.6.6.6.6.6.6.6.6.* * * * * * b Q o.#.#.#.#.#.#.#.#.#.#.#.#.#.#.#.#.#.#.#.#.#.5.<.#.#.#.#.#.5.5.5.5.5.5.z 9 U } ( ( ( ( } ( ( ( ( ( ( ( ( ( } } } } | | | | | | | | | X.o.o.o.o.o.o.X.} | ) ( ( ( ) ) ( ( ( } ) ( ( ) } | | | | } | X.X.X.X.J.K.<.% % % % % ",
"% % % Y o.o.X.X.o.o.X.| X.X.o.X.| | | } ) ) ) ) ( ( ( ( ) ) | | | | | | | | | | | | | | } ) ) ) ) ) ) ) ) ) ) ) ) ) ( ( ( ( ( ) } } ) ( ( ( ~ ~ ( ( ( ( ( T T T Y Y Y Y Y Y Y Y Y Y Y Y Y Y Y Y Y Y Y Y Y Y Y Y Y T Y Y T T T T Y Y Y Y T T T T T T T T T T ~ X.X.X.X.X.#.$ $ $ $ $ , 9 m m.m.m.m.m.m.m.m.m.m.m.x.h.i.y.y.y.y.5.5.5.#.#.#.#.#.#.#.X.X.X.( ( Q Q Y Y Y Y Y Y Y U U U U U U U U U Z Z Z P P U U U Y U P P P P P P P U S U Y Y Y Y Y Y Q Q Q ( X.X...X.| | ........X.X.X.+.X.X.| | ..X.X.X.........X...} } X.X.X.X.X.X.X.X...} ( ( ( ( ( ( ( ( ( ( ( ( ( ( ( ( ( ( ( ( ( ( X.X.X.X.X.X.....X.X.X.X.X.X.X.X.X.X.X.| | X.X.>.>.>.>.>.>.>.>.>.>.>.>.>.>.>.>.>.6.g.E.N.g.g., $ $ $ $ $ , , ( >.>.>.>.>.<.#.>.<.<.>.>.>.>.>.>.#.X.X.X.X.X.>.>.X.X.} } } } } } } } } X.X.X.X.X.#.#.#.#.6.5.5.6.6.6.6.5.6.6.6.( * * * * * > b ..o.#.#.#.#.#.#.#.#.#.#.#.#.#.#.#.#.#.#.#.#.<.5.5.5.5.#.#.5.5.5.5.5.5.5.Y 9 h ( ( ( ( ( ( ( ( ( ( ( ( } } | | | | | | | | | | } | | | X.o.o.o.o.o.o.X.| | ) ( ( ( ( } ) ( ( ( ) ( ) ) } | | | | | | X.X.X.X.N.K.N.% % % % % ",
"% % % Y o.o.o.o.o.o.X.X.X.X.o.o.| | | | } ) ) ) ( ( ( ) ) ) | | | | | X.X.X.X.X.X.| | | | | ) ) ) ) ) ) ) ) ) ) ) ) ( ( ( ( } } } T ( ( ( ( ~ ( ( ( ( ( ( T T T Y Y Y Y Y Y T T Y Y Y Y Y Y Y Y Y Y Y Y Y Y Y Y Y Y Y Y T T T T Y Y Y Y T T T Y T Y Y T T T ( X.#.X.X.X.X.$ $ $ $ $ , 9 m m.m.m.m.m.m.m.m.m.m.m.b.h.h.i.y.y.y.5.5.<.#.#.#.#.#.#.#.X.X.X.( ( Q Q ( Y Y Y Y Y U U U U U U U U P U Z Z P P U U U Y Y P P P P P P P U U U U Y Y Y Y Y Y Q Q Q ( X.X...X.X.| X.....X.X.X.X.X.X.| | X...X.X.X.X.......X.} } ..X.X.X.| X.X.X.X...} ( ( ( ( ( ( ( ( ( ( ( ( ( ( ( ( ( ( ( ( ( ( | X.X.X.X.X.....X.X.X.X.X.X.X.X...X.....| | X.X.>.>.>.>.>.>.>.>.>.>.>.>.>.#.>.>.<.f.E.J.g.g., $ % % $ $ $ , #.>.>.>.>.<.<.>.<.<.>.>.>.>.>.>.>.>.X.X.X.X.#.>.>.#.X.} } } } } } } } } X.X.X.X.X.X.#.#.#.5.6.5.5.6.6.6.6.6.6.6.R * * * * > 9 b ..o.#.#.#.#.#.#.#.#.#.#.#.#.#.#.#.#.#.#.#.#.<.5.5.5.5.5.5.5.5.<.5.5.5.5.o.9 9 Q ( ( ( ( ( ( ( ( ( ( } | | | | | | | | | | | | } | | | o.o.o.o.o.o.o.X.| | ) } ( ( ( ) ) ( ) ) ) ( ) ( | | | | | | X.X.X.X.o.g.K.K.3 % % % % ",
"% % % Y X.X.X.o.o.o.X.X.X.X.o.o.X.| | | | } ) } ( ( ) ) ) ) | | | X.X.X.X.X.o.X.X.X.o.| | | | } ( ( ) ) } | | } ) ( ( ( ) ) } } T i Z ( ( ( ( ( ( ( ( ( ~ T Y T Y Y Y Y T Y Y Y Y Y Y Y Y Y Y Y Y Y Y Y Y Y Y Y Y Y Y Y T T T T T T T T T T Y Y T T T T T T ( X.#.X.#.#.( $ $ $ $ $ 3 9 Q m.m.m.m.m.m.m.m.m.m.m.m.x.h.i.y.y.y.5.5.<.#.#.#.#.#.#.o.X.X.X.} Q Q Q ( ( Q Y Y Y Y Y U U Y U P P P P Z Z U U U U U Y U U U P P P U U U U U U U Y Y Y U Y Q Q Q Q ( X.....X.X.X.X.| X.#.#.X.X.X.X.........| | X.X.X...X.X.....X.X.| | X...X.X...( ( ( ( ( ( ( ( ( ( ( ( ( ( ( ( ( ( ( ( ( ( ( } X.X.X.X.} } ..X.X.X.| X.X.X.X...........X.X.X.>.>.#.>.>.#.#.>.#.#.>.>.>.>.>.>.<.g.E.V.f.y., $ % % % $ $ , >.>.<.>.>.>.>.>.>.>.>.>.>.>.>.>.<.<.>.X.X.X.#.>.>.#.#.X.X.X.X.......X.X.X.X.X.X.X.X.#.#.#.<.6.6.6.6.6.6.6.5.6.6.z * * * : , 9 m ..#.#.#.#.#.#.#.#.#.#.#.#.#.#.#.#.#.#.#.#.#.<.5.5.5.5.5.5.<.5.5.5.5.5.5.5.e 9 M ( ( ( } ( ( ( ( ( } | | | | | | | | | | | | | } | | | o.o.o.X.o.o.o.o.| } ) } } ( ( ) ) ) ) ( ( ) ) } } | | | | | X.X.X.o.o.7.K.K.R % % % % ",
"% % % Y X.X.X.X.X.o.X.X.X.X.o.X.X.X.| | | | } ) ( ( ) ) ) ) } | | X.X.X.X.X.X.X.X.X.X.o.X.| | | | } } | | | | | } ( ( ( ) ) ( ( Y i i Z T ~ ~ ( ~ ( ( ( ~ T Y Y Y Y Y Y Y Y Y Y Y Y Y Y Y Y Y Y Y Y Y Y Y Y Y Y Y Y Y Y T T T T T T T T T T Y Y T T T T T ~ ( X.X.X.#.#.Z $ $ $ $ $ 3 9 ..m.m.m.m.m.m.m.m.m.m.m.m.b.h.h.i.y.y.5.5.5.#.#.#.#.#.#.#.#.X.X.| Q ( Q ( ( ( Y Y Y Y Y U U Y U P P P P U U U U U U Y Y U P P P P U U U U U U U U Y Y Y U E Q Q Q Q Q ( ....X.X.X.X.| X.X.#.X.X.X.X.........| | X.X.X.X.X.X.X.....X.} X.....X...( ( ( ( ( ( ( ( ( ( ( ( ( ( ( ( ( ( ( ( ( ( ( ( ( ..X.X.| } ......X.| | X.X.y.y.........X.X.X.X.X.#.#.#.#.#.#.>.#.#.#.#.>.>.>.>.>.g.'.v.f.X., $ % % % $ $ 9 >.>.<.>.>.>.>.>.>.>.>.>.>.>.>.>.<.<.<.#.X.X.#.>.>.>.X.X.X.X.X.X.o.X.X.X.X.o.X.X.X.X.#.#.#.#.5.6.6.6.6.6.6.6.6.6.9 * * * : 4 9 m ..#.#.#.#.#.#.#.#.#.#.#.#.#.#.#.#.#.#.#.#.#.#.5.5.5.5.5.5.5.5.5.5.5.5.5.5.n 9 e ( ( ( ( ( ( ( ( ( } | | | | } | | | | | | X.o.o.X.X.X.o.o.o.X.X.X.o.o.| } ) ) ) ( ( ( ) ( ( ( ( ) ) } } | | | | | X.X.X.o.o.<.K.K.y.% % % % ",
"% % % } X.X.X.X.X.X.X.X.X.X.X.X.X.X.X.| | | | | } } } ( ) ) } | | X.X.X.X.X.X.X.X.o.o.o.o.o.o.X.X.| | | | | | | | } ) ( ) ) ) ) ~ i i i D Y T T T ~ ( ( ( ~ Y Y Y Y Y Y Y Y Y Y Y Y Y Y Y Y Y Y Y Y Y Y Y Y Y Y Y Y Y Y Y Y ~ ~ ( T T T T T T Y T T T T ( ( ( X.X.#.#.#.n $ $ $ $ $ 3 3 ..m.m.m.m.m.m.m.m.m.m.m.m.m.h.h.i.y.y.5.5.5.#.#.#.#.#.#.#.#.#.X.X.( ( ( Q Q ( ( Y Y R Y Y Y Y U P U U U U U U U U U Y Y U U P Z Z Z U U P P U U U U U U Y Q Q Q Q Q Q Q ( X.X.X.X.X.X.| X.X.X.X.X.......X...} | X.X.X.| X.X.X.X.......X.} ....( ( ( ( ( ( ( ( ( ( ( ( ( ( ( ( ( ( ( ( ( ( ( ( ( ( X.X.X.X.X.X.X.....} } X.#.i.i.#.X.X.X.X.X.X...X.X.>.>.>.>.>.>.>.>.>.>.>.>.>.>.#.g.'.v.f.( t % % % $ $ $ f <.<.<.<.>.>.>.>.>.>.>.>.>.>.>.>.>.>.>.>.>.X.>.>.>.>.#.o.X.X.X.X.X.X.o.o.#.o.o.X.X.#.#.#.#.#.<.6.6.6.6.6.6.6.6.6.* * : : > w 9 b X.#.#.#.#.#.#.#.#.#.#.#.#.#.#.#.#.#.#.#.#.#.#.5.5.5.5.5.5.5.5.5.5.5.5.5.5.Q 9 9 Y } ( ( ( ( ( ( ( } } | | | } } | | | | | X.o.o.o.o.o.o.o.o.o.o.o.o.o.X.} ) ) ) ) ) ( ( ( ( ( ( } ( } | | | | | | X.X.X.X.o.X.J.K.J.% % % % ",
"% % % X.X.X.X.X.X.X.X.X.X.X.X.X.X.X.X.X.X.| | | | | } ( ) } ) | | X.X.X.X.X.o.o.X.X.o.o.o.o.o.X.X.X.| | | | | | | | ) ( ) ) ) ) ) x i i i D T T Y Y Y Y T T Y Y Y Y Y Y Y Y Y Y Y Y Y Y Y Y Y Y Y Y Y Y Y Y Y Y Y Y Y Y Y T ~ ~ ( T T T T T T T T T T ~ ( ( ( X.#.#.#.#.9 $ $ $ $ $ 9 9 ..m.m.m.m.m.m.m.m.m.m.m.m.b.h.h.i.y.y.5.5.5.>.#.#.#.#.#.#.#.#.#.X.} Q ( Q Q ( ( Q Y R R Y Y U Z P P U U U U U U U Y Y Y U U Z P Z Z U U P U U Y U U U U Y Y Q Q Q Q Q Q Q ( | X.X.X.X.X.X.X.X.X.X.X.....X...| | X.X.| | X.X.X.X.........} ( Y Q ( ( ( ( ( ( ( ( ( ( ( ( ( ( ( ( ( ( ( ( ( ( ( ( ( ( } } | X.X.X.} ( ( ( } #.i.i.#.( ( X.X.X.X...X.X.X.>.>.>.>.#.>.>.>.>.>.>.>.>.#.g.'.g.y.( M $ $ % $ $ $ R >.<.<.<.<.>.<.<.>.>.>.>.>.>.>.>.<.<.>.>.>.>.>.>.>.>.#.#.X.X.X.X.X.X.X.X.#.#.X.X.o.#.#.#.#.#.>.6.6.6.6.6.6.6.6.>.* * : : 4 w 9 m X.#.#.#.#.#.#.#.#.#.#.#.#.#.#.#.#.#.#.#.#.#.#.#.5.5.5.5.5.5.<.5.5.5.5.5.5.5.9 9 z } } ( ( ( ( ( ( ( } | | | } } | | | | | o.o.o.o.X.o.o.o.o.o.o.o.o.o.X.} ) ) ) ( ) } } ( ( ( ( ( ) } | | | | | | X.X.X.X.o.X.v.K.K.w $ # # ",
"% % % X.o.X.o.o.X.X.X.X.X.X.X.X.o.o.X.X.X.X.X.| | | | | } } } | | X.X.X.o.o.o.o.X.X.X.X.X.X.X.X.X.X.X.X.| | | | | | } ( ( ( ) ( ) Y i i i j Y T Y Y Y Y T T T T Y Y Y Y Y Y Y Y Y Y Y Y Y Y Y Y Y Y Y Y Y Y Y Y Y Y Y Y Y T ( ( ~ Y T T T T T T Y Y Y ~ ( ( ~ X.#.#.#.#.% $ $ $ $ $ 9 9 o.m.m.m.m.m.m.m.m.m.m.m.m.x.h.h.i.y.y.5.5.5.5.#.#.#.#.#.#.#.#.#.#.X.( ( Q Q ( ( ( Q R R Y U Z Z U U U U P P P P U Y Y Y U U U P P U U U U U Y Y Y Y Y Y Y Y Y E Q Q Q Q Q Q ..X.X.X.........X.X.X.X.| X.X.X.X.X.X.X.........X.} X...X.X.X.M z i x T ( ( ( ( ( ( ( ( ( ( ( ( ( ( ) ( ( ( ( ( ( ( ( ( ( ( ( ( ( ( ( ( ( ( ( ( #.6.X.( ( ( } ......X.| | X.>.>.#.#.>.>.>.>.#.#.#.#.#.f.E.g.y.( Z $ $ $ $ $ $ } >.>.>.>.>.>.<.<.>.>.>.>.<.<.>.>.<.<.<.<.<.<.>.>.>.>.#.X.X.X.#.#.X.X.X.X.X.X.X.X.#.#.#.#.#.#.#.1.6.6.6.6.6.6.6.( * * : > w w w m X.#.#.#.#.#.#.#.#.#.#.#.#.#.#.#.#.#.#.#.#.#.#.#.<.<.5.5.5.5.<.<.<.5.5.5.5.<.t 9 0 } ( ( ( ( ( ( ( ( } | | } } | | | | } | o.o.o.X.X.o.o.o.o.o.o.o.o.o.o.} ) } ( ( ( } } ( ) ) ) ( ( } | | | | | X.X.X.X.X.X.X.7.K.K.n # # # ",
"% % % | | | X.o.o.X.X.X.X.X.X.o.o.o.o.X.X.X.X.X.X.X.| | | | | | | X.X.X.X.o.o.o.X.X.X.X.X.X.X.X.X.X.X.X.| | | | | | | } ( ( } } ) ) S i i i z T Y Y Y Y T T T T Y Y Y Y Y Y Y Y Y Y Y Y Y Y Y Y Y Y Y Y Y Y Y Y Y Y Y Y Y ~ ( ( ~ Y T T T T T T T Y ~ ~ ( ( ~ | X.#.X.X.$ $ $ $ $ $ 9 9 U b.m.m.m.m.m.m.m.m.m.m.m.h.h.h.i.y.6.5.5.5.5.#.#.#.#.#.#.#.#.#.#.X.} ( Q Q ( ( ( ( Y R Y U Z S S U U U P P P P P U U U U U U U U U Y Y U U Y Y Y Y Y Y Y Y Y Y Y Y Q Q Q Q ( X.............X.X.X.| X.| X.X.X.X.X.X.......} } } X.X.X.| X.n 7 7 , 7 x ( ( ( ( ( ( ( ( ( ( ( ( ( ( ( ( ( ( ( ( ( ( ( ( ( ( ( ( ( ( ( ( ( ( ( ( ( ( ( ( ( ( ( ....X.X.X.X.X.X.#.#.>.>.>.>.>.#.#.#.>.f.v.g.y.( z $ $ $ $ $ % >.>.>.>.>.>.>.<.<.<.>.>.>.<.<.>.>.<.<.<.<.<.<.>.>.>.>.>.X.X.X.#.X.X.X.X.X.X.X.X.X.#.#.#.#.#.#.#.<.6.6.6.6.6.6.6.( * * > 4 w w w P X.#.#.#.#.#.#.#.#.#.#.#.#.#.#.#.#.#.#.#.#.#.#.<.<.<.5.5.5.5.<.<.5.5.5.5.<.<.Z 9 9 Y ( ( ( ( ( ( ( ( ( | | | | | | | } } | o.o.o.X.X.o.o.o.o.o.o.o.o.o.o.X.) } ( ( ( } ( ( ) ) ) ) ) } | | | | | X.X.X.X.X.X.X.>.K.K.M # # # ",
"% % % | | | | | X.X.X.X.X.X.o.o.o.o.X.X.X.o.X.X.o.o.o.X.X.X.X.| | X.X.X.X.X.X.X.X.o.o.o.X.X.X.X.X.X.X.X.| | | | | | | } ) ) ) ) } ( } M z i i M T T T T T T T T Y Y Y Y Y Y Y Y Y Y Y Y Y Y Y Y Y Y Y Y Y Y Y Y Y Y T ( ( ( ( ( T T T T T T T T Y Y ~ ( ( ( ~ } X.X.#.( $ $ $ $ $ $ 3 3 } h.v.m.m.m.m.m.m.m.m.m.v.h.h.i.y.y.6.5.5.5.5.>.#.#.#.#.#.#.#.#.#.X.X.( Q Q Q Q ( ( Q Y Y U P P U U U U U U U U P P U U U U U Y Y Y U U Y Y Y Y Y Y Y Y Y U U U Y Y Q Q Q Q Q ( X.X.X.X.X.X.X.......X.X.X.X...X.X.X.X.X.| X.X.X.X...X.| X.v z 7 7 7 7 7 Z ( ( ( ( ( ( ( ( ( ( ( ( ( ( ( ( ( ( ( ( ( ( ( ( ( ( ( ( ( ( ( ( ( ( ( ( ( ( ( ( ( ( ..X.X.X.X.| | X.X.X.#.>.>.>.>.>.>.<.g.g.g.y.( 9 $ % % $ $ , >.>.>.<.<.<.<.>.>.>.>.>.>.<.<.>.>.<.<.<.>.>.>.>.>.>.<.<.X.X.X.#.#.X.X.X.#.#.o.X.#.#.#.#.#.#.#.#.#.<.6.6.6.6.6.6.( 9 4 9 w w w w E ..#.#.#.#.#.#.#.#.#.#.#.#.#.#.#.#.#.#.#.#.#.#.5.5.5.5.<.<.<.<.<.5.5.5.5.<.5.} 9 9 x ( ( ( ( ( ( ( ( } | | | | } | | | | | o.o.o.o.X.o.o.o.X.X.o.o.o.X.X.X.} } ( ( ( ( ( ( ( } } ) ) } | } | | | | X.X.X.X.X.X.X.F.K.#.# # # ",
"% % % | | | | | | X.X.X.X.X.o.o.X.X.X.X.X.o.X.X.o.o.o.o.X.X.X.X.o.o.X.X.X.X.X.X.o.o.o.o.X.X.X.X.X.X.X.| | | | | | | | | ) ) ) ) ( ( ( ( <.z i i Y T T Y T T T T Y Y Y Y Y Y Y Y Y Y Y Y Y Y Y Y Y Y Y Y Y Y Y Y Y ~ ( ( ~ ( ( ( T T T T Y Y Y Y Y ~ ~ ~ ( ( ( } X.X.#.M $ $ $ $ $ $ , 3 o.h.h.h.x.v.m.m.m.m.m.m.h.h.h.i.y.y.5.5.5.5.5.5.#.#.#.#.#.#.#.#.#.#.X.( Q Q Q ( ( ( ( U Y U P P U U U U U U U U P Z U U P U U Y Y Y Y U Y Y Y Y Y Y Y Y U U U U Y Q Q Q Q Q Q Q ( } X.X.X.X.X.X.X.X.| X.X.X.....X.X.X.X.| | X.| ....X.X.X.z v f 7 7 7 7 , f T ( ( ( ( ( ( ( ( ( ( ( ( ) } } ( ( ( ( ( ( ( ( ( ( ( ( ( ( } } ( ( ( ( ( ( ( ( ( ( X.X.X.X.| | X.X...X.#.#.>.>.>.>.<.g.g.f.f.T % $ % $ $ $ z >.>.>.<.>.<.<.>.>.>.>.>.>.<.<.>.>.<.<.<.<.>.>.>.>.>.<.<.#.X.X.X.#.X.X.X.X.o.o.#.#.#.#.#.#.#.#.#.#.#.<.6.6.6.6.5.5.9 9 9 w w w 9 Q ..#.#.#.#.#.#.#.#.#.#.#.#.#.#.#.#.#.#.#.#.#.#.5.5.5.5.5.<.<.<.<.5.5.5.5.<.5.5.w 9 t ( ( } } ( Q M M ( | | | | } | | | | X.o.o.o.X.X.o.o.o.o.X.X.o.o.o.o.o.| ( ( ( ( ) ) ( ( ) ) ) ) ( | } } | | | X.X.X.X.X.X.X.f.K.5.# # # ",
"% % % U | | | | | | X.X.X.X.o.o.X.X.X.X.X.o.X.X.X.o.X.X.X.X.X.X.X.X.X.X.X.X.X.o.X.X.o.X.X.X.o.o.X.X.| | | | | | | | | | } ( ) ) ( ( ( ( 6.y.x z Z T Y Y T T T T Y Y Y Y Y Y Y Y Y Y Y Y Y Y Y Y Y Y Y Y Y Y Y T ( ( ~ ~ ~ ( ( ~ T T T T T T Y Y ~ ~ ( ( ( ( ( ( X.X.#.s $ # # # $ $ , 9 X.i.i.h.h.h.h.x.m.m.m.x.h.h.i.y.y.6.5.5.5.5.5.5.#.#.#.#.#.#.#.#.#.#.X.} Q Q ( ( ( ( Q Y Y P P P P U U U U U U P P P P P P P U Y Y Y U U Y Y Y Y Y Y Y U Y Y Y E Q Q Q Q Q Q Q Q Q Q ( ( X.X.X.X.X...........} } } | X.X.X.X.X.....X.X.V.v.f f v z 7 7 7 , , 9 Y ( ( ( ( ( ( ( ( ( ( ) ) ( } ( ( ( ( ( } ( ( ( ( ( ( ( ( ( ( ( ( ( ( ( ( ( ( ( ( ( X.X.X.X.X.X.X.X.X.X.X.>.>.>.>.6.f.f.f.<.f $ $ $ $ $ $ R <.>.<.>.>.>.>.>.>.>.>.>.>.>.>.>.>.>.<.>.>.>.>.>.>.>.>.>.#.X.X.X.X.X.X.X.X.X.X.#.#.#.#.#.#.#.#.#.#.#.#.<.6.6.6.6.6.9 4 9 w w w 9 Q ..#.#.#.#.#.#.#.#.#.#.#.#.#.#.#.#.#.#.#.#.#.5.5.5.5.5.5.5.5.<.<.5.5.5.5.5.5.5.t 9 9 ( } } ( ( M M M ( | | | | | | | | | X.o.o.o.o.o.o.o.o.o.o.o.o.o.o.o.o.o.} ) ) ) ) ) ( ( ( ) ( ( ( } } } | | | | o.o.X.X.X.X.>.J.5.# # # ",
"% % % S } | | | | | | | | | | | | | | X.X.o.o.X.X.X.X.X.X.X.X.X.X.X.X.X.X.X.X.o.X.X.X.X.o.o.o.o.X.X.| | | | | | | | | | } ) ) ) ( ( ( ( | k.Y M Z Y Y Y Y Y T T Y Y Y Y Y Y Y Y Y Y Y Y Y Y Y Y Y Y Y Y Y Y ~ ~ ( ( ( ~ ~ ~ ~ ~ ~ T T T T T T ~ ~ ( ( ( ( ( ( ) X.X.#., $ # # $ $ $ , 9 X.y.y.i.h.h.h.h.h.h.h.h.h.h.i.y.y.6.5.5.5.5.5.>.#.#.#.#.#.#.#.#.#.#.X.} Q Q ( ( ( ( Q U U P P P Z U U U U U U P P P P P P P U U Y Y U U U Y Y Y Y Y Y U Y Y Q Q Q Q Q Q Q Q Q Q Q Q Q Q Q Q ( X.............} } } | X.X.X.X.X.......#.V.V.f 9 n v v z z Z U ( ( ( ( ( ( ( ( ( ( ( ( ( ( ( ( ( ( ( ( ( } ( ( ( ( ( ( ( } ( X.X.( ( ( ( ( ( ( ( ( ( } X.X.....X.X.X.X.....X.>.>.>.6.g.f.f.| f $ % $ $ $ $ } >.>.>.>.>.>.>.<.>.>.>.>.>.>.>.>.>.>.>.>.>.>.>.>.>.>.>.>.#.X.X.X.X.X.X.X.X.X.X.#.#.#.#.#.#.#.#.#.#.#.#.#.5.6.6.6.5.a > : , 9 w 9 R ..+.#.#.#.#.#.#.#.#.#.#.#.#.#.#.#.#.#.#.#.#.5.5.5.5.5.5.5.5.5.5.5.5.5.5.5.5.5.Z 9 9 T <.X.( Q M M M ( | | | | | | | | | X.o.o.o.o.o.o.o.o.o.o.o.o.o.o.o.o.o.o.} ) ) ) ) ) ( ( ( ( ( ( } } } | | | | o.o.o.X.o.o.o.J.5.# # # ",
"% % % h j v ( | | | | | | | | | | | | | | X.o.o.X.X.X.X.X.X.X.X.X.X.X.X.X.X.o.o.X.X.o.X.X.X.o.o.X.| | | | | | | | | | | | ( ( ( ( ( ( ( ) f.y.Z Z M Y Y Y Y Y T Y Y Y Y Y Y Y Y Y Y Y Y Y ~ ( ( ~ T Y Y T ~ ~ ~ ( ~ ~ ~ ~ ~ ~ ~ ( ( ( ~ ( ( ( ( ( ( ( ( ( ( ) ) #.#.#.$ $ $ $ $ $ $ % 9 5.y.y.y.i.f.h.a.h.h.h.h.h.h.y.y.y.5.5.5.5.5.5.#.#.#.#.#.#.#.#.#.#.#.X.} ( ( ( ( Q Q U U Y U U U Z Z Z P Z Z Z P P P P P U U U U Y Y U U U U Y Y Y Y U U Y Q Q Q Q Q Q Q Q Q Q Q Q Q Q Q Q Q Q Q ( X.X.X.....X.X.................X.X.p.V.v.t 9 f v v v T ( ( ( ( ( ( ( ( ( ( ( ( ( ( ( ( ( ( ( ( ( ( ( ( ( ( ( ( ( ( } } ( X.v.V.1.( ( ( ( ( ( ( ( ( } X.X.X.X.X.X.| | | ..X.#.>.f.g.g.>.| f $ $ $ $ $ : <.<.>.>.>.>.>.>.<.<.>.>.>.>.>.>.<.<.>.>.>.<.<.<.<.<.<.>.>.>.>.X.X.X.X.X.X.X.X.#.#.#.#.#.#.#.#.#.#.#.#.#.#.<.6.6.6.6.r > > > > 4 9 m X.X.X.#.#.#.#.#.#.#.#.#.#.#.#.#.#.#.#.#.#.5.5.5.5.5.5.5.5.5.5.5.5.5.5.5.5.5.5.} 9 9 U <.<...T M M M ( | | | | | | | | | X.o.o.o.o.o.o.o.X.o.o.o.o.o.o.o.o.o.o.o.| } o.p.X.} ( ( ( ( ( ( ( } | | | | | o.y.<.X.X.X.g.y.# $ $ ",
"% % % t j j j Y | | | | | | | | | | | | | X.X.X.X.X.X.X.X.X.X.X.o.X.X.X.X.X.o.o.X.X.o.o.X.X.X.X.o.X.| | | | | | | | | | | } ( ( ( ( ( ( ) >.h.} M M Z Y Y Y Y T Y Y Y Y Y Y Y Y Y Y Y Y ~ ~ ~ ~ ~ ( ( ( ~ ~ ~ ~ ( ( ~ ~ ~ ~ ~ ( ( ( ( ~ ( ( ( ( ( ( ( ( ) | | ( #.#.} $ $ $ $ $ $ $ $ 9 y.y.y.y.y.h.h.a.h.h.h.h.h.i.y.y.6.5.5.5.5.5.<.#.#.#.#.#.#.#.#.o.X.X.X.( ( ( ( ( Q Y U U Y U P U Z Z P P Z Z Z P U U P P P U U U Y Y U U U U Y Y Y Y U U Q Q Q Q Q Q Q Q Q Q Q Y * * P Q Q Q Q Q Q Q ( | ......X.................X.X.V.V.i.# % , v v U ( ( ( ( ( ( ( ( ( ( ( ( ( ( ( ( ( ( ( ( ( ( ( ( } ( ( ( } ( ( } ( ( ( X.V.C.V.#.( ( ( ( ( ( ( ( } X.X.| X.| | X.| ....X.#.f.g.y.| | f % $ $ % $ s >.<.>.>.<.<.>.>.<.<.>.>.>.>.>.<.<.<.>.>.>.<.<.<.<.<.<.>.>.>.>.#.X.X.X.X.X.X.X.#.#.#.#.#.#.#.#.#.#.#.#.#.<.6.6.L.g.6.z > > > > > 4 a X.X.....X.#.#.#.#.#.#.#.#.#.#.#.#.#.#.#.<.5.<.<.5.5.5.5.5.5.5.5.5.5.5.5.5.5.5.5.z 9 U <.<.<.( M M M | | | | | | | | | | o.o.o.o.o.o.o.o.X.X.X.o.o.o.o.o.o.o.o.o.o.r.B.p.} } } ) ( ( ( ( ( ( ) | | | | >.h.h.6.o.o.<.K.$ $ $ ",
"% % % 9 e h j j Y | | | | | | | | | | | | X.X.X.o.X.o.o.o.o.X.X.o.o.o.o.X.X.X.X.X.X.X.o.X.X.X.X.X.X.| | | | | | | | | | | | ( ( ( ( ) ) ) } f.f.Z v v D T Y Y Y Y Y Y Y Y Y Y Y Y Y Y Y ~ ~ ~ ~ ( ~ ( ( ( ( ~ ( ( ( ( ( ( ( ( ( ( ( ~ ~ ~ ~ ( ( ( ( ) } | | } ( #.X.Q $ $ $ $ $ $ $ $ * X.y.y.y.y.i.a.a.a.h.h.a.h.i.y.y.6.5.5.5.5.5.>.#.#.#.#.#.#.#.X.X.X.X.| ( ( ( ( Q Y Y Y Y Y U U U U U P U U Z U U U U P P U U U Y Y Y Y Y U U U Y Y Y R E Q Q Q Q Q Q Q Q Q ] p.] % % % P Q Q Q Q Q Q Q ( ....| X.X.X.X.X.X...X.X.X.5.V.V.<.# # # f M ( ( ( ( ( ( ( ( ( ( ( ( ( ( ( ( ( ( } ( ( ( ( ( } } ( ( ( ( ( ( ( ( ( ( ( } h.C.C.i.X.( ( ( ( ( ( ( ( X.X.X.....X.X.....X.X.g.g.>.| | f % % % % % m >.>.>.>.<.<.<.>.<.>.>.>.>.<.<.<.<.<.>.>.>.>.<.>.<.<.>.>.>.>.>.>.#.#.X.X.X.X.#.#.#.#.#.#.#.#.#.#.#.#.#.>.6.6.6.U.I.6.M > > > > > > 4 } X.X.X.....X.o.#.#.#.#.#.#.#.#.#.#.#.<.5.5.<.<.5.5.5.5.<.5.<.5.5.5.5.5.5.5.5.i.5.9 U 5.<.<.} t z M | | | | } } | | | | o.o.o.o.X.X.o.o.o.o.X.o.o.o.o.X.X.o.o.o.<.v.v.} ( ( } } ) ) ( ( ) ( ) ) } | | | 5.h.p.i.<.<.h.z $ $ ",
"% % % 9 9 e z j j Y | | | | | | | | | | | X.X.X.o.o.X.| | X.X.X.o.o.o.o.X.X.X.X.X.X.o.o.X.X.X.X.X.o.| | | | | | | | | | | | ( ( ) ) ) ) ) ) <.h.#.v v D Y Y Y Y Y Y Y Y Y Y Y Y Y Y Y ~ ~ ~ ~ ( ~ ~ ( ( ( ~ ( ( ( ( ( ( ( ( ( ( ( ( ( ) ) ) } | | | | | | | ) ( X.X.m $ $ $ $ $ $ $ $ $ Q y.y.y.y.y.i.a.a.h.h.h.h.y.y.y.6.5.5.5.5.5.#.#.#.#.#.#.#.o.X.X.X.X.( ( Q ( ( Q Y Y Y Y Y U U U U U U U U U U U U U P P U Y Y Y Y Y Y Y U U Y Y Y Q Q Q Q Q Q Q Q Q Q Q Q Q h.h.w % % % U Q Q Q Q Q Q Q } ..| | X.X.X.X.X.X.X.X.X.V.V.V.Y # # # f U ( ( ( ( ( ( ( ( ( ( ( ( ( ( ( ( ( ( } ( ( ( ( ( ( ( ( ( ( ( ( ( ( ( ( ( ( ( ( >.V.C.V.X.( ( ( ( ( ( ( ( X.........X.....X.X.g.g.X.| | f % % % % % M >.>.>.>.<.<.<.>.<.<.>.>.>.<.<.<.<.<.>.>.>.>.>.>.<.>.>.>.>.>.>.>.o.o.X.X.X.X.o.#.#.#.#.#.#.#.#.#.#.#.#.<.6.6.6.U.U.g.#.> > > > > > > U X.X.X.X.......o.#.#.#.#.#.#.#.#.#.<.5.5.5.<.<.5.5.5.5.<.<.<.5.5.5.5.5.r.y.v.v.v.9 X.h.<.<...w w M | | | | } } } } | | o.o.o.o.X.X.o.o.o.o.X.o.o.o.o.X.X.o.o.#.h.B.<.( ( ( ) ) ) ) ) ) ( ( ( ) ) } | | | <.p.p.p.p.p.Q $ # ",
"% % % 9 9 w ( Y j j T | | | | | | | | | | X.X.X.X.| | | | | | X.X.X.o.o.X.X.X.X.X.X.X.X.o.X.X.X.X.X.| | | | | | | | | | | | ) ) ) ) ) } } } } h.f.Z M Z Y Y Y Y Y Y Y Y Y Y Y Y Y Y Y ( ~ ~ ( ~ ( ( ( ( ( ( ( ~ ~ ~ ( ) ) } | | | | | | | | | | | | | | | | ( ( X.X.r # $ $ $ $ $ $ $ $ $ #.y.y.y.y.i.i.h.h.h.h.i.y.y.y.6.5.5.5.5.5.#.#.#.#.#.#.#.X.X.X.X.X.Q Q Q Q Q Q Y Y Y Y Y Y Y U U U U U U U U U U U P U Y Y Y U U U Y E Q Q Q Q Q Q Q Q Q Q Q Q Q Q Q Q Q Q y.h.H % % % , Q Q Q Q Q Q Q Q X.X...X.X.........| X.y.V.V.<.U # # # 9 T ( ( ( ( ( ( ( ( ( ( ( ( ( ( ( ( ( ( ( ( ( ( ( ( ( ( ( ( ( ( ( ( ( ( ( ( } ( ( ( ( 1.V.C.X.( ( ( ( ( ( ( ( X.X.X.X.X.X.X.X.#.f.y.| | | f % % $ $ $ H <.<.>.>.>.<.<.<.<.<.>.>.>.>.<.<.>.>.>.>.>.>.<.<.<.<.>.>.>.<.<.#.X.X.X.X.X.o.#.#.#.#.#.#.#.#.#.#.#.#.#.<.5.6.5.U.U.N.6.w : : : : > > n ( ..X.X.X.X.X.X.#.#.#.#.#.#.#.#.#.#.<.5.5.5.5.5.5.5.5.5.5.<.5.5.v.v.v.v.v.v.v.v.Q a.v.a.<.} w w M | | | | | | | | | X.o.o.o.o.X.X.o.o.o.o.X.X.o.o.o.o.X.X.o.i.B.y.) ) ( ( ( ( ) ) ) ( ) } ) ) ) ) } } } | <.p.p.p.p.<.# # ",
"% % % 9 9 9 S ( Y j j ( | | | | | | | | | | X.X.| | | | | | | | | X.X.X.X.X.X.X.X.X.X.X.o.o.X.X.X.X.X.| | | | | | | | | | } ) ) ) ) ) ( ( ( ) <.i.U M M D Y Y Y Y Y Y Y Y Y Y Y Y Y Y ( ~ ( ( ~ ( ( ( ( ( ( ( ~ ~ ~ | | | | | | | | | | | | | | | | | | | | ( ( X.X.9 # $ $ $ $ $ $ $ $ % t 6.y.y.y.y.y.y.i.i.i.i.y.y.y.6.5.5.5.5.5.#.#.#.#.#.#.#.X.X.X.X.X.Q Q Q Q ( ( Y Y Y Y Y Y U U Y U U U U U U U P U U Y Y Y U U Y Q Q Q Q Q Q Q Q Q Q Q Q Q Q Q Q Q Q Q Q Q <.h.e.% % % : H E Q Q Q Q Q Q ( X.X.X.X.........| X.V.V.<.+.U # # # s Y Y ( ( ( ( ( ( ( ( ( ( ( ( ( ( ( ( ( ( ( ( ( ( ( ( ( ( ( ( ( ( ( ( ( ( ( ( ( ( ( ( ( } X.X.X.( ( ( ( ( ( ( ( X.X.X.X.X.X.X.>.f.5.| | | f % % $ $ $ H <.>.>.>.>.<.<.<.<.<.<.>.>.>.<.<.>.>.>.>.>.>.<.<.>.<.>.>.>.<.<.#.X.X.X.X.o.#.#.#.#.#.#.#.#.#.#.#.#.#.#.<.6.6.5.I.U.J.6.U : : : : > > b Q ..X.....X.X.X.o.#.#.#.#.#.#.#.#.#.#.#.#.#.#.#.#.5.5.5.5.5.5.y.v.v.v.v.v.v.v.v.v.v.v.v.a.Q w w M | | | | | | | | | X.o.o.o.o.X.o.o.o.o.X.X.X.o.o.o.o.X.X.y.B.h.) ) ) ( ( } } ) ) ) ( ( } ) ) ) ) ( } } } ) #.p.p.p.p.# # ",
"% % % 9 9 9 t ( ( S j j } | | | | | | | | | | | | | | | | | | | | | | | | | | | | | X.X.o.o.X.X.o.o.X.| | | | | | | | | | ) ) ) ) ) ) ( ( ( ( ) ) T M M v S Y Y Y Y Y Y Y Y Y Y Y Y Y ( ~ ( ( ~ ( ( ( ( ( ( ( ( ~ ) | | | | | | | | | | | | | | | | | | | | ( ( #.#.# # $ $ $ $ $ $ $ $ , w z y.y.y.y.y.y.y.y.y.y.y.y.y.8.5.5.5.5.>.#.#.#.#.#.#.o.X.X.X.X.X.( ( ( ( ( ( Y Y R R U U U U Y Y U U U U P P P U Y Y Y Y U U E Q Q Q Q Q Q Q Q Q Q Q Q Q Q Q Q Q Q Q Q Q ..h.h., % % % m H E Q Q Q Q Q Q ..X.X.X.X...X.X.| h.V.y.#.#.U # # # s U U Y ( ( ( ( ( ( ( ( ( ( ( ( ( ( ( ( ( ( ( ( ( ( ( } ( ( ( ( ( } ( ( ( ( ( ( ( ( } } } X.X.X.X.( ( ( ( ( ( ( ( } X.X.X.X.X.5.f.>.| | | f $ $ $ $ $ H <.<.>.>.>.>.>.<.<.>.>.>.>.>.<.<.>.>.>.>.>.>.>.>.>.>.>.>.>.>.>.X.X.X.X.X.#.#.#.#.#.#.#.#.#.#.#.#.#.#.#.5.6.6.6.L.U.J.6.>.> > : > > 4 z Q Q X.X.......X.o.#.#.#.#.#.#.#.#.#.#.#.#.#.#.#.#.#.5.5.5.5.5.a.v.v.v.v.v.v.v.v.v.v.v.v.v.Y w e M | | | | | } } } | o.o.o.o.o.o.o.o.o.X.X.X.X.o.o.#.o.X.5.B.h.} ) ) ) ( } } ( ( ) ( ( ( ( ( ( ( ( ( ( } } ) ) #.p.h.p.# # ",
"% % % 9 9 9 9 Y ( ( v h x ) | | | | | | | | | } } | | | | | | | | | | | | | | | | | | | | o.X.X.o.X.X.X.| | | | | | | } ) ) ) ) ) ) ) ( ( ( ( ( ) ) Z M v v Z S Y Y Y Y Y Y Y Y Y Y Y Y ( ( ( ( ~ ( ( ( ( ( ( ( ( | | | | | | | | | | | | | | | | | | | | | ) ( #.} $ $ $ $ $ $ $ $ $ $ 7 w w Y y.y.y.y.y.y.y.y.y.y.y.y.y.5.5.5.5.#.#.#.#.#.#.#.#.X.X.X.X.X.( ( ( ( ( ( Y R R R U U U U Y Y Y U U P P P Z Y Y Y Y Y Y U Q Q Q Q Q Q Q Q Q Q Q Q Q Q Q Q Q Q Q Q Q Q Q h.h.m % % % w H H E Q Q Q Q Q ( X.X.X.....X.X.1.V.B.<.#.>.E # # # 4 U R Q ( ( ( ( ( ( ( ( ( ( ( ( ( ( ( ( ( } } ( ( ( ( } } ( ( ( ( } ( ( ( ( ( ( ( ( } ( } X.X.X.X.X.( ( ( ( ( ( ( ( } X.X.X.X.6.f.X.| | | f % $ $ $ $ H <.<.>.>.>.>.>.>.>.>.>.>.>.>.<.<.<.>.>.>.>.>.>.>.>.>.>.>.>.>.#.X.X.X.X.#.#.#.#.#.#.#.#.#.#.#.#.#.#.#.<.6.6.6.6.N.U.J.6.6.s > > > > 4 k U Q ........X.X.+.#.#.#.#.#.#.#.#.#.#.#.#.#.#.#.#.#.#.5.5.5.5.v.v.v.v.v.v.v.v.v.v.v.v.v.v.z * t M | | | | | } | } | o.o.o.o.o.o.o.o.o.X.X.o.X.o.#.o.#.<.v.v.X.) ) ( ( ( } ( ( ( ( ( ( ( ( ( } } ( } } ( ( ) ) ) <.p.p.4 # ",
"% % % 9 9 9 9 n ( ( ( | | | | | | | | | } ( ~ ( ( } | | | | | | | | | | | | | | | | | | | X.X.X.o.o.X.X.X.| | | | } } ( ) ( ( ( ( ( } ( ) ) ) ) ) ) U M M M v v v D Y Y Y Y Y Y Y Y Y Y T ( ( ( ~ ~ ( ( ( ( ~ ( | | | | | | | | | | | | | | | | | | | | | | | | #.n # # $ $ $ $ $ $ $ $ 9 w w t 6.y.y.y.y.y.y.y.y.y.y.y.y.5.5.5.5.#.#.#.#.#.#.#.X.X.X.X.X.X.} Q ( ( ( ( Q Y R R Y Y Y Y Y Y Y U U U P P U U U U U Y U U Y Y Y Q Q Q Q Q Q Q Q Q Q Q Q Q Q Q Q Q Q Q Q p.h...% % % % M H P Q Q Q Q Q Q X.X.X.X...X.X.V.V.5.>.>.>.X.# # # > R Y ( ( ( ( ( ( ( ( ( ( ( ( ( ( ( ( ( ( ( } } ( ( ( ( } ( ( ( ( } } ( ( ( ( ( ( ( ( ( } X.X.X.X.X...} ( ( ( ( ( ( ( } X.....i.f.X.| ! Y f $ $ $ $ % z <.>.>.>.>.>.>.>.>.>.>.>.>.>.>.<.<.<.>.>.>.>.>.>.>.>.<.<.>.>.X.X.#.#.#.#.#.#.#.#.#.#.#.#.#.#.#.#.#.#.<.6.6.6.6.7.L.U.6.6.R > ; > > 9 k m Q ( ..X.....X.X.X.#.#.#.#.#.#.#.#.#.#.#.#.#.#.#.#.#.<.5.5.5.v.v.v.v.v.v.v.v.v.v.v.v.v.v.s # , M | | | | | | } } X.o.o.o.o.o.o.o.o.o.o.o.o.o.o.o.o.#.h.B.<.( ) ) ) ) ( } } ( ( ( ( ) ( ) ( ( ( ( ( ( ( ( ) } ( ( y.i.r # ",
"% % % 9 9 9 9 t ( ( ) | | | | | | | | ( ( ( ( ( ( } | | | | | | | | | | | | | | | | | | | X.X.X.X.o.X.X.o.X.| | | } ) ( ) ) ( ( ( ( } } ) ) ) ) ) ) ( M M M v v v Z D Y Y Y Y Y Y Y Y Y Y ~ ( ( ~ ~ ( ( ( ( ~ ) | | | | | | | | | | | | | | | | | | | | | | | | | i # # $ $ $ $ $ $ $ $ 9 w w w z y.y.y.y.y.y.y.y.y.y.y.8.5.5.5.>.#.#.#.#.#.#.X.X.X.X.X.X.X.} Q ( ( Q Q ( Y R Y Y Y Y Y Y Y Y Y Y U U U U U U U Y Y U U U U Y Y Y Y Q Q Q Q Q Q Q Q Q Q Q Q Q Q Q Q Q e.h.y.% % % % w H H E Q Q Q Q Q ( X.X.X.X.X.v.V.h.>.>.>.>.X.# # # # R Y ( ( ( ( ( ( ( ( ( ( ( ( ( ( ( ( ( ( ( } ( ( ( ( ( } ( ( ( ( ( ( ( ( ( } ( ( ( ( ( ( X.X.X.X.X.....X.} ( ( ( ( ( ( } X...f.f.| ~ Y Y f * $ $ $ % % o.>.>.>.>.>.>.>.>.>.>.>.>.>.>.>.<.<.>.>.>.>.>.<.>.<.<.<.>.#.X.X.#.#.#.#.#.#.#.#.#.#.#.#.#.#.#.#.#.#.5.6.6.6.6.6.6.y.6.6...> $ ; > , k z Q Q ..X.....X.X.X.X.o.#.#.#.#.#.#.#.#.#.#.#.#.#.#.#.#.<.5.r.v.v.v.v.v.v.v.v.v.v.v.v.v.v.r # , M | | | | | | | | X.o.o.o.o.o.o.o.o.o.o.o.o.o.o.o.o.h.B.i.( ( ) ) ) ) ( ( } ( ( ( ( ) } ) ( ) ( ( ( ( ( ( } } ( ( <.i.r # ",
"% % % 9 9 9 9 t ( ( ( | | | | | | } ( ( ~ ~ ( ( ( | | | | | | | | | | | | | | | | | | | | o.o.o.X.X.X.X.o.o.o.| | | } } ( ( ( ( ( ( ( ( ) ( ) ) ) ) ) Z M M M v v v Z S D Y Y Y Y Y Y Y Y Y ~ ~ ~ ~ ( ( ( ~ ) | | | | | | | | | | | | | | | | | | | | | | | | | Y i $ # $ $ $ $ $ $ $ $ % w w w w ( y.y.y.y.y.y.y.y.y.y.6.5.5.5.#.#.#.#.#.o.X.X.X.X.X.X.X.X...( Q Q Q Q ( Y Y Y Y Y Y Y U U Y U Y Y Y Y U Y Y U Y Y Y U U Y Y Y Y Y Y E Q Q Q Q Q Q Q Q Q Q Q Q Q Q Q ..h.p.t % % % % m H P Q Q Q Q Q ( X.X.X.X.i.V.V.<.>.>.>.>.X.# # # # P Y ( ( ( ( ( ( ( ( ( ( ( ( ( ( ( ( ( ( ( ( ( ( ( ( ( ( ( ( ( ( ( ( ( ( ( } } ( ( ( ( ( ....X.X.X.X...X.X.X.} ( ( ( ( ( } X.g.g.| Y Y A f , $ $ $ $ % > X.>.>.>.>.<.<.<.<.>.>.>.>.>.>.<.>.>.>.>.<.<.<.>.>.>.>.#.X.X.X.#.#.#.#.#.#.#.#.#.#.#.#.#.#.#.#.#.#.5.6.6.6.6.6.6.<.6.6.6.: $ $ > > s k L Q ..X...X.X.X.........X.#.#.#.#.#.#.#.#.#.#.#.#.#.#.#.5.y.v.v.v.v.v.v.v.v.v.v.v.v.v.v.# # % n | | } } | | | | o.o.o.o.o.o.X.X.o.o.o.o.o.o.o.o.r.B.v.} ( ( ( ( ) ( ( ( ( ) ( ( ( ) } } ) ) } } ( ) ( ( } ) ( ( y.p.r # ",
"% % % 3 9 9 9 t ( ( ( ) | | | | | ( ( ~ ~ ~ ( ( ( | | | | | | | | | | | | | | | | | | | X.o.o.o.X.X.| X.o.o.X.X.| | | } } ( ( ( ( ( ( ( ( ( ) ) ) ) ) Y M M v z v v v v v Z Z S D Y Y Y Y Y ~ ~ ~ ~ ( ( ( ( | | | | | | | | | | | | | | | | | | | | | | | | | | Z i $ # $ $ $ $ $ $ $ $ $ * w w w t 5.y.y.y.y.y.y.y.y.y.6.5.5.>.#.#.#.#.X.X.X.X.X.X.X.X.X.X...( Q Q Q Q ( Q Y Y Y Y U U U U U U Y Y Y Y Y Y Y Y Y Y Y U Y Y Y Y Y Y Y Y Q Q Q Q Q Q Q Q Q Q Q Q Q Q Q Q h.h.t : % % % : H H P E Q Q Q Q X.X.X.i.V.V.<.>.>.>.>.>.X.% # # # n Y Q ( ( ( ( ( ( ( ( ( ( ( ( ( ( ( ( ( ( ( ( ( ( ( ( ( ( ( ( ( ( ( ( ( ( ( } ( ( ( } ( } ..X.X.X.....X.X.X.X.| ( ( ( ( X.X.g.g.T Y Y Z f , $ % $ $ % % , X.>.>.>.<.<.<.<.>.>.>.>.>.>.<.>.>.X.Q Q } #.o.X.X.X.X.X.X.X.#.#.#.#.#.#.#.#.#.#.#.#.#.#.#.#.#.#.5.6.6.6.6.6.6.<.6.y.y., $ $ ; > r k z Q ..X.X.X.X.X...........X.o.#.#.#.#.#.#.#.#.#.#.#.#.#.#.a.v.v.v.v.v.v.v.v.v.v.v.v.v.r.# # # 4 n } } | | | | X.o.o.o.o.o.o.X.X.o.o.o.o.X.o.o.#.v.v.<.| ( ( ( ( ) ) ( ( ) ) ( ( ( ) ) ) ) ) ) } ) ) ( ( } } ( T 5.p.r # ",
"% % % , 9 9 9 n ( ( ~ ~ ~ ( ( ( ( ( ( ~ ~ ~ ( ( } | | | | | | | | | | | | | | | | | | | X.X.o.o.X.X.| | X.o.X.X.X.| | | | } } } ) ) ) ) ) ) ( ) ) n w 9 e 9 * % * * , 9 i Z Z Z M Z D Y Y Y Y ~ ~ ( ( ( ( ) | | | | | | | | | | | | | | | | | | | | | | | | | | Z i $ $ $ $ $ $ $ $ $ $ $ , w w w w z y.i.i.y.y.y.y.y.y.5.5.>.#.#.#.X.X.X.X.X.X.X.X.X.X.X.} ( ( ( ( ( ( ( Q Y Y Y U Y Y Y Y Y Y U U U U U U Y Y Y Y Y U Y Y Y Y Y Y U U E Q Q Q Q Q Q Q Q Q Q Q Q Q Q Q p.h.f w % % % % , P P P E Q Q Q ..+.>.y.y.<.#.#.>.>.>.>.X.8 # # # s R Y ( ( ( ( ( ( ( ( ( ( ( ( ( ( ( ( ( ( ( ( ( ( ( ( ( ( ( ( ( ( } } ( ( } ( ( ( ( } ( ( X.X.....X.X.X.X.......} ( ( ......f.y.Y Y Y Z f , $ $ $ $ $ % ; , ..>.>.>.>.>.>.>.>.>.>.<.} M t 3 , , , , , > 9 4 4 4 4 4 4 s Q #.#.#.#.#.#.#.#.#.#.#.#.#.#.#.#.<.6.6.6.6.6.6.<.y.h.v...$ $ $ > , k k R ..X.......X.X.X.........o.#.#.#.#.#.#.#.#.#.#.#.#.#.#.v.v.v.v.v.v.v.v.v.v.v.v.v.v.Q # # # 4 4 w Y | | | | o.o.X.o.o.o.o.X.o.o.o.o.o.X.X.X.i.v.>.o.o.} ) ) ) ( ( ( ( ) ) } ( ( ( ( ( ( ( ( ( ( ( } } ) ) T T #.p.r # ",
"% % % , 9 9 z ( ( ( ~ ~ ( ( ( ( ( ( ( ( ~ ~ ( ( | | | | | | | | | | | | | | | | | | | o.X.X.X.X.X.X.| | | X.o.X.X.X.X.| | | | | } ) ) ) ) ) Y t * * * & e , * % # # % * * & Z Z M M M M Y Y Y ~ ~ ( ( ( ( } | | | | | | | | | | | | | | | | | | | | | | | | | | x i $ $ $ $ $ $ $ $ $ $ $ 9 w t w w w z 5.i.y.y.y.y.6.U x n Y X.X.X.X.X.X.X.X.X.X.X.X...( Q ( ( ( ( ( Q ( Q Y Y U U Y Y Y Y Y Y U Y U U U U Y Y Y Y Y U Y Y Y Y Y Y U U E Q Q Q Q Q Q Q Q Q Q Q Q Q Q Q e.h.P w , % % % % w H H H E Q Q } #.>.>.>.>.#.#.>.>.>.>.X.w # # # 4 R R ( ( ( ( ( ( ( ( ( ( ( ( ( ( ( ( ( ( ( ( ( ( ( ( } } ( ( ( ( ( } ( ( } } ( ( ( ( ( ( X.| ......X.X.X.........X.X.......f.7.Y Y Y Z f 9 % $ $ $ $ % ; % , t M Q Q Q Q Q M z w , , , , , , , , > % % % ; > , 4 4 4 4 4 w m ..#.#.#.#.#.#.#.#.#.#.#.#.#.<.6.6.6.6.6.5.#.5.h.v.v.$ $ $ % > k k n } X.......X.X.X.X.......o.#.#.#.#.#.#.#.#.#.#.#.#.#.#.v.v.v.v.v.v.v.v.v.v.v.v.v.v.s # # # , 9 9 4 b } | | o.X.o.o.o.o.o.X.X.o.o.o.o.o.o.#.p.<.o.o.o.X.) ) ) ( ( ( ( ) ) } } ( ( ) ) ( ( ( ( ( ( ) ) ) ( T T #.p.# # ",
"% % % > 9 P i.( ( ( ~ ~ ( ( ( ( ( ( ( ( ~ ( ( } | | | | | | | | | | | | | | | | | | X.X.X.X.X.X.X.X.| | X.o.X.X.X.X.X.X.| | | | | ) ) T z , * * * * * & e , * % # # # % * * z v Z M Z i i Z Y ~ ~ ( ( ( ( | | | | | | | | | | | | | | | | | | | | | | | | | | | x i $ $ $ $ $ $ $ $ $ $ $ 7 t M e w w w w M Q Q Y z t t w w w w z U } X.X.X.X.X.X.X.} ( Q Q Q ( ( ( Q Q ( Q Y Y U U U Y U U Y Y Y Y Y Y Y Y Y Y Y Y U U U U Y Y Y U U U Y E E E E Q Q Q Q Q Q Q Q Q Q Q +.h.] w w * % % % % , M H P Q Q ( >.>.>.>.>.#.#.>.>.>.>.X.w # # # > Y Y T ( ( ( ( ( ( ( ( ( ( ( ( ( ( ( ( ( ( ( ( ( ( ( ( ( ( ( ( ( ( ( ( ( ( ( ( ( ( ( ( ( ( | ..X.X.X.X.X.X...X.X.X.X.X.X.X.g.g.Y Y Y Z f w % $ $ $ $ $ ; ; % , , , , , , , , , , , , , , , , > ; % % % % % ; % % ; > , 4 4 4 4 a R #.#.#.#.#.#.#.#.#.#.#.#.<.6.6.6.6.<.#.#.h.v.v., $ $ $ % k k k ( X.....X.X.X.X.......X.X.#.#.#.#.#.#.#.#.#.#.#.#.#.#.v.v.v.v.v.v.v.v.v.v.v.v.v.v.; # # # , 9 4 4 4 r T | X.o.o.o.o.o.o.o.o.o.o.o.o.o.o.#.#.o.o.o.o.o.} ) ) ( ( ( ( ) ( ( ( ) ( ) ) ( ( ) ) ) ) ) ) ) T T T 5.h.# # ",
"% % % > 9 5.f.( ( ( ~ ~ ( ( ( ( ( ( ( ( ~ ( ( | | | | | | | | | | | | | | | | | | | X.X.X.X.X.X.X.| | X.X.X.X.o.X.X.X.X.| | | | ~ Z z , * * * * * * * , e 7 * % # # # # % * t v Z Z Z x t t x ~ ~ ~ ( ( ( | | | | | | | | | | | | | | | | | | | | | | | | | | | x i $ $ $ $ $ $ $ $ $ $ $ , f Z f w w w w w w t x x x x x e w w w w w t z Z X.X.} ( ( ( Q Q Q ( ( ( Q Y U U Y Y U U U U U U U U Y Y Y Y Y Y Y Y Y Y U U U U Y Y Y U U U Y Y Y Y U Y E Q Q Q Q Q Q Q Q Q ( h.e.w w 7 % % % % % * a H E Q ( #.>.>.>.>.>.>.>.>.#.>.X.w % # # # Y Y Y ( ( ( ( ( ( ( ( ( ( ( ( ( ( ( ( ( ( } } } ( ( ( ( ( ( ( ( ( ( ( ( ( ( ( ( ( ( ( ( ) ..X.X.X.| X.X.X...X.X.X.X.X.X.X.g.y.Y Y Y Z f t % % $ $ $ $ % ; ; % , , , , , , , , , , , > > ; % ; ; % % % % ; ; % % % % ; ; ; > , 4 4 w M o.#.#.#.#.#.#.#.#.#.#.<.5.<.<.#.#.#.v.v.v.a $ $ $ $ s k k R X.....X.X.X.X.........X.#.#.#.#.#.#.#.#.#.#.#.#.#.#.v.v.v.v.v.v.v.v.v.v.v.v.v.r.# # # # % 9 9 4 4 4 9 T | o.o.o.o.o.o.o.o.X.o.o.o.o.o.o.o.o.o.o.o.o.X.} } } ( ) ) ) ) ( ( } ( ( ) ( ) ) ) ) ) ( ~ T T T T i.h.# # ",
"# # $ * 9 f.f.( ( ( ( ( ( ( ( ( ~ ~ ~ ~ ( ( ( | | | | | | | | | | | | | | | | | | X.X.X.X.X.X.X.X.| | X.X.X.X.X.X.X.X.| | | Y z i i f 7 * * * * * * * 7 e 7 & % # # # # % * 9 v v v v x t t t D ~ ~ ( ( ( ~ ) | | | | | | | | | | ( ) ( ( ( ( ) | ( T T S Z n z i t $ $ $ $ $ $ $ $ $ # $ 9 z Z v w w w w w w w x x x x f w w w w w 9 , , , , z U ( ( ( ( ( ( ( Q Y R R Y Y Y Y Y Y Y Y U U Y Y Y Y Y Y Y Y Y Y Y Y Y U U U U Y Y Y Y Y Y Y Y Y Y Y U E Q Q Q Q Q Q Q Q Q h.h.w e e , % % % % % % * t Q Q X.>.>.>.>.>.>.>.>.>.>.X.w % # # # M Y U Y Y T T ( ( ( ( ( ( ( ( ( ( ( ( ( ( ( ( ( } ( } } ( ( ( ( ( ( } } ( ( ( ( ( ( ( ( ( } X.X.X.| X.X.X.X.X.X.X...X.| X.g.| Y Y Y Z f f $ % % % $ $ $ $ ; ; % > , , , , , , > ; % % % % % ; % % % % % % % % % % % % % % % % ; , 4 4 4 M o.#.#.#.#.#.#.#.#.#.#.#.#.#.#.#.h.h.v.U $ $ $ $ r k k b ..X.X.X.X.X.X.........X.#.#.#.#.#.#.#.#.#.#.#.#.#.5.v.v.v.v.v.v.v.v.v.v.v.v.v.R # # # # $ 4 4 4 4 4 4 9 T X.o.o.o.o.o.o.X.X.o.o.o.o.o.o.o.o.o.o.o.o.o.} ( ) ) } ) ) ) ( ( } ( ( ( ) ) ) ( T T T T T T T T h.<.# # ",
"# # # # r f.i.( ( ( ( ( ( ( ~ ~ ~ ~ ~ ~ ( ( ( | | | | | | | | | | | | | | | | | | X.X.X.X.X.X.X.| | X.X.X.o.X.X.X.X.X.} S z f f i i f , * * * * * * * 7 9 * * # # # # # # * , v v v v j t t t x Y ~ ( ( ( ( ~ ) | | | | | | | ) ( ( ( ( ( ~ Z z i i i i i i i i i t $ $ $ $ $ $ $ $ $ # % w v Z M w w w w w w w i x x t w w w w w w 9 , , , , , , 7 f Z ( ( Q Y Y Y R R Y Y U U U U U U U U Y Y U U Y Y Y Y Y Y Y Y U U U U Y Y Y Y Y Y Y Y Y Y Y Y U U E Q Q Q Q Q Q Q Q y.h.f e e e w , % % % % % % w w ( +.>.>.>.>.>.X.X.X.#.X.w % # # # z R U U U U U U Q ( ( ( ( ( ( ( ( ( } } ( ( ( ( } ( } ( ( ( ( ( } ( } ( ( ( ( ( ( ( ( ( ( } X.X.| | | X.X.X.X.X.} } | | ( Z Y Y Y Y x Z Z > % % % % $ $ $ % ; ; % ; > , , , , ; % % % % % % ; ; % % % % % % % % ; % % % % % % % % ; , 4 4 4 U #.#.#.#.#.#.#.#.#.#.#.#.#.#.p.h.v.H $ $ $ $ 4 k k k Q X.X.X.X.X.X.........o.#.#.#.#.#.#.#.#.#.#.o.Q U ..v.v.v.v.v.v.v.v.v.v.v.y.5.4 # # # # # , 4 4 4 4 4 4 9 } X.o.o.o.o.o.X.X.X.o.o.X.X.o.o.o.o.o.o.o.o.X.( ( ( } } ( ) ( ) ) ( ( ( ( ~ T T T T T T T T T ( h.<.# # ",
"# # # # 9 f.#.~ ( ( ( ( ~ ~ ~ ~ ( ~ ( ( ( ( ( } | | | | | | | | | | | | | | | | | X.o.o.o.o.X.| X.X.o.o.o.X.X.X.X.} Z z f f f f i i i & * * * * * * * * * % # # # # # # # % & Z v v v i t t t x M Z ( ( ( ( ( ( ( } | | | ) ( ( ( ( ( T n i i i i i i i i i i i i t $ $ $ $ $ $ $ $ # # , w v Z M w w w w w w w w w w w f v w w w w w w w 7 , , , , , , , w t n U R U P M m m m m m m n z z z z z b n U Y Y Y Y R U U U U U Y Y Y Y U U U R Y R Y Y Y Y Y Q Q Q Q Q Q Q Q <.h.E e e w w w w 7 : * % % 7 w x X.+.#.>.#.#.X.X.X.X.Y w % # # # a U Y Y U U U U Y ( ( ( ( ( ( ( ( ( ( ( ( ( ( ( ( ( ( ( ( ( ( ( } ( ( ( ( ( ( ( ( ( ( ( ( X.........| X.X.X.....} } | T t t Y Y Y Y Y Y Y t % % $ $ $ $ $ $ % % % % % ; > , , % ; ; ; % ; ; ; ; ; ; % % % % ; ; ; ; ; % % ; ; % % % ; 4 4 4 4 a ..#.#.#.#.#.#.#.#.#.#.#.#.y.v.v.s $ $ $ $ 4 s k k z ..X.X.X.X.X.X...X.o.#.#.#.#.#.#.#.#.#.#.Y f s s z U [ ..........Q n s s s s # # # # # # % 4 4 4 4 4 4 4 z | X.o.o.o.o.X.o.o.o.o.X.X.o.o.o.o.o.o.o.o.X.) ) ( ( ( ( ( ) ) ( T T T T T T T T T T T T T T o.h.Q # # ",
"# # # # 9 6.~ ~ ~ ~ ( ( ( ~ ~ ~ ( ( ( ( ( ( ( ( ) | | | | | | | | | | | | | | | | | o.o.X.| | X.X.X.o.o.o.X.X.X.T f f f f f f f i i e * * * % % % % % % # # # # # # # # # % * M v v v t t t t z M M S ( ( ( ( ( ( ( ) ) ( ( ( ( ( Y x i i i i i f x i i i i i i i w $ $ $ $ $ $ $ $ # # , w v M Z w w w w w w w w w w M Z Z t w w w w w 9 9 , , , , , , , , , , , 9 s z b m m m m f , , , , , , , , , , 7 w s b M P U U U U U Y Y Y U U U R U U Y Y Y Y Y E Q Q Q Q Q Q Q +.h.<.e e w w w w w w e w 7 7 w w t M Y Q U M M P P M M w % # # # a U Y Y U U U U Y ( ( ( ( ( ( ( ( ( ) ( ( ( ( ( ( ( ( ( ( ( ( ( ( ( ( ( ( ( ( ( ( ( ( ( ( X...........X.X.X.......( v 9 9 9 Y Y Y Y Y Y Y f $ $ $ $ $ $ $ $ $ % % % % % % ; , % ; ; ; % % ; ; ; ; % % % ; ; ; ; ; ; % % % ; ; ; % % % > 4 4 2 2 4 Q #.#.#.#.#.#.#.#.#.#.#.5.v.h.s ; $ $ $ , w k k k m X.X.X.X.X.X.X.#.#.#.#.#.#.#.#.#.#.o.n s s s s s s s s z n z s s s s s s s % # # # # # # , 4 4 4 4 4 4 9 | | o.o.o.o.o.o.o.o.o.X.o.o.o.o.o.o.o.o.o.o.) ) ( ( ( ( ( ) ( T T T T T T T T T T T T T T T #.p.R # # ",
"# # # % 9 U ( ( ( ( ( ( ( ( ~ ~ ( ( ( ( ( ~ ~ ~ ~ ~ ) } | | | | | | | | | | | | | } | | | | X.X.X.X.o.o.o.X.X.Z f f f f f f f f f f = * * * % # $ $ $ $ # # # $ $ $ $ $ # # * v V V j t t t t i M M M T ( ( ( ( ( ( ( ( ( ( ( Y x i i i i x V A A A A x i i i i i 9 $ $ $ $ $ $ $ $ $ $ % w M Z Z w w w w w w 9 7 , , M M v t 9 9 9 9 w w 7 , , , , , , , , , , , , , , , , , , , % % , , , , , , , , , , , , , , , , 7 7 w s n U Y Y Y Y Y Y Y Y Y U U U Y Q Q Q Q Q Q Q ..h.h.w w w t g g g f f i t w w w w w e w e e w t M M M r ; # # ; s Y Y Y U U U U T ( ( ( ( ( ( ( ( ( ( ( ( ( ) ( ( ( ( ( ( ( ( ( ( ( ( ( ( ( ( ( } ( ( ( } X.X.X.X.X.X.X.X.X.X.( n w w w w w Z Y Y Y Y Y Z z $ $ $ $ $ $ % % $ % % % % % ; ; ; % % % ; ; ; % % % ; ; ; ; ; ; % % % % % % ; ; ; % % % % ; 4 4 4 4 4 4 R #.#.#.#.#.#.#.#.#.#.<.v.v.s , $ $ $ > w s k k k R X.X.X.X.X.#.#.#.#.#.#.#.#.#.#.} z f s s s f f f s s s s s s s s s s f s : # # # # # # # , 9 9 9 4 4 4 Y | | X.o.o.o.o.o.o.o.o.o.o.o.o.#.#.#.o.o.o.} ) ) ( ( ( ) ( T T T T T T T T T T T T T T T T 5.p.z # # ",
"# # # * 9 x M T ( ( ( ( ( ( ~ ~ ( ( ( ( ( ( ~ ~ ( ~ ( ( ( } | | | | | | } } ( ( ( } | | X.X.X.X.X.X.o.o.X.( z f f f f f f f f f f 9 * * * * % # $ $ $ $ # # # # $ $ $ $ # # % z v z t t t t t i M v M Z ( ( ~ ~ ( ( ( ( ( T n i i i i x Z A A A A A A A i i i i i 7 $ $ $ $ $ # $ $ $ $ % w n Z Z w w w w 7 , , , , , x v v e , , 7 9 9 w , , , , , , , , , , , , , , , , , , * % % % % , , , , , , , , , , , , , , * % % % % % % : w z U Y Y Y Y Y U U U U E Q Q Q Q Q Q p.h.h.f w w t g x g g x x g f f t w w e e e e w w z M M a ; # # : a Y Y Y U U U U Y ( ( ( ( ( ( ( ( ( ( ( ( ( ( ( ( ( ( ( ( ( ( ( ( ( ( ( ( ( ( ( } ( ( ( | X.X.X.X.X.X.X.( Z t w w w w w w w Z Y Y Y Z x x x : $ $ $ $ $ % % $ $ % % % % ; ; ; ; % % ; ; % % % % ; ; ; ; % % % % % % % % ; ; % % % % % % > 4 2 4 4 4 w #.#.#.#.#.#.#.#.#.#.#.h.r.s 4 $ $ $ ; w s k k k k } X.X.X...X.o.#.#.#.#.#.X.U s s s s s s s f s s s s s f s s s s s s s f : # # # # # # # # % 4 9 4 4 4 z Y Y Y Y Y Q } o.o.o.o.o.o.o.o.o.o.o.o.o.o.} T Y Y Y Y Y Y T T T T T T T T T T T T T T T T #.p.r # # ",
"# # # , 9 x n n Y ( ( ( ( ~ ~ ~ ( ( ( ( ( ( ( ( ( ( ( ( ( ( ( ( ) ) ( ( ( ( ( ( | | X.X.X.X.X.X.X.X.X.~ M f f f f f f f f f f f e * * * * * # # # $ # # # # # # # # # # # # % t t t t t 7 , t t x v v v Y ~ ~ ~ ~ ~ ( ~ Z i i i i f A A A A A A A A A A x i i i i 9 $ $ $ $ $ $ $ $ $ $ $ w z Z Z , , 9 w , , , , , , e Z v , , , , , , 7 , , , = * * * % % * * * & & & & * * % % % % % , , , , , , , , , , , , % % % % % % % % * % % % % , f Z Y Y U U Y Y Y E Q Q Q Q #.h.h.h.Q w : w g g g g x x x x g g f i e e w w w w z M M a ; # # : a U U Y U R U U U T ( ( ( ( ( ( ( ( ( ( ( ( ( ( ( ( ( ( ( ( ( ( ( ( } } ( ( ( ( ( ( ( ( | X.X.X.X.Q Z t w w 9 , : w w w e x Y Y Z x x x x x 9 $ $ $ $ $ % % % % % % % % % ; % % % % ; ; % % % % % % % % % % ; ; ; ; % ; ; ; % % % % ; ; ; 4 4 4 4 4 4 #.#.#.#.#.#.#.#.#.#.#.y.<.s 4 $ $ $ % w w k k k k b ..........X.X.X.Q M w , 7 7 7 w s s s s s s f f s f f f f s s a t 9 7 , # # # # # # # # # # % , , 3 4 4 4 4 4 4 w m H R ( } } o.o.X.X.o.o.o.o.o.s s s s s s s s Y T T T T T T T T T T T T T T T ( p.4 # # ",
"# # # , 9 z n n n S ( ( ( ( ~ ~ ~ ( ( ( ( ( ( ( ( ( ( ( ( ( ( ( ( ( ( ( ( ( ( | | | | | | ~ Y i f f f z f f f f f f f f f f f e * * * * * * # # # # # # # # # # # # # # # # % t t t t 9 * * 9 t i v M v M T ~ ~ ~ ( Y f i i i i B A A A A A A A A A A A f i i i i 9 $ $ $ $ $ $ $ $ $ $ $ w z Z Z , , 7 w 9 , , , , , , v 7 , , , , , , , , , , % % # # # # # $ % % % % % % % % % % % % : , , , , , , , , , : % % % % % % % % % * % % % % * * * , f Z U Y Y Y Y Y Q Q Q <.h.h.h.e., % , t g g x x x x x g g g g x t w w w w M M M a ; # # % s R U U U R U U U U Y ( ( ( ( ( ( ( ( ( ( ( ( ( ( ( ( ( ( ( ( ( } } ( } } ( ( ( ( ( ( ( } X.} } ( w w 7 , $ # # , w w t x v Y Z x x x x x x t $ $ $ $ $ % % % % % % % % % % % % % % ; ; ; % % % % % % % % % ; ; ; ; % % ; ; % % % % ; ; ; , 4 4 4 4 4 Q #.#.#.#.#.#.#.#.#.#.#.<.s , $ $ $ $ w w s k k k z ( ........P t 9 7 , , , , 7 7 7 9 t s s s s f s s s f f t w 9 , , 7 7 , # # # # # # # # # # # # # # # # # # # % : , a z b m m m m m m m m m z % : : # # # # # # , Z T T T T T T T T T T T T T T T <.# # # ",
"# # $ % 9 f n n n n Z ( ( ( ( ( ~ ~ ( ( ( ( ( ( ( ( ( ( ( ( ( ( ( T Y Y T ( ( Y Z f w , * * * & 9 t f f f f f f f t e e e t e * * * * * * % # # # # # # # # # # # # $ $ # # % 7 t t 0 * * * * q t z v v v M T ~ Y i i i i i x A D A A A A A A A A A A A i i i i i 9 $ $ $ $ $ $ $ $ $ $ $ w f Z Z , , 7 w w , , , , , , , , , , , , , , , , , = % # # # # # # # # % * % % % % % # * * % : , , , , , , , , , % % % % % % % * * * % % % % % % * * * * % : r n Z Y Y Y Y Y E ( E b , * % % w t x g g g g g g x x x g t w w e s M M M a % # # # a U U U R R R R Y Y U U Y T ( ( ( ( ( ( ( ( ( ( ( ( ( ( ( ( ( ( ( ( ( ( ( ( ( ( ( ( ( ( ( ( ( b % % # # # # # # w w t x x Z Z x x x x x x x f $ $ % $ $ % % % % $ % % % % % % ; ; ; % % % % % % % ; % % ; % % % ; ; ; ; % % ; ; ; ; % % ; ; 4 4 4 4 4 Q #.#.#.#.#.#.#.#.#.#.#.+.a $ $ $ $ $ 4 w w k k k ( X...X.R > $ $ $ % % % : > , , 7 7 7 7 9 w t t t t w 9 7 7 7 7 7 7 7 7 7 # # # # # # # # # # # # # # # # # # # # # # # # # # % , > > > > % # # # # # # # # # # # # # , f S T T T T T T T T T T T T T # # # ",
"# # $ $ , e n n n n n Z ~ ( ( ( ~ ~ ( ( ( ( ( ( ( ( ( ( ( ( S n n n n n n n n * * * * * * * * * * * , w e e e w 9 9 9 9 9 9 * * * * * * * % # # # # # # # # # # # # $ $ # # # * * = * * * * * = t t i n v v z 9 * 7 i i i g A A D A A A A A A D A A A B i i i i i 9 $ $ $ $ $ $ $ $ $ $ $ w t Z Z , , 7 w w 7 , , , , , , , , , , , , , , , , = % # # # # # # # # # % % % % # # # % * * : , , , , , , , , , % % % % % % % * * * % % % % % % % % * * % % * * * * , , , , , * * * % % * % , w t f g g g g g g x x f w w w e b M M M t # # # # > U U U R R R Y Y Z M M M M M M U U U U U U U U U U Y T Q Q ( ( ( ( ( ( ( ( ( ( ( ( ( ( T s $ # # # # # # # # 7 w w z x x v x x x x x x x x x $ $ % $ $ % % $ $ $ $ ; % % % % ; ; ; % % % % ; % % % % % ; ; % % % % ; % % % ; ; ; ; % % ; ; ; % % ; > > w w w w w w w w w w w w > $ $ $ $ $ , w 4 s k k ..X.} r $ $ $ $ $ $ $ # # # $ $ $ > , 7 7 7 , 7 7 7 7 7 7 7 7 7 7 7 7 7 7 # # # # # # # # # # # # # # # # # # # # # # # # # # # # # # # # # # # # # # # # # # # # # # # # # # # , , , , , , , , : , , # # # ",
"# # $ $ # * n n n n n n M Y Y x t w 3 3 3 9 w e z z z e w % # # # # # # # # % % * * * * * * * * * * * 9 9 9 9 9 9 9 9 9 9 9 * * * * * * % # # # $ $ $ $ # $ # # # $ $ $ # # # * * * * * * * * * = e t t q , * * * 7 i i i x A A D D A A A A D D A A A i i i i i i t $ $ $ $ $ $ $ $ $ $ $ w t Z M , , 7 w 9 9 , , , , , , , , , , , , , , , , , % # # # # # # # # # # # # # # # # $ % % : , , , , , , , , : % % % % % % % $ $ $ $ $ % $ $ $ $ % $ $ $ $ $ $ $ $ $ $ $ # # # # # # # # % % w w w e t f f x x z t w w e e t M M M M w # # # # # # , , w 9 4 4 9 4 4 4 4 4 4 4 4 4 4 4 4 4 4 4 4 4 4 b b b b b b b b b m M P P P P s : # # # # # # # # # % 7 w w e x x x x x x x x x x x x x % $ % $ $ $ $ $ $ $ $ ; ; % % % % ; ; % % ; ; ; ; % % % ; ; ; % % % % ; ; % % % % ; ; % % % % ; % % % $ $ $ $ $ $ $ $ % % % % % $ $ $ $ $ $ $ ; 4 4 4 s k z 4 $ $ $ $ $ $ $ $ $ $ # # $ $ $ $ $ > 7 7 , , 7 7 7 7 , 7 7 7 7 7 , % # # # # # # # # # # # # # # # # # # # # # # # # # # # # # # # # # # # # # # # # # # # # # # # # # # # # # # # # # # # # # # # # # # ",
"# # # # # # z n n n n n n x % # # # # # # # # # # # # # # # # # # # # # # # # # * * * * * * * * * * * , 9 9 9 9 9 9 9 9 9 9 * * % % % # # # # # $ $ $ $ $ $ # # # # $ $ # # # % * * * * * * * * * * = = * * * * * 7 i i i f A A D D A A A A A A A A i i i i i i i i t $ $ $ $ $ $ $ $ $ # w t Z z , , , , , , , , , , , , , , , , , , , , , , , = % # # # # # # # # # # # # # # # # % % % : , , , , , , , % % % % # # # # # # # # # # # # # # # # # # # # # # # # # # # # # # # # # # % % % 7 w w 7 7 , : , : * % % , w s M M M M w # # # # # # # # # # # # # # # # # % % % % % % % % % % % # # # # # # # # # # # # # # # # # # # # # # # # # # # # : w w w w w z x x x x x x x x x x x x : $ $ $ $ $ $ $ $ $ $ ; ; % % % % ; ; % % ; ; ; ; % % ; ; ; ; % % % % ; ; % % % % % % % % % % % % % % $ $ $ $ $ $ $ $ $ $ $ $ $ $ # $ $ $ $ $ $ 4 4 4 4 ; $ $ $ $ $ $ $ $ $ $ $ $ # $ $ $ $ $ % % > 7 , , 7 7 7 7 7 7 7 7 7 , # # # # # # # # # # # # # # # # # # # # # # # # # # # # # # # # # # $ $ # # # # # # # # # # # # # # # # # # # # # # # # # # # # # # # # ",
"# # # # # # % t M n n z , # # # # # # # $ $ $ $ # # # # # # # # # # # # # # # # $ * * * * * * * * * * * = 9 9 9 9 9 9 9 9 , * % # # # # # # # # # # # # # # # # $ $ $ # # # # % * * * * * * * * * * * * * * * * * 7 i i i i i x x x j i i n V B x i i i i i i i i i i e $ $ $ $ $ $ $ $ # 7 t Z z , , , , , , , , , , , , , , , , , , , , , , , , , * # # # # # # # # # # # # # # # # $ % % * : , , , , * * % # # # # # # # # # # # # # # # # # # # # # # # # # # # # # # # # # # # # % % % % % * * * * * * * * * * % % a M M M M w # # # # # # # # # # # # # # # # # # # # $ $ # # # # # # # # # # # # # # # # # # # # # # # # # # # # # # # # % 9 w w w w w w w t f x x x f f t w , , % % % $ % , , , = = = = , , % % % % % % ; ; ; ; ; % % % % % % % % % % % ; > > > > > % % % % % % % % % % % % $ $ $ $ $ $ $ $ $ $ $ $ $ $ $ $ $ $ # # # # $ $ $ $ $ $ , , 9 w w , , , , , e 7 7 7 7 7 7 7 , 9 w w w w w w w w w 9 % # # # # # # # # # # # # # # # # # # # # # # # # # # # # # # # # # # # # # # # # # # # # # # # # # # # # # # # # # # # # $ , , % # # # ",
"# # # # # # # # # # # # # # # # # # # # $ $ $ $ # # # # # * * = = = * * = = * * * , * * * * * , , , 7 , 7 7 , = = = = = * * $ # # # # $ $ % % # # # # # # # # # # $ $ # # # # % * * * * * * * * * * * * * * * * * * & = * * * * & = = = = = = 7 7 7 e q q i i i i i i i * # $ $ $ $ $ $ # * t Z f , , , , , , , , , , , , , , , , , , , , , , , , , , * # # # # # # # # # # # # # # # # # % % % % % % % % $ # # # # # # # # # # # # # # # # # # # # # # # # # # # # # # # # # # # # % % % % % % * * * * * * * * * * % % * , t r w w # # # # # # # # # # # # # # # # # # # # # $ # # # # # # # # # # # # # # # # # # # # # # # # # # # # # # % 7 w w w w w w w w w 7 : % $ $ $ $ $ $ $ $ $ $ * x V V V V V j j j x x x 9 % % % % ; ; ; > 3 3 > > > > 9 i z t e w w w 9 9 9 9 9 9 9 9 9 9 , % % % > , w e e e e 9 9 9 9 , t t e , % $ $ $ # # # # $ $ $ $ , w e t i f f f x x x x Z M M M x g g g x x x x g g x x x x x x g g p i i w 7 : * # % , s x Z Z Y Y z q q i z x z z z z z z z x t q w , % $ # # # $ , w t z z x x z z z z z z t t t t t t i z z x 9 # # ",
"* 7 7 7 e w , , , , * * % # # # # # # # $ $ $ % , i x x n x x x x x x x x x x x x x x x x x x x x x x n Y Y Y Y M , * * * % # # % % * * * * * * * * % % # # # # # # # # # # # % * * * * * * * * * * * * * * * * * * * * * * * * * * * * * * * * * * * * * * & i i i i i w # # $ $ $ $ $ # # w Z t , , , , , , , , , , , , , , , , , , , , , , , , , 9 e q , # # # # # # # # # # # # # # # # # % % % % % # # # # # # # # # # # # # # # # # # # # # # # # # % , , , , , , , , , 7 7 9 7 7 * * % % % % * , , , , , , , , , , , 9 t t t ; # # # # # # # # # # # # # # # # # # # $ $ # # # # # # # # $ % $ # # # # # # # # # # # # # # # : 7 t f x x f q w w w w w , $ $ $ $ % % % % $ $ $ $ $ $ Z ) | ) ) | ^ ^ D x x x ~ ~ 4 % % % ; ; % % ; , 3 3 w z x n x x n n x x x x n n x x n n n n x i e e e i x n V V V V Z D ! ~ ~ ~ ~ Z x x f e , # # # $ $ $ $ w f x x x x x x x x n S Y Y Y Y Y ~ ~ B x x x x g g g g p p x p g x B B A Z V V B A Y Y Y Y Y Y Y Y Y Z n n Z A S Y Y ( | | | | | | ( Y x z i 9 t z x Z T ( | | ) Z z z x x x z x x x x x z z z x x i $ ",
"i t t t t t t t t t t t t t t e e e 0 t x V D D D D D D D D  .>.>.>.>.,.>.>.>.>.>.>.>.>.7.f.k.v.m.m.m.m.m.n.n.n.m.U * * * # % % * * * * * * , 0 i i i i u 7 = % # # # # # # # # * * * * * * * * * * * * * * * * * * * * * * * * * * * * * * * * * * * * * * * z i i i i i , , , % $ $ $ # # a Z 9 , , , , , , , , , , , , , , , , , , , , 7 7 0 e f v v x f t 7 % # # # # # # # # # # # # # # # # # # # # # # # # # # # # # # # $ % : z z P T T T ~ Y Y Y Y Y Y Y Y Y Y D D D D D D D D D D A B B B C C B B B B B B B B B B B B C C C C B B B n x t , # # # # # ; w w w 9 9 9 9 e t t f f f w w w w w w w w w 9 t s t w w w t f x Z Z Z Z n x x x x x t 9 9 9 * $ $ $ $ % % % % $ % $ $ $ w ) ) ) ) ) ) ^ ) ^ x x ~ ) ) Z : % % % % % % % % 3 f n x x n D ~ ~ Y Y Y Y D D D D D D D Z Z V V z B A A A A V A D ! ~ ~ ~ ~ ~ ~ ~ D x x x x x x w % $ $ $ : z x x x x x x x x n Y Y Y Y Y T } | | ( B x x x g g B C B B A Y Y T T Y Y Y Y Y Y Y Y Y Y Y Y Y Y Y Y Y Y Y Y Y T ) | | | | | | | | | | | ( Z Z S ( | | X.>.0.7.5.| D V x x x x V D D D D D D Z V x x i ",
"x x x x x j j j x x j j j j x x x x x D D D D D D D D D D D D D | >.>.,.>.>.>.>.,.0.c.m.m.m.m.m.m.m.n.n.n.n.n.n.m.Y * * * * * * * * * * , q u u i i u u u u i i q , % # # # # # * * * * * * * * * * * * * * * * * * * * * * * * * * * * * , 9 9 9 9 9 9 9 e w ( ~ ~ T Y Y P P P P Z M n n v Z P Z Z Z Z M x f e e e e e e e e t i f f f q q q q i Z Z Z Z Z Z C v Z Z Z Z Z C C Z x x f t 7 * # # # # # # # # # # # # # $ , e t t t z ( ( ) ) ) ) ( ) ) ( ( ( ( ) ) ( ~ Y Y D D D D D D Y Y D C B B B B B B B B B B C C C C B B C C B B B B B B C C B z $ # # # 9 w w w w w t x x x Z Y T Y Y Y Y Y Y Y Y T )  . .-.-.-. . .:.:.-.-. . . . . . . .-. . . .f w 9 * , , 7 7 7 9 , , , * * , ^ ) ) ^ ^ ) ^ | ) D x ~ ) ) ) Z n : ; % % % % % % , x n n Z ! ~ ~ ~ ~ ~ ~ ~ ~ ~ ~ ! ! ~ ~ ~ ~ ~ ~ ! ! ! ! ! ! ~ ~ ! ! ~ -.-.-.-.-.-.^ n x x x x x x i % $ # # f x x x x x x x Z Y Y Y T ) | | | | | | X.Y ! ) | | | | | | | | | | | | | ( ( ( ( ( T ~ ( ( | | ( Y Y Y Y T ) | | | | | | | | | | | | | | | | | | X.5.q.q.q.q.q.q.6.~ D D V V D D D D D D D D D D D Z x ",
"x x x x x x x x x x x x x x x x x V D D D D D D D D D D D D D D D ~ :.,.>.>.4.c.m.m.m.m.N.J.J.F.n.m.n.n.m.n.n.n.m.U * * * * * * i Z f i i i u u u u u u i i i i i i u 7 * % % * * = 7 9 0 u u u u u i i u q 0 0 0 0 0 g F F F F F F F F F F F F F F F F F | | | ~ ~ ~ ~ ~ ~ ~ ~ ~ ~ ~ ~ ~ ~ ~ ~ ~ ~ ~ ~ ~ ~ ~ ~ ~ ~ ~ ~ ~ ~ ~ ~ ( ( ( ( ~ ~ ~ ~ ! Y Z Z Z Z Z Z Z Z Z Z Z Z C Z Z Z Z Z Z Z Z Z % # # # # # # # # # # # t t t t t t ( ( ) ) ) ) ) ( ( ) ( ( ( ( ) ) ) ) ~ D D D D D D D Y Y D D Z B B B B B C C B B B B C C B B C C B B B B B B C C B B t # # $ w w w w w w x n x x Y Y T Y Y Y Y Y Y T )  . . . .-.-.-. . .f.v.E.E.L.q.:. . . . .-. . . .~ w w w w w w w w w w w w w w f ) ) ) ^ ^ ) ) ) ^ B ~ ) ) ) ) U Z w ; % ; % % % % 3 9 e ~ ~ ~ ~ ~ ~ ~ ~ ~ ~ ~ ~ ~ ! ! ~ ~ ! ! ~ ~ ! ~ ~ ~ ~ ~ ~ ~ ! ! ~ ^ -.-.-.-.-.-.) x x x x x x x f $ # $ 0 x Z Y Y U Z Y ( ) ( | | | | | | | | f.f.X.| | | | | | >.:.1.5.s.s.1.X.| | | | | | | | | | | | | T Y ( ( | | | | | X.X.:.>.>.>.>.>.>.>.>.>.1.6.q.q.q.q.q.q.q.q.q.q.q.,.~ D D D D D D D D D D D D D D D ",
"x x x x x A A A A A A A A A A A D ~ ~ D D D D D D D D D D D ~ | :.>.>.>.4.c.n.n.n.J.'.oXoXoXoXJ.n.n.n.n.m.n.n.n.m.Z , * * * * & D D D D D Z D Y x x x x x p i i u u u i u 9 = 9 u i u u u u u u u u i p x B B V V V V D F F F F F F F F F F F F F F F F F ) | | ) ~ ~ ~ ~ ( ~ ~ ~ ~ ~ ~ ~ ~ ~ ~ ~ ~ ~ ~ ~ ~ ( ~ ~ ~ ~ ~ ~ ~ ~ ~ ( ( ( ( ~ ~ ~ ~ ~ ~ ~ ~ T Y Y Y Y T ~ ~ ! Z Z Z Z Z Z Z Z Z Z C t # # # # # # # # # # # t t t t t z ( ( ) ) ( ( ( ( ) ) ) ) ) ) ) ) ) X.X.~ ~ ~ ~ ~ | ~ Y Y Y Y D A Z B B B B C B B B B C B B B C B B B B C C B C C C B n # # , w w w w w w x x x S Y Y Y Y Y T ~ |  . . . . . . . . . . . .f.f.v.U.E.E.E.J.,. .-. .-.>.>.>.x w w w w w w w w w w w w w v :.| ) | | ) ) ) ~ ~ ) ) ) ) ) Y Z s 3 3 , > ; ; , 9 9 w i.i.i.i.i.y.y.>.>.| | ~ ~ ~ ! ~ ! ! ! ~ ~ ~ ~ ~ ! ! ~ ~ ~ ~ ! ~ ~ ^ -.-.-.-.-.-.-.D x x x x n B e # , 9 i } | | | | | | | } } | } | | | | | <.f.>.1.1.s.s.f.f.f.f.f.f.f.f.f.f.X.| X.<.<.| | | | | | | | ( | | | | X.:.>.>.>.>.>.>.>.>.>.>.>.>.>.q.q.q.q.q.q.q.q.q.q.q.q.q.q.q.q.q.4.,.| | | | | | | ~ ~ ~ D D ",
"5.5.5.4.4.4.4.4.5.5.4.4.5.5.5.5.4.4.4.4.5.5.,.) ) ) ) ) ) ) :.>.>.>.>.5.m.m.n.J.{.oXoXoXoXoXoXJ.n.n.n.n.n.n.n.n.m.M 9 * * * * , D D D D ) :.:.>.! V V V V V V V B x i i u u u i i i u u i i p x B V V V V V V V V V D F F F F F F F F F F F F F F F F F F ~ | | | ( ~ ~ ~ ~ ~ ~ ~ ~ ~ ~ ~ ~ ~ ( | | | | | | | | | | | | | | | | | ) ) ) ) ) ( ( ~ ~ ~ ~ ~ ~ ~ ~ ~ ~ ~ ~ ~ ~ ~ T ~ T Z Z Z Z Z Z x # # # # # # # # # # % t t t t t M X.>.>.>.>.<.>.>.<.<.<.<.6.6.y.y.y.y.y.y.y.y.y.y.N.N.N.N.k.f.1.) Y D A B B B B B B B C B B B C B B B B C C B C C C Z Z # $ w w w w w w w x x S Y Y Y Y }  . . . . . .,.1.f.g.v.N.V.K.K.K.N.f.g.g.N.E.#X$X+XF.g.g.g.g.g.g.4.w w w w w w w w w w w w w 6.s.s.1. .) ) ) ) ) ) ) ) ) ) ) ~ Z z 3 9 9 9 3 3 9 9 9 z i.i.i.i.i.i.i.i.i.i.i.i.i.y.6.>.>.1.|  .~ ~ ~ ~ ! ! ! ~ ~ ~ ! ~ ~ ~ ) -.-.-.-.-.-.-.-.! Y Y Y Y Y i 9 9 9 Z | | | | | | | } | | } | | | } } | f.f.f.f.f.f.f.f.f.f.f.f.f.f.f.f.X.| X.E.E.E.6.| | | | | | | | X.>.>.>.>.>.>.>.>.>.>.>.>.>.>.>.>.<.q.q.q.q.q.q.6.,.:.:.X.X.o.:.>.5.5.5.5.4.0.q.q.q.q.q.q.q.q.q.6.",
">.5.1.1.1.5.5.5.5.>.,.f.v.N.G.G.G.G.m.v.f.>.| ) ) ) ) ) ) ) ) :.>.>.>.5.m.m.J.oXoXoXoXoXoXoXoXn.m.n.n.n.n.m.m.m.m.M * * * * * , D Y T X.:.:.:.5.4.5.~ V V V V V V V V V i i i u u u p V V V V V V V V V V V V V V D F F ! ,.F.F.F.k.,.~ F F F F F F F F F ~ | | | ) ~ ~ ~ ~ ~ ~ ~ ~ ~ ( ( ( ~ ) | | | | | | | | | | | | | | | | | | | | | | | | | ( ) ( ~ ~ ~ ~ ~ ~ ~ ~ ~ ~ ~ ) | | | | ( Y Z Z Z # # # # # # # # # # % t n t t t T >.>.>.y.y.y.y.y.y.y.y.y.y.y.y.y.y.y.y.y.y.y.y.y.k.m.m.F.F.V.N.m.m.k.s.>.Y C B B B B B B C C B C B B B B C C C C Z ( / # , w w w w w w w f Y Y Y Y ~ i.f.f.i.g.N.C.K.K.K.K.K.K.K.K.K.K.K.J.f.g.g.g.g.m.'.#X$X{.^.^.^.^.Q.U.~ w 9 w w w w w w w w w Z i.i.i.i.f.6. .5.J.J.J.>.) ) ) ) ^ Z x 9 3 3 3 3 3 3 9 9 R i.i.i.i.i.i.i.i.i.i.i.i.i.i.i.i.V.J.C.C.C.C.N.v.g.7.6. . .~ ~ ~ ~ ~ ~ :.:.:.:.-.-.-.-.-.-.| :.^ Y Y q 0 0 0 Z | | | | | | | | | | | | | | | | y.f.f.f.f.f.f.f.f.f.f.f.f.6.X.| | | | y.E.E.E.6.| | | | | X.>.>.>.>.>.>.>.>.>.>.>.>.>.>.>.>.>.>.>.>.>.<.>.| | | | | ) ( ) ) ) ( ( ( ( ( ( ( ( ( ( ( ) } X.>.7.q.",
"Y Y Y ! ! ~ ~ ~ ! ~ ) ) ) ) ) ) ) ) ) ) ) ) ) ) ) ) ) ) ) ) ) ) X.>.>.>.>.>.q.oXoXoXoXoXoXoX'.n.m.n.n.n.n.m.m.n.m.Z * * * * * , D ( >.>.:.:.:.>.4.4.4.5.! V V V V V V V V i i i i i B V V V V V V V V V V V V A F F F ) K.L.L.L.L.L.L.L.F.,.~ F F F F F F ) | | | | ( ~ ~ ~ ~ ~ ~ ~ ~ ( ~ ~ ( | | | | | | | | | | | | | | | | | | | | | | | | | | | | | ) ) ( ~ ~ ~ ~ ~ ~ ~ ( | | | | | | | ( Z Z * # # # # # # # # # % t U t t t T >.>.>.y.y.y.y.y.y.6.<.X.X.X.X.X.X.>.>.>.>.>.>.>.>.>.>.>.1.1.s.f.k.n.V.F.F.m.<.Y C B B B B C B C C B B B B C B C Y / ( # $ , w w w w w w s Y Y Y ( f.g.g.g.J.K.K.K.K.K.K.K.K.K.K.K.K.K.K.m.f.g.g.g.g.f.g.v.~.$X+X^.^.^.^.^.) w w w w w w w w w w t y.i.i.i.i.f.i.m.J.J.J.J.J.) ) ) ) ) Z M 9 3 3 3 3 9 3 9 9 ..i.i.i.i.i.i.i.i.i.i.i.i.i.y.6.6.6.y.f.m.C.C.C.C.C.C.C.C.C.C.C.C.v.v.v.f.4.,.:.-.-.-.,.f.F.k.s.0.0.~ A q 0 0 0 T | | | | | | | | | } } | | | | X.f.f.<.>.6.s.s.s.6.>.X.| | | } | } | | X.k.I.I.X.| | | | >.>.>.>.>.:.:.:.X.>.>.>.>.>.>.>.>.>.>.>.>.X.| | | | | ( ( ( ( ) ) ( ~ ~ ~ ~ ~ ~ T T T T Y Y Y Y Y Y Y ",
"Y Y Y Y Y Y T ~ ! ~ ~ ~ ( ~ ~ ~ ~ ~ ~ ~ ~ ~ ~ ) ) ) ) ) ) ) ) ) ) | :.>.>.>.>.c.oXoXoXoXoXoXF.n.m.n.n.n.n.n.n.n.m.Z * * * * * 9 | :.>.>.:.:.:.:.:.>.5.4.6.>.D V V V V V V V i i i i V V V V V V V V V V V A F F F F ) L.L.L.L.L.L.L.L.L.L.L.L.g.,.~ F F ~ | | | | | ( ~ ~ ~ ~ ~ ~ ~ ~ ~ ~ ) | | | | | | | | | | | | | | | | | | | | | | | | | | | | | | | | | | ) ) ( ) ) } | | | | | | | | | | Y , # # # # # # # # $ * : U z t t ~ >.>.>.y.y.6.>.>.>.>.>.>.X.X.X.X.X.X.>.>.>.>.>.>.>.>.>.>.>.>.>.>.>.>.1.s.k.m.N.N.v.<.Y B C C B B B B B B C B B B E / ( 2 # # # * w s Y s s Y Y X.g.g.g.g.J.K.K.K.J.J.J.J.J.C.N.N.v.v.g.f.g.g.g.g.f.g.f.f.g.g.J.+X$X$X+X+X$X| f w w w w w w w w w X.s.i.i.i.i.f.G.J.m.f.f.f.G.) ) ) ) ) S Z 9 9 3 9 9 9 9 9 9 5.i.i.i.i.i.i.i.i.i.i.i.i.6.6.6.6.5.5.<.<.#.>.<.>.>.>.6.i.k.k.k.m.C.C.C.C.C.K.E.E.E.!.!.!.!.!.!.d.0.0.) A q 0 0 Y | X.X.X.| | | | | } } | | } } | s.f.| | | | | | | | | | | } } | | | | | | } X.X.| | | | >.>.>.>.| | | } } | | | | | | | | | | | | | | | | | | ( ( ( ( ) ~ Y Y Y Y Y Y Y Y Y Y Y Y Y Y Y Y Y D ",
"A A D Y Y Y Y Y Y Y T T ~ ~ ! ! ~ ~ ~ ~ ! ! ! ~ ) ) ) ) ) ) ) ) ) ) ) | :.>.>.>.J.oXoXoXoXJ.n.n.n.n.n.n.n.n.n.n.m.M * * * * * S :.:.>.:.:.:.:.>.>.:.:.>.4.6.6.| A V V V V V V i u i V V V V V V V V A D F F F F F | f.v.K.m.0.0.6.>.7.7.f.m.L.L.L.L.m.X.| | | | | | | ( ( ( ~ ~ ~ ~ ~ ~ ( | | | | | | | X.X.| | | | | | | | | | | | | | | | | | | | | | | | | | | | | | | | | | | | | | | | | | | t # # # # # # # % > > > U M t t X.>.>.>.>.>.>.>.>.>.>.>.>.>.>.>.X.X.X.X.>.>.>.>.>.>.>.>.>.>.>.>.>.>.>.>.>.>.>.1.s.k.m.m.k.<.Y B B B B B B C C B B E ( ( 2 # # # # $ f Y Y Z Y X.g.g.g.i.g.f.f.g.g.g.g.f.f.f.f.f.f.g.g.g.g.g.f.i.i.i.f.f.f.g.g.g.U.{.$X$X$X$X>.f w w w w w w w w M s.s.f.f.i.v.J.J.J.<.<.<.<.<.#.| ) ) ) Y Z w 3 9 9 9 9 9 9 9 i.i.i.i.i.i.i.i.i.i.i.i.6.6.6.6.5.>.<.<.#.#.X.X.X.X.X.} } } } } } } } X.+.5.f.E.!.!.!.!._.!.!.!.!.d.0.0.~ Y x C Y | X.X.X.| | | | | | } | | | } | X.f.| | | | | | | | | | | } | | | | | | | | | | | | | | | X.X.| | | | | | | | | | | | | | | | | | | | | | | ) ( ( ( ( ) T Y Y Y Y Y Y Y Y Y Y D D D D D D D D ",
"A D D D S D D D D Y Y Y Y Y ! ! ~ ~ ~ ! ! ! ~ ~ T ) ) ) ) ) ) ) ) ) ) ) ) | >.>.>.L.J.J.m.m.n.n.n.n.n.n.n.n.n.n.m.n * * * * * X.:.:.:.:.>.>.>.>.:.>.:.>.:.5.4.4.4.~ V V V V V V x p V V V V V A D F F F F F F ! 1.f.f.>.| |  . . .| | | | | :.0.>.X.| | | | | | | | ) ~ ( ( ( ~ ~ ~ ~ ~ ) | | | | | | | | f.k.k.f.f.f.6.6.<.>.>.>.X.| | | | | | | | | | | | | | | | | | | | | >.X.X.X.X.| | | | | f # # # # # # % > > > , U U f Y >.>.>.>.>.>.>.>.>.>.>.>.>.>.>.>.>.>.X.X.X.X.X.X.X.X.X.>.>.>.>.>.>.>.>.>.>.>.>.>.>.>.<.y.f.N.N.v.X.A B B B C C B C Y / ( 2 # # # # # t T T Y } i.g.g.f.i.i.i.i.f.f.f.f.f.f.g.g.f.f.g.g.f.f.i.i.i.y.y.y.i.f.f.g.f.U.U.+X$X$X$X>.f w w w w w w w t y.s.y.i.i.g.J.J.J.J.5.<.<.<.<.<.<.<.X.) ~ Z t 9 9 9 9 9 9 9 z i.i.i.i.i.i.i.i.i.i.i.y.6.6.6.6.5.<.<.>.#.X.X.X.X.X.} } ( ( ( } ( } ( ( } ( ( +.E.!.!.!._.!.!.!.!.U.0.0.1.Y Y Y Y | X.X.X.| | | | | } | | | | } | | | | } } } | | | | | | | | | | | | | | | | | | | | | | | | | | | | | | } | | | } | | | | | | | | | } | | ( ( ( ( ( ( ~ Y Y Y Y Y Y Y Y D D D D D D D D D D D ",
"D D D D S S D D A D D Y Y Y Y Y ~ ~ ~ ~ ~ ~ ~ T T ) ) ) ) ) ) ) ) ) ) ) ) ) ) X.>.N.m.N.m.m.n.n.n.n.n.n.n.n.n.n.m.f * * * * t g.g.g.6.:.:.:.>.>.:.:.>.>.:.>.5.4.4.4.,.F V V V V V V V V V A F F F F F F ! ~ ) >.7.6.:. .| |  .|  .| | | | | | | | | | | | ) ) ( ~ ( ~ ~ ~ ~ ( ~ ~ ~ ( ( ~ ( ) ( | | | | | X.X.X.>.<.5.6.i.i.i.f.k.k.k.k.k.k.f.f.f.f.f.f.f.f.f.f.f.f.f.k.k.k.k.g.6.>.>.>.>.#.X.| | f # # # # # * > > > > , U U U X.>.>.>.>.>.>.>.>.>.>.>.>.>.>.>.>.>.>.X.X.X.X.X.X.X.X.X.X.>.>.>.>.>.>.>.>.>.>.>.>.>.>.>.>.X.X.1.f.m.N.f.) B C C B C Y / ( 2 # # # # # 2 Y T Y y.i.f.g.f.i.i.i.i.i.i.i.y.i.i.i.f.g.g.g.g.f.i.i.i.i.i.i.y.i.i.i.i.i.J.E.~.$X$X$X| f w w w w w w w >.i.y.s.i.i.~.&X;X;X+X'.v.5.<.<.<.<.<.#.) ~ Z w 3 3 9 9 9 9 9 M i.i.i.i.i.i.i.i.i.i.i.6.6.6.6.6.5.<.<.>.#.X.X.X.X.} } } } ( ( ( } } } } } } ( ( X.L.!.!.!.!.!.!.!.!.d.0.0.! Y Y Y X.X.X.X.| | | | | } } | | | | | | | | } } | | | | | | | | | | | | | | | | | | | | | | | | | | | | | | } } | | | } } | | | | | | | | } | | ) ( ( ( ( ~ Y Y Y Y Y Y Y D D D D D D D D D D S D D ",
"S D D D Z S A D D A D D Y Y Y Y Y ~ ! ~ ~ ~ ~ T T ( ) ) ) ) ) ) ) ) ) ) ) ) ) ) X.N.N.N.m.n.n.n.m.m.n.n.n.n.m.n.n.9 * * * * P L.I.I.L.L.>.:.:.:.:.:.>.>.:.:.>.4.4.4.4.4.>.! V V V V A D ! ~ ) ) | |  . . . .| |  .| | | |  . . .| | | | | | | | | | ) ( ~ ~ ~ ~ ~ ~ ~ ~ ~ ~ ~ ~ ~ ~ ( ( ~ ~ ( ( ( | | | | | | X.X.X.X.X.X.X.X.X.X.X.X.X.X.X.X.} ( ( ( ( X.<.f.k.k.k.k.k.k.k.k.g.f.y.<.>.>.>.>.>.>.f # # # # * > > > > > 9 U U Y >.>.>.>.>.>.>.>.>.>.>.>.>.>.>.>.>.>.>.X.X.X.X.X.X.X.X.X.X.X.>.>.>.>.>.>.>.>.>.>.>.>.>.>.X.X.X.X.X.X.>.s.m.m.>.A B B Y ( ( 2 # # # # # , Y Y Y i.i.i.f.i.i.i.i.i.i.i.i.i.y.y.i.i.f.g.g.f.f.i.i.i.i.i.i.i.i.i.i.i.i.v.E.E.+X$X$X) e w w w w w w T i.y.s.s.i.~.<X<X<X<X<X<X<X&Xx.<.<.<.<.<.) ) z $ $ 3 4 4 9 3 9 ( i.i.i.i.i.i.i.i.i.i.i.6.6.6.6.6.5.<.<.#.#.X.X.X.X.} } } ( ( } } } } } ( } } } } } } L.!.!.!.!.!._._.U.0.0.~ Y Y Y X.X.X.X.| | | | | | } | | | | | | | | | } | | | | | | | | | | | } | } | | | } } } | | | | | } | | | | } | | | | | | | | | | | | } | | | ( ( ( ~ ~ ~ ~ Y Y Y Y Y Y D D D D D S S S D D S S D D ",
"S D D D Z A A D D D D D A Y Y Y Y Y ! ! ~ ~ ~ T T ( ) ) ) ) ) ) ) ) ) ) ) ) ) ) ) f.N.N.m.n.n.n.m.n.n.n.n.m.m.n.n.* * * * * U L.L.I.L.L.v.:.:.:.:.:.:.>.:.:.:.5.4.4.4.4.6.4.| ~ D ~ |  . . . . .| |  . . . .| |  . .| | |  . . .| | | | | | | | | ( ~ ~ ~ ~ ~ ~ ~ ~ ~ ~ ~ ~ ~ ~ ~ ~ ~ ~ ~ ~ ~ ( ~ | | | | | | X.X.X.X.X.X.X.| ( } X.X.X.X.} } } ( ( ( ( } } } X.X.X.X.X.X.X.X.>.>.>.>.>.>.>.>.>.>.f # # # $ > > > > > > t U U X.>.>.>.>.>.>.>.>.>.>.>.>.>.>.>.>.>.>.>.X.X.X.X.X.X.X.X.X.X.X.X.>.>.>.>.>.>.>.>.>.>.>.>.X.X.X.X.( ( ( ( ( ) 6.m.m.6.Y E ( ( 2 # # # # # : Y Y Y y.y.i.i.i.i.i.i.i.i.i.i.i.i.i.i.i.i.i.f.f.i.i.i.i.i.i.i.i.i.i.i.i.i.i.E.E.[.$X[.) w w w w w w Z i.i.y.y.g.+X<X<X<X<X<X<X<X<X<XJ.5.N.J.6.<.| ) , $ $ $ 4 4 4 4 9 5.i.i.i.i.i.i.i.i.i.i.i.i.6.6.6.6.6.<.<.#.X.X.X.X.( } } } } } } } } } } } } } } } } } } 6.X.<.L.!.!._.!.k.0.~ Y Y X.X.X.X.| | | | | | | | | | | | | | | | | | | | | | | | | | | } | } } } | | | } } } | | | | | } | | | | } | | | | | | | | | | | | | | | | ) ( ( ~ ~ ~ T Y Y Y Y Y D D D D D D S S D D D S S U D ",
"S Z D D D S S S D D D D S Y Y Y Y Y ~ ~ T T ! ! T ( ) ) ) ) ) ) ) ) ) ) ) ) ) ) ) | m.m.n.n.n.n.m.n.n.n.n.m.m.n.7.* * * * * U L.L.L.L.Y.C.#.#.#.:.:.:.:.X.:.:.>.>.X.X.:.>.X.| | |  . . . . . . .| | | |  . .| | |  . . . .| | | |  . .| | | | | | ~ ~ ~ ~ ~ ~ ~ ~ ( ~ ~ ~ ~ ~ ~ ~ ~ ~ ~ ~ ~ ( ( ) | | | | | | X.X.X.X.X.X.X.} } } } } } ( ( } } ( ( } } } } ( X.X.X.X.X.X.X.#.>.>.>.>.>.>.>.>.>.>.f # # # % > > > > > > t U Y >.>.>.>.>.>.>.>.>.>.>.>.>.>.>.>.>.>.>.>.X.X.X.X.X.X.X.X.X.X.X.X.X.>.>.>.>.>.>.>.>.>.>.X.X.X.X.( ( ( ( ( ( ( ( ) >.k.m.] / / 2 # # # # # # Y Y Y 6.6.6.y.i.i.i.i.i.i.i.i.i.i.i.i.i.i.i.i.f.i.i.i.i.i.i.i.i.i.i.i.i.i.i.U.E.~.$XL.) w w w w w f y.y.k.v.].<X<X<X<X<X<X<X<X<X<X<XJ.N.J.J.y.<. .! $ $ $ $ 3 3 3 3 9 i.i.i.i.i.i.i.i.i.i.i.i.i.i.6.6.6.6.<.<.#.#.X.X.X.( ( } } } } } } } } } } } } } } } } } X.X.X.>.E.!.!.!.!.d.~ Y | X.X.X.| | | } } | | | | } | | | | | | | | | | | } } } | | | } } | | } } } | | | } } } | | | | } | | | | } | | | | | } | | | | | | | | | | ) ( ( ( ) ) ~ Y Y Y Y D D D S S S S S D D D U S S D D ",
"A Z D D D D Z S D D D D S Y Y Y Y T ~ ~ T ! ! ! T ( ) ) ) ) ) ) ) ) ) ) ) ) ) ) ) ) 5.m.n.n.n.n.n.n.n.n.m.m.n.n.} * * * * * U L.L.L.L.L.C.#.>.>.:.:.:. .X. . . .| | |  . .| | |  .|  . . . .|  .| | | | X.X.|  . . . . .| | | |  . .| | | | | | | ~ ~ ~ ~ ~ ( ( ( ~ ~ ~ ~ ~ ) | | ) ) ) ) ) | | | | | | | | X.X.X.X.X.X.X.X.| } } } } } } ( } } ( ( ( } } } } } X.X.X.X.X.X.>.>.>.>.>.>.>.>.>.>.>.f # # # % > > > > > > n U X.>.>.>.>.>.>.>.>.>.>.>.>.>.>.>.>.>.>.>.>.X.X.X.X.X.X.X.X.X.] ] ] X.X.>.>.>.>.>.>.>.>.X.X.X.X.X.( ( ( ( ( ( ( ( ( ( ( X.y.>.] r # # # # # # Z Y ( 6.6.6.6.y.i.i.i.i.i.i.i.i.i.i.i.i.i.i.i.i.i.y.y.y.y.i.i.i.i.i.i.i.i.i.N.E.E.$Xv.~ w w w w i y.f.I.T.W.<X<X<X<X<X<X<X<X<X<X<X<XJ.J.J.J.y.<.<.w $ $ $ $ > 3 3 3 k i.i.i.i.i.i.i.i.i.i.i.i.i.i.i.6.6.6.5.<.>.#.X.X.X.( ( } } } } } } } } } } } } } } } } } X.X.X.X.y.!.!.!.!.X.~ ~ X.X.X.| | | | | | | | | | } | | | | | | } | | | | } | | | | | } | | | | | } | | | | | } } | | | | | | | | } | | | | | } } | | | | | | | | | ) ( ( ( ) ) Y Y Y Y Y D D D D S S D S D D U U D S D D ",
"A D D D D D Z A A A A A Y Y Y Y Y ~ ~ ~ T ! ~ ~ T ~ ) ) ) ) ) ) ) ) ) ) ) ) ) ) ) ) ) c.n.n.n.n.n.n.n.n.n.n.n.n.U * * * * * U L.L.L.L.L.v.:.>.>.:.:.X.| X.X.X. .| |  . . . .| | | | |  .| | | | | | |  . . . . .| |  . .| | | | | | | | | | | | | | ( ~ ~ ( ( ( ( ( ~ ( | | | | | | | | | | | | | | | | X.X.X.X.X.X.X.X.X.X.X.} } } } } } ( } } ( } } } } } ( ( X.X.X.X.X.X.>.>.>.>.>.>.>.>.>.>.>.f # # # % > > > > > > n X.>.>.>.>.>.>.>.>.>.>.>.>.>.>.>.>.>.>.>.>.>.X.X.X.X.X.X.X.X.X.] ] X.X.X.X.X.>.>.>.>.>.X.X.X.X.X.X.( ( ( ( ( ( ( ( ( ( ( ( ( 6.6.M # # # # # # z Y ( 6.6.6.6.6.i.i.i.i.i.i.i.i.i.i.y.6.y.i.i.y.6.6.6.6.6.y.i.i.i.i.i.i.i.i.i.'.E.#X>.) w w w t <.s.N.E.T. X<X<X<X<X<X<X<X<X<X<X<X-XJ.J.J.G.5.<...$ $ $ $ $ $ 3 3 3 b i.i.i.i.i.i.i.i.i.i.i.i.i.i.i.i.6.6.5.<.>.#.X.X.X.} ( ( } ( ( } ( } } ( ( ( ( ( } } } } X.X.X.X.X.m.E.E.v.X.| X.X.X.X.| | | | | | | | | | } } | | | | | } } } | | | | | | | | | | | | | | | | | | | | | | | | | | | | | | } } | | | | | } | | | | | } | | | ) ( ( ( ( ) Y Y Y Y Y D D D D D D D D D D D D D D D D ",
"A A D D D D D D A A A A Y Y Y Y T ! ~ ~ ~ ! ~ ~ T T ) ) ) ) ) ) ) ) ) ) ) ) ) ) ) ) ) >.n.n.m.m.n.n.n.n.n.n.n.n.f * * * * * U L.L.L.L.L.5.:.:.:.:.X.| | X.X.X. .| |  . . . .| | | | | | | | | | | | |  . . . . .| |  . .| | | | | | | | | | | | | | | ) ) ( ) ( | | | | | | | | | | | | | | | | | | | X.X.X.X.X.X.X.X.X.X.X.X.X.| } } } } ( } } } } } } } } ( ( } X.X.X.X.X.>.>.>.>.>.>.>.>.>.>.>.f # # # $ > > > > > r X.>.>.>.>.>.>.>.>.>.>.>.>.>.>.>.>.>.>.>.>.>.X.X.X.X.X.X.X.X.X.X.X.X.X.X.X.X.X.X.X.X.X.X.X.X.X.X.X.X.X.( ( ( ( ( ( ( ( ( ( ( ( 6.<.P # # # # # # w Y } 6.6.6.6.6.y.i.i.i.i.i.i.i.i.i.y.6.y.i.y.6.6.6.6.6.6.6.y.i.i.i.i.y.i.i.i.'.$X$X:.) A e t <.i.s.C.E.E.W. X-X<X<X<X<X<X<X<X<X<X&XN.v.i.5.<.<.z $ $ $ $ $ $ 3 3 3 H i.i.i.i.i.i.i.i.i.i.i.i.i.i.i.i.6.6.6.<.>.#.#.X.X.X.( } } } ( ( ( } } ( ( ( ( ( ( ( } } X.X.X.X.X.X.X.X.X.X.X.X.X.X.| | | | | | | } } | | | | | | | | | | } | | | | | | | | | | | | | | | | | | | | | | | | | | | } | | | | } | | | | | } } | | | | } } | | ) ( ( ( ( ) Y Y Y Y Y D D D D D D D D D D D D D D D D ",
"D D D D D D D D A A Y Y Y Y Y Y T ! ! ! ~ ~ ~ ~ T T T ) ) ) ) ) ) ) ) ) ) ) ) ) ) ) ) ) f.g.n.m.m.m.n.n.n.n.n.m.f * * * * * U L.I.L.L.N.:.:.:.:.X.| | | | | | | |  . . . . .| | | | | | | | |  . . . . .| |  . .| | | | | | | | | | | | | | | | | | | | | | | | | | | | | | | | | | | | | | | | | X.X.X.X.X.X.X.X.X.X.X.X.X.X.X.X.X.} } } } } } } } } } } } } ( } } X.X.X.X.>.>.>.>.>.>.>.>.>.>.>.r % $ $ > > > : , t n >.>.>.>.>.>.>.>.>.>.>.>.>.>.>.>.>.>.>.>.>.>.>.X.X.X.X.X.X.] X.X.] X.X.X.X.X.X.X.X.X.X.X.X.X.X.X.X.X.X.) ) ( ( ( ( ( ( ( ( ( ( 6.>.P % # # # # # : Y #.6.6.6.6.6.6.y.y.y.y.i.i.i.i.i.y.6.y.6.6.6.6.6.6.6.6.6.6.i.i.i.i.i.i.i.i.K.$X$X) ) ) ) | i.i.i.C.E.E.E.T.T.R.R.R.R.E.E.I.W.v.<.<.<.<.<.#.o.s 2 $ $ $ $ $ 4 9 9 U i.i.i.i.i.i.i.i.i.i.i.i.i.i.i.i.6.6.6.5.<.#.#.X.X.X...( ( } } } } } } } ( ( ( } } ( ( ( ..X.X.X.X.X.X.X.X.X.X.X.X.| | | | | | | } } | | | | | | | | | | } } | | | | | | | | | | | | } } | | } } } | | | | | | } } } | | | | | | | | | } } } | | | | | | | | ) ( ( ( ( ( Y Y Y Y Y D D D D D D D D S S S D D D S S ",
"D D D D D D D Y Y Y Y Y Y Y Y Y Y ! ! ! ~ ~ ~ ~ T T T ( ) ) ) ) ) ) ) ) ) ) ) ) ) ) ) ) >.f.g.m.m.n.n.n.n.n.m.m.* * * * * * U L.I.L.L.>.:.:.:.X. . .| | | | | | | |  . . . .| | | | | | | |  . . . . . .| |  . .| | | | | | | | | | | | | | | | | | | | | | | | | | | | | | | | | | | | | | | X.X.X.X.X.X.X.X.X.X.X.X.X.X.X.X.X.X.X.X.} } } } } } } } } } } } ( } } X.X.X.X.>.>.>.>.>.>.>.>.>.>.#.> > > > > > > 9 t t U >.>.>.>.>.>.>.>.>.>.>.>.>.>.>.>.>.>.>.>.>.>.X.X.X.X.X.X.X.] X.X.X.X.X.X.X.X.X.X.X.X.X.X.X.X.X.X.X.X.X.X.) ( ( ( ( ( ) ) ( ( ( 6.>.P , # # # # # # U 5.6.6.6.6.6.6.6.6.6.6.6.6.y.6.6.6.6.6.6.6.6.6.6.6.6.6.6.6.6.y.i.i.i.i.i.i.f.$X$X) ) ) ) 6.i.i.f.v.E.E.E.T.I.V.i.h.i.5.<.<.<.<.<.<.<.<.<.<.R s w $ $ $ $ $ , 9 9 U i.i.i.i.i.i.i.i.i.i.i.i.i.i.i.y.6.6.6.6.<.>.#.X.X.X.X.} ( } } } } } } ( ( ( ( } } ( ( ( ( } } X.X.X.X.X.X.X.X.X.X.} } | | | | | } } | | | } } | | | | | } } } | | | } | | | | | } | } } | | } | | } } | | | | | } } | | | } } | | | | | } } | | | | | | | | ( ( ( ( ( ~ Y Y Y Y Y U D D D D D U Y S S D D D D D S ",
"D D D D A Z D Y Y Y Y Y Y Y Y Y Y T ! ~ ~ ~ ! ! T T T T ) ) ) ) ) ) ) ) ) ) ) ) ) ) ) ) ) f.f.c.m.n.n.n.n.n.m.g.* * * * * * U L.I.L.5.:.:.:.:. . . . . .|  .| |  . . . . . .X.X.| | | |  . . . . . .| | | |  . . .X.| | | | | | | | | |  . .| | | | | | | | | | | | | | | | | | | | | | | | | X.X.X.X.X.X.X.X.X.X.X.X.X.X.X.X.X.X.X.X.X.X.} ( } ( ( } } } } } } } } X.X.X.X.>.>.>.>.>.>.>.>.>.>.} > > > > > , t t s Z Z >.>.>.>.>.>.>.>.>.>.>.>.>.>.>.>.>.>.>.>.>.>.X.X.X.X.X.X.X.X.X.X.X.X.X.X.X.X.X.X.X.X.X.X.X.X.X.X.X.X.X.X.X.( ( ( ( ( ) ) ( ( ( 6.>.P r # # # # # # Z 6.6.6.6.6.6.6.6.6.6.6.6.6.6.6.6.6.6.6.6.6.6.6.6.6.6.6.6.6.6.6.5.5.6.y.i.i.i.+X$X| ) ) >.i.i.i.i.i.I.I.b.5.#.#.#.#.<.<.<.<.<.<.<.<.<.<.<.<.U s r $ $ $ $ $ > 9 9 U i.i.i.i.i.i.i.i.i.i.i.i.i.i.i.6.6.6.6.6.<.>.#.#.X.X.X.X.( ( } } } } } } } ( ( } } } } } } } } } X.X.X.X.X.X.X.| | } } | | | | } } | | | | } } | | | | | } | | | | } } | | | | } } | | | | | | | | | } | | | | } } | | | | | } | | | | } } | | | | | | | | ) ( ( ( ~ ~ ~ Y Y Y Y Y U S D D D D U S D U D D D D U S ",
"S S D A A Z Z Z D Y Y Y Y Y Y Y Y Y Y T ~ ! ! ! ~ ~ T T ) ) ) ) ) ) ) ) ) ) ) ) ) ) ) ) ) :.f.f.n.n.n.n.n.n.c.X.* * * * * * U L.L.5.:.:.:.:.:.X. . . . .X. .| | |  . . . . . . . .| |  . . . . .| | | | | |  . . .X. .| | |  .| | |  . . .| | | | | | | | | | | | | | | | | | | | | | | | | | X.X.X.X.X.X.X.X.X.X.X.X.X.X.X.X.X.X.X.X.X.X.} ( ( ( ( } } } } } } } | X.X.X.X.>.>.>.>.>.>.>.>.>.>.M > > > , w t t s Z Z Y <.<.>.>.>.>.>.>.>.<.>.>.>.>.>.>.>.>.>.>.>.>.X.X.X.X.X.X.X.X.X.X.X.X.X.X.X.X.X.X.X.X.X.X.X.X.X.X.X.X.X.X.X.X.( ( ( ( ( ( ( ( ( 6.>.P f # # # # # # a 6.6.6.6.6.6.6.6.6.6.6.6.6.6.6.6.6.6.6.6.6.6.6.5.5.<.5.5.5.5.<.<.<.<.<.<.5.6.'.$X5.) | f.i.i.y.i.6.5.#.#.#.#.#.#.#.<.<.<.<.<.<.<.<.<.<.<.<.U s 2 $ $ $ $ $ $ 9 9 U i.i.i.i.i.i.i.i.i.i.i.i.i.i.i.y.6.6.6.6.5.>.#.#.X.X.X.X.X.( } } } } } } } } } } } } } } } } } X.X.X.X.X.X.| | | | | | | | | | | | | | | | | | | | | | | | | | | | } | | | | | } | | | | | | | | | | | | | | | | | | | | | | | | | | | | | | | | | | | | ( ( ( ( ( ~ ~ ~ Y Y Y Y Y S S D D D D D S D D D D D D U Y ",
"S Z D D D D D D S S D Y Y Y Y Y Y Y Y Y Y ! ! ~ ~ ! ! ! ~ ) ) ) ) ) ) ) ) ) ) ) ) ) ) ) ) ) 6.f.f.f.f.f.f.f.f.M * * * * * * M L.5.>.:.>.:.:.:.X. . .| | |  .| |  . . . . .| |  . . . . . . . . . .| | | | | | | | |  . . .| | |  . . . . . .| | | | | | | | | | | | | | | | | | | | | | | | | X.X.X.X.X.X.X.X.X.X.X.X.X.X.X.X.X.X.X.X.X.X.X.} } } } ( ( ( ( } } } X.X.X.X.#.>.>.>.>.>.>.>.>.>.>.t > 3 t t t t t Z S Z | <.<.>.>.>.>.>.>.>.<.>.>.>.>.>.>.>.>.>.>.>.X.X.X.X.X.X.X.X.X.X.X.X.X.X.X.] ] ] X.X.X.X.X.X.X.X.X.X.X.X.X.X.X.( ( ( ( ( ) ( ( ( 6.6.P M # # # # # # r 6.6.6.6.6.6.6.6.6.6.6.6.6.6.6.6.6.6.6.6.6.5.<.<.<.<.>.>.>.>.<.<.<.<.>.>.>.>.i.$XL.) 6.i.i.i.y.#.#.#.#.#.#.#.#.<.<.<.<.<.<.<.<.<.<.<.<.<.<.U s $ $ $ $ $ $ $ , r U i.i.i.i.i.i.i.i.i.i.i.i.i.i.i.i.6.6.6.6.6.<.>.#.#.X.X.X.X.} } } } } } ( ( ( } } } } } } } ( X.X.X.X.X.X.X.| | | | | | | | | | | | | | | | | | | | | | | | | } | | | | | } | | | | | | | | | | | | | | | | | | | | | | | | | | | | | | | | | | } } } | ( ( ( ( ) ( ( ( ( Y Y Y Y Y Y S S D D D D S S S S D D D D D ",
"Z Z D D A A D D D S D Y Y Y Y Y Y Y Y Y Y Y ! ! ~ ! ~ ~ T ) ) ) ) ) ) ) ~ ( ) ) ) ) ) ) ) ) | f.f.f.f.f.f.f.f.x * * * * * * z 5.>.:.>.>.:.:.:.X.X. . . .| | | |  . . . .| | | | X.X. . . . . . .| | | | | | | | | |  . . .| | |  . . . .|  .| |  . .| | | | | | | | | | | | | | | | | | | | | X.X.X.X.X.X.X.X.X.X.X.X.X.X.X.X.X.X.X.X.X.X.X.} } } } } } ( } } } } X.X.X.X.#.>.>.>.>.>.>.>.>.>.>.> > w t t t t M S S Z >.<.<.>.>.>.>.>.>.<.<.<.>.>.>.>.>.>.>.>.>.>.X.X.X.X.X.X.X.X.X.X.X.X.X.X.X.X.X.X.X.X.X.X.X.X.X.X.X.X.X.X.X.X.X.] ( ( ( ) ) ( ( X.6.6.Y I # # # # # # , 6.6.6.6.6.6.6.6.6.6.6.6.6.6.6.6.6.6.6.5.5.<.<.<.<.<.>.>.>.>.<.<.<.5.>.>.>.>.>.'.+X1.i.i.y.5.#.#.#.#.#.#.#.<.<.<.<.<.<.<.<.<.<.<.<.<.<.<.<.Q > $ $ $ $ $ $ $ $ r U i.i.i.i.i.i.i.i.i.i.i.i.i.i.i.i.6.6.6.6.6.<.>.#.#.X.X.X.X.X.} } } } } ( ( } } } } } } } } } X.X.X.X.X.X.X.| | | | | | } } | | | | } | | | | | } | | | | | } } | | | | } } | | | | | | | | | | | | | | | | | | | | | | | | } | | | | | } } | | } | } ) ( ( ( ( ( ( ~ ( ( Y Y Y Y Y Y D S S D D D D S S D D D D D D ",
"D D D D A A A Y Y Y Y Y Y Y Y Y Y Y Y Y Y Y Y ! ~ ~ ~ ~ T ~ ) ) ) ) ( T ~ T ~ ) ) ) ) ) ) ) ) >.f.f.f.f.f.f.f.9 * * * * * * e :.:.:.>.:.:.:.X. .X.X.X. . . .| |  . .| | | | | | | |  . .X.X.| | | | | |  . . . .|  . . .| X.X.X.X.X.X.X.| | | |  . . . .| | | | | | | | | | | | | | | | | | | | | | X.X.X.X.X.X.X.X.X.X.X.X.X.X.X.X.X.X.X.X.X.} } } } } } } } } } X.X.X.X.#.>.>.>.>.>.>.>.>.>.} > > w t t t z Z S S Y <.<.<.>.>.>.>.>.>.<.<.<.<.<.<.>.>.>.>.>.>.>.>.>.>.>.>.>.X.X.X.X.X.X.X.X.X.X.X.X.X.X.X.X.X.X.X.X.X.X.X.X.X.X.X.] ( ( ( ( ( ( ( X.6.6.( P ; # # # # # # 6.6.6.6.6.6.6.6.6.6.6.6.6.6.6.6.6.6.5.<.<.<.<.<.>.#.#.#.o.o.#.#.#.#.>.>.>.>.>.i.J.y.y.6.#.#.#.#.#.#.#.<.<.<.<.<.<.<.<.<.<.<.<.<.<.<.<.<.<.U $ $ $ $ $ $ $ $ $ > U i.y.y.i.i.i.i.i.i.i.i.i.i.i.i.i.y.6.6.6.6.5.<.#.#.#.X.X.X.X.X.} } } } } ( } } } } } } } } X.X.X.X.X.X.X.X.| | | | | | } } | | } } } | | | | | } } | | | | } | | | | | } | | | | | | } | | | | } | | } } | | } | | | | } } } | | | | | } } | ) ) ) ( ( ( ( ( ( ~ ~ ~ ~ ~ Y Y Y Y Y Y D D D D D D D D D D D D D D D ",
"D D D D A A A Y Y Y Y Y Y Y Y Y Y Y Y Y Y Y Y T ~ ~ ~ ~ T T T ) ) ~ T T ~ ~ ~ ) ) ) ) ) ) ) ) ) 5.f.f.f.f.f.f., * * * * * * e :.:.:.:.:.:.:. .| X.X. . . . .| |  .| | | | | | | | |  . . . .| |  .| | |  . . . .|  . . .X.:.:.:.:.>.>.X.| | | | |  . . .| | | | | | | | | | | | | | | | | | | | | X.X.X.X.X.X.X.X.X.X.X.X.X.X.X.X.X.X.X.X.X.X.| } } } } } } } } X.X.X.X.X.>.>.>.>.>.>.>.>.>.>.M > > w t t s Z Z S S X.<.<.<.<.>.>.>.>.>.<.<.<.<.<.<.>.>.>.>.>.>.>.>.>.>.>.>.>.>.>.X.X.X.X.X.X.X.X.X.X.X.X.X.X.X.X.X.X.X.X.X.X.X.X.X.) ( ( ( ( ( ( ( X.6.6.<.P 2 # # # # # # <.6.6.6.6.6.6.6.6.6.6.6.6.6.6.6.6.5.<.<.<.<.<.>.#.#.o.o.o.o.#.#.#.#.#.#.#.#.#.#.>.#.#.#.#.#.#.#.#.<.<.<.<.<.<.<.<.<.<.<.<.<.<.<.<.<.<.<.<.H $ $ $ $ $ $ $ $ $ > U i.i.6.6.i.i.i.i.i.i.i.i.i.i.i.i.i.6.6.6.6.5.<.>.#.#.X.X.X.X.X.X.} } } ( ( } } } } } } } X.X.X.X.X.X.X.X.X.X.| | | | | } } | | | } } } | | | | | } | | | } | | | | | | | | | | | } | } } } } } } | | } } | | } } } | | | } } | | | | | | } | ( ( ( ( ( ( ( ( ( ~ ~ ~ ~ ~ Y Y Y Y Y Y Y D D D D D D D D D D D D D S ",
"D D D D D D Z Y Y Y Y Y Y Y Y Y Y Y Y Y Y Y Y Y T ~ ! ! ! ! ~ ~ T T ~ ! ! ! ( ) ) ) ) ) ) ( ~ T ! 5.f.f.f.f.f.* * * * * * * e :.:.:.>.>.>. .|  . . . .|  . . . .| | | |  .| | | | |  . . . .| |  . .| | | |  . . . . .X.:.:.:.:.>.>.>.X.| | |  .| |  .X.X. .| X.X.X.X.| | | | | | | | | | | | X.X.X.X.X.X.X.X.X.X.X.X.X.X.X.X.X.X.X.X.X.X.X.X.X.} } } } } ( ( } X.X.X.X.#.>.>.>.>.>.>.>.>.>.>.w > > 3 t t M Z Z Z Z >.<.<.<.<.>.>.>.>.<.<.<.<.<.<.<.<.>.>.>.>.>.>.>.>.>.>.>.>.>.>.>.X.X.X.X.X.X.X.X.X.X.X.X.X.X.X.X.X.X.X.X.X.X.X.X.( ( ( ( ( ( ( X.X.6.6.6.E s # # # # # # Q 6.6.6.6.6.6.6.6.6.6.6.6.6.6.6.5.<.>.>.>.>.>.#.#.#.#.#.#.#.o.#.#.#.#.#.#.#.#.#.#.#.#.#.#.#.#.<.<.<.<.<.<.<.<.<.<.<.<.<.<.<.<.<.<.<.<.<.<.m $ $ $ $ $ $ $ $ $ > U i.i.6.6.6.i.i.i.i.i.i.i.i.i.i.i.i.6.6.6.6.6.<.<.#.#.#.X.X.X.X.X.X.} } } } } ( ( ( ( ( X.X.X.X.X.#.X.X.X.X.X.| | | | | } | | | | } | | | | | | | | | | | } } } | | | | | | | | } } | | } } } } | | | | | | | | | | | | | } | | | | | | | | | | ( ( ( ( ( ( ( ( ~ ~ ) ) ~ Y Y Y Y Y Y Y D D D D D D D D D D D D S S ",
"D D D D D D D Y Y Y Y Y Y Y Y Y Y Y Y Y Y Y Y Y T ~ ! ! ! ! ~ ~ T T ~ ~ ! ! ) ) ) ( ~ ! T T T T ! X.f.f.f.f.>.* * * * * * * e :.:.:.>.>.X. . .|  .X. .|  . . . .| | | |  .| | | | |  . . . .| |  . .| | | | X.X.X.X.:.>.:.:.:.:.:.:.>.X.| | |  .| |  .|  . .| X.X.X.X.X.| | | | | | | | | X.X.X.X.X.X.X.X.X.X.X.X.X.X.X.X.X.X.X.X.X.X.X.X.X.X.X.X.} } } } X.X.X.X.X.X.#.>.>.>.>.>.>.>.>.>.>.#.> > > , t s Z Z Z Z Y <.<.<.<.<.>.>.>.<.<.<.<.<.<.<.<.<.>.>.<.<.>.>.>.>.>.>.>.>.>.>.X.X.X.X.X.X.X.X.X.X.X.X.X.X.X.X.X.X.X.X.X.X.X.X.X.( ( ( ( ( ) X.X.>.6.6.6.X.s # # # # # # Q 6.6.6.6.6.6.6.6.6.6.6.6.6.6.6.5.<.>.>.>.>.#.#.#.#.#.#.#.#.o.#.#.#.#.#.#.#.#.#.#.#.#.#.#.#.#.<.<.<.<.<.<.<.<.<.<.<.<.<.<.<.<.<.<.<.<.<.<.m $ $ $ $ $ $ $ $ $ > L i.i.6.6.6.6.i.i.i.i.i.i.i.i.i.6.6.6.6.6.5.6.<.<.<.#.#.#.X.X.X.X.X.X.X.( } ( ( } ( ( X.X.X.#.#.#.#.#.X.X.X.X.| | | | | } } | | | | | | | | | | | | | | } } } | | | | | | } | | } | | | | | | | | | | | | | | | | | | | | } } | | | | | } } | | ) ( ( ( ( ~ ( ( ~ ~ ) ) ~ Y Y Y Y Y Y Y D D D D D D D D D D D D S S ",
"Z Z Z D D D Y Y Y Y Y Y Y Y Y Y Y Y Y Y Y Y Y Y Y T ! ! ~ ~ ~ ~ T ~ ~ ~ ! ! ! ~ ~ ~ ! ! ~ T T T ~ 7.f.<.<.>.| = * * * * * * e :.:.:.>.>.X. .| |  . .| | | | | |  .|  . .X.X.| | | | |  . .| | |  . . .| | | :.>.:.:.>.>.>.:.:.:.:.:.:. .| |  . .| | | |  . .X.X.X.X.X.X.X.| | | | | | | | X.X.X.X.X.X.X.X.X.X.X.X.X.X.X.X.X.X.X.X.X.X.X.X.X.X.X.X.X.X.X.X.X.X.X.X.X.#.>.>.>.>.>.>.>.>.>.>.>.Y > > > > t x Z Z Z Z ( <.<.<.<.<.<.<.<.<.<.<.<.1.<.<.<.<.<.<.<.<.>.>.>.>.>.>.>.>.>.X.X.X.X.X.X.X.X.X.X.X.X.X.X.X.X.X.X.X.X.X.X.X.X.X.X.X.( ( ( ( X.X.X.>.6.6.6.X.b # # # # # # P 6.6.6.6.6.6.6.6.6.6.6.6.6.6.6.5.<.>.<.>.>.#.#.#.#.#.#.#.#.o.o.#.#.#.#.#.#.#.o.o.o.#.#.#.#.<.<.<.<.<.<.<.<.<.<.<.<.<.<.<.<.<.<.<.<.<.<.<.m $ $ $ $ $ $ $ $ - ; 4 i.i.6.6.6.6.y.i.i.i.i.i.i.i.6.6.6.6.6.6.5.6.5.<.<.<.#.#.#.X.X.X.X.X.X.X.X...} } } | X.X.#.#.#.#.#.#.X.X.X.X.X.| | | | | | | | | | | | | | } } | | | | | | } | | | | | | } | | | | | | | | | | | | | | | | } | | | | | | | } } | | | | | } | | ( ( ( ~ ~ ~ ( ( ( ( ) ( ) Y Y Y Y Y Y Y D D D D S D Y U S D D D D S ",
"Z Z D D D D Y Y Y Y Y Y Y Y Y Y Y Y Y Y Y Y Y Y Y Y ! ! ~ ~ ~ ~ ~ ~ ~ ~ T T ! ~ ~ ~ ! ! ~ T T ~ >.f.f.>.>.>.X.M * * * * * * t :.:.:.>.>.X. .|  . . .| | | | | |  . . . . . .| | | | |  . .| | |  . . . .| |  .:.:.:.>.>.>.:.>.>.:.:.:.| | |  . .| | | |  . . .X.X.X.X.X.X.X.| | | | | | | X.X.X.X.X.X.X.X.X.X.X.X.X.X.X.X.X.X.X.X.X.X.X.X.X.X.X.X.X.X.X.X.X.X.X.#.>.>.>.>.>.>.>.>.>.>.>.>.>.z > > > > e M Z Z Z Z >.<.<.<.<.<.<.1.1.1.<.<.<.1.1.<.<.<.<.<.<.>.>.>.>.>.>.>.>.X.X.X.X.X.X.X.X.X.X.X.X.X.X.X.X.X.X.X.X.X.X.X.X.X.X.X.X.X.X.( ( ( ) X.X.>.6.6.6.X.b ; # # # # # P 6.6.6.6.6.6.6.6.6.6.6.5.5.5.5.5.<.5.<.>.>.#.#.#.#.#.#.#.#.o.o.#.#.#.#.#.#.#.o.o.o.#.#.#.<.<.<.<.<.<.<.<.<.<.<.<.<.<.<.<.<.<.<.<.<.<.<.<.m $ $ $ $ $ $ $ $ ; ; > 5.y.6.6.6.6.6.i.i.i.i.i.i.y.6.6.6.6.6.6.5.6.5.<.<.<.>.#.#.#.X.X.X.X.X.X.X.X.X.X.X.X.X.#.#.o.o.#.#.#.X.X.X.X.X.| | | | | | | | | | } | | | | } } | | | | | | | | | | | } } | | | | | | | | | | | | | | } } } | | | | | | | | | | | | | | | | | | ( ~ ~ ~ ~ ( ( ( ( ( ( ) Y Y Y Y Y Y T U D D D S S U U S S D D D D ",
"A A A A A Y Y Y Y Y Y Y Y Y Y Y Y Y Y Y Y Y Y Y Y Y Y T ~ ~ ~ ~ ! ! ! ~ ~ ~ ! ! ~ ~ ! ! ! ~ ~ ~  .f.f.<.>.>.Q U t * * * * * z :.>.>.:.:.:. . . . . .| |  . . . .| | | |  . .| |  . .| | | |  . . . . . .| |  .X.:.:.>.>.>.:.>.>.:.:.:.X.X.X. . .| | | |  . . .X.X.X.X.X.X.X.X.| | | | | | X.X.X.X.X.X.X.X.X.X.X.X.X.X.X.X.X.X.X.X.X.X.X.X.X.X.X.X.X.X.X.X.X.#.>.>.>.>.>.>.>.>.>.>.>.>.>.>.>.3 > > > > 9 Z Z Z Z Y <.<.<.<.<.<.<.<.<.<.1.<.<.<.<.<.<.<.<.<.<.>.>.>.>.>.>.>.>.X.X.X.X.X.X.X.X.X.X.X.X.X.X.X.X.X.X.X.X.X.X.X.X.X.X.X.X.X.X.X.X.X.X.X.X.>.6.6.6.X.b > # # # # # M 6.6.6.6.6.6.5.5.5.<.<.5.5.<.<.>.>.5.5.>.#.#.#.#.#.#.#.#.#.#.#.#.#.#.#.#.o.#.#.#.#.#.#.#.#.<.<.<.<.<.<.<.<.<.<.<.<.<.<.<.<.<.<.<.<.<.#.#.m $ $ $ $ $ $ $ - > > > ..6.6.6.6.5.6.y.i.i.i.i.i.6.6.6.6.6.6.6.6.6.5.<.<.>.>.o.#.#.#.#.X.X.#.#.#.X.X.X.X.X.X.#.#.#.#.#.#.#.#.X.X.X.X.| | | | | | | | | | } } | | | } } } | | | | | | | | | | | | | | | | | | } } | | | | | | | | | | | | | | | | | | | | | | | | } } | ) ( ( ( ( ~ ~ ~ ~ ( ( ~ Y Y Y Y Y Y Y S D D D D U D D D D D D D D ",
"A A A A Y Y Y Y Y Y Y Y Y Y Y Y Y Y Y Y Y Y Y Y Y Y Y Y T ~ ~ ~ T ! ! ~ ~ ~ ~ ! ~ ~ ! ! ! ! ~ ) ) 1.f.6.>.>.Y U v * * * * * n :.>.:.:.:.:.X. . .| | | |  .X. . .| | | |  . .| | |  .| | |  . . . . . . .| |  . .:.:.>.>.>.>.:.:.:.:.>.X.X.X. . .| | | |  .X.X.| X.X.X.X.X.X.X.X.| | | | | X.X.X.X.X.X.X.X.X.X.X.X.X.X.X.X.X.X.X.X.X.X.X.X.X.X.X.X.X.X.#.>.>.>.>.>.>.>.>.>.>.>.>.>.>.>.>.>.X.> > > > > , Z Z Z Z ( <.<.<.<.<.<.<.<.<.1.1.<.<.<.<.<.<.<.<.<.<.>.>.<.>.>.>.>.>.>.X.X.X.X.X.X.X.X.X.X.X.X.X.X.X.X.X.X.X.X.X.X.X.X.X.X.X.X.X.X.X.X.X.X.X.>.6.6.6.X.b > # # # # # M 6.5.5.5.<.>.<.>.<.>.<.<.5.<.>.>.>.5.5.#.#.#.#.#.#.#.#.#.#.#.#.#.#.#.#.#.o.#.#.#.#.#.#.#.#.<.<.<.<.<.<.<.<.<.<.<.<.<.<.<.<.<.<.<.<.<.#.#.m $ $ $ $ $ $ $ - > > > ..6.6.6.6.5.5.6.i.i.i.i.6.6.6.6.6.6.6.6.6.5.<.<.<.>.>.o.#.#.#.#.#.#.#.#.#.#.X.X.X.X.X.#.#.#.#.o.o.#.#.#.X.X.X.| | | | | } | | | | | } | | | | | } | | | | | | | | | | | | | | | | | | } } | | | | } } | | | | } } | | | | | | | | } | | | | } | ( ( ( ( ( ~ ~ ~ ( ( ( ~ Y Y Y Y Y S S S S D D D D D D D D D D D D ",
"A A A Y Y Y Y Y Y Y Y Y Y Y Y Y Y Y Y Y Y Y Y Y Y Y Y Y Y T ~ ~ T T ~ ~ ~ ~ ! ! T ! T T ~ ~ ~ ) | | f.f.>.>.Y U M * * * * * n :.>.>.:.:.:.:. . .| | | | | |  . .| | |  . . . . .|  .| |  . .X. . . .| | | |  . .:.:.:.:.:.:.:.:.:.:.:.:.X. . . .| |  .|  . .| |  .X.X.X.X.X.X.X.X.X.| | | X.X.X.X.X.X.X.X.X.X.X.X.X.X.X.X.X.X.X.X.X.X.X.X.X.X.X.X.X.>.>.>.>.>.>.>.>.>.>.>.>.>.>.>.>.>.>.>.Y > > > > > , Z Z Z Z >.<.<.<.<.<.<.<.<.<.<.<.<.<.<.<.<.<.<.<.<.>.>.>.<.<.>.>.>.>.>.X.X.X.X.X.X.X.X.X.X.X.X.X.X.X.X.X.X.X.X.X.X.X.X.X.X.X.X.X.X.X.X.X.X.X.>.6.6.6.X.b w # # # # # M <.5.5.5.5.>.>.>.>.>.>.5.5.<.<.>.>.5.#.#.#.#.#.#.#.#.#.#.#.o.o.o.#.#.X.| o.#.#.#.#.#.#.#.#.<.<.<.<.<.<.<.<.<.<.<.<.<.<.<.<.<.<.<.<.<.<.#.m $ $ $ $ $ $ $ - > > > } 6.6.6.6.6.6.6.i.i.i.5.6.6.6.6.6.6.6.6.6.5.<.<.<.>.>.#.#.#.#.#.#.#.#.#.#.#.X.X.X.X.X.#.#.#.#.#.#.#.#.#.#.X.X.X.| | | } } | | | | | | | | | | | | | | } | } } } | | | } | | | | | | | | | | | } } } | | | | | } } | | | | | X.X.X.| } | | | | | | ) ( ( ( ~ ~ ( ( ( ( T Y Y Y Y D D D D D D D D Y Y Y Y D D D D D ",
"D Y Y Y Y Y Y Y Y Y Y Y Y Y Y Y Y Y Y Y Y Y Y Y Y Y Y Y Y T ~ ~ T T ~ ~ ~ ~ ! ! T T T T ~ ~ ~ ) | | 5.f.>.>.Y U M * * * * * m :.>.>.:.:.:.:.X.X.| | | | |  . . .| | |  . . . . . . .| | |  .X.X. . .| | | |  . .:.:.:.:.:.:.:.:.:.:.:.:.:.:.X. .| |  . . . .| |  . . .X.X.X.X.X.X.X.X.X.X.X.X.X.X.X.X.X.X.X.X.X.X.X.X.X.X.X.X.X.X.X.X.X.X.X.X.X.X.#.>.>.>.>.>.>.>.>.>.>.>.>.>.>.>.>.>.>.>.n > > > > > > Z Z Z U <.<.<.<.<.<.<.<.<.<.<.<.<.<.<.<.<.<.<.<.<.>.>.<.<.>.>.>.>.>.>.>.X.X.X.X.X.X.X.X.X.X.X.X.X.X.X.X.X.X.X.X.X.X.X.X.X.X.X.X.X.X.X.X.X.X.>.6.6.6.X.b w # # # # # M <.<.<.<.<.>.>.#.#.#.>.5.5.5.<.>.>.#.#.#.#.o.#.#.#.#.#.#.#.o.o.o.#.X.} } #.#.#.o.o.#.#.#.#.<.<.<.<.<.<.<.<.<.<.<.<.<.<.<.<.<.<.<.<.<.<.#.H $ $ $ $ $ $ $ - > > > Q 6.6.6.6.6.6.6.6.5.5.5.6.6.6.6.6.6.6.6.6.5.<.<.<.>.>.#.#.#.#.#.#.#.>.<.>.#.#.X.X.X.X.#.#.#.#.#.#.#.#.#.#.#.X.X.| | | } | | | | | | | | | | | | | | | } | } } | | | | } } } | | | | | | | | | } } } | | | | | | | X.X.X.X.X.X.X.X.X.X.| | | | | | ) ( ( ( ( ~ ( ( ( T Y Y Y Y Y D D D D D D D D Y Y Y Y Y Y Y Y D ",
"Y Y Y Y Y Y Y Y Y Y Y Y Y Y Y Y Y Y Y Y Y T ~ ~ ! ! ! ! ! ! ! ~ ! ~ ~ ~ T T T T ~ ! ! ! ~ ! ~ | | | | f.6.>.} U z * * * * * m :.>.:.:.:.>.:.:.X.| |  . .| | | |  . . . .X.X. . . . . .|  . . .X.| | | |  . . .X.:.:.:.:.:.:.:.>.>.>.>.:.:.:.:.X.|  . . .| | | |  . . . . .X.X.X.X.X.X.X.X.X.X.X.X.X.X.X.X.X.X.X.X.X.X.X.X.X.X.X.X.X.X.X.X.X.X.X.X.#.>.>.>.>.>.>.>.>.>.>.>.>.>.>.>.>.>.>.>.t > > > > > > Z Z r Y <.<.<.1.1.<.<.<.1.1.1.<.<.1.<.<.<.<.1.1.<.<.1.<.<.>.>.>.>.>.>.>.X.X.X.X.X.X.X.X.X.X.X.X.X.X.X.X.X.X.X.X.X.X.X.X.X.X.X.X.X.X.X.X.X.X.>.6.6.6.X.b w # # # $ $ M <.<.<.<.<.>.>.#.#.#.#.>.<.>.>.#.o.#.#.o.#.o.o.o.o.#.#.#.X.X.#.X.} } } } X.o.o.o.o.#.#.#.#.<.<.<.<.<.<.<.<.<.<.<.<.<.<.<.<.<.<.#.#.<.<.<.Q $ $ $ $ $ $ $ - > > > b 6.6.6.5.6.6.6.6.6.6.6.6.6.6.6.6.6.6.6.6.5.<.<.<.>.>.<.>.#.#.#.>.>.>.>.>.#.#.#.X.X.X.#.#.#.#.#.#.#.#.#.#.#.X.X.X.| | | } | | | X.X.X.| | | | | | | | | | | | | | | } } } | } } | | | | | | | | } | | | | | | X.X.X.X.X.X.X.X.X.X.X.X.| | | | | | ( ~ ~ ( ( ( ( ( ~ Y Y Y Y Y Y Y D D D D D D D Y Y Y Y Y Y Y Y Y ",
"Y Y Y Y Y Y Y Y Y Y Y Y Y Y Y Y Y Y Y Y Y ~ ~ ~ ! ! ! ! ! ! ~ ~ ~ ~ ~ ~ ! ~ T T ~ ! ~ ! ~ ~ ! | | | | 7.y.>.>.Y w * * * * * m :.>.>.:.:.>.>.>.:.| | |  .| | | |  . . .X.X.X.X. .X.X.X.X.X.X.X.X.X.X.X.X.X.X.X.:.:.:.:.:.:.:.>.>.>.>.>.:.:.:.:.X. . . . .| | | |  . . . . . .| X.X.X.X.X.X.X.X.X.X.X.X.X.X.X.X.X.X.X.X.X.X.X.X.X.X.X.X.X.X.X.X.X.X.#.>.>.>.>.>.>.>.>.>.>.>.>.>.>.>.>.>.>.>., > > > > > > n w > ( <.<.<.1.1.1.<.<.<.<.<.<.<.1.1.<.<.<.<.1.<.<.1.1.>.>.>.>.>.>.>.>.>.X.X.X.X.X.X.X.X.X.X.X.X.X.X.X.X.X.X.X.X.X.X.X.X.X.X.X.X.X.X.X.X.X.>.6.6.6.X.b w # # # $ $ M <.<.<.<.<.>.>.#.#.#.#.>.#.#.#.o.o.o.#.#.#.o.o.#.#.#.X.} } } } } } } } } X.#.#.o.o.#.#.#.<.<.<.<.<.<.<.<.<.<.<.<.<.<.<.<.<.<.#.#.#.<.<.<.<.- $ $ $ $ $ $ - ; ; > w 6.6.6.5.6.6.6.6.6.6.6.6.6.6.6.6.6.6.6.6.<.<.<.<.>.>.<.<.<.>.<.<.<.>.>.>.>.#.#.X.X.X.#.#.#.#.#.#.#.#.#.#.#.#.X.X.| | } } | | X.X.X.X.X.X.| | } | | | | | X.| } | | | | } | | } } | | | | | | | | | | | | | X.X.X.X.X.X.X.X.X.X.X.X.X.X.| | | | | | ) ( ( ( ) ( ( T Y Y Y Y Y Y Y Y D D D D D D Y Y Y Y Y Y Y Y Y ",
"Y Y Y Y Y Y Y Y Y Y Y Y Y Y Y Y Y Y Y Y Y T ~ ~ ~ ~ ! ! T ! ~ ! ! ! ~ ~ ~ ~ ~ ~ ~ ~ ! ! T T ~ | ) ) ) :.f.>.>.T * * * * * * m :.:.:.:.:.:.>.:.:.X.|  . . . .| |  . .X.:.>.>.:.:.:.:.:.:.:.:.:.:.:.:.:.:.:.:.>.>.:.>.:.:.:.>.>.>.>.>.:.>.:.:.:.X.| |  . . .|  . .| |  .|  . . . .X.X.X.X.X.X.X.X.X.X.X.X.X.X.X.X.X.X.X.X.X.X.X.X.X.X.X.X.X.X.X.X.X.#.>.>.>.>.>.>.>.>.>.>.>.>.>.>.>.#.| } f > > > > > > > r > , <.<.<.<.1.<.<.<.<.<.<.<.<.<.<.<.<.<.<.<.<.<.<.<.<.<.>.>.>.>.>.>.>.>.X.X.X.X.X.X.X.X.X.] ] X.X.X.X.] ] X.X.X.X.] X.X.X.X.X.X.X.X.X.X.X.>.6.6.6.X.b 9 # # # $ # M <.<.<.<.<.>.#.#.#.#.#.#.#.#.o.#.#.o.#.#.#.#.#.#.#.X.} } } } } } } } } } X.#.#.#.#.#.#.#.<.<.<.<.<.<.<.<.<.<.<.<.<.<.<.<.<.<.#.#.#.#.<.<.<.b $ $ $ $ $ $ ; ; ; > w ..6.5.5.6.6.6.6.6.6.6.5.6.6.6.6.5.5.6.6.<.<.<.<.<.<.<.<.<.<.<.<.<.<.>.>.>.#.#.#.#.X.o.X.X.#.#.#.o.o.#.#.#.#.X.X.| | } | | | X.X.X.X.X.X.X.| } } | | | X.X.X.X.| | | | | | | | | | | } } | | | | | | | X.X.X.X.X.>.>.>.>.>.>.>.X.X.X.X.X.| | | | | ( ( ( ) ) ) ~ Y Y Y Y Y Y Y Y Y Y Y D D D Y Y Y Y Y Y Y Y Y Y ",
"Y Y Y Y Y Y Y Y Y Z Y Y Y Y Y Y Y Y Y Y Y T ~ ~ ~ ~ ~ ! T T T ! ! ! ! ! ~ ~ ~ ~ ~ ~ ! ! ! T T | ) ) ) | f.>.>.Q * * * * * * m :.:.:.:.:.:.:.:.:.:.:. . . . . .|  .X.:.:.:.>.:.:.:.:.:.:.:.:.:.:.:.:.:.:.:.>.>.>.>.>.:.:.:.>.>.>.>.:.:.:.:.:.:.X.|  . . . . . . .| | | |  . . . . . .X.X.X.X.X.X.X.X.X.X.X.X.X.X.X.X.X.X.X.X.X.X.X.X.X.X.X.X.X.X.X.>.>.>.>.>.>.>.>.>.>.>.>.>.>.>.X.} } ( 9 > > > > > > > : : s <.<.<.<.<.<.<.<.<.<.<.<.<.<.<.<.<.<.<.<.<.<.<.<.<.<.>.>.>.>.>.>.>.X.X.X.X.X.X.X.X.X.X.] X.X.X.X.] ] ] ] ] X.X.] X.X.X.X.X.X.X.X.X.X.X.>.6.6.6.X.b > # # # # # M <.<.>.<.<.>.#.#.#.#.#.#.#.#.#.#.#.#.#.#.#.#.#.#.X.} } } } } } } } } } } | #.#.#.#.#.#.#.<.<.<.<.<.<.<.<.<.<.<.<.<.<.<.<.<.#.#.#.#.#.#.<.<.@.$ $ $ $ $ $ ; ; > > w z 6.6.6.6.6.6.6.6.6.6.5.6.6.6.6.5.5.6.5.<.<.<.<.<.<.<.<.<.<.<.<.<.<.>.>.>.#.#.#.#.#.#.X.X.X.X.#.o.o.o.#.#.#.X.X.X.| | | | X.X.X.X.X.X.X.X.X.X.| | | | X.X.X.X.X.| | | | | | | | | | } } | | | | X.X.X.X.X.>.>.>.>.>.>.>.>.>.>.>.#.X.X.X.X.| | | | | ( ( ) ) ) Y Y Y Y Y Y Y Y Y Y Y Y Y Y Y Y Y Y Y Y Y Y Y Y Y ",
"Y Y Y Y Y Y Y Y D 9 Z Y Y Y Y Y Y Y Y Y Y Y ~ ~ ! T ! ! T T ~ ~ T T ~ ~ ! T T T ~ ~ ~ ~ ~ ~ ~ ) ) ) | | >.>.>.( * * * * * * m :.:.:.:.:.:.:.:.:.>.>.>.X. . . . .| :.:.>.>.>.>.>.:.:.:.:.:.:.:.:.:.:.>.>.>.:.:.:.>.>.>.:.:.:.>.>.>.>.:.:.:.:.>.:. . . .| | |  . .| |  . . .| | | |  . .X.X.X.X.X.X.X.X.X.X.X.X.X.X.X.X.X.X.X.X.X.X.X.X.X.X.X.X.X.o.>.>.>.>.>.>.>.>.>.>.>.>.>.>.#.) } } U 9 > > > > > > * * > M <.<.<.<.<.<.<.<.<.<.<.<.<.<.<.<.<.<.<.<.<.<.<.<.<.<.<.>.>.>.>.>.>.X.X.X.X.X.X.] ] ] ] X.X.X.) ] ] ] ] ] X.X.X.) X.X.X.X.X.X.X.X.X.X.>.<.6.6.6.X.b : # # # # # M <.5.5.5.>.>.#.#.#.#.#.o.o.o.#.#.#.#.#.#.#.#.#.#.X.} } } } } } } } } } } X.#.#.#.#.#.#.<.<.<.<.<.<.<.<.<.<.<.<.<.<.<.<.<.<.#.#.#.#.#.#.#.<.<.m $ $ $ $ $ ; ; ; > w w ..6.6.5.5.6.6.6.6.6.6.6.5.5.5.6.6.5.<.<.<.<.<.<.<.<.<.<.<.<.<.>.>.>.<.#.#.#.#.#.#.#.X.X.X.X.X.#.#.#.#.#.#.X.X.X.| | | | X.X.X.X.X.X.X.X.X.X.X.X.| X.X.>.>.X.X.X.| | | | | | | | | | | | | X.X.X.X.X.>.>.>.>.>.>.>.>.>.>.>.>.>.>.X.X.X.X.| | | | | ) ( ( ( ( Y Y Y Y Y Y Y Y Y Y Y Y Y Y Y Y Y Y Y Y Y Y Y Y Y ",
"Y Y Y Y Y Y Y Y x 7 Z Y Y Y Y Y Y Y Y Y T T ~ ~ ~ ~ ! ! ! T ~ ~ ! T ~ ~ ! ! ! T ! ! ~ ~ ~ ~ ~ ) | | | | | >.>.>.* * * * * * M :.>.>.:.:.:.:.:.:.>.>.>.>.:. . . .X.:.:.:.>.>.>.>.:.:.:.:.:.:.>.>.:.:.>.>.:.:.:.:.>.>.>.:.:.:.>.:.>.>.:.:.:.:.>.:.| |  .| | |  . .| |  . . . .| | | |  .X.X.X.X.X.X.X.X.X.X.X.X.X.X.X.#.#.X.X.X.X.X.X.X.X.X.X.X.X.>.>.>.>.>.>.>.>.>.>.>.>.>.>.>.} ) ) } Z 3 > > > > > > > > > P <.<.<.>.>.>.>.>.<.<.<.<.<.<.<.1.<.<.<.<.<.<.<.<.<.<.<.>.>.>.>.>.X.X.X.X.X.X.X.] ] X.X.X.X.| ) ] ] ] ] X.X.X.X.) X.X.X.X.X.X.X.X.X.X.>.>.6.6.6.X.b : # # # # , M <.5.5.<.<.>.#.#.#.#.#.o.o.#.#.#.#.#.#.#.#.#.#.#.#.} } } } } } } } } } } X.#.#.#.#.#.#.<.<.<.<.<.<.<.<.<.<.<.<.<.<.<.<.<.<.#.#.#.#.#.#.#.<.5.x.m $ $ $ $ ; ; ; > w w a <.6.5.5.6.6.6.6.6.6.6.5.6.5.6.6.<.<.<.<.<.<.<.<.<.<.<.<.<.<.<.<.>.>.#.#.#.#.#.#.#.X.X.X.X.X.#.#.#.#.#.X.X.X.X.| | X.X.X.X.X.X.X.X.X.X.X.X.X.X.X.X.>.>.>.>.X.X.X.| | | | | | | | | X.X.X.X.X.X.>.>.>.>.>.>.>.>.>.>.>.>.>.>.>.>.X.X.X.X.X.| | | | ( ( ( ( ( Y Y Y Y Y Y Y Y Y Y Y Y Y Y Y Y Y Y Y Y Y Y Y Y Y ",
"Y Y Y Y Y Y Y Y 0 7 Z Y Y Y Y Y Y Y T ! ! ! ~ ~ ~ ~ ~ ~ ! ~ ~ ~ ~ ~ ~ ~ ~ ~ ! ! ! ! ! ! ~ ~ ~ ) | | | | ) :.>.>.* * * * * * Z :.>.>.>.:.>.>.>.>.:.>.:.:.:.X. .X.:.:.:.:.:.:.:.:.>.:.>.>.:.>.>.>.:.>.>.>.:.:.:.:.>.>.:.:.:.:.:.:.>.:.:.:.>.>.>.:. . . . .| |  .| |  . . .| | | | | | | X.X.X.X.X.X.X.X.X.X.X.X.X.#.>.>.>.>.X.X.X.X.X.X.X.X.X.X.>.>.>.>.>.>.>.>.>.>.>.>.>.>.>.>.} ) ) ) z , > > * > > > > > > ( >.>.>.>.>.>.>.>.>.<.<.<.<.<.<.1.1.<.<.<.<.<.<.>.>.>.>.>.>.>.X.X.X.X.X.X.X.X.X.X.X.X.X.X.X.X.X.X.X.] ] X.X.X.X.X.X.X.X.X.X.X.X.X.X.X.>.>.6.6.6.X.b : # # # # , M <.5.5.<.<.>.#.#.#.#.#.#.#.#.#.#.#.#.#.#.X.#.#.#.#.} } } } } } } } } } } X.#.#.#.#.#.#.<.<.<.<.<.<.<.<.<.<.<.<.<.<.<.<.<.<.#.#.#.#.#.#.#.#.h.v.h.; $ $ $ ; > > > w w w b 5.5.6.6.6.6.6.6.6.6.6.6.6.6.5.<.<.<.<.<.<.<.<.<.<.<.<.<.<.<.<.>.>.#.#.#.#.X.X.#.X.X.X.X.X.X.X.X.X.X.X.X.X.X.X.X.X.X.X.X.X.X.X.X.X.X.X.X.X.X.X.X.>.>.>.>.>.>.X.X.X.| | | | | X.X.X.X.X.X.X.>.>.>.>.>.>.>.>.>.>.>.>.>.>.>.>.>.X.X.X.X.X.X.| | | | ( ~ ( ( ~ Y Y Y Y Y Y Y Y Y Y Y Y Y Y Y Y Y Y Y Y Y Y Y Y ",
"Y Y Y Y Y Y Y Y 7 7 Z Y Y Y Y Y Y ! ! ! ! ! ! ~ ~ ~ ~ ~ ~ ~ ~ ~ ~ ~ ~ ~ ~ ~ ~ ! ! ! ! ! ~ ~ ~ ) | | | | |  .>.>.* * * * * * Y :.>.>.:.:.>.>.>.>.:.:.:.:.:. .X.:.:.:.:.:.:.:.:.:.>.>.>.>.:.>.>.>.:.:.>.>.:.:.:.:.:.:.:.:.:.:.:.:.:.:.:.:.:.>.>.:. . . .X.| | | | | |  . .| | | | | | | X.X.X.X.X.X.X.X.X.X.X.X.>.>.>.>.>.>.#.X.X.X.X.X.X.X.X.>.>.>.>.>.>.>.>.>.>.<.5.5.>.>.>.o.} ) ) ) z > > > > > > > > > > >.>.>.>.>.>.>.>.>.<.<.<.<.<.<.<.<.<.<.<.<.>.>.>.>.>.>.>.>.>.X.X.X.X.X.X.X.X.X.X.X.X.X.X.X.X.X.X.X.X.X.X.X.X.X.X.X.X.X.X.X.X.X.X.X.X.X.>.>.6.6.6.X.b # # # # # , M <.5.5.<.<.>.#.#.#.#.#.#.#.#.#.#.#.X.} } } } X.#.#.} } } } } } } } } } } X.#.#.#.#.#.#.<.<.<.#.<.<.<.<.<.<.<.<.<.<.<.<.<.<.#.#.#.#.#.#.#.<.v.v.v.U $ $ $ - > > 4 w w w w #.5.6.6.6.6.6.6.6.6.6.6.6.6.5.<.<.<.<.<.<.<.<.<.<.<.<.<.<.<.>.>.#.#.#.#.#.X.X.#.X.X.X.X.X.X.X.X.X.X.X.X.X.X.X.X.X.X.X.X.X.X.X.X.X.X.X.X.X.X.X.>.>.>.>.>.>.>.>.>.X.X.X.| X.X.X.X.X.X.X.X.X.>.>.>.>.>.>.>.>.>.>.>.>.>.>.>.>.>.X.X.X.X.X.X.X.| | | ) ~ ( ( ( ~ T Y Y Y Y Y Y Y Y Y Y Y Y Y Y Y Y Y Y Y Y Y Y ",
"Y Y Y Y Y Y Y Z 7 7 Z Y Y Y Y Y ! ! T T ! ! ! ~ ! ~ ~ ~ ~ ~ ~ ~ ~ ~ ! ! ~ ~ ~ ~ ~ ~ ~ T ! ! ~ ) ) ) | ) | | >.| * * * * * * X.:.:.:.>.>.>.:.:.:.:.:.:.:.:.:.:.:.:.:.:.:.:.:.:.:.:.:.:.>.>.>.:.:.>.>.:.:.>.>.>.>.:.:.:.:.:.:.:.:.:.:.>.>.:.:.:.:. .X.X.X. . .X.X.| | | | | X.X. . . .| X.X.X.>.X.X.X.X.X.X.o.>.>.>.>.>.>.>.>.#.X.X.X.X.X.X.>.>.>.>.>.>.>.>.>.>.<.5.5.5.>.>.>.X.} } } } z > > > > > : : : > 9 >.>.>.>.>.>.>.>.>.<.<.<.<.<.<.<.<.<.<.>.>.>.>.X.X.X.X.X.X.X.X.X.X.X.X.X.X.X.X.X.X.X.X.X.X.X.X.X.X.X.X.X.X.X.X.X.X.X.X.X.X.X.X.X.X.X.X.>.>.6.6.6.X.b # # # # # , M <.>.>.>.<.<.<.>.>.<.#.#.#.#.X.| } } } } } } } } } } } } } } } } } } } } X.#.#.#.#.#.#.<.<.<.#.#.<.<.<.<.<.<.<.<.<.<.<.<.<.#.#.#.#.#.#.#.#.5.v.v.h.$ $ $ - > > 4 w w w b #.>.<.5.6.5.5.6.6.6.6.6.6.6.6.<.<.<.<.<.<.<.5.5.5.5.5.<.<.>.>.#.#.#.#.#.X.X.X.#.#.X.X.X.X.X.X.X.X.X.X.X.X.X.X.X.X.X.X.X.X.X.X.X.X.X.X.X.X.X.X.>.>.>.>.>.>.>.>.>.>.X.X.X.X.X.X.X.X.X.X.X.X.>.>.>.>.>.>.>.>.>.>.>.>.>.>.>.>.>.X.X.X.X.X.X.X.X.| | ) ~ ( ( ( ( ( T Y Y Y Y Y Y Y Y Y Y Y Y Y Y Y Y Y Y Y Y Y ",
"Y Y Y Y Y Y Y z 7 7 Z Y Y Y Y ! ! ! T T ! ! ~ ~ ! ! ~ ~ ~ ~ ~ ~ ~ ~ ~ ! ~ ~ ~ ~ ~ ~ T T ! ! ~ | | | | ) ) ) >.Q * * * * * , :.:.:.:.>.>.:.:.:.:.:.:.:.:.:.:.:.:.:.:.:.:.:.:.>.:.:.:.:.:.>.>.:.:.>.>.>.:.>.>.>.>.:.:.:.:.:.:.:.:.:.:.:.>.:.:.:.:. .X.X.X.X.X.X.X.| | | |  . . . . . .| X.X.X.>.#.X.X.X.X.#.>.>.>.>.>.>.>.>.>.>.X.X.X.X.#.>.>.>.>.>.<.>.>.>.>.5.<.5.5.5.>.>.>.X.} } } } z > > > > > : : : > z >.>.>.>.>.>.>.>.>.<.<.<.<.>.>.>.>.>.>.>.>.X.X.X.X.X.X.X.X.X.X.X.X.X.X.X.X.X.X.X.X.X.X.X.X.X.X.X.X.X.X.X.X.X.X.X.X.X.X.X.X.X.X.X.X.X.>.>.>.6.6.6.X.f # # # # # , M <.>.>.>.>.5.<.<.>.>.#.#.#.| } } } } } } } } } } } } } } } } } } } } } } } o.#.#.#.#.#.#.<.#.#.#.<.<.<.<.<.<.<.<.<.<.<.<.<.#.#.#.#.#.#.#.#.#.h.v.v.H $ $ - > > 4 w w w } #.>.>.>.6.5.6.6.6.6.6.5.6.6.6.6.5.5.5.5.6.6.6.6.6.6.6.6.<.>.>.#.#.#.#.#.X.X.X.#.#.X.X.X.X.X.X.X.X.X.X.X.X.X.X.X.X.X.X.X.X.X.X.X.X.X.X.X.X.X.>.>.>.>.>.>.>.>.>.>.>.>.>.X.X.X.X.X.X.X.X.X.X.>.>.>.>.>.>.>.>.>.>.>.>.>.>.>.>.X.X.X.X.X.X.X.X.X.| | | ~ ~ ( ( ( ( ( Y Y Y Y Y Y Y Y Y Y Y Y Y Y Y Y Y Y Y Y Y ",
"Y Y Y Y Y Y Y t 7 7 Y Y Y T ! ~ ! ! T T ~ ~ ~ ~ ! ! T T ~ ~ ~ ~ ~ ~ ! ! ! ! ~ T ~ ~ ~ ~ ! ! ) | | ) | ) | | X.Q * * * * * t :.:.:.:.>.>.:.:.:.:.>.>.>.>.:.:.:.:.:.:.:.:.>.>.>.>.:.:.:.:.>.>.:.:.>.>.:.:.:.:.:.:.>.:.>.>.:.:.:.:.:.:.>.>.>.:.:.:.:.:.:.:.:.:.X.X. . .| | |  . . . . . . .X.X.>.>.X.X.X.#.>.>.>.>.>.>.>.>.>.>.>.>.X.#.>.>.>.>.>.>.5.<.>.>.>.<.5.5.5.5.5.<.>.>.X.} } } } f > * > > > > > : > Y >.>.>.>.>.>.>.>.>.<.<.>.>.>.>.>.>.>.>.>.>.X.X.X.X.X.X.X.X.X.X.X.X.X.X.X.X.X.X.X.X.X.X.X.X.X.X.X.X.X.X.X.X.X.X.X.X.X.X.X.X.X.X.>.>.>.>.>.>.6.6.6.+.s # # # # # , M <.<.>.5.5.5.5.>.>.>.>.#.#.| } } } } } } } } } } } } } } } } } } } } } } } o.o.#.#.#.#.#.#.#.#.#.<.<.<.<.<.<.<.<.<.<.<.<.<.#.#.#.#.#.#.#.#.#.<.v.v.#.$ $ $ > > 4 w w b >.>.>.>.>.6.6.6.6.6.6.6.5.6.6.6.6.6.6.6.6.6.6.6.6.6.6.6.6.<.>.#.#.#.#.#.#.X.X.X.X.X.X.X.X.X.X.X.X.X.X.X.X.X.X.X.X.X.X.X.X.X.X.X.X.X.X.X.X.X.X.>.>.>.>.>.>.>.>.>.>.>.>.>.>.X.X.X.X.X.X.X.X.X.X.>.>.>.>.>.>.>.>.>.>.>.>.>.>.>.X.X.X.X.X.X.X.X.X.| | | ) ( ( ( ) ( ) ~ Y Y Y Y Y Y Y Y Y Y Y Y Y Y Y Y Y Y Y Y ",
"Y Y Y Y Y Y Y 7 7 9 Y Y T ~ ! ! ! ! ~ ~ ~ ~ ~ ~ ! ! T T T ! ~ ~ ~ ~ ! ! ! T T T ~ ~ ~ ~ ~ ~ | | | | | | ) | >.Q * * * * * M :.:.:.:.>.>.:.:.:.:.>.>.>.:.:.:.>.>.>.>.:.:.:.>.>.>.:.:.:.:.>.>.:.:.:.>.:.:.:.:.:.:.>.>.>.>.>.:.:.:.:.:.>.>.>.:.:.:.:.:.:.:.:.:.:. . . .| | |  . . . . . . .X.X.>.>.X.X.#.>.>.>.>.>.>.>.>.>.>.>.>.>.>.>.>.>.>.>.>.5.5.<.>.>.>.5.5.5.5.5.5.<.>.>.o.} } } } M > > > > > > > > > } >.>.>.>.>.>.>.>.>.>.>.>.>.>.>.>.>.>.>.>.>.X.X.X.X.X.X.X.X.X.X.X.X.X.X.X.X.X.X.X.X.X.X.X.X.X.X.>.>.X.X.X.X.X.X.X.X.X.>.>.>.>.>.>.>.>.>.>.<.6.6.6.] s # # # # # , M <.<.5.5.5.5.5.>.>.>.>.#.#.#.X.X.X.#.} } } } } } } } } } } } } } } } } } } X.o.#.#.#.#.#.#.#.#.#.<.<.<.<.<.<.<.<.<.<.<.<.<.#.#.#.#.#.#.#.#.#.#.h.v.<.$ $ $ < > 4 w s #.>.>.>.>.>.6.6.6.6.6.6.6.6.6.6.6.6.6.6.6.6.5.<.5.5.5.5.5.<.<.#.#.#.#.#.#.#.X.X.X.X.X.X.X.X.X.X.X.X.X.X.X.X.#.X.X.X.X.X.X.X.X.X.X.X.X.X.X.X.X.>.>.>.>.>.>.>.>.>.>.>.>.>.>.>.>.X.X.X.X.X.X.X.X.X.>.>.>.>.>.>.>.>.>.>.>.>.>.>.#.X.X.X.X.X.X.X.X.X.| | | } ( ( ( ) ) ) ) ~ Y Y Y Y Y Y Y Y Y Y Y Y Y Y Y Y Y Y Y ",
"Y Y Y Y Y Y x 7 7 i Y Y T ~ ~ ! ! ~ ~ ~ ~ ~ ~ ~ ~ T ~ ~ ! ! ! ! ~ ~ ~ ~ ! ! ! ! ! ~ ~ ~ ~ ~ | | ) | | | | >.>.Q * * * * * T :.:.:.:.:.:.>.>.>.:.:.:.:.:.>.>.>.>.>.>.>.>.:.:.:.:.:.>.>.>.:.:.:.:.:.:.:.:.:.:.>.>.>.>.:.:.>.>.>.>.:.:.:.:.>.>.:.:.:.:.:.:.:.:.:.X. . . . . . . .| | | | | X.X.#.>.X.>.>.>.>.>.>.>.>.>.>.>.>.>.>.>.>.>.>.>.>.>.<.5.5.>.>.>.<.5.5.5.5.5.5.5.>.>.>.} } | | T > > > > > > > > : >.>.>.>.>.>.>.>.>.>.>.>.>.>.>.>.>.>.>.>.>.>.X.X.X.X.X.X.X.X.X.X.X.X.X.X.X.X.X.X.X.X.X.X.X.X.>.>.>.>.>.>.>.X.X.X.X.>.>.>.>.>.>.>.>.>.>.>.>.1.6.6.6.] s # # # # # , M <.<.<.<.<.5.5.<.>.>.>.#.#.o.o.#.#.X.} } } } } } } } } } } } } } } } } } } X.#.#.#.#.#.#.#.#.#.#.<.<.<.<.<.<.<.<.<.<.<.<.#.o.o.o.#.#.#.#.#.o.o.r.v.<., $ $ - > 4 w } #.#.#.>.>.>.6.6.6.6.6.6.6.6.5.5.6.6.6.6.5.<.<.<.<.<.<.<.<.<.>.#.#.#.#.#.X.X.X.X.X.X.X.X.X.X.X.X.X.X.X.X.X.<.<.<.X.X.X.X.X.X.X.X.X.X.X.X.X.X.X.>.>.>.>.>.>.>.>.>.>.>.>.>.>.>.>.>.X.X.X.X.X.X.X.X.X.>.>.>.>.>.>.>.>.>.>.>.>.>.X.X.X.X.X.X.X.X.X.X.X.| | } ( ( ( ( ( ( ( ( ~ Y Y Y Y Y Y Y Y Y Y Y Y Y Y Y Y Y Y ",
"Y Y Y Y Y Y 7 7 7 Z Y Y T ~ ~ ~ ~ ~ ~ ~ ~ ~ ~ ~ ~ T T T ! ! ! ~ ) ) ) ) ) ) ~ ~ ~ ~ ) ) | | | | | | ) X.>.>.>.P * * * * * } :.:.:.:.>.:.>.>.:.:.:.:.:.:.:.:.>.>.>.>.:.:.:.:.:.:.:.:.>.>.:.>.:.:.:.:.:.:.:.:.>.>.>.>.:.:.>.>.>.>.:.:.>.>.>.>.:.:.:.:.:.:.:.:.:.X. . . . . . .| | | | | | X.X.X.>.>.>.>.>.>.>.>.>.>.>.>.>.>.>.>.>.>.>.>.>.>.5.<.5.5.>.>.>.5.5.5.5.5.5.<.<.<.>.>.| | 6.6.Y > > > > > > > > 9 >.>.>.>.>.>.>.>.>.>.>.>.>.>.>.>.>.>.>.>.>.>.X.X.X.X.X.X.X.X.X.X.X.X.X.X.X.X.X.X.X.X.X.>.>.>.>.>.>.>.>.>.>.>.>.>.>.>.>.>.>.>.>.>.>.>.>.>.>.6.6.6.6.] s # # # # # , M <.<.<.<.<.5.5.<.>.>.>.<.#.#.#.o.#.X.} } } } } } } } } } } } } } } } } } } | #.#.#.#.#.#.#.#.#.#.<.<.<.<.<.<.#.#.<.<.<.#.#.o.#.o.#.#.#.#.#.#.#.#.v.<.4 $ $ $ > 4 s #.#.#.#.>.>.5.6.6.6.6.6.6.6.6.6.5.5.6.6.5.<.<.<.<.<.<.<.<.<.<.#.#.#.#.X.X.X.X.X.X.X.X.X.X.X.X.X.#.<.<.>.X.X.<.<.5.>.X.X.X.X.X.X.X.X.X.X.X.X.X.X.>.>.>.>.>.>.>.>.>.>.>.>.>.>.>.>.>.>.X.X.X.X.X.X.X.X.X.>.>.>.>.>.>.>.>.>.>.>.>.X.X.X.X.X.X.X.X.X.X.X.| | | ( ( ( ( ( ( ( ( ( ~ Y Y Y Y Y Y Y Y Y Y Y Y Y Y Y Y Y ",
"Y Y Y Y Y t 7 7 9 Y Y Y T ~ ~ ~ ~ ~ ~ ~ ! ~ ! ! ! ! T ! ~ ~ ) | | ) ) ) ) ) | | | | | | | | ) ) ) | | >.>.>.>.z * * * * * } :.:.>.>.>.>.>.>.:.:.>.>.:.:.:.:.:.:.:.:.:.:.:.:.>.>.:.:.>.>.>.>.>.>.>.:.:.:.:.:.:.:.:.:.:. .:.>.:.:.:.>.>.>.>.>.:.:.>.>.:.:.:.:.:.X.| | | |  . . . .X.X.| | X.X.X.>.>.>.>.>.>.>.>.>.>.>.<.5.<.<.<.>.>.>.>.>.<.5.5.5.5.<.>.>.5.5.<.<.5.5.<.<.<.>.>.o.>.6.6.<.> > > > > > > > f >.>.>.>.>.>.>.>.>.>.>.>.>.>.>.>.>.>.>.>.>.>.>.X.X.X.X.X.X.X.X.X.X.X.X.X.X.X.X.>.>.>.>.>.>.>.>.>.>.>.>.>.>.>.>.>.>.>.>.>.5.6.6.1.1.1.6.6.6.6.6.6.6.] s # # # # # , M <.<.<.<.<.5.5.5.5.5.5.<.#.#.#.#.#.X.} } } } } } } } } } } } } } } } } } } } #.#.#.#.#.#.#.o.#.#.<.<.<.<.#.#.#.#.#.#.#.#.#.#.#.#.#.o.#.#.#.#.#.#.y.#., $ $ $ > 4 z >.#.#.#.>.>.5.5.5.5.6.6.6.6.6.6.6.6.6.5.<.<.<.<.<.<.<.<.<.<.<.>.#.#.#.X.X.X.X.X.X.X.X.X.X.X.X.>.<.<.<.<.>.>.<.5.k.f.X.X.X.X.X.X.X.X.X.X.X.X.X.>.>.>.>.>.>.>.>.>.>.>.>.>.>.>.>.>.>.>.>.X.X.X.X.X.X.X.X.X.#.>.>.>.>.>.>.>.>.>.>.X.X.X.X.X.X.X.X.X.X.X.X.| | | ( ( ~ ~ ( ( ( ( ~ ~ Y Y Y Y Y Y Y Y Y Y Y Y Y Y Y Y ",
"Y Y Y Y x 7 7 7 x Y Y Y Y ~ ! ~ ~ ~ ~ ~ ! ! ~ ! ! ! ! ! ~ | | | | ) ) ) | | | | | | | | ) ) ) ) ) | >.>.>.>.>.z * * * * * } :.:.:.>.>.>.>.:.:.:.>.>.:.:.:.:.:.:.:.:.:.:.:.:.>.>.:.:.:.>.>.>.>.:.>.:.:.:.:.:.:.:.:.:.:.n :.:.:.:.:.>.>.>.>.>.:.:.>.>.>.:.:.:.:. .| | | |  . . .|  . . .| X.X.X.>.>.>.>.>.>.>.>.>.<.5.5.5.<.<.5.5.<.>.>.>.5.5.5.5.5.5.5.5.5.5.<.<.5.5.5.5.5.>.>.m.N.6.6.6.k > > > > > > > P >.>.>.>.>.>.>.>.>.>.>.>.>.>.>.>.>.>.>.>.>.>.>.X.X.X.X.X.X.X.X.X.X.X.X.X.X.X.>.>.>.>.>.>.>.>.>.>.>.>.>.>.>.>.>.>.>.>.>.1.6.6.6.6.6.6.6.6.6.6.6.6.6.( w # # # # # , M <.<.<.<.<.5.5.5.<.5.5.5.<.#.#.#.#.X.} } } } } } } } } } } } } } } } } } } } #.#.#.#.#.o.o.o.o.#.#.#.#.#.#.#.#.#.#.#.#.#.#.#.#.#.#.o.#.#.#.#.#.#.#.#.$ $ $ $ ; 4 z >.#.#.#.#.5.5.6.6.5.6.6.6.6.6.6.6.6.<.<.<.<.<.<.<.<.<.<.<.<.<.<.#.#.#.X.X.X.X.X.X.X.X.X.X.X.>.<.<.<.<.<.<.<.<.k.v.v.( X.X.X.X.X.X.X.X.X.X.X.X.>.>.>.>.>.>.>.>.>.>.>.>.>.>.>.>.>.>.>.>.>.X.X.X.X.X.X.X.X.X.X.>.>.>.>.>.>.>.>.>.>.X.X.X.X.X.X.X.X.X.X.X.| | | ) ( ~ ~ ~ ~ ( ( ( ~ ~ Y Y Y Y Y Y Y Y Y Y Y Y Y Y Y ",
"Y Y Y Z 7 7 7 9 Y Y Y Y Y ! ! ~ ! ! ~ ~ ~ ~ ! ! ! ! ~ ~ ) ) | | | | ) ) ) ) | | | | | | | | ) ) >.k.>.>.>.>.>.9 * * * * * ) :.:.:.:.>.>.>.>.:.:.>.>.:.:.:.:.:.:.:.:.:.:.:.:.>.>.:.:.>.>.>.>.:.:.>.>.:.:.:.:.:.:.:.:.>.x ~ :.:.:.:.:.>.>.>.>.:.:.>.>.:.:.:.:.X. .| |  . . . .| |  . .| | X.X.X.X.>.>.>.>.>.>.>.<.5.5.5.5.<.<.5.5.5.5.5.5.5.5.5.5.5.5.<.5.5.5.5.<.5.5.<.5.5.>.g.~.E.6.6.6.X.> > > > > > > } >.>.>.>.>.>.>.>.>.>.>.>.>.>.>.>.>.>.>.>.>.>.>.X.X.X.X.X.X.X.X.X.X.X.X.X.X.X.>.>.>.>.>.>.>.>.>.>.>.>.>.>.>.>.>.>.>.>.1.6.6.6.6.6.6.6.6.6.6.6.6.6.1.( 2 # # # # # , M <.<.<.<.<.5.<.<.>.<.<.<.5.>.#.#.#.X.} } } } } } } } } } } } } } } } } } } } X.#.#.#.#.o.o.o.o.#.#.#.#.#.#.#.#.o.#.#.#.#.#.#.#.#.#.o.o.#.#.#.#.#.#.+.$ $ $ $ - 4 r <.>.>.<.5.6.6.6.6.6.6.5.5.5.6.6.6.<.<.<.<.<.<.<.<.<.<.<.<.<.<.<.>.#.#.X.X.X.X.X.X.X.X.X.X.>.<.<.<.<.<.<.<.<.f.v.v.v.T T X.X.X.X.X.X.X.X.X.X.>.>.>.>.>.>.>.>.>.>.>.>.>.>.>.>.>.>.>.>.>.X.X.X.X.X.X.X.X.X.>.>.>.>.>.>.>.>.>.>.>.>.>.>.X.X.X.X.X.X.X.X.X.| | | | ) ~ ~ ( ( ( ( ~ ~ ) ~ Y Y Y Y Y Y Y Y Y Y Y Y Y Y ",
"Y Y Y q 7 7 7 x Y Y Y Y Y Y ! ! T ! ~ ~ ! ~ ! T ~ ~ ~ ~ ) ) | | | | ) ) ) ) | | ) | | ) | | ) | k.k.>.>.>.>.>.9 * * * * * Z :.:.:.:.:.:.>.>.:.:.>.>.:.:.>.:.:.:.:.:.:.>.:.:.>.>.:.:.>.>.:.:.:.:.>.>.:.:.:.:.:.>.:.:.>.x n :.:.:.:.:.>.:.>.>.:.:.:.>.:.:.>.X. . .| |  . .|  .| |  . .| | | X.X.X.>.>.>.>.>.>.5.5.5.5.5.5.<.<.5.5.5.5.5.5.5.5.5.5.5.5.5.<.5.5.5.5.5.5.<.<.5.x.~.~.E.6.6.6.6.w > > > > > , >.>.>.>.>.>.>.>.>.>.>.>.>.>.>.>.>.>.>.>.>.>.>.>.X.X.X.X.X.X.X.X.X.X.X.X.X.X.X.>.>.>.>.>.>.>.>.>.>.>.>.>.>.>.>.>.>.>.<.6.6.6.6.6.6.6.6.6.6.6.6.6.6.>.( 2 # # # # # , M <.<.<.<.<.<.<.>.<.>.<.<.<.5.#.#.#.X.} } } } } } } } } } } } } } } } } } } } X.#.#.#.#.o.o.o.o.#.#.#.#.#.#.#.#.o.o.#.#.#.#.o.o.#.#.o.o.#.#.#.#.#.#.Q $ $ $ $ $ , w 6.6.6.6.6.6.6.6.6.6.6.6.6.6.6.6.<.<.<.<.<.<.<.<.<.<.<.<.<.<.<.>.>.>.#.X.X.X.X.X.X.X.X.X.>.<.<.<.<.<.<.<.<.f.v.v.v.v.( Z T X.X.X.X.X.X.X.X.X.>.>.>.>.>.>.>.>.>.>.>.>.>.>.>.>.>.>.>.X.X.X.X.X.X.X.X.X.X.X.>.>.>.>.>.>.>.>.>.>.>.>.>.>.>.>.>.>.X.X.X.X.X.X.| | | | ) ( ( ( ( ( ~ ~ ) ) Y Y Y Y Y Y Y Y Y Y Y Y Y Y ",
"Y Y Z 7 7 7 9 Y Y Y Y Y Y Y ! ! T T ! ! ~ ~ ~ T ~ ~ ~ ~ ~ ) ) | | | | | ) | | | ) ) ) ) | | | 7.k.k.>.>.>.>.>.* * * * * * 7 :.:.:.:.:.:.>.:.:.:.:.:.:.:.>.>.>.:.:.>.>.>.:.:.:.:.:.:.:.>.:.:.:.:.>.:.:.:.:.>.>.>.>.:.) x x | :.:.:.:.:.:.>.:.:.:.:.:.:.:.X.X. . .|  .X. .| | | |  . .| | | X.X.X.#.>.>.>.>.5.5.5.5.5.5.5.5.5.5.5.5.5.5.5.5.<.<.<.5.5.5.<.5.5.5.5.5.5.5.<.i.~.~.~.E.6.6.6.6.Y > > > > > z >.>.>.>.>.>.>.>.>.>.>.>.>.>.>.>.>.>.>.>.>.>.>.>.X.X.X.X.X.X.X.X.X.X.X.X.X.X.X.>.>.>.>.>.>.>.>.>.>.>.>.>.>.>.>.>.>.>.6.6.6.6.6.6.6.6.6.6.6.6.6.6.6...( , # # # # # , M <.<.<.<.<.<.<.<.>.>.>.>.<.5.>.#.#.#.X.} } } } } } } } } } } } } } } } } } } X.#.#.#.#.#.#.#.#.#.#.#.#.#.#.#.#.o.o.#.#.#.#.o.o.o.#.o.#.#.#.#.o.o.#.H $ $ $ $ $ > w 6.6.6.6.6.6.6.6.6.6.6.6.6.6.6.<.<.<.<.<.<.<.<.<.<.<.<.<.<.<.<.<.>.>.#.X.X.X.X.X.X.X.X.>.<.<.<.<.<.<.<.5.k.v.v.v.v.v.5.Z Z ( X.X.X.X.X.X.X.X.>.>.>.>.>.>.>.>.>.>.>.>.>.>.>.>.>.X.X.X.X.X.X.X.X.X.X.X.X.X.X.>.>.>.>.>.>.>.>.>.>.>.>.>.>.>.>.>.>.X.X.X.X.X.| | | | | ) ( ( ( ( ( ~ ) ) T Y Y Y Y Y Y Y Y Y Y Y Y Y ",
"Y Y x 7 7 7 Z Y Y Y Y Y Y Y ! ! T T ! ! ~ ~ ~ ~ ~ ~ ~ ~ ~ ) | | | | | | ) ) | | ) ) ) ) | | | k.k.y.>.>.>.>.| * * * * * * * Z :.:.:.:.:.>.:.:.:.:.:.:.:.>.>.>.>.>.>.>.>.:.:.:.:.:.:.:.>.:.:.:.:.>.:.:.:.>.>.>.>.>.:.) x x ( :.:.:.:.:.:.:.:.:.:.:.:.:. .X.X. . .|  .X. .| | | |  . .| | | X.X.X.X.>.>.>.<.5.5.5.5.5.5.5.5.5.5.5.5.5.5.5.5.5.<.5.5.5.5.5.5.5.5.5.5.5.5.6.~.~.~.~.W.6.6.6.6.<.> > > > * ( >.>.>.>.>.>.>.>.>.>.>.>.>.>.>.>.>.>.>.>.>.>.>.>.X.X.X.X.X.X.X.X.X.X.X.X.X.X.X.>.>.>.>.>.>.>.>.>.>.>.>.>.>.>.>.>.>.1.y.6.6.6.6.6.6.6.6.6.6.6.6.6.6.( ( # # # # # # , M <.<.<.<.<.<.<.<.>.>.>.>.<.5.5.>.#.#.#.} } } } } } } } } } } } } } } } } } } } #.#.#.#.#.#.#.#.#.#.#.#.#.#.#.#.o.o.#.#.#.#.o.o.#.#.#.#.#.#.o.o.o.#.k $ $ $ $ $ > w 6.6.6.6.6.6.6.6.6.6.6.6.6.6.<.<.<.<.<.<.<.<.<.<.<.<.<.<.<.<.<.<.>.>.>.#.X.X.X.X.X.X.>.<.<.<.<.<.<.<.5.k.v.v.v.v.v.v.f.Z Z Z X.X.X.X.X.X.X.X.>.>.>.>.>.>.>.>.>.>.>.>.>.>.>.>.X.X.X.X.X.X.X.X.X.X.X.X.X.X.X.>.>.>.>.>.>.>.>.>.>.>.>.>.>.>.>.>.>.#.X.X.X.X.| | | | | | ( ( ( ( ( ~ ) ) ~ Y Y Y Y Y Y Y Y Y Y Y Y Y "
};
