/* XPM */
static char *_b6c60123c484e57b4bc427236ed7613ipobYrzYYI5ygdjy[] = {
/* columns rows colors chars-per-pixel */
"512 16 253 2 ",
"   c #3700A0",
".  c #4601B7",
"X  c #5204C0",
"o  c #5F0AC8",
"O  c #5C09C6",
"+  c #4000B1",
"@  c #610BC9",
"#  c #6A10CD",
"$  c #7317D1",
"%  c #4501B5",
"&  c #3900A6",
"*  c #4301B4",
"=  c #8123D7",
"-  c #9A3FE1",
";  c #4E03BD",
":  c #3900A5",
">  c #4A02BA",
",  c #650DCB",
"<  c #680FCC",
"1  c #5505C2",
"2  c #4200B2",
"3  c #5E09C7",
"4  c #600BC8",
"5  c #5D09C6",
"6  c #6E13CF",
"7  c #4801B8",
"8  c #37009D",
"9  c #7C1FD6",
"0  c #8628D9",
"q  c #5F0AC7",
"w  c #3B00A9",
"e  c #5104BF",
"r  c #610BC8",
"t  c #4B02BB",
"y  c #3D00AC",
"u  c #5D09C7",
"i  c #5606C2",
"p  c #6910CD",
"a  c #3D00AD",
"s  c #7317D2",
"d  c #7B1DD5",
"f  c #630CCA",
"g  c #3E00AE",
"h  c #5004BE",
"j  c #4100B1",
"k  c #3A00A7",
"l  c #5506C2",
"z  c #4B02BA",
"x  c #7518D2",
"c  c #4902B9",
"v  c #3800A2",
"b  c #3F00AF",
"n  c #6F14D0",
"m  c #660ECB",
"M  c #620CC9",
"N  c #892BDB",
"B  c #600AC8",
"V  c #3C00AB",
"C  c #3C00AA",
"Z  c #6B11CE",
"A  c #37009F",
"S  c #8C2EDC",
"D  c #3A00A8",
"F  c #4000B0",
"G  c #5A08C5",
"H  c #4802B8",
"J  c #8224D8",
"K  c #3800A3",
"L  c #5505C1",
"P  c #4D03BC",
"I  c #3700A1",
"U  c #7D1FD6",
"Y  c #4C02BB",
"T  c #9538DF",
"R  c #5B08C5",
"E  c #5706C3",
"W  c #7E20D6",
"Q  c #5405C1",
"!  c #6C12CE",
"~  c #983CE0",
"^  c #620BC9",
"/  c #3800A4",
"(  c #5807C4",
")  c #8527D9",
"_  c #6D12CE",
"`  c #9437DF",
"'  c #630CC9",
"]  c #4F03BE",
"[  c #5907C4",
"{  c #3F00B0",
"}  c #9D42E2",
"|  c #3E00AD",
" . c #4100B2",
".. c #7015D0",
"X. c #8426D9",
"o. c #4C03BC",
"O. c #882ADA",
"+. c #8829DA",
"@. c #7A1CD5",
"#. c #5C08C6",
"$. c #4300B3",
"%. c #4401B4",
"&. c #771AD3",
"*. c #4701B8",
"=. c #670FCC",
"-. c #9133DE",
";. c #6C11CE",
":. c #4C03BB",
">. c #5E0AC7",
",. c #6A11CD",
"<. c #37009C",
"1. c #9C41E2",
"2. c #4200B3",
"3. c #781AD4",
"4. c #37009E",
"5. c #670ECC",
"6. c #5A07C5",
"7. c #8728DA",
"8. c #5305C0",
"9. c #9134DE",
"0. c #8628DA",
"q. c #9539DF",
"w. c #7115D0",
"e. c #5204BF",
"r. c #9235DE",
"t. c #3B00AA",
"y. c #8A2BDB",
"u. c #4601B6",
"i. c #8325D8",
"p. c #791CD4",
"a. c #640DCA",
"s. c #7216D1",
"d. c #4501B6",
"f. c #7619D3",
"g. c #4701B7",
"h. c #7F21D7",
"j. c #781BD4",
"k. c #4F03BD",
"l. c #7519D3",
"z. c #7A1DD5",
"x. c #4A02B9",
"c. c #6D12CF",
"v. c #7417D2",
"b. c #7A1CD4",
"n. c #4401B5",
"m. c #7014D0",
"M. c #9032DD",
"N. c #A046E3",
"B. c #7115D1",
"V. c #7C1ED6",
"C. c #9D43E2",
"Z. c #8022D7",
"A. c #993DE1",
"S. c #9F45E3",
"D. c #791BD4",
"F. c #9E44E2",
"G. c #8324D8",
"H. c #7116D1",
"J. c #9234DE",
"K. c #8729DA",
"L. c #8627D9",
"P. c #8223D8",
"I. c #8C2FDC",
"U. c #7418D2",
"Y. c #7B1ED5",
"T. c #993EE1",
"R. c #6D13CF",
"E. c #A44CE4",
"W. c #8D2FDC",
"Q. c #5305C1",
"!. c #650DCA",
"~. c #5807C3",
"^. c #9A3EE1",
"/. c #8123D8",
"(. c #3C00AC",
"). c #5A07C4",
"_. c #8325D9",
"`. c #3A00A9",
"'. c #9639E0",
"]. c #8F32DD",
"[. c #5003BE",
"{. c #3700A2",
"}. c #4E03BC",
"|. c #8A2CDB",
" X c #650ECB",
".X c #8B2DDB",
"XX c #3900A7",
"oX c #7D20D6",
"OX c #A148E3",
"+X c #A54DE5",
"@X c #A34AE4",
"#X c #5806C3",
"$X c #690FCD",
"%X c #7C1ED5",
"&X c #8425D9",
"*X c #4300B4",
"=X c #963AE0",
"-X c #9033DD",
";X c #973AE0",
":X c #8F31DD",
">X c #761AD3",
",X c #5004BF",
"<X c None",
"1X c #A34BE4",
"2X c #9C42E2",
"3X c #7316D1",
"4X c #7519D2",
"5X c #640CCA",
"6X c #9337DF",
"7X c #8122D7",
"8X c #882ADB",
"9X c #A64FE5",
"0X c #5B08C6",
"qX c #973BE0",
"wX c #9639DF",
"eX c #6F14CF",
"rX c #A54EE5",
"tX c #8E30DD",
"yX c #8B2DDC",
"uX c #9438DF",
"iX c #9B40E1",
"pX c #670ECB",
"aX c #7E21D6",
"sX c #9B40E2",
"dX c #A047E3",
"fX c #9033DE",
"gX c #8526D9",
"hX c #9336DE",
"jX c #9336DF",
"kX c #AA54E6",
"lX c #A249E4",
"zX c #AB56E7",
"xX c #AC57E7",
"cX c #6B11CD",
"vX c #983DE0",
"bX c #8D30DC",
"nX c #37009B",
"mX c #8021D7",
"MX c #8E31DD",
"NX c #9E44E3",
"BX c #AE5AE8",
"VX c #A147E3",
"CX c #8E30DC",
"ZX c #892ADB",
"AX c #A44CE5",
"SX c #9B3FE1",
"DX c #9E43E2",
"FX c #A44BE4",
"GX c #A24AE4",
"HX c #A64EE5",
"JX c #AA55E7",
"KX c #AD59E7",
"LX c white",
/* pixels */
"  . X o O + @ # @ $ % & * = - ; : > , < 1 2 3 4 5 6 7 8 2 9 0 q w e < r t y q u i p 7   a s d f g h 6 6 j k l h z x c v b 6 n m b M N B V C M ; % Z c A y M o < * p S 5 D : q > F G H : D r 5 J ; Z 0 5 K v L c F X P I V i c U Y f T r & V R + : L E : F H % W Q ! ~ ^ / k Q k w Y ( y b > y ) _ p ` ' : b ] & w . [ + { 7 a U , 6 } 3 : g z w   | E ; *  .V N s ..X.E / g P 8 v b E o.t j / O.+.# @.#.w $.%.8 & D f O X F K &.` s ! h D *.7 A K & ( =.( k   $ -.6 ;.] 2 :.%.A a & >.,.( D <.! 1.#.E e 2.3  .A g w q 3.i D 4.#.S 5.X % c Q y : | D 6.7.@ D   8.9.8.$.z P , $.w $.  E 0.B C V e q.E F c Q w.V D  .D e.r., %.t.t y.z + % r n 2.a c : R S ;.b F c X.c w F Z ! V % E w #.X.d 7 . g w.u.D b s Z b > Q y h i.p.; Q g u z v 2 n 6 b Q a.$.t S s.8.' k ( F : d.f.n b [ Z P g.i.U r ,.w e F <.j h., { a.p X P j.< @ @.& k.|   %.l.< + < f E 7 B m m z.D $.* : 7 W a.x.@ c.R z 8.o v.) & y % k c X.i Y < v.r > :.5 h.N & a F b > W ( x.5.x M c u.r U -.a w 2 | E ..P X b.6 $ n.%.Q J 9.{ K *.d.i p % [ $ n m.g.| k.M.N.F A g.c Q ( . G B.>.V.F t.P z.C.t ",
"r > #.O.6 g.h g.* f P g.f c.Z.p.R L o d Z * i *.c s.Q . P q A.c...< i f.m u.>.H c s.@ $.e ( S.s.D.M =.w.8.g.< Y H D.^ 2.j Q F.D.x &.M m [ 1 ..g.> x s %.2.8.q.= Z.G.Z m 7 e.b.t Y j.H.c V o.J.K.l.r.Z #.Y Q N e > L.n 2./ c M.P.p.I.m.Y $.1 U.] c V.d $.v . Z.Y.X.T.R.u.2.( &.; > v.i.j v g.D.@.d C.Z F b o O.c Y l.K.2 <.n.p < l.E.Z V | # n c c =.U ;   a f ! f.W.c.C t.5 m.c Q.!.i.] / $.~.~.c.^.[ t.: p s.c e Q /.c v y 8.( a.S 4 & a R.^ H Y > n e a j c ] < n L / D ! [ . P z ,.P 2.. $.Y 3 # 5 v V a.P e [ *.3 ] c $.j Y ~.m [ w b a.d.h X n.E X g.%.g b 7 O c / F ^ d.7 Q b x.L R u.t.F z ; 7 D d.8.{ c i w % R [ L   V b d.Y V c P (.t P k 2.o f )./ V F g $.+ X t w c ~.  V u j.~.& g g V u.t ] Y A c Q I D ! _.R : F F t.F > @ c v g.~.`.& 5 -.a.: V a K %.>.o . v t c / D a.C., a t.a 8 % a.< g.K *.X : : 4 '.< a g w / g.a.! F   u.8.V K [ M.Z % %.a A % _ U.$.  g.h F : 5 ].R.[.c n.{.c W @.2 C x.}.* C R N p.[ e j k > Z.Z. .t.% x.7 & G A...@ h n.g h S 3.$.2.d.P z F E z.U s Q k.F > W.s.a 2 h * R 2.e &.j.9 [ L n.t |.w.F %.] u., % ;  XZ K.Z ",
"5 5 .X9 | & t y (.e.XXC R O.< U x #.|.= 2.: }.V w e 2.V a.P.Z 0.s.< } oXn.D e V K E d.D L $ $ S J M Z.v.b a X D / c c (.X < 6 -.` 6 d s.j g g./ I P ; u.h q >.OXW.,.c.,.F > .   / x.8.2.> z =.1.+Xp Z 3 * u.h A v 7 i :.t %.G @XE...@ ~.; #X8./ 8 7 < E u.* 8.W.|.,.Q }.c E Y K A u.j.[ > k e ].S o t P e B h I V ; h.< u.D Q.U W.4 > $.h s.; D a $.j.&.2.  7 $XK.^ + F 3 m.> a * H D.s.7 <.h 5.p.M F  .m z.; 2 d.P %X&X$.I 7 E 4 ~./ t.f ) k.7 c % U Y.*X/ c c o 8.w g m =X8.:.X Y -XP.* <.u.> Y Y / V s.;XP e 5 > W :XP / n.% * ; I : l.7.X i 6 X v.V.x.: H w g u.K w >Xh.X m R.8.Z L.7 V c y b Y D V ,.j.e $ f.8.q Z.; 2.u.: D P C F s.# Y j.O.k.5 ..).> % 8 D c w F B @ X /.oXR >.c.6.1 ;     g.g * ! ' X b.O.Q ; o @ 5 >   8 u.> % #.h Y U.X.h c E a.w.l 8 K Y > 8.[ P L d M.[ u.k.O Z ] / I }.5 ,XQ c ; p.O.8.2.Y # J h D / % #.@ Q 2.P p f.[ t.7 # 7.5 k | > 4 m h D P p c.B (.% U.q.(  .V Y U _ . XX8., q o t.V # E.M >  .> 0.< t I > E 5 R t.g n <Xa.Q c P -Xn u.K e i P 5 XXD 6 S.m Q Q.i 0.9 2.<.. e k.i & v # 1XR.p r >.|._.2 4.h n.j h y K ! 2Xm 3X",
"_ ^.p.+   8.G.e ( = q K k ! h.# f |.J d.I h z.Q k./.( I D s K.m Z |.X.g : 7 ,.; h 4X3 D V O Z #.# i.n (.I 7 f % c < a.k k m m B 5Xs.,.+ & h 6.u.u.R Q & `.M O @ #.4 a.% D Q.8.2 H i B F j 8.P o r 3 p %.(.] ; F 2.> ).u.b h d.[ G h Q d.g k.g F b  .#.c 7 g.* #.h 7 L H %.; y 2 j y 8.P P . y 8.Q j c h c x.& j y : X h h c V t 7 y g.Q e i / D V   h E l * D Y e : > ; Q e : D 2.v c B m % 8 P :.  + ~.m h /  .| <.> c.a.j K c Y k g 1 =.( I  .F   z &.! $.A n.$.A t.Z X.h XXd.7 8 g.Z.s g K 2 . 8 V c.%XR D { H & 7 6XO.* I $.u.k w m =XR w t n.I d.=XO.d.V F % I w p +.X (.c ] a % J.7Xj V 2 n.& a Y.} X b 8.e b ] J i.Y %.F ; b a &.F.[ F e.#.*XP N 8XP *X2 . F %.,.7.E ; 3 #.e h ) |.] ] g.> c  .5.K.E i , f e Q d J #XQ Y h e 7 ;.W E f a.< ~.x.p.6 8.a.P E q e ,.U X O q m R.h ,.f  X&.e.G a.).! , e c...' z.8.R u a.Z.X e c.f [ G ; $ # =.= h o.G @ |.L 4 = , Q e.h Z.n s q.( ] G f.W.B i ) 4 k.e ; W.! f W.8.% P &.1.i M &X$ ; $.; N m ! ^.#.{ % d ~ R R q.U.z n.8.J.m < r.f w j D.1.f < =XJ %.k e.|.f q -.R y j m.W.6 p 9Xi.% (.P i.0X3 |.^ v a p |. X",
"p @. .  }.qXH.Q Q f.-XM t.: >.l ( #  .v > ^.%XE ~.;.C.>.D D ~.t l < (.4.P '.n #.( 5X=X5X/ (.[ *.Y ).b A l W.! # ..a.M.R K g Q b * L %.I ; = 5.s.U.Z wXf D { i  .V L j A z v.E s.s.O S < t.y h V XXX 7 & :.5.~.&.J r R.^ w a Y C k ] c V e #.8.l.p.h c.4 a g.g.& I c 7 g Q 8.8.s j.e #.q $.u.u.K A n.e 2.z Y . m.l.8.i [ u.Q % I v  .i e Q g.u.U /.k.z #.( ~.(./ v a o h e.n.* a.Z 7 d.8.5XM 2.K I D r R P t.g ! , g.y t f 3 y t.: a eXs.[ t.F G u % & ] < x b : b a $ v.R I b Q 5 j w P i.z.g (.2 C , d e K g ] O F I k.h.0.%.$.2 y &.|.Q XXy e.( %.A X U &.%.%.c g ! F.G   g * e.j <.. ) W g.Q Q > n -.E / V g t %.I ] 2X@.d.e., H j.rX[ & + V b $.A h W.J l , ^ *.%XtXR D c g (.$.w g..Xv.h x 4XQ < C.X + % k g d.C 7 S Y.R &.|.5 p U 8.u.] w w c g u.+.x 5.N -.a.a.s R *.z XXw 8.%.c ..B m yX0.m f _ E k.#.& b Q g.] , [ m X.uX! [ ! #.u B D V Q.i i m ( Z ) S Y.~.O >.B M b a m o ( k.8.! ` iX&.P k.5 j.$ b 2 a.pX8.] g.p ].wXW k.H X d m % F =.aXX n.%.< U %X9 g.+ E j.j.$.F 6 K.X 2 * Y.n l.= * + ] ) Z.}.. w.Z.q { a m < ;.Y.2 y ( ) 9 P ; 3X;X X: F x @ ",
"t y 8 > S.j.2.Q 2.g H.sXa./ w c t { / 7 tX0.P Q t | ! dX3 XXb 2.* $.& e |.>X8.E 3  ., fX, K V 2 . > V > /.J ~.M a.g...9.a.t.2.2 F c D 8.O.c.).;.< L j.S.a.k x.F g Q 2 > D.....8Xx R f :XE V t t.{ i u.Y c.R.6 W.+.^ # h.R g.#XF a 5 h ; O 5 9 &X;Xm.>.U ~.* h g y m ( o.#.B f.1.=Xn >.U.o 8.5 y g 5.^ 1 Q ; X.S ~ c.4 @ 3 R m 2.V @ v.h > g.@.=X9.0 G 5 R O ! b g , R.E F % %XJ ` S 8.8.z M Z $.. Z gX0Xj u.K.O.` tX] > i s 6 *.7 &.i.8.w F s.Z N J.h 2.H &.p.P Y s.J.[ D a d eXJ W c D k..Xj.7 t Z ].4 / | v.< f.%XH K > hXj.i h p r.u / D m 8.>.z. .I ; qX6 h o Z ~ 3 I t.@ ; G j.7 / P q.B.~.4 c.7.a.v V i z k.6 %.  g.h.# m f M d Q v a P * . f | K z K.a.c.m.X j.o w V n.+ u.[ * v ; n , M ! ~.! L w j > t.a #Xb   ; < G ^ B.P o >.. + 2.K V g.u.w ; , e.' x d.[ ~.c H * / C * z b ,Xi % B.f.x.] l ; z y : k n.k. .e E j s.< { z B e #.a   : *Xg.c Q > $.s.6 b u.8.# ~.g D   { k.h P g.y ! f g g Q x c.w D & : O 4 8.$.w 5  X$.t.#.l.s.+ & k (.O o q V t.i @ b D [ i.l.t.D D g 3 n 4 t.a 8.5 V k ] '.l.a + a D #.U.@ / V X Q + 8 x.qXO.F c b D f gXE : k g.",
"Q 2.c i.U X j g F D / 3 tX#.2.Q E H ] N 0.e.t u.2 + k < hXl d.E r P 7 s.l.8.[ b j %.g 6 S.6.. O q @ h p j.1 p > d.% a p =X1 ] #.a.o Q f ,.< ..> * :.u.,.|.5 e ! a.U.X E O Z s.> t [ 7 o b.[.m f ,.= h ; @ s i.> > q 8.5 s.1 Z H.w.i.~.z ; s.X.i P H.l 5.3 h 6 eXM :XP n.e B.T O 1 j.G B ~.Y ! p # Z.L a ; U 1.l >.U a.X P Y p. X< ` ] g $.&.-XR 4 ) %X[ % P h.M i h.B v a s qXf 4 -.G.k.| c U p Q S 4 D y eX~ M @ ~ O.X D ; v.i e aXe.D & ,.yX6 M yXW.u.v H d #.k.d R A : # h.&.s..Xh.g.A c W Y g.c.).& : o f., s jXi.> 8 P p *.2.# @ & g , ! f.c./.uXx.8 o.! d.7 #X[ t.b B [ m f D.W F 8 g.@ g.* e.8.a b Y Q R.p d j.b 8 %.k.F  .> Q.{ a Q c 6 m R.f.$.: h > g g  .#X$.7 c j u !.>.6 j V e d.D | b e.g.c 7 g ~.G Q @ * t.7 n.y F a [ #.; %.a >.R P Q. .| h F t.y K k.B k.j I X E d.t 7 > Q V t.g : 1 6 [ 2 v l [ * ; d.t i w : j 4.> Z 5X+ / 7 Y a j t e k.: k 2 : Y f.=.* : n.Q.(.| E R X K V F   8.X.j.g 8 % *.I t.i x >.D V u.K ] 0.f.+ v n.%.& V 8.m.[ K g ] I X 1.O.2 : b n.D & @ oX8.: > Q t.c jXX.2 (.j %.K / o X.i `.t [.a ; .X9.P V n.g.D k a.|.Q w 7 ",
"Z.o.h 5.[ G 7 K g t V k @ s x.D.p.e g.@ @ 6 1   `.z w + @ Z P j.U E g R o W P 4.4.2.n.2.~.[ 7 m.d ~.F Q n S e I {.n.g.%.m k.g.B.d R XX% , K.i D / + k.z [ u.2.z.eX8.V %.=.T 4 (.4.2.P G G + $.f.r 8.v g b.T M *   F 8.@ 1 y c ! [ [ A t.j.S.B c : j a.a.[ / $., P e `.V 6 T.s.Q V  .f m z / * R 8.X / K Z kXU.E F n.j.D.e I 2 t u.L : t.! lXZ R n.; X.h.P A  .X a G `.& B =XH.$ *.h N d 2.  t g.t.Q t./ B i.&.i.; Q U X.j v > b w ] * t.e Z ,.0.R 8.~ r.n.A * V : l + | h < 5.N.p 4 gXr.$.v z D / h c * > ~...` W u Z.X.b k t : I X o.2.; c ' 1XZ.Z 0.U b w x.v / ] Q > u.%.[ zX9.s.0.! { + e   8 7 #.; * n.L ` 1., p Z *  .i v 4.% p Q 2 k 6.:X~ s < q %.c h : K ; aX( F K :.X.xXU.[ 8.x.R o./ D * U ^ | v P i.1.p.( > 7 M P D V t X._ u.I % U.~ d E }.k.s.[ k 2 %.Z.Z.j A 2 m |.! * F z s e | j ; gXW g./ d.E O.< . * i B.E n.> $.0 J $.A *.h i.n V t.L K.8.7 e.Y |.) 7 k F P < 5.`.(.5 &X8.h M > &.yXh / %.n.5 3 a D [ |.Y P < z x yXh b 2.j 8.G k w [ 0.Q O m.; B K.e n.g.w c k.v   f S P , &.e @ f.5 n.c / d.z V & 5 f.x.,.d ] ] s.Q Y t K g c / & =.&.,Xa.",
"h.; h o Z =.5 6 M b D 2.>X/.$.R z.; t ( ' = i ..( a   7 s W 2., P.P b > R.9.R /.[ 2.  g.m.cXu.Z U.i C 7 x vXr p.Y C / 2 = n o.< $ 1 D g.f.N.@ &.P g I d.@.R Y @.R.e / 2 c.1.n ! n.g & ] f.[ e V.m e K a R.9X5.f.a b a e @.~.c R.5 ).v V x +X< w.F F g > f X X v.o 3 & `.Z K.s.m : * n.#.a.* e.c.L u I t.a.%Xs q V *.g.Q 4 %.; B 7 ( K V >.d &.e.D c ; o 8.a Y 5 7 O D D E w.f 1 / ] E u > a E 3 b Q y & ]  Xm h V X ! m 2.v Y > { [ d.(.X Q q Y k i 6 B d.v z %.: Q *.V e z 5 2.a #.U.R.b w e d.D Y 7 y t 7 e * a , /.p w & > {   ,X; d.2 * e F  .6 ~ #.D & Q F K c [ t b w i | e m.wX' / & ] K 4.n.' > F V u.+ h f.bXp I V e.& nXt , [ V / Y (.5 s.tX5 & b k.A I % ! G t.K > b M J K.[ : b e 8 v %.U.! y v j V 4XD.7Xi / %.h 4.v * &.< j   g.2 f.6 U X y g.; I g g 0.s.g & * n.j.$ U ; D 7 g.  2 F X.3.g.K b z X.,.m ,Xy e.P k g 2 i.&.g.& % e W @ >.u.c 4 . v P d.Z.|.c V u.X i.3 #.. ] , c y Y b f.= P * F E .X8.g.g.P n 2 C E 2 5Xj.e g.7 #.h.8. .j E p.. $.5.j R v.E c ; O 0.:.| u.E $ 7 t 5.$.~.&.5 1 P a.6 z t.b =.U.z k.p P E ..a.6 8.B.6 x.& 2 s.j.2 e ",
"e V u.b.|.f mXZ.3 l P b L ; {.a Y | j R.i.a.MXS [ c . h E Y : F E z j =.p f.-.j.q g + k.f c I > ] X g.@ @ j.NXw.e a  .>.! *.K t Q e Y e 3 d zX, c & b a.n c / > X < P Q X # 1.=.P K 2 B i.z D i 8., x.d.h p.9X).%.8 n.j.W.c D E i Z Q $.7 &.iXe d.<.F /.) g.b i ( j.Y V *Xf h.7 j   * ) W *.g.a.h bX; (.a n Y. .. 4.$.W.) c . @ ; |.e D XX# < * j XXg.) &.c ~.~.P J 4 XX| , G g n.y g.O.&.Y a.p e 0.[ k K L [ V j t.h j.x c 5.o Y M.a.& K 8.*./ . b k.h.^ P x # 1 z.< : t.P j : c n.[ j.E c p.5 Q.n , / D 8.V V 7 e R Z L e s.q g.f 4 k w ; : : 7 [ a.5 > ] 4X8.% 3 , | g t & g ; s.a.O u.X Z.Q ; L B $.y c & y t s.s.Q %.t p.e c k.i Y $.2./ * #./.6 ; j e U.; g.$.8.c % g nX. l K., ; t.; c.u.> F 8.( ,Xn.  % B q., b / Q x 2.% y #.B u d.XX1 5.9XR.j K Q.5 * g.D i m # g.D X < BXZ g I [ O %.d.& h n eXg.| < 5.C., (.v #.6.+ x.: P x 3.7 2.! ! VXf / k 8.h t.Y : H Z.&.% + n s.|.q / XX; > a Y <.t j.|.8.c W f.qX, v V #.2.y u.nXj J = P R O.5.mX5XXXw E b F c v u.N N Q # ) j.d 5 g * 1 t.k c / 2.K./.l # ~ @ u i C $.t D t.; k $.L.9.M U.|.r X c j H l / | ",
"m g.  n.` tXx hXm [ C I l , $.Z @ %./ F CXZ.a.- M u & C Q B * a.e % & F h.6 6 7.E P y  .O ;  .=.8.g.v $.f.,.!.h.7 c V % e P a G }.u.K c f m p p.2 h $.u.e j 2 E F t D c [ R q c.$.c t z 1 V w e.2.Q %.n.#.; f R D 2 ] 8.8.& a Y y ; n.o.P n.G l & % }.m t / V u.D e Y % x.d.#.o.& | 5 Z ( & 2 > v O X ; . a P u.I g >.x L / * b : G # ; %.t.h % K a ! f.Q./ b b I E m Q g I > V 8 2.s.Z.8./ + V I ^ m.X & w Y D k n.D.7Xk.D 2.F D 8.|.4 k   7 I k + Z.X.Y D ; V V [ 9., t.K z   y > J.N P D P k g X L.c.D K g.& 2.> r.vX; b ; y a R ~ B k : 7 v . 7 |.MX> $.R g n.B dX, y (.> v h P b.ZXu.z ' 2 c 3 ) c.a F > V 5 ).Z.p.Y e pX* z 8.M.p F > % XXp E Z U.; ).eXd.e ; 9 f 7 g.P { n M ..< e < r > q R W < z l h 2 J f B ^ c < a.% R.[ x o Y [ L x.O., i k.e.mXcX}., i $XO 3 a.e k.A.f.k.g.E z.Z i j.h ).B u s.G 1 - j.Y *Xk.` M i z.7 8.u M X.Q.m MX&.> $.~.y. XL |.7 *.O _ N @ # ` P. .k e 6Xp ~.N k.$.i j.6Xa.) T U.* y e.vXl f Z.k.b l .X.X5 ZXA.$ | & 3 d >. XZ.*.V t |.;X..W.S s.& / Q = Q 5 >X% & g.) A.f ~ z.5.D & 4 eXe Z 3Xu./ > h.~ 6 ^.eX5 k & #X, h M ",
"Z r.u.& j p.f E 5 t.k l tX X[ U p.) > K F $ R Y 3 V v ~.T ,.f Z.Z %Xc nXg.# z ; [ F / i |.! @ ) o &.z 8 g.5XH e E g I ).X.a.# 0.q &.z 4.g G $.. ] V t.u O.O , N Q Z ] k %.e C 2.u. .b [ p.P ! X.8.! g.w %.] V . g.d.j L f > Z d h G ] + > g.: g.| u.P #X).g.c.f g.e c $.*.b    .t.; H E h d.s a.% . 8.g.c g & * t.X Q ~.*.% p.5 b 2 i Q.z y : * `.M R q n.n.6 P t.| i 5 G k I F C O B.5 a $.< u.a b i u M t.v . D m n 1 : | O  .g t.[ s.5 XXD d.y ..&.( w w q b : XX@ j.f & D u.| /.P.E I y E w y / 3 ) s.a * ] * ) ~ k.K { P w a {.^ r.a.b :.Y 2.J N k.v | Y & j A G ]...F e.E > /.AXX   + t A * D #XSXm.% Q 3 ~..XM.c : j j A b w ~.=X6 . ).l 4 j.6Xc C H b v u.g #Xr.Z > ..@ !.6 J ; g Y y XXg.j , ~ m.,XeX#.a.x Y.e.V l  .D e % E W., r /.o ..6 Y.P  .e b K Q n.>.O.5.< X.3 ..m =.Q e i g F 5 [.e. XO < 0 < B.E @ h k.>.C y >.E R c.O n S., W ; t Q #.3 F u.U.f Q 3 e J DX6 ZX8.g.Q 6 c.$.X s.eXX z G h.W.5 U . %.Q d < a k.! U.k.. X 9 ^.m &. .g l &Xd F 3 W 7.; $.> ) S R l.F t.[ h.D.7 n s.I.H g g.W G.@ v.F V ] N f.P ..s X.P v u.7.w.Q Z F A E F.6 x.J ",
"F i.-.. v b :.XXF : E N s * x.Q t 9 tXP A y t v y & [ I.f.g P ; > Z.1.k.K 2.* A | A #.q.oXc X 8.e |..Xo./ b F / g k ( VXZ n.m 8.R i.&XY & 2 % <. .V G 1.Z Q $ 5 1 w.h.x./ * j XXd.b q 0 6 h W q #.n W 8. .z t.  8.| Q J n ^ d < q >.n h + ; y / e n.R f.#.< 7.f ..#.M c c i y D O i 1 # @ 3 -X4 Z e , E P l y a 5 e E u i &.^.5 m t Q e i m a x.< 3 i E ] U.N p U c > #.p 5.j 8.! n 6.Q e j.6XR f.j Y X d ' F l $ ..R Y t Y.h.1 w.b F Q Z.n b , 6 &.Q F  .f.d 8.p.a g Q yX..> p H.S e g $.l.U e n b g 5 lX=.c m.&.0.e V * ..m #., k / [ '.f.~.%Xn N Q w n.H.Z ; < `.v #.T s i h....Xt A  .n #XQ f k   R 1.! ( K.s C.c / $.>.E Y 1 g K @ ` M 3 r.Z ) e.K 2 #.t P e w D 5 N @ H.|.R.&.;   * R % u.c F / f I.p Z T r ..7 / g.e w :.Y * y [ i.q J -.r s.X `.n.8.w * %.H $.4 $ E >XW P 6.h a $.*.w > 2.o.% i =.Y ..V.] L Y * o. .XXu.F Y }.e R > f.p % 1 Q 2.k.+ 8 7 2 8.Q u P Y 6 ( g.g.t 7 h (.<.2 V i @ ~.* % &.R g.j e.Q M g 8 n.V p u L + u.m 8.F g ; r ~.b K t F 6 6 P & d.w.j a V Q p q g & d.b ! U.z D g O n.a w P s =.y D % + ..p.] / 2 u g t.& e U , 2  .e ",
"& b :X` ; D c D : P iXn V : $.K y 2 .X} *.: Q b y [ W.v.{ k u.v a 7 W 7.P b k.V V R ~ 6 t.V $.  7 7 J ) 7 %.~.y %.8.E.p.C b H : e ] N &.g.u.u a g.e.N R.b * g.w [ [ W X.; R [  .Y O Z.=.u.*.g.V a.q s.n L ( < j ( [ j.6 7 t c g &.#.! c.e.p 6 % ! 8.R.@ Q o e j z.f < ~.R 6 ..P &.1 m o Q a.~.x.i.m G 1 [ l.3Xi s.] R q q p E }.W.c.i ] E N &.L &.8.h ).r O.5 X fX..u.%.3 M.m >.J Q P R $XW ).6.S.! u.n.[ jX< , Z.[ 2.h @.T a.s.M.f.d.g E uX@ 5.i.; j u.R.VX' f.|.U | g l N 5 $ fXo.V . f.FX^ $ =XU.{ `.5X-.f ! K.8.V % f.E.@ K.) p g D o 8Xi s.0.i : j %XI.a.Z.f.R.k   R p.Y U.n c I u.0.J o ~ # ;.(.w R j.8.x v.k.<.j U |.3 - >.< w V 4 4 P $ M *.8 a W %X5 hX^ [ k & 4 O . # 1 c 8 g d j.3 ) P R D + 4 ] g.m 1 X K % p 5 a.h.t x.V d.i z b 5 g.z & * R.R l 6 d.e %.2.#.g a Q  .h t.g.O Q h M j > > H [ b 2.P t.o.F Y 5 %.e.o & 7 i Q E & b g.: H t t h g o.h I n.).#.e.  (.c / P ] P z w Q t v g 4 o g.& 2 %./ o.G P . V u.P A g B.s.; 8 (.u.& 1 5.E b : H 2.  y x U z K 2.g / ; f.E a 4.; w / d.x j.> A c + A ).d O { / Y g k 2.N 0 P & g.D D Q K.m g I 7 / ",
"* t.u.yXl.g.m a.P i.R.y / 8.x.: n.j x.Y.Z ; $ o e z.l.k : h + D %.F L j.' 8.6 6 P &.5.| w [.g t.2.%.8.H.M e.O.=.e D...g t.d.: C d.i ).a.5 8.X.=.l ! < + a Y : t.g.[ q =.i [ 0.E i #.>.2.n.$.K C L c.< B 2.e.O.5 L L ).n.j % / g ] w.' h u.e.N ] c X 5 e.c o.4.g R ) 5X; y [ |.; c 7 i i R g.I c R -Xp 7 b 8.%X; Q a k.o G 7 v g.u 9.n  .k 8.! Y g.g ; < ,.:.k [ R J.n + v E < H h : u.f ,.e  .B c.GX&.V K i [ F g.& $.x O.8.* p ! AXa.: K 8.Q (.g.  H J i.8.c 4Xm - < D I ( z g z   % l.I.h k.B.a.9.@ I D 5 n.w ] K * j.:X#.[ &.< = a.v C k.a D 7 A  .W S 6.^ J.n Z.o V + ~.V { g.A *XN OXB 6 /.B.z.X y d.:.K C H :  .D.qX' Y.0.q , 6.g %.H v b Y g % 6 S Z M.Z.o Q e.* x.h I b c g j =.Z.H.W.i.[ 8.X > k.> <.n.. *.$.n $ ! =XW.L 7 . L , o.K j h z 2.M a.! MX6 X y o.G # ;   % ; G H 8.m c.} s.] b 2.E # P   x.7 ' 8.[ e c.HX..8.(. .@ U.n.K c L o E g.7 Z - 5 X & c j./.}.b e P Y.L n.d.~.aXi :.v 2 B.) ; V ~.8.Z.~.u.y R d 8.> A + &X+.c * ).8.b.( j a L j.$.n.nX+ Z.M.P ] [ ; ` R (.y O c.a u.: 7 0.K.g.L 3 #X) q D & E B g 2 K . -.O.g.l p t O.$ g / ] }.V ",
"t.; ] r ( n.i R Y i b t.Y [ e.; K z [ E Q D 5 >.c ( n.D X l 7 c w i , o *.V G 8.V #.% w H X d.g.K #Xv.R g.: L h k ; d.(.g.u.7  .K [ n 4 g k G c w e k.$.7 $.$.2 & G N @ k K e.$.  o.e c % w b %.w B O.@ D k ( b & t i i F k F j w f T f v k Q / : 2.! ~.$./ F 2.F &.r.# D V Q & : j Z #.j 4.k V c &.F.a./ t.; K / + f.a.> I t.2.> n rXm : b k./ / j j.b.2 <.a %.E $ A.3 y u.P A & V X.9 x.k | . , H.:Xq y c H <.y V ) z.t w F $.Z &.X.i V 7 % : F + z.N P V z * ,.Z 9 l % ( t K g. .h.jXc t.x.X 7.< < z n.l > D k.j h.) ; F i Y h.f E X c 3 > F e d.p ) e e.f #.'.R X P Y B.%.b G * 6 S u ; Z >.C.f c *.G 6 2 * [ 7 $Xd u , f Z W.h b t B Z.g.t $ k.@ n < H.< 6 +.e.+ c x f.. h ..Q k.! #.h.! &.O.> g F m.s.n.( = [ c , u S s.&.U ; / j x &.x.G Z.X % i < ~ j.n d  .8 7 3.= ] 6 p.G b P B S p.w.v.*./ 7 d 6 u.f.9 4 %.c s.JX0.6 m n.8 g.b.s.z v.i.p g F , KXz.h.G F K Y Z.3 k.6 s.Z y F 4 rXl.B.e %.k d.%Xm c W p.r y t.O M.Y.m ; j t.X Z E X V.c.@ C : M O.f.U.u.g V X H.8.8.Z < 4 : v a.M.a.c.g %.b Y p . i &.>.Z / I X Y.i R + $.{ X i 2.e M ~.R & : 5 n Q L "
};
